P3
400 225
255
80 88 114
80 88 114
80 88 114
80 88 114
80 88 114
80 88 114
80 88 114
80 88 114
80 88 114
80 88 114
80 88 114
80 88 114
80 88 114
80 88 114
80 88 114
80 88 114
80 88 114
80 88 114
80 88 114
80 88 114
80 88 114
80 88 114
80 88 114
80 88 114
80 88 114
80 88 114
80 88 114
80 88 114
80 88 114
80 88 114
80 88 114
80 88 114
80 88 114
80 88 114
80 88 114
80 88 114
80 88 114
80 88 114
80 88 114
80 88 114
80 88 114
80 88 114
80 88 114
80 88 114
80 88 114
80 88 114
80 88 114
80 88 114
80 88 114
80 88 114
80 88 114
80 88 114
80 88 114
80 88 114
80 88 114
80 88 114
80 88 114
80 88 114
80 88 114
80 88 114
80 88 114
80 88 114
80 88 114
80 88 114
80 88 114
80 88 114
80 88 114
80 88 114
80 88 114
80 88 114
80 88 114
80 88 114
80 88 114
80 88 114
80 88 114
80 88 114
80 88 114
80 88 114
80 88 114
80 88 114
80 88 114
80 88 114
80 88 114
80 88 114
80 88 114
80 88 114
80 88 114
80 88 114
80 88 114
80 88 114
80 88 114
80 88 114
80 88 114
80 88 114
80 88 114
80 88 114
80 88 114
80 88 114
80 88 114
80 88 114
80 88 114
80 88 114
80 88 114
80 88 114
80 88 114
80 88 114
80 88 114
80 88 114
80 88 114
80 88 114
80 88 114
80 88 114
80 88 114
80 88 114
80 88 114
80 88 114
80 88 114
80 88 114
80 88 114
80 88 114
80 88 114
80 88 114
80 88 114
80 88 114
80 88 114
80 88 114
80 88 114
80 88 114
80 88 114
80 88 114
80 88 114
80 88 114
80 88 114
80 88 114
80 88 114
80 88 114
80 88 114
80 88 114
80 88 114
80 88 114
80 88 114
80 88 114
80 88 114
80 88 114
80 88 114
80 88 114
80 88 114
80 88 114
80 88 114
80 88 114
80 88 114
80 88 114
80 88 114
80 88 114
80 88 114
80 88 114
80 88 114
80 88 114
80 88 114
80 88 114
80 88 114
80 88 114
80 88 114
80 88 114
80 88 114
80 88 114
80 88 114
80 88 114
80 88 114
80 88 114
80 88 114
80 88 114
80 88 114
80 88 114
80 88 114
80 88 114
80 88 114
80 88 114
80 88 114
80 88 114
80 88 114
80 88 114
80 88 114
80 88 114
80 88 114
80 88 114
80 88 114
80 88 114
80 88 114
80 88 114
80 88 114
80 88 114
80 88 114
80 88 114
80 88 114
80 88 114
80 88 114
80 88 114
80 88 114
80 88 114
80 88 114
80 88 114
80 88 114
80 88 114
80 88 114
80 88 114
80 88 114
80 88 114
80 88 114
80 88 114
80 88 114
80 88 114
80 88 114
80 88 114
80 88 114
80 88 114
80 88 114
80 88 114
80 88 114
80 88 114
80 88 114
80 88 114
80 88 114
80 88 114
80 88 114
80 88 114
80 88 114
80 88 114
80 88 114
80 88 114
80 88 114
80 88 114
80 88 114
80 88 114
80 88 114
80 88 114
80 88 114
80 88 114
80 88 114
80 88 114
80 88 114
80 88 114
80 88 114
80 88 114
80 88 114
80 88 114
80 88 114
80 88 114
80 88 114
80 88 114
80 88 114
80 88 114
80 88 114
80 88 114
80 88 114
80 88 114
80 88 114
80 88 114
80 88 114
80 88 114
80 88 114
80 88 114
80 88 114
80 88 114
80 88 114
80 88 114
80 88 114
80 88 114
80 88 114
80 88 114
80 88 114
80 88 114
80 88 114
80 88 114
80 88 114
80 88 114
80 88 114
80 88 114
80 88 114
80 88 114
80 88 114
80 88 114
80 88 114
80 88 114
80 88 114
80 88 114
80 88 114
80 88 114
80 88 114
80 88 114
80 88 114
80 88 114
80 88 114
80 88 114
80 88 114
80 88 114
80 88 114
80 88 114
80 88 114
80 88 114
80 88 114
80 88 114
80 88 114
80 88 114
80 88 114
80 88 114
80 88 114
80 88 114
80 88 114
80 88 114
80 88 114
80 88 114
80 88 114
80 88 114
80 88 114
80 88 114
80 88 114
80 88 114
80 88 114
80 88 114
80 88 114
80 88 114
80 88 114
80 88 114
80 88 114
80 88 114
80 88 114
80 88 114
80 88 114
80 88 114
80 88 114
80 88 114
80 88 114
80 88 114
80 88 114
80 88 114
80 88 114
80 88 114
80 88 114
80 88 114
80 88 114
80 88 114
80 88 114
80 88 114
80 88 114
80 88 114
80 88 114
80 88 114
80 88 114
80 88 114
80 88 114
80 88 114
80 88 114
80 88 114
80 88 114
80 88 114
80 88 114
80 88 114
80 88 114
80 88 114
80 88 114
80 88 114
80 88 114
80 88 114
80 88 114
80 88 114
80 88 114
80 88 114
80 88 114
80 88 114
80 88 114
80 88 114
80 88 114
80 88 114
80 88 114
80 88 114
80 88 114
80 88 114
80 88 114
80 88 114
80 88 114
80 88 114
80 88 114
80 88 114
80 88 114
80 88 114
80 88 114
80 88 114
80 88 114
80 88 114
80 88 114
80 88 114
80 88 114
80 88 114
80 88 114
80 88 114
80 88 114
80 88 114
80 88 114
80 88 114
80 88 114
80 88 114
80 88 114
80 88 114
80 88 114
80 88 114
80 88 114
80 88 114
80 88 114
80 88 114
80 88 114
80 88 114
80 88 114
80 88 114
80 88 114
80 88 114
80 88 114
80 88 114
80 88 114
80 88 114
80 88 114
80 88 114
80 88 114
80 88 114
80 88 114
80 88 114
80 88 114
80 88 114
80 88 114
80 88 114
80 88 114
80 88 114
80 88 114
80 88 114
80 88 114
80 88 114
80 88 114
80 88 114
80 88 114
80 88 114
80 88 114
80 88 114
80 88 114
80 88 114
80 88 114
80 88 114
80 88 114
80 88 114
80 88 114
80 88 114
80 88 114
80 88 114
80 88 114
80 88 114
80 88 114
80 88 114
80 88 114
80 88 114
80 88 114
80 88 114
80 88 114
80 88 114
80 88 114
80 88 114
80 88 114
80 88 114
80 88 114
80 88 114
80 88 114
80 88 114
80 88 114
80 88 114
80 88 114
80 88 114
80 88 114
80 88 114
80 88 114
80 88 114
80 88 114
80 88 114
80 88 114
80 88 114
80 88 114
80 88 114
80 88 114
80 88 114
80 88 114
80 88 114
80 88 114
80 88 114
80 88 114
80 88 114
80 88 114
80 88 114
80 88 114
80 88 114
80 88 114
80 88 114
80 88 114
80 88 114
80 88 114
80 88 114
80 88 114
80 88 114
80 88 114
80 88 114
80 88 114
80 88 114
80 88 114
80 88 114
80 88 114
80 88 114
80 88 114
80 88 114
80 88 114
80 88 114
80 88 114
80 88 114
80 88 114
80 88 114
80 88 114
80 88 114
80 88 114
80 88 114
80 88 114
80 88 114
80 88 114
80 88 114
80 88 114
80 88 114
80 88 114
80 88 114
80 88 114
80 88 114
80 88 114
80 88 114
80 88 114
80 88 114
80 88 114
80 88 114
80 88 114
80 88 114
80 88 114
80 88 114
80 88 114
80 88 114
80 88 114
80 88 114
80 88 114
80 88 114
80 88 114
80 88 114
80 88 114
80 88 114
80 88 114
80 88 114
80 88 114
80 88 114
80 88 114
80 88 114
80 88 114
80 88 114
80 88 114
80 88 114
80 88 114
80 88 114
80 88 114
80 88 114
80 88 114
80 88 114
80 88 114
80 88 114
80 88 114
80 88 114
80 88 114
80 88 114
80 88 114
80 88 114
80 88 114
80 88 114
80 88 114
80 88 114
80 88 114
80 88 114
80 88 114
80 88 114
80 88 114
80 88 114
80 88 114
80 88 114
80 88 114
80 88 114
80 88 114
80 88 114
80 88 114
80 88 114
80 88 114
80 88 114
80 88 114
80 88 114
80 88 114
80 88 114
80 88 114
80 88 114
80 88 114
80 88 114
80 88 114
80 88 114
80 88 114
80 88 114
80 88 114
80 88 114
80 88 114
80 88 114
80 88 114
80 88 114
80 88 114
80 88 114
80 88 114
80 88 114
80 88 114
80 88 114
80 88 114
80 88 114
80 88 114
80 88 114
80 88 114
80 88 114
80 88 114
80 88 114
80 88 114
80 88 114
80 88 114
80 88 114
80 88 114
80 88 114
80 88 114
80 88 114
80 88 114
80 88 114
80 88 114
80 88 114
80 88 114
80 88 114
80 88 114
80 88 114
80 88 114
80 88 114
80 88 114
80 88 114
80 88 114
80 88 114
80 88 114
80 88 114
80 88 114
80 88 114
80 88 114
80 88 114
80 88 114
80 88 114
80 88 114
80 88 114
80 88 114
80 88 114
80 88 114
80 88 114
80 88 114
80 88 114
80 88 114
80 88 114
80 88 114
80 88 114
80 88 114
80 88 114
80 88 114
80 88 114
80 88 114
80 88 114
80 88 114
80 88 114
80 88 114
80 88 114
80 88 114
80 88 114
80 88 114
80 88 114
80 88 114
80 88 114
80 88 114
80 88 114
80 88 114
80 88 114
80 88 114
80 88 114
80 88 114
80 88 114
80 88 114
80 88 114
80 88 114
80 88 114
80 88 114
80 88 114
80 88 114
80 88 114
80 88 114
80 88 114
80 88 114
80 88 114
80 88 114
80 88 114
80 88 114
80 88 114
80 88 114
80 88 114
80 88 114
80 88 114
80 88 114
80 88 114
80 88 114
80 88 114
80 88 114
80 88 114
80 88 114
80 88 114
80 88 114
80 88 114
80 88 114
80 88 114
80 88 114
80 88 114
80 88 114
80 88 114
80 88 114
80 88 114
80 88 114
80 88 114
80 88 114
80 88 114
80 88 114
80 88 114
80 88 114
80 88 114
80 88 114
80 88 114
80 88 114
80 88 114
80 88 114
80 88 114
80 88 114
80 88 114
80 88 114
80 88 114
80 88 114
80 88 114
80 88 114
80 88 114
80 88 114
80 88 114
80 88 114
80 88 114
80 88 114
80 88 114
80 88 114
80 88 114
80 88 114
80 88 114
80 88 114
80 88 114
80 88 114
80 88 114
80 88 114
80 88 114
80 88 114
80 88 114
80 88 114
80 88 114
80 88 114
80 88 114
80 88 114
80 88 114
80 88 114
80 88 114
80 88 114
80 88 114
80 88 114
80 88 114
80 88 114
80 88 114
80 88 114
80 88 114
80 88 114
80 88 114
80 88 114
80 88 114
80 88 114
80 88 114
80 88 114
80 88 114
80 88 114
80 88 114
80 88 114
80 88 114
80 88 114
80 88 114
80 88 114
80 88 114
80 88 114
80 88 114
80 88 114
80 88 114
80 88 114
80 88 114
80 88 114
80 88 114
80 88 114
80 88 114
80 88 114
80 88 114
80 88 114
80 88 114
80 88 114
80 88 114
80 88 114
80 88 114
80 88 114
80 88 114
80 88 114
80 88 114
80 88 114
80 88 114
80 88 114
80 88 114
80 88 114
80 88 114
80 88 114
80 88 114
80 88 114
80 88 114
80 88 114
80 88 114
80 88 114
80 88 114
80 88 114
80 88 114
80 88 114
80 88 114
80 88 114
80 88 114
80 88 114
80 88 114
80 88 114
80 88 114
80 88 114
80 88 114
80 88 114
80 88 114
80 88 114
80 88 114
80 88 114
80 88 114
80 88 114
80 88 114
80 88 114
80 88 114
80 88 114
80 88 114
80 88 114
80 88 114
80 88 114
80 88 114
80 88 114
80 88 114
80 88 114
80 88 114
80 88 114
80 88 114
80 88 114
80 88 114
80 88 114
80 88 114
80 88 114
80 88 114
80 88 114
80 88 114
80 88 114
80 88 114
80 88 114
80 88 114
80 88 114
80 88 114
80 88 114
80 88 114
80 88 114
80 88 114
80 88 114
80 88 114
80 88 114
80 88 114
80 88 114
80 88 114
80 88 114
80 88 114
80 88 114
80 88 114
80 88 114
80 88 114
80 88 114
80 88 114
80 88 114
80 88 114
80 88 114
80 88 114
80 88 114
80 88 114
80 88 114
80 88 114
80 88 114
80 88 114
80 88 114
80 88 114
80 88 114
80 88 114
80 88 114
80 88 114
80 88 114
80 88 114
80 88 114
80 88 114
80 88 114
80 88 114
80 88 114
80 88 114
80 88 114
80 88 114
80 88 114
80 88 114
80 88 114
80 88 114
80 88 114
80 88 114
80 88 114
80 88 114
80 88 114
80 88 114
80 88 114
80 88 114
80 88 114
80 88 114
80 88 114
80 88 114
80 88 114
80 88 114
80 88 114
80 88 114
80 88 114
80 88 114
80 88 114
80 88 114
80 88 114
80 88 114
80 88 114
80 88 114
80 88 114
80 88 114
80 88 114
80 88 114
80 88 114
80 88 114
80 88 114
80 88 114
80 88 114
80 88 114
80 88 114
80 88 114
80 88 114
80 88 114
80 88 114
80 88 114
80 88 114
80 88 114
80 88 114
80 88 114
80 88 114
80 88 114
80 88 114
80 88 114
80 88 114
80 88 114
80 88 114
80 88 114
80 88 114
80 88 114
80 88 114
80 88 114
80 88 114
80 88 114
80 88 114
80 88 114
80 88 114
80 88 114
80 88 114
80 88 114
80 88 114
80 88 114
80 88 114
80 88 114
80 88 114
80 88 114
80 88 114
80 88 114
80 88 114
80 88 114
80 88 114
80 88 114
80 88 114
80 88 114
80 88 114
80 88 114
80 88 114
80 88 114
80 88 114
80 88 114
80 88 114
80 88 114
80 88 114
80 88 114
80 88 114
80 88 114
80 88 114
80 88 114
80 88 114
80 88 114
80 88 114
80 88 114
80 88 114
80 88 114
80 88 114
80 88 114
80 88 114
80 88 114
80 88 114
80 88 114
80 88 114
80 88 114
80 88 114
80 88 114
80 88 114
80 88 114
80 88 114
80 88 114
80 88 114
80 88 114
80 88 114
80 88 114
80 88 114
80 88 114
80 88 114
80 88 114
80 88 114
80 88 114
80 88 114
80 88 114
80 88 114
80 88 114
80 88 114
80 88 114
80 88 114
80 88 114
80 88 114
80 88 114
80 88 114
80 88 114
80 88 114
80 88 114
80 88 114
80 88 114
80 88 114
80 88 114
80 88 114
80 88 114
80 88 114
80 88 114
80 88 114
80 88 114
80 88 114
80 88 114
80 88 114
80 88 114
80 88 114
80 88 114
80 88 114
80 88 114
80 88 114
80 88 114
80 88 114
80 88 114
80 88 114
80 88 114
80 88 114
80 88 114
80 88 114
80 88 114
80 88 114
80 88 114
80 88 114
80 88 114
80 88 114
80 88 114
80 88 114
80 88 114
80 88 114
80 88 114
80 88 114
80 88 114
80 88 114
80 88 114
80 88 114
80 88 114
80 88 114
80 88 114
80 88 114
80 88 114
80 88 114
80 88 114
80 88 114
80 88 114
80 88 114
80 88 114
80 88 114
80 88 114
80 88 114
80 88 114
80 88 114
80 88 114
80 88 114
80 88 114
80 88 114
80 88 114
80 88 114
80 88 114
80 88 114
80 88 114
80 88 114
80 88 114
80 88 114
80 88 114
80 88 114
80 88 114
80 88 114
80 88 114
80 88 114
80 88 114
80 88 114
80 88 114
80 88 114
80 88 114
80 88 114
80 88 114
80 88 114
80 88 114
80 88 114
80 88 114
80 88 114
80 88 114
80 88 114
80 88 114
80 88 114
80 88 114
80 88 114
80 88 114
80 88 114
80 88 114
80 88 114
80 88 114
80 88 114
80 88 114
80 88 114
80 88 114
80 88 114
80 88 114
80 88 114
80 88 114
80 88 114
80 88 114
80 88 114
80 88 114
80 88 114
80 88 114
80 88 114
80 88 114
80 88 114
80 88 114
80 88 114
80 88 114
80 88 114
80 88 114
80 88 114
80 88 114
80 88 114
80 88 114
80 88 114
80 88 114
80 88 114
80 88 114
80 88 114
80 88 114
80 88 114
80 88 114
80 88 114
80 88 114
80 88 114
80 88 114
80 88 114
80 88 114
80 88 114
80 88 114
80 88 114
80 88 114
80 88 114
80 88 114
80 88 114
80 88 114
80 88 114
80 88 114
80 88 114
80 88 114
80 88 114
80 88 114
80 88 114
80 88 114
80 88 114
80 88 114
80 88 114
80 88 114
80 88 114
80 88 114
80 88 114
80 88 114
80 88 114
80 88 114
80 88 114
80 88 114
80 88 114
80 88 114
80 88 114
80 88 114
80 88 114
80 88 114
80 88 114
80 88 114
80 88 114
80 88 114
80 88 114
80 88 114
80 88 114
80 88 114
80 88 114
80 88 114
80 88 114
80 88 114
80 88 114
80 88 114
80 88 114
80 88 114
80 88 114
80 88 114
80 88 114
80 88 114
80 88 114
80 88 114
80 88 114
80 88 114
80 88 114
80 88 114
80 88 114
80 88 114
80 88 114
80 88 114
80 88 114
80 88 114
80 88 114
80 88 114
80 88 114
80 88 114
80 88 114
80 88 114
80 88 114
80 88 114
80 88 114
80 88 114
80 88 114
80 88 114
80 88 114
80 88 114
80 88 114
80 88 114
80 88 114
80 88 114
80 88 114
80 88 114
80 88 114
80 88 114
80 88 114
80 88 114
80 88 114
80 88 114
80 88 114
80 88 114
80 88 114
80 88 114
80 88 114
80 88 114
80 88 114
80 88 114
80 88 114
80 88 114
80 88 114
80 88 114
80 88 114
80 88 114
80 88 114
80 88 114
80 88 114
80 88 114
80 88 114
80 88 114
80 88 114
80 88 114
80 88 114
80 88 114
80 88 114
80 88 114
80 88 114
80 88 114
80 88 114
80 88 114
80 88 114
80 88 114
80 88 114
80 88 114
80 88 114
80 88 114
80 88 114
80 88 114
80 88 114
80 88 114
80 88 114
80 88 114
80 88 114
80 88 114
80 88 114
80 88 114
80 88 114
80 88 114
80 88 114
80 88 114
80 88 114
80 88 114
80 88 114
80 88 114
80 88 114
80 88 114
80 88 114
80 88 114
80 88 114
80 88 114
80 88 114
80 88 114
80 88 114
80 88 114
80 88 114
80 88 114
80 88 114
80 88 114
80 88 114
80 88 114
80 88 114
80 88 114
80 88 114
80 88 114
80 88 114
80 88 114
80 88 114
80 88 114
80 88 114
80 88 114
80 88 114
80 88 114
80 88 114
80 88 114
80 88 114
80 88 114
80 88 114
80 88 114
80 88 114
80 88 114
80 88 114
80 88 114
80 88 114
80 88 114
80 88 114
80 88 114
80 88 114
80 88 114
80 88 114
80 88 114
80 88 114
80 88 114
80 88 114
80 88 114
80 88 114
80 88 114
80 88 114
80 88 114
80 88 114
80 88 114
80 88 114
80 88 114
80 88 114
80 88 114
80 88 114
80 88 114
80 88 114
80 88 114
80 88 114
80 88 114
80 88 114
80 88 114
80 88 114
80 88 114
80 88 114
80 88 114
80 88 114
80 88 114
80 88 114
80 88 114
80 88 114
80 88 114
80 88 114
80 88 114
80 88 114
80 88 114
80 88 114
80 88 114
80 88 114
80 88 114
80 88 114
80 88 114
80 88 114
80 88 114
80 88 114
80 88 114
80 88 114
80 88 114
80 88 114
80 88 114
80 88 114
80 88 114
80 88 114
80 88 114
80 88 114
80 88 114
80 88 114
80 88 114
80 88 114
80 88 114
80 88 114
80 88 114
80 88 114
80 88 114
80 88 114
80 88 114
80 88 114
80 88 114
80 88 114
80 88 114
80 88 114
80 88 114
80 88 114
80 88 114
80 88 114
80 88 114
80 88 114
80 88 114
80 88 114
80 88 114
80 88 114
80 88 114
80 88 114
80 88 114
80 88 114
80 88 114
80 88 114
80 88 114
80 88 114
80 88 114
80 88 114
80 88 114
80 88 114
80 88 114
80 88 114
80 88 114
80 88 114
80 88 114
80 88 114
80 88 114
80 88 114
80 88 114
80 88 114
80 88 114
80 88 114
80 88 114
80 88 114
80 88 114
80 88 114
80 88 114
80 88 114
80 88 114
80 88 114
80 88 114
80 88 114
80 88 114
80 88 114
80 88 114
80 88 114
80 88 114
80 88 114
80 88 114
80 88 114
80 88 114
80 88 114
80 88 114
80 88 114
80 88 114
80 88 114
80 88 114
80 88 114
80 88 114
80 88 114
80 88 114
80 88 114
80 88 114
80 88 114
80 88 114
80 88 114
80 88 114
80 88 114
80 88 114
80 88 114
80 88 114
80 88 114
80 88 114
80 88 114
80 88 114
80 88 114
80 88 114
80 88 114
80 88 114
80 88 114
80 88 114
80 88 114
80 88 114
80 88 114
80 88 114
80 88 114
80 88 114
80 88 114
80 88 114
80 88 114
80 88 114
80 88 114
80 88 114
80 88 114
80 88 114
80 88 114
80 88 114
80 88 114
80 88 114
80 88 114
80 88 114
80 88 114
80 88 114
80 88 114
80 88 114
80 88 114
80 88 114
80 88 114
80 88 114
80 88 114
80 88 114
80 88 114
80 88 114
80 88 114
80 88 114
80 88 114
80 88 114
80 88 114
80 88 114
80 88 114
80 88 114
80 88 114
80 88 114
80 88 114
80 88 114
80 88 114
80 88 114
80 88 114
80 88 114
80 88 114
80 88 114
80 88 114
80 88 114
80 88 114
80 88 114
80 88 114
80 88 114
80 88 114
80 88 114
80 88 114
80 88 114
80 88 114
80 88 114
80 88 114
80 88 114
80 88 114
80 88 114
80 88 114
80 88 114
80 88 114
80 88 114
80 88 114
80 88 114
80 88 114
80 88 114
80 88 114
80 88 114
80 88 114
80 88 114
80 88 114
80 88 114
80 88 114
80 88 114
80 88 114
80 88 114
80 88 114
80 88 114
80 88 114
80 88 114
80 88 114
80 88 114
80 88 114
80 88 114
80 88 114
80 88 114
80 88 114
80 88 114
80 88 114
80 88 114
80 88 114
80 88 114
80 88 114
80 88 114
80 88 114
80 88 114
80 88 114
80 88 114
80 88 114
80 88 114
80 88 114
80 88 114
80 88 114
80 88 114
80 88 114
80 88 114
80 88 114
80 88 114
80 88 114
80 88 114
80 88 114
80 88 114
80 88 114
80 88 114
80 88 114
80 88 114
80 88 114
80 88 114
80 88 114
80 88 114
80 88 114
80 88 114
80 88 114
80 88 114
80 88 114
80 88 114
80 88 114
80 88 114
80 88 114
80 88 114
80 88 114
80 88 114
80 88 114
80 88 114
80 88 114
80 88 114
80 88 114
80 88 114
80 88 114
80 88 114
80 88 114
80 88 114
80 88 114
80 88 114
80 88 114
80 88 114
80 88 114
80 88 114
80 88 114
80 88 114
80 88 114
80 88 114
80 88 114
80 88 114
80 88 114
80 88 114
80 88 114
80 88 114
80 88 114
80 88 114
80 88 114
80 88 114
80 88 114
80 88 114
80 88 114
80 88 114
80 88 114
80 88 114
80 88 114
80 88 114
80 88 114
80 88 114
80 88 114
80 88 114
80 88 114
80 88 114
80 88 114
80 88 114
80 88 114
80 88 114
80 88 114
80 88 114
80 88 114
80 88 114
80 88 114
80 88 114
80 88 114
80 88 114
80 88 114
80 88 114
80 88 114
80 88 114
80 88 114
80 88 114
80 88 114
80 88 114
80 88 114
80 88 114
80 88 114
80 88 114
80 88 114
80 88 114
80 88 114
80 88 114
80 88 114
80 88 114
80 88 114
80 88 114
80 88 114
80 88 114
80 88 114
80 88 114
80 88 114
80 88 114
80 88 114
80 88 114
80 88 114
80 88 114
80 88 114
80 88 114
80 88 114
80 88 114
80 88 114
80 88 114
80 88 114
80 88 114
80 88 114
80 88 114
80 88 114
80 88 114
80 88 114
80 88 114
80 88 114
80 88 114
80 88 114
80 88 114
80 88 114
80 88 114
80 88 114
80 88 114
80 88 114
80 88 114
80 88 114
80 88 114
80 88 114
80 88 114
80 88 114
80 88 114
80 88 114
80 88 114
80 88 114
80 88 114
80 88 114
80 88 114
80 88 114
80 88 114
80 88 114
80 88 114
80 88 114
80 88 114
80 88 114
80 88 114
80 88 114
80 88 114
80 88 114
80 88 114
80 88 114
80 88 114
80 88 114
80 88 114
80 88 114
80 88 114
80 88 114
80 88 114
80 88 114
80 88 114
80 88 114
80 88 114
80 88 114
80 88 114
80 88 114
80 88 114
80 88 114
80 88 114
80 88 114
80 88 114
80 88 114
80 88 114
80 88 114
80 88 114
80 88 114
80 88 114
80 88 114
80 88 114
80 88 114
80 88 114
80 88 114
80 88 114
80 88 114
80 88 114
80 88 114
80 88 114
80 88 114
80 88 114
80 88 114
80 88 114
80 88 114
80 88 114
80 88 114
80 88 114
80 88 114
80 88 114
80 88 114
80 88 114
80 88 114
80 88 114
80 88 114
80 88 114
80 88 114
80 88 114
80 88 114
80 88 114
80 88 114
80 88 114
80 88 114
80 88 114
80 88 114
80 88 114
80 88 114
80 88 114
80 88 114
80 88 114
80 88 114
80 88 114
80 88 114
80 88 114
80 88 114
80 88 114
80 88 114
80 88 114
80 88 114
80 88 114
80 88 114
80 88 114
80 88 114
80 88 114
80 88 114
80 88 114
80 88 114
80 88 114
80 88 114
80 88 114
80 88 114
80 88 114
80 88 114
80 88 114
80 88 114
80 88 114
80 88 114
80 88 114
80 88 114
80 88 114
80 88 114
80 88 114
80 88 114
80 88 114
80 88 114
80 88 114
80 88 114
80 88 114
80 88 114
80 88 114
80 88 114
80 88 114
80 88 114
80 88 114
80 88 114
80 88 114
80 88 114
80 88 114
80 88 114
80 88 114
80 88 114
80 88 114
80 88 114
80 88 114
80 88 114
80 88 114
80 88 114
80 88 114
80 88 114
80 88 114
80 88 114
80 88 114
80 88 114
80 88 114
80 88 114
80 88 114
80 88 114
80 88 114
80 88 114
80 88 114
80 88 114
80 88 114
80 88 114
80 88 114
80 88 114
80 88 114
80 88 114
80 88 114
80 88 114
80 88 114
80 88 114
80 88 114
80 88 114
80 88 114
80 88 114
80 88 114
80 88 114
80 88 114
80 88 114
80 88 114
80 88 114
80 88 114
80 88 114
80 88 114
80 88 114
80 88 114
80 88 114
80 88 114
80 88 114
80 88 114
80 88 114
80 88 114
80 88 114
80 88 114
80 88 114
80 88 114
80 88 114
80 88 114
80 88 114
80 88 114
80 88 114
80 88 114
80 88 114
80 88 114
80 88 114
80 88 114
80 88 114
80 88 114
80 88 114
80 88 114
80 88 114
80 88 114
80 88 114
80 88 114
80 88 114
80 88 114
80 88 114
80 88 114
80 88 114
80 88 114
80 88 114
80 88 114
80 88 114
80 88 114
80 88 114
80 88 114
80 88 114
80 88 114
80 88 114
80 88 114
80 88 114
80 88 114
80 88 114
80 88 114
80 88 114
80 88 114
80 88 114
80 88 114
80 88 114
80 88 114
80 88 114
80 88 114
80 88 114
80 88 114
80 88 114
80 88 114
80 88 114
80 88 114
80 88 114
80 88 114
80 88 114
80 88 114
80 88 114
80 88 114
80 88 114
80 88 114
80 88 114
80 88 114
80 88 114
80 88 114
80 88 114
80 88 114
80 88 114
80 88 114
80 88 114
80 88 114
80 88 114
80 88 114
80 88 114
80 88 114
80 88 114
80 88 114
80 88 114
80 88 114
80 88 114
80 88 114
80 88 114
80 88 114
80 88 114
80 88 114
80 88 114
80 88 114
80 88 114
80 88 114
80 88 114
80 88 114
80 88 114
80 88 114
80 88 114
80 88 114
80 88 114
80 88 114
80 88 114
80 88 114
80 88 114
80 88 114
80 88 114
80 88 114
80 88 114
80 88 114
80 88 114
80 88 114
80 88 114
80 88 114
80 88 114
80 88 114
80 88 114
80 88 114
80 88 114
80 88 114
80 88 114
80 88 114
80 88 114
80 88 114
80 88 114
80 88 114
80 88 114
80 88 114
80 88 114
80 88 114
80 88 114
80 88 114
80 88 114
80 88 114
80 88 114
80 88 114
80 88 114
80 88 114
80 88 114
80 88 114
80 88 114
80 88 114
80 88 114
80 88 114
80 88 114
80 88 114
80 88 114
80 88 114
80 88 114
80 88 114
80 88 114
80 88 114
80 88 114
80 88 114
80 88 114
80 88 114
80 88 114
80 88 114
80 88 114
80 88 114
80 88 114
80 88 114
80 88 114
80 88 114
80 88 114
80 88 114
80 88 114
80 88 114
80 88 114
80 88 114
80 88 114
80 88 114
80 88 114
80 88 114
80 88 114
80 88 114
80 88 114
80 88 114
80 88 114
80 88 114
80 88 114
80 88 114
80 88 114
80 88 114
80 88 114
80 88 114
80 88 114
80 88 114
80 88 114
80 88 114
80 88 114
80 88 114
80 88 114
80 88 114
80 88 114
80 88 114
80 88 114
80 88 114
80 88 114
80 88 114
80 88 114
80 88 114
80 88 114
80 88 114
80 88 114
80 88 114
80 88 114
80 88 114
80 88 114
80 88 114
80 88 114
80 88 114
80 88 114
80 88 114
80 88 114
80 88 114
80 88 114
80 88 114
80 88 114
80 88 114
80 88 114
80 88 114
80 88 114
80 88 114
80 88 114
80 88 114
80 88 114
80 88 114
80 88 114
80 88 114
80 88 114
80 88 114
80 88 114
80 88 114
80 88 114
80 88 114
80 88 114
80 88 114
80 88 114
80 88 114
80 88 114
80 88 114
80 88 114
80 88 114
80 88 114
80 88 114
80 88 114
80 88 114
80 88 114
80 88 114
80 88 114
80 88 114
80 88 114
80 88 114
80 88 114
80 88 114
80 88 114
80 88 114
80 88 114
80 88 114
80 88 114
80 88 114
80 88 114
80 88 114
80 88 114
80 88 114
80 88 114
80 88 114
80 88 114
80 88 114
80 88 114
80 88 114
80 88 114
80 88 114
80 88 114
80 88 114
80 88 114
80 88 114
80 88 114
80 88 114
80 88 114
80 88 114
80 88 114
80 88 114
80 88 114
80 88 114
80 88 114
80 88 114
80 88 114
80 88 114
80 88 114
80 88 114
80 88 114
80 88 114
80 88 114
80 88 114
80 88 114
80 88 114
80 88 114
80 88 114
80 88 114
80 88 114
80 88 114
80 88 114
80 88 114
80 88 114
80 88 114
80 88 114
80 88 114
80 88 114
80 88 114
80 88 114
80 88 114
80 88 114
80 88 114
80 88 114
80 88 114
80 88 114
80 88 114
80 88 114
80 88 114
80 88 114
80 88 114
80 88 114
80 88 114
80 88 114
80 88 114
80 88 114
80 88 114
80 88 114
80 88 114
80 88 114
80 88 114
80 88 114
80 88 114
80 88 114
80 88 114
80 88 114
80 88 114
80 88 114
80 88 114
80 88 114
80 88 114
80 88 114
80 88 114
80 88 114
80 88 114
80 88 114
80 88 114
80 88 114
80 88 114
80 88 114
80 88 114
80 88 114
80 88 114
80 88 114
80 88 114
80 88 114
80 88 114
80 88 114
80 88 114
80 88 114
80 88 114
80 88 114
80 88 114
80 88 114
80 88 114
80 88 114
80 88 114
80 88 114
80 88 114
80 88 114
80 88 114
80 88 114
80 88 114
80 88 114
80 88 114
80 88 114
80 88 114
80 88 114
80 88 114
80 88 114
80 88 114
80 88 114
80 88 114
80 88 114
80 88 114
80 88 114
80 88 114
80 88 114
80 88 114
80 88 114
80 88 114
80 88 114
80 88 114
80 88 114
80 88 114
80 88 114
80 88 114
80 88 114
80 88 114
80 88 114
80 88 114
80 88 114
80 88 114
80 88 114
80 88 114
80 88 114
80 88 114
80 88 114
80 88 114
80 88 114
80 88 114
80 88 114
80 88 114
80 88 114
80 88 114
80 88 114
80 88 114
80 88 114
80 88 114
80 88 114
80 88 114
80 88 114
80 88 114
80 88 114
80 88 114
80 88 114
80 88 114
80 88 114
80 88 114
80 88 114
80 88 114
80 88 114
80 88 114
80 88 114
80 88 114
80 88 114
80 88 114
80 88 114
80 88 114
80 88 114
80 88 114
80 88 114
80 88 114
80 88 114
80 88 114
80 88 114
80 88 114
80 88 114
80 88 114
80 88 114
80 88 114
80 88 114
80 88 114
80 88 114
80 88 114
80 88 114
80 88 114
80 88 114
80 88 114
80 88 114
80 88 114
80 88 114
80 88 114
80 88 114
80 88 114
80 88 114
80 88 114
80 88 114
80 88 114
80 88 114
80 88 114
80 88 114
80 88 114
80 88 114
80 88 114
80 88 114
80 88 114
80 88 114
80 88 114
80 88 114
80 88 114
80 88 114
80 88 114
80 88 114
80 88 114
80 88 114
80 88 114
80 88 114
80 88 114
80 88 114
80 88 114
80 88 114
80 88 114
80 88 114
80 88 114
80 88 114
80 88 114
80 88 114
80 88 114
80 88 114
80 88 114
80 88 114
80 88 114
80 88 114
80 88 114
80 88 114
80 88 114
80 88 114
80 88 114
80 88 114
80 88 114
80 88 114
80 88 114
80 88 114
80 88 114
80 88 114
80 88 114
80 88 114
80 88 114
80 88 114
80 88 114
80 88 114
80 88 114
80 88 114
80 88 114
80 88 114
80 88 114
80 88 114
80 88 114
80 88 114
80 88 114
80 88 114
80 88 114
80 88 114
80 88 114
80 88 114
80 88 114
80 88 114
80 88 114
80 88 114
80 88 114
80 88 114
80 88 114
80 88 114
80 88 114
80 88 114
80 88 114
80 88 114
80 88 114
80 88 114
80 88 114
80 88 114
80 88 114
80 88 114
80 88 114
80 88 114
80 88 114
80 88 114
80 88 114
80 88 114
80 88 114
80 88 114
80 88 114
80 88 114
80 88 114
80 88 114
80 88 114
80 88 114
80 88 114
80 88 114
80 88 114
80 88 114
80 88 114
80 88 114
80 88 114
80 88 114
80 88 114
80 88 114
80 88 114
80 88 114
80 88 114
80 88 114
80 88 114
80 88 114
80 88 114
80 88 114
80 88 114
80 88 114
80 88 114
80 88 114
80 88 114
80 88 114
80 88 114
80 88 114
80 88 114
80 88 114
80 88 114
80 88 114
80 88 114
80 88 114
80 88 114
80 88 114
80 88 114
80 88 114
80 88 114
80 88 114
80 88 114
80 88 114
80 88 114
80 88 114
80 88 114
80 88 114
80 88 114
80 88 114
80 88 114
80 88 114
80 88 114
80 88 114
80 88 114
80 88 114
80 88 114
80 88 114
80 88 114
80 88 114
80 88 114
80 88 114
80 88 114
80 88 114
80 88 114
80 88 114
80 88 114
80 88 114
80 88 114
80 88 114
80 88 114
80 88 114
80 88 114
80 88 114
80 88 114
80 88 114
80 88 114
80 88 114
80 88 114
80 88 114
80 88 114
80 88 114
80 88 114
80 88 114
80 88 114
80 88 114
80 88 114
80 88 114
80 88 114
80 88 114
80 88 114
80 88 114
80 88 114
80 88 114
80 88 114
80 88 114
80 88 114
80 88 114
80 88 114
80 88 114
80 88 114
80 88 114
80 88 114
80 88 114
80 88 114
80 88 114
80 88 114
80 88 114
80 88 114
80 88 114
80 88 114
80 88 114
80 88 114
80 88 114
80 88 114
80 88 114
80 88 114
80 88 114
80 88 114
80 88 114
80 88 114
80 88 114
80 88 114
80 88 114
80 88 114
80 88 114
80 88 114
80 88 114
80 88 114
80 88 114
80 88 114
80 88 114
80 88 114
80 88 114
80 88 114
80 88 114
80 88 114
80 88 114
80 88 114
80 88 114
80 88 114
80 88 114
80 88 114
80 88 114
80 88 114
80 88 114
80 88 114
80 88 114
80 88 114
80 88 114
80 88 114
80 88 114
80 88 114
80 88 114
80 88 114
80 88 114
80 88 114
80 88 114
80 88 114
80 88 114
80 88 114
80 88 114
80 88 114
80 88 114
80 88 114
80 88 114
80 88 114
80 88 114
80 88 114
80 88 114
80 88 114
80 88 114
80 88 114
80 88 114
80 88 114
80 88 114
80 88 114
80 88 114
80 88 114
80 88 114
80 88 114
80 88 114
80 88 114
80 88 114
80 88 114
80 88 114
80 88 114
80 88 114
80 88 114
80 88 114
80 88 114
80 88 114
80 88 114
80 88 114
80 88 114
80 88 114
80 88 114
80 88 114
80 88 114
80 88 114
80 88 114
80 88 114
80 88 114
80 88 114
80 88 114
80 88 114
80 88 114
80 88 114
80 88 114
80 88 114
80 88 114
80 88 114
80 88 114
80 88 114
80 88 114
80 88 114
80 88 114
80 88 114
80 88 114
80 88 114
80 88 114
80 88 114
80 88 114
80 88 114
80 88 114
80 88 114
80 88 114
80 88 114
80 88 114
80 88 114
80 88 114
80 88 114
80 88 114
80 88 114
80 88 114
80 88 114
80 88 114
80 88 114
80 88 114
80 88 114
80 88 114
80 88 114
80 88 114
80 88 114
80 88 114
80 88 114
80 88 114
80 88 114
80 88 114
80 88 114
80 88 114
80 88 114
80 88 114
80 88 114
80 88 114
80 88 114
80 88 114
80 88 114
80 88 114
80 88 114
80 88 114
80 88 114
80 88 114
80 88 114
80 88 114
80 88 114
80 88 114
80 88 114
80 88 114
80 88 114
80 88 114
80 88 114
80 88 114
80 88 114
80 88 114
80 88 114
80 88 114
80 88 114
80 88 114
80 88 114
80 88 114
80 88 114
80 88 114
80 88 114
80 88 114
80 88 114
80 88 114
80 88 114
80 88 114
80 88 114
80 88 114
80 88 114
80 88 114
80 88 114
80 88 114
80 88 114
80 88 114
80 88 114
80 88 114
80 88 114
80 88 114
80 88 114
80 88 114
80 88 114
80 88 114
80 88 114
80 88 114
80 88 114
80 88 114
80 88 114
80 88 114
80 88 114
80 88 114
80 88 114
80 88 114
80 88 114
80 88 114
80 88 114
80 88 114
80 88 114
80 88 114
80 88 114
80 88 114
80 88 114
80 88 114
80 88 114
80 88 114
80 88 114
80 88 114
80 88 114
80 88 114
80 88 114
80 88 114
80 88 114
80 88 114
80 88 114
80 88 114
80 88 114
80 88 114
80 88 114
80 88 114
80 88 114
80 88 114
80 88 114
80 88 114
80 88 114
80 88 114
80 88 114
80 88 114
80 88 114
80 88 114
80 88 114
80 88 114
80 88 114
80 88 114
80 88 114
80 88 114
80 88 114
80 88 114
80 88 114
80 88 114
80 88 114
80 88 114
80 88 114
80 88 114
80 88 114
80 88 114
80 88 114
80 88 114
80 88 114
80 88 114
80 88 114
80 88 114
80 88 114
80 88 114
80 88 114
80 88 114
80 88 114
80 88 114
80 88 114
80 88 114
80 88 114
80 88 114
80 88 114
80 88 114
80 88 114
80 88 114
80 88 114
80 88 114
80 88 114
80 88 114
80 88 114
80 88 114
80 88 114
80 88 114
80 88 114
80 88 114
80 88 114
80 88 114
80 88 114
80 88 114
80 88 114
80 88 114
80 88 114
80 88 114
80 88 114
80 88 114
80 88 114
80 88 114
80 88 114
80 88 114
80 88 114
80 88 114
80 88 114
80 88 114
80 88 114
80 88 114
80 88 114
80 88 114
80 88 114
80 88 114
80 88 114
80 88 114
80 88 114
80 88 114
80 88 114
80 88 114
80 88 114
80 88 114
80 88 114
80 88 114
80 88 114
80 88 114
80 88 114
80 88 114
80 88 114
80 88 114
80 88 114
80 88 114
80 88 114
80 88 114
80 88 114
80 88 114
80 88 114
80 88 114
80 88 114
80 88 114
80 88 114
80 88 114
80 88 114
80 88 114
80 88 114
80 88 114
80 88 114
80 88 114
80 88 114
80 88 114
80 88 114
80 88 114
80 88 114
80 88 114
80 88 114
80 88 114
80 88 114
80 88 114
80 88 114
80 88 114
80 88 114
80 88 114
80 88 114
80 88 114
80 88 114
80 88 114
80 88 114
80 88 114
80 88 114
80 88 114
80 88 114
80 88 114
80 88 114
80 88 114
80 88 114
80 88 114
80 88 114
80 88 114
80 88 114
80 88 114
80 88 114
80 88 114
80 88 114
80 88 114
80 88 114
80 88 114
80 88 114
80 88 114
80 88 114
80 88 114
80 88 114
80 88 114
80 88 114
80 88 114
80 88 114
80 88 114
80 88 114
80 88 114
80 88 114
80 88 114
80 88 114
80 88 114
80 88 114
80 88 114
80 88 114
80 88 114
80 88 114
80 88 114
80 88 114
80 88 114
80 88 114
80 88 114
80 88 114
80 88 114
80 88 114
80 88 114
80 88 114
80 88 114
80 88 114
80 88 114
80 88 114
80 88 114
80 88 114
80 88 114
80 88 114
80 88 114
80 88 114
80 88 114
80 88 114
80 88 114
80 88 114
80 88 114
80 88 114
80 88 114
80 88 114
80 88 114
80 88 114
80 88 114
80 88 114
80 88 114
80 88 114
80 88 114
80 88 114
80 88 114
80 88 114
80 88 114
80 88 114
80 88 114
80 88 114
80 88 114
80 88 114
80 88 114
80 88 114
80 88 114
80 88 114
80 88 114
80 88 114
80 88 114
80 88 114
80 88 114
80 88 114
80 88 114
80 88 114
80 88 114
80 88 114
80 88 114
80 88 114
80 88 114
80 88 114
80 88 114
80 88 114
80 88 114
80 88 114
80 88 114
80 88 114
80 88 114
80 88 114
80 88 114
80 88 114
80 88 114
80 88 114
80 88 114
80 88 114
80 88 114
80 88 114
80 88 114
80 88 114
80 88 114
80 88 114
80 88 114
80 88 114
80 88 114
80 88 114
80 88 114
80 88 114
80 88 114
80 88 114
80 88 114
80 88 114
80 88 114
80 88 114
80 88 114
80 88 114
80 88 114
80 88 114
80 88 114
80 88 114
80 88 114
80 88 114
80 88 114
80 88 114
80 88 114
80 88 114
80 88 114
80 88 114
80 88 114
80 88 114
80 88 114
80 88 114
80 88 114
80 88 114
80 88 114
80 88 114
80 88 114
80 88 114
80 88 114
80 88 114
80 88 114
80 88 114
80 88 114
80 88 114
80 88 114
80 88 114
80 88 114
80 88 114
80 88 114
80 88 114
80 88 114
80 88 114
80 88 114
80 88 114
80 88 114
80 88 114
80 88 114
80 88 114
80 88 114
80 88 114
80 88 114
80 88 114
80 88 114
80 88 114
80 88 114
80 88 114
80 88 114
80 88 114
80 88 114
80 88 114
80 88 114
80 88 114
80 88 114
80 88 114
80 88 114
80 88 114
80 88 114
80 88 114
80 88 114
80 88 114
80 88 114
80 88 114
80 88 114
80 88 114
80 88 114
80 88 114
80 88 114
80 88 114
80 88 114
80 88 114
80 88 114
80 88 114
80 88 114
80 88 114
80 88 114
80 88 114
80 88 114
80 88 114
80 88 114
80 88 114
80 88 114
80 88 114
80 88 114
80 88 114
80 88 114
80 88 114
80 88 114
80 88 114
80 88 114
80 88 114
80 88 114
80 88 114
80 88 114
80 88 114
80 88 114
80 88 114
80 88 114
80 88 114
80 88 114
80 88 114
80 88 114
80 88 114
80 88 114
80 88 114
80 88 114
80 88 114
80 88 114
80 88 114
80 88 114
80 88 114
80 88 114
80 88 114
80 88 114
80 88 114
80 88 114
80 88 114
80 88 114
80 88 114
80 88 114
80 88 114
80 88 114
80 88 114
80 88 114
80 88 114
80 88 114
80 88 114
80 88 114
80 88 114
80 88 114
80 88 114
80 88 114
80 88 114
80 88 114
80 88 114
80 88 114
80 88 114
80 88 114
80 88 114
80 88 114
80 88 114
80 88 114
80 88 114
80 88 114
80 88 114
80 88 114
80 88 114
80 88 114
80 88 114
80 88 114
80 88 114
80 88 114
80 88 114
80 88 114
80 88 114
80 88 114
80 88 114
80 88 114
80 88 114
80 88 114
80 88 114
80 88 114
80 88 114
80 88 114
80 88 114
80 88 114
80 88 114
80 88 114
80 88 114
80 88 114
80 88 114
80 88 114
80 88 114
80 88 114
80 88 114
80 88 114
80 88 114
80 88 114
80 88 114
80 88 114
80 88 114
80 88 114
80 88 114
80 88 114
80 88 114
80 88 114
80 88 114
80 88 114
80 88 114
80 88 114
80 88 114
80 88 114
80 88 114
80 88 114
80 88 114
80 88 114
80 88 114
80 88 114
80 88 114
80 88 114
80 88 114
80 88 114
80 88 114
80 88 114
80 88 114
80 88 114
80 88 114
80 88 114
80 88 114
80 88 114
80 88 114
80 88 114
80 88 114
80 88 114
80 88 114
80 88 114
80 88 114
80 88 114
80 88 114
80 88 114
80 88 114
80 88 114
80 88 114
80 88 114
80 88 114
80 88 114
80 88 114
80 88 114
80 88 114
80 88 114
80 88 114
80 88 114
80 88 114
80 88 114
80 88 114
80 88 114
80 88 114
80 88 114
80 88 114
80 88 114
80 88 114
80 88 114
80 88 114
80 88 114
80 88 114
80 88 114
80 88 114
80 88 114
80 88 114
80 88 114
80 88 114
80 88 114
80 88 114
80 88 114
80 88 114
80 88 114
80 88 114
80 88 114
80 88 114
80 88 114
80 88 114
80 88 114
80 88 114
80 88 114
80 88 114
80 88 114
80 88 114
80 88 114
80 88 114
80 88 114
80 88 114
80 88 114
80 88 114
80 88 114
80 88 114
80 88 114
80 88 114
80 88 114
80 88 114
80 88 114
80 88 114
80 88 114
80 88 114
80 88 114
80 88 114
80 88 114
80 88 114
80 88 114
80 88 114
80 88 114
80 88 114
80 88 114
80 88 114
80 88 114
80 88 114
80 88 114
80 88 114
80 88 114
80 88 114
80 88 114
80 88 114
80 88 114
80 88 114
80 88 114
80 88 114
80 88 114
80 88 114
80 88 114
80 88 114
80 88 114
80 88 114
80 88 114
80 88 114
80 88 114
80 88 114
80 88 114
80 88 114
80 88 114
80 88 114
80 88 114
80 88 114
80 88 114
80 88 114
80 88 114
80 88 114
80 88 114
80 88 114
80 88 114
80 88 114
80 88 114
80 88 114
80 88 114
80 88 114
80 88 114
80 88 114
80 88 114
80 88 114
80 88 114
80 88 114
80 88 114
80 88 114
80 88 114
80 88 114
80 88 114
80 88 114
80 88 114
80 88 114
80 88 114
80 88 114
80 88 114
80 88 114
80 88 114
80 88 114
80 88 114
80 88 114
80 88 114
80 88 114
80 88 114
80 88 114
80 88 114
80 88 114
80 88 114
80 88 114
80 88 114
80 88 114
80 88 114
80 88 114
80 88 114
80 88 114
80 88 114
80 88 114
80 88 114
80 88 114
80 88 114
80 88 114
80 88 114
80 88 114
80 88 114
80 88 114
80 88 114
80 88 114
80 88 114
80 88 114
80 88 114
80 88 114
80 88 114
80 88 114
80 88 114
80 88 114
80 88 114
80 88 114
80 88 114
80 88 114
80 88 114
80 88 114
80 88 114
80 88 114
80 88 114
80 88 114
80 88 114
80 88 114
80 88 114
80 88 114
80 88 114
80 88 114
80 88 114
80 88 114
80 88 114
80 88 114
80 88 114
80 88 114
80 88 114
80 88 114
80 88 114
80 88 114
80 88 114
80 88 114
80 88 114
80 88 114
80 88 114
80 88 114
80 88 114
80 88 114
80 88 114
80 88 114
80 88 114
80 88 114
80 88 114
80 88 114
80 88 114
80 88 114
80 88 114
80 88 114
80 88 114
80 88 114
80 88 114
80 88 114
80 88 114
80 88 114
80 88 114
80 88 114
80 88 114
80 88 114
80 88 114
80 88 114
80 88 114
80 88 114
80 88 114
80 88 114
80 88 114
80 88 114
80 88 114
80 88 114
80 88 114
80 88 114
80 88 114
80 88 114
80 88 114
80 88 114
80 88 114
80 88 114
80 88 114
80 88 114
80 88 114
80 88 114
80 88 114
80 88 114
80 88 114
80 88 114
80 88 114
80 88 114
80 88 114
80 88 114
80 88 114
80 88 114
80 88 114
80 88 114
80 88 114
80 88 114
80 88 114
80 88 114
80 88 114
80 88 114
80 88 114
80 88 114
80 88 114
80 88 114
80 88 114
80 88 114
80 88 114
80 88 114
80 88 114
80 88 114
80 88 114
80 88 114
80 88 114
80 88 114
80 88 114
80 88 114
80 88 114
80 88 114
80 88 114
80 88 114
80 88 114
80 88 114
80 88 114
80 88 114
80 88 114
80 88 114
80 88 114
80 88 114
80 88 114
80 88 114
80 88 114
80 88 114
80 88 114
80 88 114
80 88 114
80 88 114
80 88 114
80 88 114
80 88 114
80 88 114
80 88 114
80 88 114
80 88 114
80 88 114
80 88 114
80 88 114
80 88 114
80 88 114
80 88 114
80 88 114
80 88 114
80 88 114
80 88 114
80 88 114
80 88 114
80 88 114
80 88 114
80 88 114
80 88 114
80 88 114
80 88 114
80 88 114
80 88 114
80 88 114
80 88 114
80 88 114
80 88 114
80 88 114
80 88 114
80 88 114
80 88 114
80 88 114
80 88 114
80 88 114
80 88 114
80 88 114
80 88 114
80 88 114
80 88 114
80 88 114
80 88 114
80 88 114
80 88 114
80 88 114
80 88 114
80 88 114
80 88 114
80 88 114
80 88 114
80 88 114
80 88 114
80 88 114
80 88 114
80 88 114
80 88 114
80 88 114
80 88 114
80 88 114
80 88 114
80 88 114
80 88 114
80 88 114
80 88 114
80 88 114
80 88 114
80 88 114
80 88 114
80 88 114
80 88 114
80 88 114
80 88 114
80 88 114
80 88 114
80 88 114
80 88 114
80 88 114
80 88 114
80 88 114
80 88 114
80 88 114
80 88 114
80 88 114
80 88 114
80 88 114
80 88 114
80 88 114
80 88 114
80 88 114
80 88 114
80 88 114
80 88 114
80 88 114
80 88 114
80 88 114
80 88 114
80 88 114
80 88 114
80 88 114
80 88 114
80 88 114
80 88 114
80 88 114
80 88 114
80 88 114
80 88 114
80 88 114
80 88 114
80 88 114
80 88 114
80 88 114
80 88 114
80 88 114
80 88 114
80 88 114
80 88 114
80 88 114
80 88 114
80 88 114
80 88 114
80 88 114
80 88 114
80 88 114
80 88 114
80 88 114
80 88 114
80 88 114
80 88 114
80 88 114
80 88 114
80 88 114
80 88 114
80 88 114
80 88 114
80 88 114
80 88 114
80 88 114
80 88 114
80 88 114
80 88 114
80 88 114
80 88 114
80 88 114
80 88 114
80 88 114
80 88 114
80 88 114
80 88 114
80 88 114
80 88 114
80 88 114
80 88 114
80 88 114
80 88 114
80 88 114
80 88 114
80 88 114
80 88 114
80 88 114
80 88 114
80 88 114
80 88 114
80 88 114
80 88 114
80 88 114
80 88 114
80 88 114
80 88 114
80 88 114
80 88 114
80 88 114
80 88 114
80 88 114
80 88 114
80 88 114
80 88 114
80 88 114
80 88 114
80 88 114
80 88 114
80 88 114
80 88 114
80 88 114
80 88 114
80 88 114
80 88 114
80 88 114
80 88 114
80 88 114
80 88 114
80 88 114
80 88 114
80 88 114
80 88 114
80 88 114
80 88 114
80 88 114
80 88 114
80 88 114
80 88 114
80 88 114
80 88 114
80 88 114
80 88 114
80 88 114
80 88 114
80 88 114
80 88 114
80 88 114
80 88 114
80 88 114
80 88 114
80 88 114
80 88 114
80 88 114
80 88 114
80 88 114
80 88 114
80 88 114
80 88 114
80 88 114
80 88 114
80 88 114
80 88 114
80 88 114
80 88 114
80 88 114
80 88 114
80 88 114
80 88 114
80 88 114
80 88 114
80 88 114
80 88 114
80 88 114
80 88 114
80 88 114
80 88 114
80 88 114
80 88 114
80 88 114
80 88 114
80 88 114
80 88 114
80 88 114
80 88 114
80 88 114
80 88 114
80 88 114
80 88 114
80 88 114
80 88 114
80 88 114
80 88 114
80 88 114
80 88 114
80 88 114
80 88 114
80 88 114
80 88 114
80 88 114
80 88 114
80 88 114
80 88 114
80 88 114
80 88 114
80 88 114
80 88 114
80 88 114
80 88 114
80 88 114
80 88 114
80 88 114
80 88 114
80 88 114
80 88 114
80 88 114
80 88 114
80 88 114
80 88 114
80 88 114
80 88 114
80 88 114
80 88 114
80 88 114
80 88 114
80 88 114
80 88 114
80 88 114
80 88 114
80 88 114
80 88 114
80 88 114
80 88 114
80 88 114
80 88 114
80 88 114
80 88 114
80 88 114
80 88 114
80 88 114
80 88 114
80 88 114
80 88 114
80 88 114
80 88 114
80 88 114
80 88 114
80 88 114
80 88 114
80 88 114
80 88 114
80 88 114
80 88 114
80 88 114
80 88 114
80 88 114
80 88 114
80 88 114
80 88 114
80 88 114
80 88 114
80 88 114
80 88 114
80 88 114
80 88 114
80 88 114
80 88 114
80 88 114
80 88 114
80 88 114
80 88 114
80 88 114
80 88 114
80 88 114
80 88 114
80 88 114
80 88 114
80 88 114
80 88 114
80 88 114
80 88 114
80 88 114
80 88 114
80 88 114
80 88 114
80 88 114
80 88 114
80 88 114
80 88 114
80 88 114
80 88 114
80 88 114
80 88 114
80 88 114
80 88 114
80 88 114
80 88 114
80 88 114
80 88 114
80 88 114
80 88 114
80 88 114
80 88 114
80 88 114
80 88 114
80 88 114
80 88 114
80 88 114
80 88 114
80 88 114
80 88 114
80 88 114
80 88 114
80 88 114
80 88 114
80 88 114
80 88 114
80 88 114
80 88 114
80 88 114
80 88 114
80 88 114
80 88 114
80 88 114
80 88 114
80 88 114
80 88 114
80 88 114
80 88 114
80 88 114
80 88 114
80 88 114
80 88 114
80 88 114
80 88 114
80 88 114
80 88 114
80 88 114
80 88 114
80 88 114
80 88 114
80 88 114
80 88 114
80 88 114
80 88 114
80 88 114
80 88 114
80 88 114
80 88 114
80 88 114
80 88 114
80 88 114
80 88 114
80 88 114
80 88 114
80 88 114
80 88 114
80 88 114
80 88 114
80 88 114
80 88 114
80 88 114
80 88 114
80 88 114
80 88 114
80 88 114
80 88 114
80 88 114
80 88 114
80 88 114
80 88 114
80 88 114
80 88 114
80 88 114
80 88 114
80 88 114
80 88 114
80 88 114
80 88 114
80 88 114
80 88 114
80 88 114
80 88 114
80 88 114
80 88 114
80 88 114
80 88 114
80 88 114
80 88 114
80 88 114
80 88 114
80 88 114
80 88 114
80 88 114
80 88 114
80 88 114
80 88 114
80 88 114
80 88 114
80 88 114
80 88 114
80 88 114
80 88 114
80 88 114
80 88 114
80 88 114
80 88 114
80 88 114
80 88 114
80 88 114
80 88 114
80 88 114
80 88 114
80 88 114
80 88 114
80 88 114
80 88 114
80 88 114
80 88 114
80 88 114
80 88 114
80 88 114
80 88 114
80 88 114
80 88 114
80 88 114
80 88 114
80 88 114
80 88 114
80 88 114
80 88 114
80 88 114
80 88 114
80 88 114
80 88 114
80 88 114
80 88 114
80 88 114
80 88 114
80 88 114
80 88 114
80 88 114
80 88 114
80 88 114
80 88 114
80 88 114
80 88 114
80 88 114
80 88 114
80 88 114
80 88 114
80 88 114
80 88 114
80 88 114
80 88 114
80 88 114
80 88 114
80 88 114
80 88 114
80 88 114
80 88 114
80 88 114
80 88 114
80 88 114
80 88 114
80 88 114
80 88 114
80 88 114
80 88 114
80 88 114
80 88 114
80 88 114
80 88 114
80 88 114
80 88 114
80 88 114
80 88 114
80 88 114
80 88 114
80 88 114
80 88 114
80 88 114
80 88 114
80 88 114
80 88 114
80 88 114
80 88 114
80 88 114
80 88 114
80 88 114
80 88 114
80 88 114
80 88 114
80 88 114
80 88 114
80 88 114
80 88 114
80 88 114
80 88 114
80 88 114
80 88 114
80 88 114
80 88 114
80 88 114
80 88 114
80 88 114
80 88 114
80 88 114
80 88 114
80 88 114
80 88 114
80 88 114
80 88 114
80 88 114
80 88 114
80 88 114
80 88 114
80 88 114
80 88 114
80 88 114
80 88 114
80 88 114
80 88 114
80 88 114
80 88 114
80 88 114
80 88 114
80 88 114
80 88 114
80 88 114
80 88 114
80 88 114
80 88 114
80 88 114
80 88 114
80 88 114
80 88 114
80 88 114
80 88 114
80 88 114
80 88 114
80 88 114
80 88 114
80 88 114
80 88 114
80 88 114
80 88 114
80 88 114
80 88 114
80 88 114
80 88 114
80 88 114
80 88 114
80 88 114
80 88 114
80 88 114
80 88 114
80 88 114
80 88 114
80 88 114
80 88 114
80 88 114
80 88 114
80 88 114
80 88 114
80 88 114
80 88 114
80 88 114
80 88 114
80 88 114
80 88 114
80 88 114
80 88 114
80 88 114
80 88 114
80 88 114
80 88 114
80 88 114
80 88 114
80 88 114
80 88 114
80 88 114
80 88 114
80 88 114
80 88 114
80 88 114
80 88 114
80 88 114
80 88 114
80 88 114
80 88 114
80 88 114
80 88 114
80 88 114
80 88 114
80 88 114
80 88 114
80 88 114
80 88 114
80 88 114
80 88 114
80 88 114
80 88 114
80 88 114
80 88 114
80 88 114
80 88 114
80 88 114
80 88 114
80 88 114
80 88 114
80 88 114
80 88 114
80 88 114
80 88 114
80 88 114
80 88 114
80 88 114
80 88 114
80 88 114
80 88 114
80 88 114
80 88 114
80 88 114
80 88 114
80 88 114
80 88 114
80 88 114
80 88 114
80 88 114
80 88 114
80 88 114
80 88 114
80 88 114
80 88 114
80 88 114
80 88 114
80 88 114
80 88 114
80 88 114
80 88 114
80 88 114
80 88 114
80 88 114
80 88 114
80 88 114
80 88 114
80 88 114
80 88 114
80 88 114
80 88 114
80 88 114
80 88 114
80 88 114
80 88 114
80 88 114
80 88 114
80 88 114
80 88 114
80 88 114
80 88 114
80 88 114
80 88 114
80 88 114
80 88 114
80 88 114
80 88 114
80 88 114
80 88 114
80 88 114
80 88 114
80 88 114
80 88 114
80 88 114
80 88 114
80 88 114
80 88 114
80 88 114
80 88 114
80 88 114
80 88 114
80 88 114
80 88 114
80 88 114
80 88 114
80 88 114
80 88 114
80 88 114
80 88 114
80 88 114
80 88 114
80 88 114
80 88 114
80 88 114
80 88 114
80 88 114
80 88 114
80 88 114
80 88 114
80 88 114
80 88 114
80 88 114
80 88 114
80 88 114
80 88 114
80 88 114
80 88 114
80 88 114
80 88 114
80 88 114
80 88 114
80 88 114
80 88 114
80 88 114
80 88 114
80 88 114
80 88 114
80 88 114
80 88 114
80 88 114
80 88 114
80 88 114
80 88 114
80 88 114
80 88 114
80 88 114
80 88 114
80 88 114
80 88 114
80 88 114
80 88 114
80 88 114
80 88 114
80 88 114
80 88 114
80 88 114
80 88 114
80 88 114
80 88 114
80 88 114
80 88 114
80 88 114
80 88 114
80 88 114
80 88 114
80 88 114
80 88 114
80 88 114
80 88 114
80 88 114
80 88 114
80 88 114
80 88 114
80 88 114
80 88 114
80 88 114
80 88 114
80 88 114
80 88 114
80 88 114
80 88 114
80 88 114
80 88 114
80 88 114
80 88 114
80 88 114
80 88 114
80 88 114
80 88 114
80 88 114
80 88 114
80 88 114
80 88 114
80 88 114
80 88 114
80 88 114
80 88 114
80 88 114
80 88 114
80 88 114
80 88 114
80 88 114
80 88 114
80 88 114
80 88 114
80 88 114
80 88 114
80 88 114
80 88 114
80 88 114
80 88 114
80 88 114
80 88 114
80 88 114
80 88 114
80 88 114
80 88 114
80 88 114
80 88 114
80 88 114
80 88 114
80 88 114
80 88 114
80 88 114
80 88 114
80 88 114
80 88 114
80 88 114
80 88 114
80 88 114
80 88 114
80 88 114
80 88 114
80 88 114
80 88 114
80 88 114
80 88 114
80 88 114
80 88 114
80 88 114
80 88 114
80 88 114
80 88 114
80 88 114
80 88 114
80 88 114
80 88 114
80 88 114
80 88 114
80 88 114
80 88 114
80 88 114
80 88 114
80 88 114
80 88 114
80 88 114
80 88 114
80 88 114
80 88 114
80 88 114
80 88 114
80 88 114
80 88 114
80 88 114
80 88 114
80 88 114
80 88 114
80 88 114
80 88 114
80 88 114
80 88 114
80 88 114
80 88 114
80 88 114
80 88 114
80 88 114
80 88 114
80 88 114
80 88 114
80 88 114
80 88 114
80 88 114
80 88 114
80 88 114
80 88 114
80 88 114
80 88 114
80 88 114
80 88 114
80 88 114
80 88 114
80 88 114
80 88 114
80 88 114
80 88 114
80 88 114
80 88 114
80 88 114
80 88 114
80 88 114
80 88 114
80 88 114
80 88 114
80 88 114
80 88 114
80 88 114
80 88 114
80 88 114
80 88 114
80 88 114
80 88 114
80 88 114
80 88 114
80 88 114
80 88 114
80 88 114
80 88 114
80 88 114
80 88 114
80 88 114
80 88 114
80 88 114
80 88 114
80 88 114
80 88 114
80 88 114
80 88 114
80 88 114
80 88 114
80 88 114
80 88 114
80 88 114
80 88 114
80 88 114
80 88 114
80 88 114
80 88 114
80 88 114
80 88 114
80 88 114
80 88 114
80 88 114
80 88 114
80 88 114
80 88 114
80 88 114
80 88 114
80 88 114
80 88 114
80 88 114
80 88 114
80 88 114
80 88 114
80 88 114
80 88 114
80 88 114
80 88 114
80 88 114
80 88 114
80 88 114
80 88 114
80 88 114
80 88 114
80 88 114
80 88 114
80 88 114
80 88 114
80 88 114
80 88 114
80 88 114
80 88 114
80 88 114
80 88 114
80 88 114
80 88 114
80 88 114
80 88 114
80 88 114
80 88 114
80 88 114
80 88 114
80 88 114
80 88 114
80 88 114
80 88 114
80 88 114
80 88 114
80 88 114
80 88 114
80 88 114
80 88 114
80 88 114
80 88 114
80 88 114
80 88 114
80 88 114
80 88 114
80 88 114
80 88 114
80 88 114
80 88 114
80 88 114
80 88 114
80 88 114
80 88 114
80 88 114
80 88 114
80 88 114
80 88 114
80 88 114
80 88 114
80 88 114
80 88 114
80 88 114
80 88 114
80 88 114
80 88 114
80 88 114
80 88 114
80 88 114
80 88 114
80 88 114
80 88 114
80 88 114
80 88 114
80 88 114
80 88 114
80 88 114
80 88 114
80 88 114
80 88 114
80 88 114
80 88 114
80 88 114
80 88 114
80 88 114
80 88 114
80 88 114
80 88 114
80 88 114
80 88 114
80 88 114
80 88 114
80 88 114
80 88 114
80 88 114
80 88 114
80 88 114
80 88 114
80 88 114
80 88 114
80 88 114
80 88 114
80 88 114
80 88 114
80 88 114
80 88 114
80 88 114
80 88 114
80 88 114
80 88 114
80 88 114
80 88 114
80 88 114
80 88 114
80 88 114
80 88 114
80 88 114
80 88 114
80 88 114
80 88 114
80 88 114
80 88 114
80 88 114
80 88 114
80 88 114
80 88 114
80 88 114
80 88 114
80 88 114
80 88 114
80 88 114
80 88 114
80 88 114
80 88 114
80 88 114
80 88 114
80 88 114
80 88 114
80 88 114
80 88 114
80 88 114
80 88 114
80 88 114
80 88 114
80 88 114
80 88 114
80 88 114
80 88 114
80 88 114
80 88 114
80 88 114
80 88 114
80 88 114
80 88 114
80 88 114
80 88 114
80 88 114
80 88 114
80 88 114
80 88 114
80 88 114
80 88 114
80 88 114
80 88 114
80 88 114
80 88 114
80 88 114
80 88 114
80 88 114
80 88 114
80 88 114
80 88 114
80 88 114
80 88 114
80 88 114
80 88 114
80 88 114
80 88 114
80 88 114
80 88 114
80 88 114
80 88 114
80 88 114
80 88 114
80 88 114
80 88 114
80 88 114
80 88 114
80 88 114
80 88 114
80 88 114
80 88 114
80 88 114
80 88 114
80 88 114
80 88 114
80 88 114
80 88 114
80 88 114
80 88 114
80 88 114
80 88 114
80 88 114
80 88 114
80 88 114
80 88 114
80 88 114
80 88 114
80 88 114
80 88 114
80 88 114
80 88 114
80 88 114
80 88 114
80 88 114
80 88 114
80 88 114
80 88 114
80 88 114
80 88 114
80 88 114
80 88 114
80 88 114
80 88 114
80 88 114
80 88 114
80 88 114
80 88 114
80 88 114
80 88 114
80 88 114
80 88 114
80 88 114
80 88 114
80 88 114
80 88 114
80 88 114
80 88 114
80 88 114
80 88 114
80 88 114
80 88 114
80 88 114
80 88 114
80 88 114
80 88 114
80 88 114
80 88 114
80 88 114
80 88 114
80 88 114
80 88 114
80 88 114
80 88 114
80 88 114
80 88 114
80 88 114
80 88 114
80 88 114
80 88 114
80 88 114
80 88 114
80 88 114
80 88 114
80 88 114
80 88 114
80 88 114
80 88 114
80 88 114
80 88 114
80 88 114
80 88 114
80 88 114
80 88 114
80 88 114
80 88 114
80 88 114
80 88 114
80 88 114
80 88 114
80 88 114
80 88 114
80 88 114
80 88 114
80 88 114
80 88 114
80 88 114
80 88 114
80 88 114
80 88 114
80 88 114
80 88 114
80 88 114
80 88 114
80 88 114
80 88 114
80 88 114
80 88 114
80 88 114
80 88 114
80 88 114
80 88 114
80 88 114
80 88 114
80 88 114
80 88 114
80 88 114
80 88 114
80 88 114
80 88 114
80 88 114
80 88 114
80 88 114
80 88 114
80 88 114
80 88 114
80 88 114
80 88 114
80 88 114
80 88 114
80 88 114
80 88 114
80 88 114
80 88 114
80 88 114
80 88 114
80 88 114
80 88 114
80 88 114
80 88 114
80 88 114
80 88 114
80 88 114
80 88 114
80 88 114
80 88 114
80 88 114
80 88 114
80 88 114
80 88 114
80 88 114
80 88 114
80 88 114
80 88 114
80 88 114
80 88 114
80 88 114
80 88 114
80 88 114
80 88 114
80 88 114
80 88 114
80 88 114
80 88 114
80 88 114
80 88 114
80 88 114
80 88 114
80 88 114
80 88 114
80 88 114
80 88 114
80 88 114
80 88 114
80 88 114
80 88 114
80 88 114
80 88 114
80 88 114
80 88 114
80 88 114
80 88 114
80 88 114
80 88 114
80 88 114
80 88 114
80 88 114
80 88 114
80 88 114
80 88 114
80 88 114
80 88 114
80 88 114
80 88 114
80 88 114
80 88 114
80 88 114
80 88 114
80 88 114
80 88 114
80 88 114
80 88 114
80 88 114
80 88 114
80 88 114
80 88 114
80 88 114
80 88 114
80 88 114
80 88 114
80 88 114
80 88 114
80 88 114
80 88 114
80 88 114
80 88 114
80 88 114
80 88 114
80 88 114
80 88 114
80 88 114
80 88 114
80 88 114
80 88 114
80 88 114
80 88 114
80 88 114
80 88 114
80 88 114
80 88 114
80 88 114
80 88 114
80 88 114
80 88 114
80 88 114
80 88 114
80 88 114
80 88 114
80 88 114
80 88 114
80 88 114
80 88 114
80 88 114
80 88 114
80 88 114
80 88 114
80 88 114
80 88 114
80 88 114
80 88 114
80 88 114
80 88 114
80 88 114
80 88 114
80 88 114
80 88 114
80 88 114
80 88 114
80 88 114
80 88 114
80 88 114
80 88 114
80 88 114
80 88 114
80 88 114
80 88 114
80 88 114
80 88 114
80 88 114
80 88 114
80 88 114
80 88 114
80 88 114
80 88 114
80 88 114
80 88 114
80 88 114
80 88 114
80 88 114
80 88 114
80 88 114
80 88 114
80 88 114
80 88 114
80 88 114
80 88 114
80 88 114
80 88 114
80 88 114
80 88 114
80 88 114
80 88 114
80 88 114
80 88 114
80 88 114
80 88 114
80 88 114
80 88 114
80 88 114
80 88 114
80 88 114
80 88 114
80 88 114
80 88 114
80 88 114
80 88 114
80 88 114
80 88 114
80 88 114
80 88 114
80 88 114
80 88 114
80 88 114
80 88 114
80 88 114
80 88 114
80 88 114
80 88 114
80 88 114
80 88 114
80 88 114
80 88 114
80 88 114
80 88 114
80 88 114
80 88 114
80 88 114
80 88 114
80 88 114
80 88 114
80 88 114
80 88 114
80 88 114
80 88 114
80 88 114
80 88 114
80 88 114
80 88 114
80 88 114
80 88 114
80 88 114
80 88 114
80 88 114
80 88 114
80 88 114
80 88 114
80 88 114
80 88 114
80 88 114
80 88 114
80 88 114
80 88 114
80 88 114
80 88 114
80 88 114
80 88 114
80 88 114
80 88 114
80 88 114
80 88 114
80 88 114
80 88 114
80 88 114
80 88 114
80 88 114
80 88 114
80 88 114
80 88 114
80 88 114
80 88 114
80 88 114
80 88 114
80 88 114
80 88 114
80 88 114
80 88 114
80 88 114
80 88 114
80 88 114
80 88 114
80 88 114
80 88 114
80 88 114
80 88 114
80 88 114
80 88 114
80 88 114
80 88 114
80 88 114
80 88 114
80 88 114
80 88 114
80 88 114
80 88 114
80 88 114
80 88 114
80 88 114
80 88 114
80 88 114
80 88 114
80 88 114
80 88 114
80 88 114
80 88 114
80 88 114
80 88 114
80 88 114
80 88 114
80 88 114
80 88 114
80 88 114
80 88 114
80 88 114
80 88 114
80 88 114
80 88 114
80 88 114
80 88 114
80 88 114
80 88 114
80 88 114
80 88 114
80 88 114
80 88 114
80 88 114
80 88 114
80 88 114
80 88 114
80 88 114
80 88 114
80 88 114
80 88 114
80 88 114
80 88 114
80 88 114
80 88 114
80 88 114
80 88 114
80 88 114
80 88 114
80 88 114
80 88 114
80 88 114
80 88 114
80 88 114
80 88 114
80 88 114
80 88 114
80 88 114
80 88 114
80 88 114
80 88 114
80 88 114
80 88 114
80 88 114
80 88 114
80 88 114
80 88 114
80 88 114
80 88 114
80 88 114
80 88 114
80 88 114
80 88 114
80 88 114
80 88 114
80 88 114
80 88 114
80 88 114
80 88 114
80 88 114
80 88 114
80 88 114
80 88 114
80 88 114
80 88 114
80 88 114
80 88 114
80 88 114
80 88 114
80 88 114
80 88 114
80 88 114
80 88 114
80 88 114
80 88 114
80 88 114
80 88 114
80 88 114
80 88 114
80 88 114
80 88 114
80 88 114
80 88 114
80 88 114
80 88 114
80 88 114
80 88 114
80 88 114
80 88 114
80 88 114
80 88 114
80 88 114
80 88 114
80 88 114
80 88 114
80 88 114
80 88 114
80 88 114
80 88 114
80 88 114
80 88 114
80 88 114
80 88 114
80 88 114
80 88 114
80 88 114
80 88 114
80 88 114
80 88 114
80 88 114
80 88 114
80 88 114
80 88 114
80 88 114
80 88 114
80 88 114
80 88 114
80 88 114
80 88 114
80 88 114
80 88 114
80 88 114
80 88 114
80 88 114
80 88 114
80 88 114
80 88 114
80 88 114
80 88 114
80 88 114
80 88 114
80 88 114
80 88 114
80 88 114
80 88 114
80 88 114
80 88 114
80 88 114
80 88 114
80 88 114
80 88 114
80 88 114
80 88 114
80 88 114
80 88 114
80 88 114
80 88 114
80 88 114
80 88 114
80 88 114
80 88 114
80 88 114
80 88 114
80 88 114
80 88 114
80 88 114
80 88 114
80 88 114
80 88 114
80 88 114
80 88 114
80 88 114
80 88 114
80 88 114
80 88 114
80 88 114
80 88 114
80 88 114
80 88 114
80 88 114
80 88 114
80 88 114
80 88 114
80 88 114
80 88 114
80 88 114
80 88 114
80 88 114
80 88 114
80 88 114
80 88 114
80 88 114
80 88 114
80 88 114
80 88 114
80 88 114
80 88 114
80 88 114
80 88 114
80 88 114
80 88 114
80 88 114
80 88 114
80 88 114
80 88 114
80 88 114
80 88 114
80 88 114
80 88 114
80 88 114
80 88 114
80 88 114
80 88 114
80 88 114
80 88 114
80 88 114
80 88 114
80 88 114
80 88 114
80 88 114
80 88 114
80 88 114
80 88 114
80 88 114
80 88 114
80 88 114
80 88 114
80 88 114
80 88 114
80 88 114
80 88 114
80 88 114
80 88 114
80 88 114
80 88 114
80 88 114
80 88 114
80 88 114
80 88 114
80 88 114
80 88 114
80 88 114
80 88 114
80 88 114
80 88 114
80 88 114
80 88 114
80 88 114
80 88 114
80 88 114
80 88 114
80 88 114
80 88 114
80 88 114
80 88 114
80 88 114
80 88 114
80 88 114
80 88 114
80 88 114
80 88 114
80 88 114
80 88 114
80 88 114
80 88 114
80 88 114
80 88 114
80 88 114
80 88 114
80 88 114
80 88 114
80 88 114
80 88 114
80 88 114
80 88 114
80 88 114
80 88 114
80 88 114
80 88 114
80 88 114
80 88 114
80 88 114
80 88 114
80 88 114
80 88 114
80 88 114
80 88 114
80 88 114
80 88 114
80 88 114
80 88 114
80 88 114
80 88 114
80 88 114
80 88 114
80 88 114
80 88 114
80 88 114
80 88 114
80 88 114
80 88 114
80 88 114
80 88 114
80 88 114
80 88 114
80 88 114
80 88 114
80 88 114
80 88 114
80 88 114
80 88 114
80 88 114
80 88 114
80 88 114
80 88 114
80 88 114
80 88 114
80 88 114
80 88 114
80 88 114
80 88 114
80 88 114
80 88 114
80 88 114
80 88 114
80 88 114
80 88 114
80 88 114
80 88 114
80 88 114
80 88 114
80 88 114
80 88 114
80 88 114
80 88 114
80 88 114
80 88 114
80 88 114
80 88 114
80 88 114
80 88 114
80 88 114
80 88 114
80 88 114
80 88 114
80 88 114
80 88 114
80 88 114
80 88 114
80 88 114
80 88 114
80 88 114
80 88 114
80 88 114
80 88 114
80 88 114
80 88 114
80 88 114
80 88 114
80 88 114
80 88 114
80 88 114
80 88 114
80 88 114
80 88 114
80 88 114
80 88 114
80 88 114
80 88 114
80 88 114
80 88 114
80 88 114
80 88 114
80 88 114
80 88 114
80 88 114
80 88 114
80 88 114
80 88 114
80 88 114
80 88 114
80 88 114
80 88 114
80 88 114
80 88 114
80 88 114
80 88 114
80 88 114
80 88 114
80 88 114
80 88 114
80 88 114
80 88 114
80 88 114
80 88 114
80 88 114
80 88 114
80 88 114
80 88 114
80 88 114
80 88 114
80 88 114
80 88 114
80 88 114
80 88 114
80 88 114
80 88 114
80 88 114
80 88 114
80 88 114
80 88 114
80 88 114
80 88 114
80 88 114
80 88 114
80 88 114
80 88 114
80 88 114
80 88 114
80 88 114
80 88 114
80 88 114
80 88 114
80 88 114
80 88 114
80 88 114
80 88 114
80 88 114
80 88 114
80 88 114
80 88 114
80 88 114
80 88 114
80 88 114
80 88 114
80 88 114
80 88 114
80 88 114
80 88 114
80 88 114
80 88 114
80 88 114
80 88 114
80 88 114
80 88 114
80 88 114
80 88 114
80 88 114
80 88 114
80 88 114
80 88 114
80 88 114
80 88 114
80 88 114
80 88 114
80 88 114
80 88 114
80 88 114
80 88 114
80 88 114
80 88 114
80 88 114
80 88 114
80 88 114
80 88 114
80 88 114
80 88 114
80 88 114
80 88 114
80 88 114
80 88 114
80 88 114
80 88 114
80 88 114
80 88 114
80 88 114
80 88 114
80 88 114
80 88 114
80 88 114
80 88 114
80 88 114
80 88 114
80 88 114
80 88 114
80 88 114
80 88 114
80 88 114
80 88 114
80 88 114
80 88 114
80 88 114
80 88 114
80 88 114
80 88 114
80 88 114
80 88 114
80 88 114
80 88 114
80 88 114
80 88 114
80 88 114
80 88 114
80 88 114
80 88 114
80 88 114
80 88 114
80 88 114
80 88 114
80 88 114
80 88 114
80 88 114
80 88 114
80 88 114
80 88 114
80 88 114
80 88 114
80 88 114
80 88 114
80 88 114
80 88 114
80 88 114
80 88 114
80 88 114
80 88 114
80 88 114
80 88 114
80 88 114
80 88 114
80 88 114
80 88 114
80 88 114
80 88 114
80 88 114
80 88 114
80 88 114
80 88 114
80 88 114
80 88 114
80 88 114
80 88 114
80 88 114
80 88 114
80 88 114
80 88 114
80 88 114
80 88 114
80 88 114
80 88 114
80 88 114
80 88 114
80 88 114
80 88 114
80 88 114
80 88 114
80 88 114
80 88 114
80 88 114
80 88 114
80 88 114
80 88 114
80 88 114
80 88 114
80 88 114
80 88 114
80 88 114
80 88 114
80 88 114
80 88 114
80 88 114
80 88 114
80 88 114
80 88 114
80 88 114
80 88 114
80 88 114
80 88 114
80 88 114
80 88 114
80 88 114
80 88 114
80 88 114
80 88 114
80 88 114
80 88 114
80 88 114
80 88 114
80 88 114
80 88 114
80 88 114
80 88 114
80 88 114
80 88 114
80 88 114
80 88 114
80 88 114
80 88 114
80 88 114
80 88 114
80 88 114
80 88 114
80 88 114
80 88 114
80 88 114
80 88 114
80 88 114
80 88 114
80 88 114
80 88 114
80 88 114
80 88 114
80 88 114
80 88 114
80 88 114
80 88 114
80 88 114
80 88 114
80 88 114
80 88 114
80 88 114
80 88 114
80 88 114
80 88 114
80 88 114
80 88 114
80 88 114
80 88 114
80 88 114
80 88 114
80 88 114
80 88 114
80 88 114
80 88 114
80 88 114
80 88 114
80 88 114
80 88 114
80 88 114
80 88 114
80 88 114
80 88 114
80 88 114
80 88 114
80 88 114
80 88 114
80 88 114
80 88 114
80 88 114
80 88 114
80 88 114
80 88 114
80 88 114
80 88 114
80 88 114
80 88 114
80 88 114
80 88 114
80 88 114
80 88 114
80 88 114
80 88 114
80 88 114
80 88 114
80 88 114
80 88 114
80 88 114
80 88 114
80 88 114
80 88 114
80 88 114
80 88 114
80 88 114
80 88 114
80 88 114
80 88 114
80 88 114
80 88 114
80 88 114
80 88 114
80 88 114
80 88 114
80 88 114
80 88 114
80 88 114
80 88 114
80 88 114
80 88 114
80 88 114
80 88 114
80 88 114
80 88 114
80 88 114
80 88 114
80 88 114
80 88 114
80 88 114
80 88 114
80 88 114
80 88 114
80 88 114
80 88 114
80 88 114
80 88 114
80 88 114
80 88 114
80 88 114
80 88 114
80 88 114
80 88 114
80 88 114
80 88 114
80 88 114
80 88 114
80 88 114
80 88 114
80 88 114
80 88 114
80 88 114
80 88 114
80 88 114
80 88 114
80 88 114
80 88 114
80 88 114
80 88 114
80 88 114
80 88 114
80 88 114
80 88 114
80 88 114
80 88 114
80 88 114
80 88 114
80 88 114
80 88 114
80 88 114
80 88 114
80 88 114
80 88 114
80 88 114
80 88 114
80 88 114
80 88 114
80 88 114
80 88 114
80 88 114
80 88 114
80 88 114
80 88 114
80 88 114
80 88 114
80 88 114
80 88 114
80 88 114
80 88 114
80 88 114
80 88 114
80 88 114
80 88 114
80 88 114
80 88 114
80 88 114
80 88 114
80 88 114
80 88 114
80 88 114
80 88 114
80 88 114
80 88 114
80 88 114
80 88 114
80 88 114
80 88 114
80 88 114
80 88 114
80 88 114
80 88 114
80 88 114
80 88 114
80 88 114
80 88 114
80 88 114
80 88 114
80 88 114
80 88 114
80 88 114
80 88 114
80 88 114
80 88 114
80 88 114
80 88 114
80 88 114
80 88 114
80 88 114
80 88 114
80 88 114
80 88 114
80 88 114
80 88 114
80 88 114
80 88 114
80 88 114
80 88 114
80 88 114
80 88 114
80 88 114
80 88 114
80 88 114
80 88 114
80 88 114
80 88 114
80 88 114
80 88 114
80 88 114
80 88 114
80 88 114
80 88 114
80 88 114
80 88 114
80 88 114
80 88 114
80 88 114
80 88 114
80 88 114
80 88 114
80 88 114
80 88 114
80 88 114
80 88 114
80 88 114
80 88 114
80 88 114
80 88 114
80 88 114
80 88 114
80 88 114
80 88 114
80 88 114
80 88 114
80 88 114
80 88 114
80 88 114
80 88 114
80 88 114
80 88 114
80 88 114
80 88 114
80 88 114
80 88 114
80 88 114
80 88 114
80 88 114
80 88 114
80 88 114
80 88 114
80 88 114
80 88 114
80 88 114
80 88 114
80 88 114
80 88 114
80 88 114
80 88 114
80 88 114
80 88 114
80 88 114
80 88 114
80 88 114
80 88 114
80 88 114
80 88 114
80 88 114
80 88 114
80 88 114
80 88 114
80 88 114
80 88 114
80 88 114
80 88 114
80 88 114
80 88 114
80 88 114
80 88 114
80 88 114
80 88 114
80 88 114
80 88 114
80 88 114
80 88 114
80 88 114
80 88 114
80 88 114
80 88 114
80 88 114
80 88 114
80 88 114
80 88 114
80 88 114
80 88 114
80 88 114
80 88 114
80 88 114
80 88 114
80 88 114
80 88 114
80 88 114
80 88 114
80 88 114
80 88 114
80 88 114
80 88 114
80 88 114
80 88 114
80 88 114
80 88 114
80 88 114
80 88 114
80 88 114
80 88 114
80 88 114
80 88 114
80 88 114
80 88 114
80 88 114
80 88 114
80 88 114
80 88 114
80 88 114
80 88 114
80 88 114
80 88 114
80 88 114
80 88 114
80 88 114
80 88 114
80 88 114
80 88 114
80 88 114
80 88 114
80 88 114
80 88 114
80 88 114
80 88 114
80 88 114
80 88 114
80 88 114
80 88 114
80 88 114
80 88 114
80 88 114
80 88 114
80 88 114
80 88 114
80 88 114
80 88 114
80 88 114
80 88 114
80 88 114
80 88 114
80 88 114
80 88 114
80 88 114
80 88 114
80 88 114
80 88 114
80 88 114
80 88 114
80 88 114
80 88 114
80 88 114
80 88 114
80 88 114
80 88 114
80 88 114
80 88 114
80 88 114
80 88 114
80 88 114
80 88 114
80 88 114
80 88 114
80 88 114
80 88 114
80 88 114
80 88 114
80 88 114
80 88 114
80 88 114
80 88 114
80 88 114
80 88 114
80 88 114
80 88 114
80 88 114
80 88 114
80 88 114
80 88 114
80 88 114
80 88 114
80 88 114
80 88 114
80 88 114
80 88 114
80 88 114
80 88 114
80 88 114
80 88 114
80 88 114
80 88 114
80 88 114
80 88 114
80 88 114
80 88 114
80 88 114
80 88 114
80 88 114
80 88 114
80 88 114
80 88 114
80 88 114
80 88 114
80 88 114
80 88 114
80 88 114
80 88 114
80 88 114
80 88 114
80 88 114
80 88 114
80 88 114
80 88 114
80 88 114
80 88 114
80 88 114
80 88 114
80 88 114
80 88 114
80 88 114
80 88 114
80 88 114
80 88 114
80 88 114
80 88 114
80 88 114
80 88 114
80 88 114
80 88 114
80 88 114
80 88 114
80 88 114
80 88 114
80 88 114
80 88 114
80 88 114
80 88 114
80 88 114
80 88 114
80 88 114
80 88 114
80 88 114
80 88 114
80 88 114
80 88 114
80 88 114
80 88 114
80 88 114
80 88 114
80 88 114
80 88 114
80 88 114
80 88 114
80 88 114
80 88 114
80 88 114
80 88 114
80 88 114
80 88 114
80 88 114
80 88 114
80 88 114
80 88 114
80 88 114
80 88 114
80 88 114
80 88 114
80 88 114
80 88 114
80 88 114
80 88 114
80 88 114
80 88 114
80 88 114
80 88 114
80 88 114
80 88 114
80 88 114
80 88 114
80 88 114
80 88 114
80 88 114
80 88 114
80 88 114
80 88 114
80 88 114
80 88 114
80 88 114
80 88 114
80 88 114
80 88 114
80 88 114
80 88 114
80 88 114
80 88 114
80 88 114
80 88 114
80 88 114
80 88 114
80 88 114
80 88 114
80 88 114
80 88 114
80 88 114
80 88 114
80 88 114
80 88 114
80 88 114
80 88 114
80 88 114
80 88 114
80 88 114
80 88 114
80 88 114
80 88 114
80 88 114
80 88 114
80 88 114
80 88 114
80 88 114
80 88 114
80 88 114
80 88 114
80 88 114
80 88 114
80 88 114
80 88 114
80 88 114
80 88 114
80 88 114
80 88 114
80 88 114
80 88 114
80 88 114
80 88 114
80 88 114
80 88 114
80 88 114
80 88 114
80 88 114
80 88 114
80 88 114
80 88 114
80 88 114
80 88 114
80 88 114
80 88 114
80 88 114
80 88 114
80 88 114
80 88 114
80 88 114
80 88 114
80 88 114
80 88 114
80 88 114
80 88 114
80 88 114
80 88 114
80 88 114
80 88 114
80 88 114
80 88 114
80 88 114
80 88 114
80 88 114
80 88 114
80 88 114
80 88 114
80 88 114
80 88 114
80 88 114
80 88 114
80 88 114
80 88 114
80 88 114
80 88 114
80 88 114
80 88 114
80 88 114
80 88 114
80 88 114
80 88 114
80 88 114
80 88 114
80 88 114
80 88 114
80 88 114
80 88 114
80 88 114
80 88 114
80 88 114
80 88 114
80 88 114
80 88 114
80 88 114
80 88 114
80 88 114
80 88 114
80 88 114
80 88 114
80 88 114
80 88 114
80 88 114
80 88 114
80 88 114
80 88 114
80 88 114
80 88 114
80 88 114
80 88 114
80 88 114
80 88 114
80 88 114
80 88 114
80 88 114
80 88 114
80 88 114
80 88 114
80 88 114
80 88 114
80 88 114
80 88 114
80 88 114
80 88 114
80 88 114
80 88 114
80 88 114
80 88 114
80 88 114
80 88 114
80 88 114
80 88 114
80 88 114
80 88 114
80 88 114
80 88 114
80 88 114
80 88 114
80 88 114
80 88 114
80 88 114
80 88 114
80 88 114
80 88 114
80 88 114
80 88 114
80 88 114
80 88 114
80 88 114
80 88 114
80 88 114
80 88 114
80 88 114
80 88 114
80 88 114
80 88 114
80 88 114
80 88 114
80 88 114
80 88 114
80 88 114
80 88 114
80 88 114
80 88 114
80 88 114
80 88 114
80 88 114
80 88 114
80 88 114
80 88 114
80 88 114
80 88 114
80 88 114
80 88 114
80 88 114
80 88 114
80 88 114
80 88 114
80 88 114
80 88 114
80 88 114
80 88 114
80 88 114
80 88 114
80 88 114
80 88 114
80 88 114
80 88 114
80 88 114
80 88 114
80 88 114
80 88 114
80 88 114
80 88 114
80 88 114
80 88 114
80 88 114
80 88 114
80 88 114
80 88 114
80 88 114
80 88 114
80 88 114
80 88 114
80 88 114
80 88 114
80 88 114
80 88 114
80 88 114
80 88 114
80 88 114
80 88 114
80 88 114
80 88 114
80 88 114
80 88 114
80 88 114
80 88 114
80 88 114
80 88 114
80 88 114
80 88 114
80 88 114
80 88 114
80 88 114
80 88 114
80 88 114
80 88 114
80 88 114
80 88 114
80 88 114
80 88 114
80 88 114
80 88 114
80 88 114
80 88 114
80 88 114
80 88 114
80 88 114
80 88 114
80 88 114
80 88 114
80 88 114
80 88 114
80 88 114
80 88 114
80 88 114
80 88 114
80 88 114
80 88 114
80 88 114
80 88 114
80 88 114
80 88 114
80 88 114
80 88 114
80 88 114
80 88 114
80 88 114
80 88 114
80 88 114
80 88 114
80 88 114
80 88 114
80 88 114
80 88 114
80 88 114
80 88 114
80 88 114
80 88 114
80 88 114
80 88 114
80 88 114
80 88 114
80 88 114
80 88 114
80 88 114
80 88 114
80 88 114
80 88 114
80 88 114
80 88 114
80 88 114
80 88 114
80 88 114
80 88 114
80 88 114
80 88 114
80 88 114
80 88 114
80 88 114
80 88 114
80 88 114
80 88 114
80 88 114
80 88 114
80 88 114
80 88 114
80 88 114
80 88 114
80 88 114
80 88 114
80 88 114
80 88 114
80 88 114
80 88 114
80 88 114
80 88 114
80 88 114
80 88 114
80 88 114
80 88 114
80 88 114
80 88 114
80 88 114
80 88 114
80 88 114
80 88 114
80 88 114
80 88 114
80 88 114
80 88 114
80 88 114
80 88 114
80 88 114
80 88 114
80 88 114
80 88 114
80 88 114
80 88 114
80 88 114
80 88 114
80 88 114
80 88 114
80 88 114
80 88 114
80 88 114
80 88 114
80 88 114
80 88 114
80 88 114
80 88 114
80 88 114
80 88 114
80 88 114
80 88 114
80 88 114
80 88 114
80 88 114
80 88 114
80 88 114
80 88 114
80 88 114
80 88 114
80 88 114
80 88 114
80 88 114
80 88 114
80 88 114
80 88 114
80 88 114
80 88 114
80 88 114
80 88 114
80 88 114
80 88 114
80 88 114
80 88 114
80 88 114
80 88 114
80 88 114
80 88 114
80 88 114
80 88 114
80 88 114
80 88 114
80 88 114
80 88 114
80 88 114
80 88 114
80 88 114
80 88 114
80 88 114
80 88 114
80 88 114
80 88 114
80 88 114
80 88 114
80 88 114
80 88 114
80 88 114
80 88 114
80 88 114
80 88 114
80 88 114
80 88 114
80 88 114
80 88 114
80 88 114
80 88 114
80 88 114
80 88 114
80 88 114
80 88 114
80 88 114
80 88 114
80 88 114
80 88 114
80 88 114
80 88 114
80 88 114
80 88 114
80 88 114
80 88 114
80 88 114
80 88 114
80 88 114
80 88 114
80 88 114
80 88 114
80 88 114
80 88 114
80 88 114
80 88 114
80 88 114
80 88 114
80 88 114
80 88 114
80 88 114
80 88 114
80 88 114
80 88 114
80 88 114
80 88 114
80 88 114
80 88 114
80 88 114
80 88 114
80 88 114
80 88 114
80 88 114
80 88 114
80 88 114
80 88 114
80 88 114
80 88 114
80 88 114
80 88 114
80 88 114
80 88 114
80 88 114
80 88 114
80 88 114
80 88 114
80 88 114
80 88 114
80 88 114
80 88 114
80 88 114
80 88 114
80 88 114
80 88 114
80 88 114
80 88 114
80 88 114
80 88 114
80 88 114
80 88 114
80 88 114
80 88 114
80 88 114
80 88 114
80 88 114
80 88 114
80 88 114
80 88 114
80 88 114
80 88 114
80 88 114
80 88 114
80 88 114
80 88 114
80 88 114
80 88 114
80 88 114
80 88 114
80 88 114
80 88 114
80 88 114
80 88 114
80 88 114
80 88 114
80 88 114
80 88 114
80 88 114
80 88 114
80 88 114
80 88 114
80 88 114
80 88 114
80 88 114
80 88 114
80 88 114
80 88 114
80 88 114
80 88 114
80 88 114
80 88 114
80 88 114
80 88 114
80 88 114
80 88 114
80 88 114
80 88 114
80 88 114
80 88 114
80 88 114
80 88 114
80 88 114
80 88 114
80 88 114
80 88 114
80 88 114
80 88 114
80 88 114
80 88 114
80 88 114
80 88 114
80 88 114
80 88 114
80 88 114
80 88 114
80 88 114
80 88 114
80 88 114
80 88 114
80 88 114
80 88 114
80 88 114
80 88 114
80 88 114
80 88 114
80 88 114
80 88 114
80 88 114
80 88 114
80 88 114
80 88 114
80 88 114
80 88 114
80 88 114
80 88 114
80 88 114
80 88 114
80 88 114
80 88 114
80 88 114
80 88 114
80 88 114
80 88 114
80 88 114
80 88 114
80 88 114
80 88 114
80 88 114
80 88 114
80 88 114
80 88 114
80 88 114
80 88 114
80 88 114
80 88 114
80 88 114
80 88 114
80 88 114
80 88 114
80 88 114
80 88 114
80 88 114
80 88 114
80 88 114
80 88 114
80 88 114
80 88 114
80 88 114
80 88 114
80 88 114
80 88 114
80 88 114
80 88 114
80 88 114
80 88 114
80 88 114
80 88 114
80 88 114
80 88 114
80 88 114
80 88 114
80 88 114
80 88 114
80 88 114
80 88 114
80 88 114
80 88 114
80 88 114
80 88 114
80 88 114
80 88 114
80 88 114
80 88 114
80 88 114
80 88 114
80 88 114
80 88 114
80 88 114
80 88 114
80 88 114
80 88 114
80 88 114
80 88 114
80 88 114
80 88 114
80 88 114
80 88 114
80 88 114
80 88 114
80 88 114
80 88 114
80 88 114
80 88 114
80 88 114
80 88 114
80 88 114
80 88 114
80 88 114
80 88 114
80 88 114
80 88 114
80 88 114
80 88 114
80 88 114
80 88 114
80 88 114
80 88 114
80 88 114
80 88 114
80 88 114
80 88 114
80 88 114
80 88 114
80 88 114
80 88 114
80 88 114
80 88 114
80 88 114
80 88 114
80 88 114
80 88 114
80 88 114
80 88 114
80 88 114
80 88 114
80 88 114
80 88 114
80 88 114
80 88 114
80 88 114
80 88 114
80 88 114
80 88 114
80 88 114
80 88 114
80 88 114
80 88 114
80 88 114
80 88 114
80 88 114
80 88 114
80 88 114
80 88 114
80 88 114
80 88 114
80 88 114
80 88 114
80 88 114
80 88 114
80 88 114
80 88 114
80 88 114
80 88 114
80 88 114
80 88 114
80 88 114
80 88 114
80 88 114
80 88 114
80 88 114
80 88 114
80 88 114
80 88 114
80 88 114
80 88 114
80 88 114
80 88 114
80 88 114
80 88 114
80 88 114
80 88 114
80 88 114
80 88 114
80 88 114
80 88 114
80 88 114
80 88 114
80 88 114
80 88 114
80 88 114
80 88 114
80 88 114
80 88 114
80 88 114
80 88 114
80 88 114
80 88 114
80 88 114
80 88 114
80 88 114
80 88 114
80 88 114
80 88 114
80 88 114
80 88 114
80 88 114
80 88 114
80 88 114
80 88 114
80 88 114
80 88 114
80 88 114
80 88 114
80 88 114
80 88 114
80 88 114
80 88 114
80 88 114
80 88 114
80 88 114
80 88 114
80 88 114
80 88 114
80 88 114
80 88 114
80 88 114
80 88 114
80 88 114
80 88 114
80 88 114
80 88 114
80 88 114
80 88 114
80 88 114
80 88 114
80 88 114
80 88 114
80 88 114
80 88 114
80 88 114
80 88 114
80 88 114
80 88 114
80 88 114
80 88 114
80 88 114
80 88 114
80 88 114
80 88 114
80 88 114
80 88 114
80 88 114
80 88 114
80 88 114
80 88 114
80 88 114
80 88 114
80 88 114
80 88 114
80 88 114
80 88 114
80 88 114
80 88 114
80 88 114
80 88 114
80 88 114
80 88 114
80 88 114
80 88 114
80 88 114
80 88 114
80 88 114
80 88 114
80 88 114
80 88 114
80 88 114
80 88 114
80 88 114
80 88 114
80 88 114
80 88 114
80 88 114
80 88 114
80 88 114
80 88 114
80 88 114
80 88 114
80 88 114
80 88 114
80 88 114
80 88 114
80 88 114
80 88 114
80 88 114
80 88 114
80 88 114
80 88 114
80 88 114
80 88 114
80 88 114
80 88 114
80 88 114
80 88 114
80 88 114
80 88 114
80 88 114
80 88 114
80 88 114
80 88 114
80 88 114
80 88 114
80 88 114
80 88 114
80 88 114
80 88 114
80 88 114
80 88 114
80 88 114
80 88 114
80 88 114
80 88 114
80 88 114
80 88 114
80 88 114
80 88 114
80 88 114
80 88 114
80 88 114
80 88 114
80 88 114
80 88 114
80 88 114
80 88 114
80 88 114
80 88 114
80 88 114
80 88 114
80 88 114
80 88 114
80 88 114
80 88 114
80 88 114
80 88 114
80 88 114
80 88 114
80 88 114
80 88 114
80 88 114
80 88 114
80 88 114
80 88 114
80 88 114
80 88 114
80 88 114
80 88 114
80 88 114
80 88 114
80 88 114
80 88 114
80 88 114
80 88 114
80 88 114
80 88 114
80 88 114
80 88 114
80 88 114
80 88 114
80 88 114
80 88 114
80 88 114
80 88 114
80 88 114
80 88 114
80 88 114
80 88 114
80 88 114
80 88 114
80 88 114
80 88 114
80 88 114
80 88 114
80 88 114
80 88 114
80 88 114
80 88 114
80 88 114
80 88 114
80 88 114
80 88 114
80 88 114
80 88 114
80 88 114
80 88 114
80 88 114
80 88 114
80 88 114
80 88 114
80 88 114
80 88 114
80 88 114
80 88 114
80 88 114
80 88 114
80 88 114
80 88 114
80 88 114
80 88 114
80 88 114
80 88 114
80 88 114
80 88 114
80 88 114
80 88 114
80 88 114
80 88 114
80 88 114
80 88 114
80 88 114
80 88 114
80 88 114
80 88 114
80 88 114
80 88 114
80 88 114
80 88 114
80 88 114
80 88 114
80 88 114
80 88 114
80 88 114
80 88 114
80 88 114
80 88 114
80 88 114
80 88 114
80 88 114
80 88 114
80 88 114
80 88 114
80 88 114
80 88 114
80 88 114
80 88 114
80 88 114
80 88 114
80 88 114
80 88 114
80 88 114
80 88 114
80 88 114
80 88 114
80 88 114
80 88 114
80 88 114
80 88 114
80 88 114
80 88 114
80 88 114
80 88 114
80 88 114
80 88 114
80 88 114
80 88 114
80 88 114
80 88 114
80 88 114
80 88 114
80 88 114
80 88 114
80 88 114
80 88 114
80 88 114
80 88 114
80 88 114
80 88 114
80 88 114
80 88 114
80 88 114
80 88 114
80 88 114
80 88 114
80 88 114
80 88 114
80 88 114
80 88 114
80 88 114
80 88 114
80 88 114
80 88 114
80 88 114
80 88 114
80 88 114
80 88 114
80 88 114
80 88 114
80 88 114
80 88 114
80 88 114
80 88 114
80 88 114
80 88 114
80 88 114
80 88 114
80 88 114
80 88 114
80 88 114
80 88 114
80 88 114
80 88 114
80 88 114
80 88 114
80 88 114
80 88 114
80 88 114
80 88 114
80 88 114
80 88 114
80 88 114
80 88 114
80 88 114
80 88 114
80 88 114
80 88 114
80 88 114
80 88 114
80 88 114
80 88 114
80 88 114
80 88 114
80 88 114
80 88 114
80 88 114
80 88 114
80 88 114
80 88 114
80 88 114
80 88 114
80 88 114
80 88 114
80 88 114
80 88 114
80 88 114
80 88 114
80 88 114
80 88 114
80 88 114
80 88 114
80 88 114
80 88 114
80 88 114
80 88 114
80 88 114
80 88 114
80 88 114
80 88 114
80 88 114
80 88 114
80 88 114
80 88 114
80 88 114
80 88 114
80 88 114
80 88 114
80 88 114
80 88 114
80 88 114
80 88 114
80 88 114
80 88 114
80 88 114
80 88 114
80 88 114
80 88 114
80 88 114
80 88 114
80 88 114
80 88 114
80 88 114
80 88 114
80 88 114
80 88 114
80 88 114
80 88 114
80 88 114
80 88 114
80 88 114
80 88 114
80 88 114
80 88 114
80 88 114
80 88 114
80 88 114
80 88 114
80 88 114
80 88 114
80 88 114
80 88 114
80 88 114
80 88 114
80 88 114
80 88 114
80 88 114
80 88 114
80 88 114
80 88 114
80 88 114
80 88 114
80 88 114
80 88 114
80 88 114
80 88 114
80 88 114
80 88 114
80 88 114
80 88 114
80 88 114
80 88 114
80 88 114
80 88 114
80 88 114
80 88 114
80 88 114
80 88 114
80 88 114
80 88 114
80 88 114
80 88 114
80 88 114
80 88 114
80 88 114
80 88 114
80 88 114
80 88 114
80 88 114
80 88 114
80 88 114
80 88 114
80 88 114
80 88 114
80 88 114
80 88 114
80 88 114
80 88 114
80 88 114
80 88 114
80 88 114
80 88 114
80 88 114
80 88 114
80 88 114
80 88 114
80 88 114
80 88 114
80 88 114
80 88 114
80 88 114
80 88 114
80 88 114
80 88 114
80 88 114
80 88 114
80 88 114
80 88 114
80 88 114
80 88 114
80 88 114
80 88 114
80 88 114
80 88 114
80 88 114
80 88 114
80 88 114
80 88 114
80 88 114
80 88 114
80 88 114
80 88 114
80 88 114
80 88 114
80 88 114
80 88 114
80 88 114
80 88 114
80 88 114
80 88 114
80 88 114
80 88 114
80 88 114
80 88 114
80 88 114
80 88 114
80 88 114
80 88 114
80 88 114
80 88 114
80 88 114
80 88 114
80 88 114
80 88 114
80 88 114
80 88 114
80 88 114
80 88 114
80 88 114
80 88 114
80 88 114
80 88 114
80 88 114
80 88 114
80 88 114
80 88 114
80 88 114
80 88 114
80 88 114
80 88 114
80 88 114
80 88 114
80 88 114
80 88 114
80 88 114
80 88 114
80 88 114
80 88 114
80 88 114
80 88 114
80 88 114
80 88 114
80 88 114
80 88 114
80 88 114
80 88 114
80 88 114
80 88 114
80 88 114
80 88 114
80 88 114
80 88 114
80 88 114
80 88 114
80 88 114
80 88 114
80 88 114
80 88 114
80 88 114
80 88 114
80 88 114
80 88 114
80 88 114
80 88 114
80 88 114
80 88 114
80 88 114
80 88 114
80 88 114
80 88 114
80 88 114
80 88 114
80 88 114
80 88 114
80 88 114
80 88 114
80 88 114
80 88 114
80 88 114
80 88 114
80 88 114
80 88 114
80 88 114
80 88 114
80 88 114
80 88 114
80 88 114
80 88 114
80 88 114
80 88 114
80 88 114
80 88 114
80 88 114
80 88 114
80 88 114
80 88 114
80 88 114
80 88 114
80 88 114
80 88 114
80 88 114
80 88 114
80 88 114
80 88 114
80 88 114
80 88 114
80 88 114
80 88 114
80 88 114
80 88 114
80 88 114
80 88 114
80 88 114
80 88 114
80 88 114
80 88 114
80 88 114
80 88 114
80 88 114
80 88 114
80 88 114
80 88 114
80 88 114
80 88 114
80 88 114
80 88 114
80 88 114
80 88 114
80 88 114
80 88 114
80 88 114
80 88 114
80 88 114
80 88 114
80 88 114
80 88 114
80 88 114
80 88 114
80 88 114
80 88 114
80 88 114
80 88 114
80 88 114
80 88 114
80 88 114
80 88 114
80 88 114
80 88 114
80 88 114
80 88 114
80 88 114
80 88 114
80 88 114
80 88 114
80 88 114
80 88 114
80 88 114
80 88 114
80 88 114
80 88 114
80 88 114
80 88 114
80 88 114
80 88 114
80 88 114
80 88 114
80 88 114
80 88 114
80 88 114
80 88 114
80 88 114
80 88 114
80 88 114
80 88 114
80 88 114
80 88 114
80 88 114
80 88 114
80 88 114
80 88 114
80 88 114
80 88 114
80 88 114
80 88 114
80 88 114
80 88 114
80 88 114
80 88 114
80 88 114
80 88 114
80 88 114
80 88 114
80 88 114
80 88 114
80 88 114
80 88 114
80 88 114
80 88 114
80 88 114
80 88 114
80 88 114
80 88 114
80 88 114
80 88 114
80 88 114
80 88 114
80 88 114
80 88 114
80 88 114
80 88 114
80 88 114
80 88 114
80 88 114
80 88 114
80 88 114
80 88 114
80 88 114
80 88 114
80 88 114
80 88 114
80 88 114
80 88 114
80 88 114
80 88 114
80 88 114
80 88 114
80 88 114
80 88 114
80 88 114
80 88 114
80 88 114
80 88 114
80 88 114
80 88 114
80 88 114
80 88 114
80 88 114
80 88 114
80 88 114
80 88 114
80 88 114
80 88 114
80 88 114
80 88 114
80 88 114
80 88 114
80 88 114
80 88 114
80 88 114
80 88 114
80 88 114
80 88 114
80 88 114
80 88 114
80 88 114
80 88 114
80 88 114
80 88 114
80 88 114
80 88 114
80 88 114
80 88 114
80 88 114
80 88 114
80 88 114
80 88 114
80 88 114
80 88 114
80 88 114
80 88 114
80 88 114
80 88 114
80 88 114
80 88 114
80 88 114
80 88 114
80 88 114
80 88 114
80 88 114
80 88 114
80 88 114
80 88 114
80 88 114
80 88 114
80 88 114
80 88 114
80 88 114
80 88 114
80 88 114
80 88 114
80 88 114
80 88 114
80 88 114
80 88 114
80 88 114
80 88 114
80 88 114
80 88 114
80 88 114
80 88 114
80 88 114
80 88 114
80 88 114
80 88 114
80 88 114
80 88 114
80 88 114
80 88 114
80 88 114
80 88 114
80 88 114
80 88 114
80 88 114
80 88 114
80 88 114
80 88 114
80 88 114
80 88 114
80 88 114
80 88 114
80 88 114
80 88 114
80 88 114
80 88 114
80 88 114
80 88 114
80 88 114
80 88 114
80 88 114
80 88 114
80 88 114
80 88 114
80 88 114
80 88 114
80 88 114
80 88 114
80 88 114
80 88 114
80 88 114
80 88 114
80 88 114
80 88 114
80 88 114
80 88 114
80 88 114
80 88 114
80 88 114
80 88 114
80 88 114
80 88 114
80 88 114
80 88 114
80 88 114
80 88 114
80 88 114
80 88 114
80 88 114
80 88 114
80 88 114
80 88 114
80 88 114
80 88 114
80 88 114
80 88 114
80 88 114
80 88 114
80 88 114
80 88 114
80 88 114
80 88 114
80 88 114
80 88 114
80 88 114
80 88 114
80 88 114
80 88 114
80 88 114
80 88 114
80 88 114
80 88 114
80 88 114
80 88 114
80 88 114
80 88 114
80 88 114
80 88 114
80 88 114
80 88 114
80 88 114
80 88 114
80 88 114
80 88 114
80 88 114
80 88 114
80 88 114
80 88 114
80 88 114
80 88 114
80 88 114
80 88 114
80 88 114
80 88 114
80 88 114
80 88 114
80 88 114
80 88 114
80 88 114
80 88 114
80 88 114
80 88 114
80 88 114
80 88 114
80 88 114
80 88 114
80 88 114
80 88 114
80 88 114
80 88 114
80 88 114
80 88 114
80 88 114
80 88 114
80 88 114
80 88 114
80 88 114
80 88 114
80 88 114
80 88 114
80 88 114
80 88 114
80 88 114
80 88 114
80 88 114
80 88 114
80 88 114
80 88 114
80 88 114
80 88 114
80 88 114
80 88 114
80 88 114
80 88 114
80 88 114
80 88 114
80 88 114
80 88 114
80 88 114
80 88 114
80 88 114
80 88 114
80 88 114
80 88 114
80 88 114
80 88 114
80 88 114
80 88 114
80 88 114
80 88 114
80 88 114
80 88 114
80 88 114
80 88 114
80 88 114
80 88 114
80 88 114
80 88 114
80 88 114
80 88 114
80 88 114
80 88 114
80 88 114
80 88 114
80 88 114
80 88 114
80 88 114
80 88 114
80 88 114
80 88 114
80 88 114
80 88 114
80 88 114
80 88 114
80 88 114
80 88 114
80 88 114
80 88 114
80 88 114
80 88 114
80 88 114
80 88 114
80 88 114
80 88 114
80 88 114
80 88 114
80 88 114
80 88 114
80 88 114
80 88 114
80 88 114
80 88 114
80 88 114
80 88 114
80 88 114
80 88 114
80 88 114
80 88 114
80 88 114
80 88 114
80 88 114
80 88 114
80 88 114
80 88 114
80 88 114
80 88 114
80 88 114
80 88 114
80 88 114
80 88 114
80 88 114
80 88 114
80 88 114
80 88 114
80 88 114
80 88 114
80 88 114
80 88 114
80 88 114
80 88 114
80 88 114
80 88 114
80 88 114
80 88 114
80 88 114
80 88 114
80 88 114
80 88 114
80 88 114
80 88 114
80 88 114
80 88 114
80 88 114
80 88 114
80 88 114
80 88 114
80 88 114
80 88 114
80 88 114
80 88 114
80 88 114
80 88 114
80 88 114
80 88 114
80 88 114
80 88 114
80 88 114
80 88 114
80 88 114
80 88 114
80 88 114
80 88 114
80 88 114
80 88 114
80 88 114
80 88 114
80 88 114
80 88 114
80 88 114
80 88 114
80 88 114
80 88 114
80 88 114
80 88 114
80 88 114
80 88 114
80 88 114
80 88 114
80 88 114
80 88 114
80 88 114
80 88 114
80 88 114
80 88 114
80 88 114
80 88 114
80 88 114
80 88 114
80 88 114
80 88 114
80 88 114
80 88 114
80 88 114
80 88 114
80 88 114
80 88 114
80 88 114
80 88 114
80 88 114
80 88 114
80 88 114
80 88 114
80 88 114
80 88 114
80 88 114
80 88 114
80 88 114
80 88 114
80 88 114
80 88 114
80 88 114
80 88 114
80 88 114
80 88 114
80 88 114
80 88 114
80 88 114
80 88 114
80 88 114
80 88 114
80 88 114
80 88 114
80 88 114
80 88 114
80 88 114
80 88 114
80 88 114
80 88 114
80 88 114
80 88 114
80 88 114
80 88 114
80 88 114
80 88 114
80 88 114
80 88 114
80 88 114
80 88 114
80 88 114
80 88 114
80 88 114
80 88 114
80 88 114
80 88 114
80 88 114
80 88 114
80 88 114
80 88 114
80 88 114
80 88 114
80 88 114
80 88 114
80 88 114
80 88 114
80 88 114
80 88 114
80 88 114
80 88 114
80 88 114
80 88 114
80 88 114
80 88 114
80 88 114
80 88 114
80 88 114
80 88 114
80 88 114
80 88 114
80 88 114
80 88 114
80 88 114
80 88 114
80 88 114
80 88 114
80 88 114
80 88 114
80 88 114
80 88 114
80 88 114
80 88 114
80 88 114
80 88 114
80 88 114
80 88 114
80 88 114
80 88 114
80 88 114
80 88 114
80 88 114
80 88 114
80 88 114
80 88 114
80 88 114
80 88 114
80 88 114
80 88 114
80 88 114
80 88 114
80 88 114
80 88 114
80 88 114
80 88 114
80 88 114
80 88 114
80 88 114
80 88 114
80 88 114
80 88 114
80 88 114
80 88 114
80 88 114
80 88 114
80 88 114
80 88 114
80 88 114
80 88 114
80 88 114
80 88 114
80 88 114
80 88 114
80 88 114
80 88 114
80 88 114
80 88 114
80 88 114
80 88 114
80 88 114
80 88 114
80 88 114
80 88 114
80 88 114
80 88 114
80 88 114
80 88 114
80 88 114
80 88 114
80 88 114
80 88 114
80 88 114
80 88 114
80 88 114
80 88 114
80 88 114
80 88 114
80 88 114
80 88 114
80 88 114
80 88 114
80 88 114
80 88 114
80 88 114
80 88 114
80 88 114
80 88 114
80 88 114
80 88 114
80 88 114
80 88 114
80 88 114
80 88 114
80 88 114
80 88 114
80 88 114
80 88 114
80 88 114
80 88 114
80 88 114
80 88 114
80 88 114
80 88 114
80 88 114
80 88 114
80 88 114
80 88 114
80 88 114
80 88 114
80 88 114
80 88 114
80 88 114
80 88 114
80 88 114
80 88 114
80 88 114
80 88 114
80 88 114
80 88 114
80 88 114
80 88 114
80 88 114
80 88 114
80 88 114
80 88 114
80 88 114
80 88 114
80 88 114
80 88 114
80 88 114
80 88 114
80 88 114
80 88 114
80 88 114
80 88 114
80 88 114
80 88 114
80 88 114
80 88 114
80 88 114
80 88 114
80 88 114
80 88 114
80 88 114
80 88 114
80 88 114
80 88 114
80 88 114
80 88 114
80 88 114
80 88 114
80 88 114
80 88 114
80 88 114
80 88 114
80 88 114
80 88 114
80 88 114
80 88 114
80 88 114
80 88 114
80 88 114
80 88 114
80 88 114
80 88 114
80 88 114
80 88 114
80 88 114
80 88 114
80 88 114
80 88 114
80 88 114
80 88 114
80 88 114
80 88 114
80 88 114
80 88 114
80 88 114
80 88 114
80 88 114
80 88 114
80 88 114
80 88 114
80 88 114
80 88 114
80 88 114
80 88 114
80 88 114
80 88 114
80 88 114
80 88 114
80 88 114
80 88 114
80 88 114
80 88 114
80 88 114
80 88 114
80 88 114
80 88 114
80 88 114
80 88 114
80 88 114
80 88 114
80 88 114
80 88 114
80 88 114
80 88 114
80 88 114
80 88 114
80 88 114
80 88 114
80 88 114
80 88 114
80 88 114
80 88 114
80 88 114
80 88 114
80 88 114
80 88 114
80 88 114
80 88 114
80 88 114
80 88 114
80 88 114
80 88 114
80 88 114
80 88 114
80 88 114
80 88 114
80 88 114
80 88 114
80 88 114
80 88 114
80 88 114
80 88 114
80 88 114
80 88 114
80 88 114
80 88 114
80 88 114
80 88 114
80 88 114
80 88 114
80 88 114
80 88 114
80 88 114
80 88 114
80 88 114
80 88 114
80 88 114
80 88 114
80 88 114
80 88 114
80 88 114
80 88 114
80 88 114
80 88 114
80 88 114
80 88 114
80 88 114
80 88 114
80 88 114
80 88 114
80 88 114
80 88 114
80 88 114
80 88 114
80 88 114
80 88 114
80 88 114
80 88 114
80 88 114
80 88 114
80 88 114
80 88 114
80 88 114
80 88 114
80 88 114
80 88 114
80 88 114
80 88 114
80 88 114
80 88 114
80 88 114
80 88 114
80 88 114
80 88 114
80 88 114
80 88 114
80 88 114
80 88 114
80 88 114
80 88 114
80 88 114
80 88 114
80 88 114
80 88 114
80 88 114
80 88 114
80 88 114
80 88 114
80 88 114
80 88 114
80 88 114
80 88 114
80 88 114
80 88 114
80 88 114
80 88 114
80 88 114
80 88 114
80 88 114
80 88 114
80 88 114
80 88 114
80 88 114
80 88 114
80 88 114
80 88 114
80 88 114
80 88 114
80 88 114
80 88 114
80 88 114
80 88 114
80 88 114
80 88 114
80 88 114
80 88 114
80 88 114
80 88 114
80 88 114
80 88 114
80 88 114
80 88 114
80 88 114
80 88 114
80 88 114
80 88 114
80 88 114
80 88 114
80 88 114
80 88 114
80 88 114
80 88 114
80 88 114
80 88 114
80 88 114
80 88 114
80 88 114
80 88 114
80 88 114
80 88 114
80 88 114
80 88 114
80 88 114
80 88 114
80 88 114
80 88 114
80 88 114
80 88 114
80 88 114
80 88 114
80 88 114
80 88 114
80 88 114
80 88 114
80 88 114
80 88 114
80 88 114
80 88 114
80 88 114
80 88 114
80 88 114
80 88 114
80 88 114
80 88 114
80 88 114
80 88 114
80 88 114
80 88 114
80 88 114
80 88 114
80 88 114
80 88 114
80 88 114
80 88 114
80 88 114
80 88 114
80 88 114
80 88 114
80 88 114
80 88 114
80 88 114
80 88 114
80 88 114
80 88 114
80 88 114
80 88 114
80 88 114
80 88 114
80 88 114
80 88 114
80 88 114
80 88 114
80 88 114
80 88 114
80 88 114
80 88 114
80 88 114
80 88 114
80 88 114
80 88 114
80 88 114
80 88 114
80 88 114
80 88 114
80 88 114
80 88 114
80 88 114
80 88 114
80 88 114
80 88 114
80 88 114
80 88 114
80 88 114
80 88 114
80 88 114
80 88 114
80 88 114
80 88 114
80 88 114
80 88 114
80 88 114
80 88 114
80 88 114
80 88 114
80 88 114
80 88 114
80 88 114
80 88 114
80 88 114
80 88 114
80 88 114
80 88 114
80 88 114
80 88 114
80 88 114
80 88 114
80 88 114
80 88 114
80 88 114
80 88 114
80 88 114
80 88 114
80 88 114
80 88 114
80 88 114
80 88 114
80 88 114
80 88 114
80 88 114
80 88 114
80 88 114
80 88 114
80 88 114
80 88 114
80 88 114
80 88 114
80 88 114
80 88 114
80 88 114
80 88 114
80 88 114
80 88 114
80 88 114
80 88 114
80 88 114
80 88 114
80 88 114
80 88 114
80 88 114
80 88 114
80 88 114
80 88 114
80 88 114
80 88 114
80 88 114
80 88 114
80 88 114
80 88 114
80 88 114
80 88 114
80 88 114
80 88 114
80 88 114
80 88 114
80 88 114
80 88 114
80 88 114
80 88 114
80 88 114
80 88 114
80 88 114
80 88 114
80 88 114
80 88 114
80 88 114
80 88 114
80 88 114
80 88 114
80 88 114
80 88 114
80 88 114
80 88 114
80 88 114
80 88 114
80 88 114
80 88 114
80 88 114
80 88 114
80 88 114
80 88 114
80 88 114
80 88 114
80 88 114
80 88 114
80 88 114
80 88 114
80 88 114
80 88 114
80 88 114
80 88 114
80 88 114
80 88 114
80 88 114
80 88 114
80 88 114
80 88 114
80 88 114
80 88 114
80 88 114
80 88 114
80 88 114
80 88 114
80 88 114
80 88 114
80 88 114
80 88 114
80 88 114
80 88 114
80 88 114
80 88 114
80 88 114
80 88 114
80 88 114
80 88 114
80 88 114
80 88 114
80 88 114
80 88 114
80 88 114
80 88 114
80 88 114
80 88 114
80 88 114
80 88 114
80 88 114
80 88 114
80 88 114
80 88 114
80 88 114
80 88 114
80 88 114
80 88 114
80 88 114
80 88 114
80 88 114
80 88 114
80 88 114
80 88 114
80 88 114
80 88 114
80 88 114
80 88 114
80 88 114
80 88 114
80 88 114
80 88 114
80 88 114
80 88 114
80 88 114
80 88 114
80 88 114
80 88 114
80 88 114
80 88 114
80 88 114
80 88 114
80 88 114
80 88 114
80 88 114
80 88 114
80 88 114
80 88 114
80 88 114
80 88 114
80 88 114
80 88 114
80 88 114
80 88 114
80 88 114
80 88 114
80 88 114
80 88 114
80 88 114
80 88 114
80 88 114
80 88 114
80 88 114
80 88 114
80 88 114
80 88 114
80 88 114
80 88 114
80 88 114
80 88 114
80 88 114
80 88 114
80 88 114
80 88 114
80 88 114
80 88 114
80 88 114
80 88 114
80 88 114
80 88 114
80 88 114
80 88 114
80 88 114
80 88 114
80 88 114
80 88 114
80 88 114
80 88 114
80 88 114
80 88 114
80 88 114
80 88 114
80 88 114
80 88 114
80 88 114
80 88 114
80 88 114
80 88 114
80 88 114
80 88 114
80 88 114
80 88 114
80 88 114
80 88 114
80 88 114
80 88 114
80 88 114
80 88 114
80 88 114
80 88 114
80 88 114
80 88 114
80 88 114
80 88 114
80 88 114
80 88 114
80 88 114
80 88 114
80 88 114
80 88 114
80 88 114
80 88 114
80 88 114
80 88 114
80 88 114
80 88 114
80 88 114
80 88 114
80 88 114
80 88 114
80 88 114
80 88 114
80 88 114
80 88 114
80 88 114
80 88 114
80 88 114
80 88 114
80 88 114
80 88 114
80 88 114
80 88 114
80 88 114
80 88 114
80 88 114
80 88 114
80 88 114
80 88 114
80 88 114
80 88 114
80 88 114
80 88 114
80 88 114
80 88 114
80 88 114
80 88 114
80 88 114
80 88 114
80 88 114
80 88 114
80 88 114
80 88 114
80 88 114
80 88 114
80 88 114
80 88 114
80 88 114
80 88 114
80 88 114
80 88 114
80 88 114
80 88 114
80 88 114
80 88 114
80 88 114
80 88 114
80 88 114
80 88 114
80 88 114
80 88 114
80 88 114
80 88 114
80 88 114
80 88 114
80 88 114
80 88 114
80 88 114
80 88 114
80 88 114
80 88 114
80 88 114
80 88 114
80 88 114
80 88 114
80 88 114
80 88 114
80 88 114
80 88 114
80 88 114
80 88 114
80 88 114
80 88 114
80 88 114
80 88 114
80 88 114
80 88 114
80 88 114
80 88 114
80 88 114
80 88 114
80 88 114
80 88 114
80 88 114
80 88 114
80 88 114
80 88 114
80 88 114
80 88 114
80 88 114
80 88 114
80 88 114
80 88 114
80 88 114
80 88 114
80 88 114
80 88 114
80 88 114
80 88 114
80 88 114
80 88 114
80 88 114
80 88 114
80 88 114
80 88 114
80 88 114
80 88 114
80 88 114
80 88 114
80 88 114
80 88 114
80 88 114
80 88 114
80 88 114
80 88 114
80 88 114
80 88 114
80 88 114
80 88 114
80 88 114
80 88 114
80 88 114
80 88 114
80 88 114
80 88 114
80 88 114
80 88 114
80 88 114
80 88 114
80 88 114
80 88 114
80 88 114
80 88 114
80 88 114
80 88 114
80 88 114
80 88 114
80 88 114
80 88 114
80 88 114
80 88 114
80 88 114
80 88 114
80 88 114
80 88 114
80 88 114
80 88 114
80 88 114
80 88 114
80 88 114
80 88 114
80 88 114
80 88 114
80 88 114
80 88 114
80 88 114
80 88 114
80 88 114
80 88 114
80 88 114
80 88 114
80 88 114
80 88 114
80 88 114
80 88 114
80 88 114
80 88 114
80 88 114
80 88 114
80 88 114
80 88 114
80 88 114
80 88 114
80 88 114
80 88 114
80 88 114
80 88 114
80 88 114
80 88 114
80 88 114
80 88 114
80 88 114
80 88 114
80 88 114
80 88 114
80 88 114
80 88 114
80 88 114
80 88 114
80 88 114
80 88 114
80 88 114
80 88 114
80 88 114
80 88 114
80 88 114
80 88 114
80 88 114
80 88 114
80 88 114
80 88 114
80 88 114
80 88 114
80 88 114
80 88 114
80 88 114
80 88 114
80 88 114
80 88 114
80 88 114
80 88 114
80 88 114
80 88 114
80 88 114
80 88 114
80 88 114
80 88 114
80 88 114
80 88 114
80 88 114
80 88 114
80 88 114
80 88 114
80 88 114
80 88 114
80 88 114
80 88 114
80 88 114
80 88 114
80 88 114
80 88 114
80 88 114
80 88 114
80 88 114
80 88 114
80 88 114
80 88 114
80 88 114
80 88 114
80 88 114
80 88 114
80 88 114
80 88 114
80 88 114
80 88 114
80 88 114
80 88 114
80 88 114
80 88 114
80 88 114
80 88 114
80 88 114
80 88 114
80 88 114
80 88 114
80 88 114
80 88 114
80 88 114
80 88 114
80 88 114
80 88 114
80 88 114
80 88 114
80 88 114
80 88 114
80 88 114
80 88 114
80 88 114
80 88 114
80 88 114
80 88 114
80 88 114
80 88 114
80 88 114
80 88 114
80 88 114
80 88 114
80 88 114
80 88 114
80 88 114
80 88 114
80 88 114
80 88 114
80 88 114
80 88 114
80 88 114
80 88 114
80 88 114
80 88 114
80 88 114
80 88 114
80 88 114
80 88 114
80 88 114
80 88 114
80 88 114
80 88 114
80 88 114
80 88 114
80 88 114
80 88 114
80 88 114
80 88 114
80 88 114
80 88 114
80 88 114
80 88 114
80 88 114
80 88 114
80 88 114
80 88 114
80 88 114
80 88 114
80 88 114
80 88 114
80 88 114
80 88 114
80 88 114
80 88 114
80 88 114
80 88 114
80 88 114
80 88 114
80 88 114
80 88 114
80 88 114
80 88 114
80 88 114
80 88 114
80 88 114
80 88 114
80 88 114
80 88 114
80 88 114
80 88 114
80 88 114
80 88 114
80 88 114
80 88 114
80 88 114
80 88 114
80 88 114
80 88 114
80 88 114
80 88 114
80 88 114
80 88 114
80 88 114
80 88 114
80 88 114
80 88 114
80 88 114
80 88 114
80 88 114
80 88 114
80 88 114
80 88 114
80 88 114
80 88 114
80 88 114
80 88 114
80 88 114
80 88 114
80 88 114
80 88 114
80 88 114
80 88 114
80 88 114
80 88 114
80 88 114
80 88 114
80 88 114
80 88 114
80 88 114
80 88 114
80 88 114
80 88 114
80 88 114
80 88 114
80 88 114
80 88 114
80 88 114
80 88 114
80 88 114
80 88 114
80 88 114
80 88 114
80 88 114
80 88 114
80 88 114
80 88 114
80 88 114
80 88 114
80 88 114
80 88 114
80 88 114
80 88 114
80 88 114
80 88 114
80 88 114
80 88 114
80 88 114
80 88 114
80 88 114
80 88 114
80 88 114
80 88 114
80 88 114
80 88 114
80 88 114
80 88 114
80 88 114
80 88 114
80 88 114
80 88 114
80 88 114
80 88 114
80 88 114
80 88 114
80 88 114
80 88 114
80 88 114
80 88 114
80 88 114
80 88 114
80 88 114
80 88 114
80 88 114
80 88 114
80 88 114
80 88 114
80 88 114
80 88 114
80 88 114
80 88 114
80 88 114
80 88 114
80 88 114
80 88 114
80 88 114
80 88 114
80 88 114
80 88 114
80 88 114
80 88 114
80 88 114
80 88 114
80 88 114
80 88 114
80 88 114
80 88 114
80 88 114
80 88 114
80 88 114
80 88 114
80 88 114
80 88 114
80 88 114
80 88 114
80 88 114
80 88 114
80 88 114
80 88 114
80 88 114
80 88 114
80 88 114
80 88 114
80 88 114
80 88 114
80 88 114
80 88 114
80 88 114
80 88 114
80 88 114
80 88 114
80 88 114
80 88 114
80 88 114
80 88 114
80 88 114
80 88 114
80 88 114
80 88 114
80 88 114
80 88 114
80 88 114
80 88 114
80 88 114
80 88 114
80 88 114
80 88 114
80 88 114
80 88 114
80 88 114
80 88 114
80 88 114
80 88 114
80 88 114
80 88 114
80 88 114
80 88 114
80 88 114
80 88 114
80 88 114
80 88 114
80 88 114
80 88 114
80 88 114
80 88 114
80 88 114
80 88 114
80 88 114
80 88 114
80 88 114
80 88 114
80 88 114
80 88 114
80 88 114
80 88 114
80 88 114
80 88 114
80 88 114
80 88 114
80 88 114
80 88 114
80 88 114
80 88 114
80 88 114
80 88 114
80 88 114
80 88 114
80 88 114
80 88 114
80 88 114
80 88 114
80 88 114
80 88 114
80 88 114
80 88 114
80 88 114
80 88 114
80 88 114
80 88 114
80 88 114
80 88 114
80 88 114
80 88 114
80 88 114
80 88 114
80 88 114
80 88 114
80 88 114
80 88 114
80 88 114
80 88 114
80 88 114
80 88 114
80 88 114
80 88 114
80 88 114
80 88 114
80 88 114
80 88 114
80 88 114
80 88 114
80 88 114
80 88 114
80 88 114
80 88 114
80 88 114
80 88 114
80 88 114
80 88 114
80 88 114
80 88 114
80 88 114
80 88 114
80 88 114
80 88 114
80 88 114
80 88 114
80 88 114
80 88 114
80 88 114
80 88 114
80 88 114
80 88 114
80 88 114
80 88 114
80 88 114
80 88 114
80 88 114
80 88 114
80 88 114
80 88 114
80 88 114
80 88 114
80 88 114
80 88 114
80 88 114
80 88 114
80 88 114
80 88 114
80 88 114
80 88 114
80 88 114
80 88 114
80 88 114
80 88 114
80 88 114
80 88 114
80 88 114
80 88 114
80 88 114
80 88 114
80 88 114
80 88 114
80 88 114
80 88 114
80 88 114
80 88 114
80 88 114
80 88 114
80 88 114
80 88 114
80 88 114
80 88 114
80 88 114
80 88 114
80 88 114
80 88 114
80 88 114
80 88 114
80 88 114
80 88 114
80 88 114
80 88 114
80 88 114
80 88 114
80 88 114
80 88 114
80 88 114
80 88 114
80 88 114
80 88 114
80 88 114
80 88 114
80 88 114
80 88 114
80 88 114
80 88 114
80 88 114
80 88 114
80 88 114
80 88 114
80 88 114
80 88 114
80 88 114
80 88 114
80 88 114
80 88 114
80 88 114
80 88 114
80 88 114
80 88 114
80 88 114
80 88 114
80 88 114
80 88 114
80 88 114
80 88 114
80 88 114
80 88 114
80 88 114
80 88 114
80 88 114
80 88 114
80 88 114
80 88 114
80 88 114
80 88 114
80 88 114
80 88 114
80 88 114
80 88 114
80 88 114
80 88 114
80 88 114
80 88 114
80 88 114
80 88 114
80 88 114
80 88 114
80 88 114
80 88 114
80 88 114
80 88 114
80 88 114
80 88 114
80 88 114
80 88 114
80 88 114
80 88 114
80 88 114
80 88 114
80 88 114
80 88 114
80 88 114
80 88 114
80 88 114
80 88 114
80 88 114
80 88 114
80 88 114
80 88 114
80 88 114
80 88 114
80 88 114
80 88 114
80 88 114
80 88 114
80 88 114
80 88 114
80 88 114
80 88 114
80 88 114
80 88 114
80 88 114
80 88 114
80 88 114
80 88 114
80 88 114
80 88 114
80 88 114
80 88 114
80 88 114
80 88 114
80 88 114
80 88 114
80 88 114
80 88 114
80 88 114
80 88 114
80 88 114
80 88 114
80 88 114
80 88 114
80 88 114
80 88 114
80 88 114
80 88 114
80 88 114
80 88 114
80 88 114
80 88 114
80 88 114
80 88 114
80 88 114
80 88 114
80 88 114
80 88 114
80 88 114
80 88 114
80 88 114
80 88 114
80 88 114
80 88 114
80 88 114
80 88 114
80 88 114
80 88 114
80 88 114
80 88 114
80 88 114
80 88 114
80 88 114
80 88 114
80 88 114
80 88 114
80 88 114
80 88 114
80 88 114
80 88 114
80 88 114
80 88 114
80 88 114
80 88 114
80 88 114
80 88 114
80 88 114
80 88 114
80 88 114
80 88 114
80 88 114
80 88 114
80 88 114
80 88 114
80 88 114
80 88 114
80 88 114
80 88 114
80 88 114
80 88 114
80 88 114
80 88 114
80 88 114
80 88 114
80 88 114
80 88 114
80 88 114
80 88 114
80 88 114
80 88 114
80 88 114
80 88 114
80 88 114
80 88 114
80 88 114
80 88 114
80 88 114
80 88 114
80 88 114
80 88 114
80 88 114
80 88 114
80 88 114
80 88 114
80 88 114
80 88 114
80 88 114
80 88 114
80 88 114
80 88 114
80 88 114
80 88 114
80 88 114
80 88 114
80 88 114
80 88 114
80 88 114
80 88 114
80 88 114
80 88 114
80 88 114
80 88 114
80 88 114
80 88 114
80 88 114
80 88 114
80 88 114
80 88 114
80 88 114
80 88 114
80 88 114
80 88 114
80 88 114
80 88 114
80 88 114
80 88 114
80 88 114
80 88 114
80 88 114
80 88 114
80 88 114
80 88 114
80 88 114
80 88 114
80 88 114
80 88 114
80 88 114
80 88 114
80 88 114
80 88 114
80 88 114
80 88 114
80 88 114
80 88 114
80 88 114
80 88 114
80 88 114
80 88 114
80 88 114
80 88 114
80 88 114
80 88 114
80 88 114
80 88 114
80 88 114
80 88 114
80 88 114
80 88 114
80 88 114
80 88 114
80 88 114
80 88 114
80 88 114
80 88 114
80 88 114
80 88 114
80 88 114
80 88 114
80 88 114
80 88 114
80 88 114
80 88 114
80 88 114
80 88 114
80 88 114
80 88 114
80 88 114
80 88 114
80 88 114
80 88 114
80 88 114
80 88 114
80 88 114
80 88 114
80 88 114
80 88 114
80 88 114
80 88 114
80 88 114
80 88 114
80 88 114
80 88 114
80 88 114
80 88 114
80 88 114
80 88 114
80 88 114
80 88 114
80 88 114
80 88 114
80 88 114
80 88 114
80 88 114
80 88 114
80 88 114
80 88 114
80 88 114
80 88 114
80 88 114
80 88 114
80 88 114
80 88 114
80 88 114
80 88 114
80 88 114
80 88 114
80 88 114
80 88 114
80 88 114
80 88 114
80 88 114
80 88 114
80 88 114
80 88 114
80 88 114
80 88 114
80 88 114
80 88 114
80 88 114
80 88 114
80 88 114
80 88 114
80 88 114
80 88 114
80 88 114
80 88 114
80 88 114
80 88 114
80 88 114
80 88 114
80 88 114
80 88 114
80 88 114
80 88 114
80 88 114
80 88 114
80 88 114
80 88 114
80 88 114
80 88 114
80 88 114
80 88 114
80 88 114
80 88 114
80 88 114
80 88 114
80 88 114
80 88 114
80 88 114
80 88 114
80 88 114
80 88 114
80 88 114
80 88 114
80 88 114
80 88 114
80 88 114
80 88 114
80 88 114
80 88 114
80 88 114
80 88 114
80 88 114
80 88 114
80 88 114
80 88 114
80 88 114
80 88 114
80 88 114
80 88 114
80 88 114
80 88 114
80 88 114
80 88 114
80 88 114
80 88 114
80 88 114
80 88 114
80 88 114
80 88 114
80 88 114
80 88 114
80 88 114
80 88 114
80 88 114
80 88 114
80 88 114
80 88 114
80 88 114
80 88 114
80 88 114
80 88 114
80 88 114
80 88 114
80 88 114
80 88 114
80 88 114
80 88 114
80 88 114
80 88 114
80 88 114
80 88 114
80 88 114
80 88 114
80 88 114
80 88 114
80 88 114
80 88 114
80 88 114
80 88 114
80 88 114
80 88 114
80 88 114
80 88 114
80 88 114
80 88 114
80 88 114
80 88 114
80 88 114
80 88 114
80 88 114
80 88 114
80 88 114
80 88 114
80 88 114
80 88 114
80 88 114
80 88 114
80 88 114
80 88 114
80 88 114
80 88 114
80 88 114
80 88 114
80 88 114
80 88 114
80 88 114
80 88 114
80 88 114
80 88 114
80 88 114
80 88 114
80 88 114
80 88 114
80 88 114
80 88 114
80 88 114
80 88 114
80 88 114
80 88 114
80 88 114
80 88 114
80 88 114
80 88 114
80 88 114
80 88 114
80 88 114
80 88 114
80 88 114
80 88 114
80 88 114
80 88 114
80 88 114
80 88 114
80 88 114
80 88 114
80 88 114
80 88 114
80 88 114
80 88 114
80 88 114
80 88 114
80 88 114
80 88 114
80 88 114
80 88 114
80 88 114
80 88 114
80 88 114
80 88 114
80 88 114
80 88 114
80 88 114
80 88 114
80 88 114
80 88 114
80 88 114
80 88 114
80 88 114
80 88 114
80 88 114
80 88 114
80 88 114
80 88 114
80 88 114
80 88 114
80 88 114
80 88 114
80 88 114
80 88 114
80 88 114
80 88 114
80 88 114
80 88 114
80 88 114
80 88 114
80 88 114
80 88 114
80 88 114
80 88 114
80 88 114
80 88 114
80 88 114
80 88 114
80 88 114
80 88 114
80 88 114
80 88 114
80 88 114
80 88 114
80 88 114
80 88 114
80 88 114
80 88 114
80 88 114
80 88 114
80 88 114
80 88 114
80 88 114
80 88 114
80 88 114
80 88 114
80 88 114
80 88 114
80 88 114
80 88 114
80 88 114
80 88 114
80 88 114
80 88 114
80 88 114
80 88 114
80 88 114
80 88 114
80 88 114
80 88 114
80 88 114
80 88 114
80 88 114
80 88 114
80 88 114
80 88 114
80 88 114
80 88 114
80 88 114
80 88 114
80 88 114
80 88 114
80 88 114
80 88 114
80 88 114
80 88 114
80 88 114
80 88 114
80 88 114
80 88 114
80 88 114
80 88 114
80 88 114
80 88 114
80 88 114
80 88 114
80 88 114
80 88 114
80 88 114
80 88 114
80 88 114
80 88 114
80 88 114
80 88 114
80 88 114
80 88 114
80 88 114
80 88 114
80 88 114
80 88 114
80 88 114
80 88 114
80 88 114
80 88 114
80 88 114
80 88 114
80 88 114
80 88 114
80 88 114
80 88 114
80 88 114
80 88 114
80 88 114
80 88 114
80 88 114
80 88 114
80 88 114
80 88 114
80 88 114
80 88 114
80 88 114
80 88 114
80 88 114
80 88 114
80 88 114
80 88 114
80 88 114
80 88 114
80 88 114
80 88 114
80 88 114
80 88 114
80 88 114
80 88 114
80 88 114
80 88 114
80 88 114
80 88 114
80 88 114
80 88 114
80 88 114
80 88 114
80 88 114
80 88 114
80 88 114
80 88 114
80 88 114
80 88 114
80 88 114
80 88 114
80 88 114
80 88 114
80 88 114
80 88 114
80 88 114
80 88 114
80 88 114
80 88 114
80 88 114
80 88 114
80 88 114
80 88 114
80 88 114
80 88 114
80 88 114
80 88 114
80 88 114
80 88 114
80 88 114
80 88 114
80 88 114
80 88 114
80 88 114
80 88 114
80 88 114
80 88 114
80 88 114
80 88 114
80 88 114
80 88 114
80 88 114
80 88 114
80 88 114
80 88 114
80 88 114
80 88 114
80 88 114
80 88 114
80 88 114
80 88 114
80 88 114
80 88 114
80 88 114
80 88 114
80 88 114
80 88 114
80 88 114
80 88 114
80 88 114
80 88 114
80 88 114
80 88 114
80 88 114
80 88 114
80 88 114
80 88 114
80 88 114
80 88 114
80 88 114
80 88 114
80 88 114
80 88 114
80 88 114
80 88 114
80 88 114
80 88 114
80 88 114
80 88 114
80 88 114
80 88 114
80 88 114
80 88 114
80 88 114
80 88 114
80 88 114
80 88 114
80 88 114
80 88 114
80 88 114
80 88 114
80 88 114
80 88 114
80 88 114
80 88 114
80 88 114
80 88 114
80 88 114
80 88 114
80 88 114
80 88 114
80 88 114
80 88 114
80 88 114
80 88 114
80 88 114
80 88 114
80 88 114
80 88 114
80 88 114
80 88 114
80 88 114
80 88 114
80 88 114
80 88 114
80 88 114
80 88 114
80 88 114
80 88 114
80 88 114
80 88 114
80 88 114
80 88 114
80 88 114
80 88 114
80 88 114
80 88 114
80 88 114
80 88 114
80 88 114
80 88 114
80 88 114
80 88 114
80 88 114
80 88 114
80 88 114
80 88 114
80 88 114
80 88 114
80 88 114
80 88 114
80 88 114
80 88 114
80 88 114
80 88 114
80 88 114
80 88 114
80 88 114
80 88 114
80 88 114
80 88 114
80 88 114
80 88 114
80 88 114
80 88 114
80 88 114
80 88 114
80 88 114
80 88 114
80 88 114
80 88 114
80 88 114
80 88 114
80 88 114
80 88 114
80 88 114
80 88 114
80 88 114
80 88 114
80 88 114
80 88 114
80 88 114
80 88 114
80 88 114
80 88 114
80 88 114
80 88 114
80 88 114
80 88 114
80 88 114
80 88 114
80 88 114
80 88 114
80 88 114
80 88 114
80 88 114
80 88 114
80 88 114
80 88 114
80 88 114
80 88 114
80 88 114
80 88 114
80 88 114
80 88 114
80 88 114
80 88 114
80 88 114
80 88 114
80 88 114
80 88 114
80 88 114
80 88 114
80 88 114
80 88 114
80 88 114
80 88 114
80 88 114
80 88 114
80 88 114
80 88 114
80 88 114
80 88 114
80 88 114
80 88 114
80 88 114
80 88 114
80 88 114
80 88 114
80 88 114
80 88 114
80 88 114
80 88 114
80 88 114
80 88 114
80 88 114
80 88 114
80 88 114
80 88 114
80 88 114
80 88 114
80 88 114
80 88 114
80 88 114
80 88 114
80 88 114
80 88 114
80 88 114
80 88 114
80 88 114
80 88 114
80 88 114
80 88 114
80 88 114
80 88 114
80 88 114
80 88 114
80 88 114
80 88 114
80 88 114
80 88 114
80 88 114
80 88 114
80 88 114
80 88 114
80 88 114
80 88 114
80 88 114
80 88 114
80 88 114
80 88 114
80 88 114
80 88 114
80 88 114
80 88 114
80 88 114
80 88 114
80 88 114
80 88 114
80 88 114
80 88 114
80 88 114
80 88 114
80 88 114
80 88 114
80 88 114
80 88 114
80 88 114
80 88 114
80 88 114
80 88 114
80 88 114
80 88 114
80 88 114
80 88 114
80 88 114
80 88 114
80 88 114
80 88 114
80 88 114
80 88 114
80 88 114
80 88 114
80 88 114
80 88 114
80 88 114
80 88 114
80 88 114
80 88 114
80 88 114
80 88 114
80 88 114
80 88 114
80 88 114
80 88 114
80 88 114
80 88 114
80 88 114
80 88 114
80 88 114
80 88 114
80 88 114
80 88 114
80 88 114
80 88 114
80 88 114
80 88 114
80 88 114
80 88 114
80 88 114
80 88 114
80 88 114
80 88 114
80 88 114
80 88 114
80 88 114
80 88 114
80 88 114
80 88 114
80 88 114
80 88 114
80 88 114
80 88 114
80 88 114
80 88 114
80 88 114
80 88 114
80 88 114
80 88 114
80 88 114
80 88 114
80 88 114
80 88 114
80 88 114
80 88 114
80 88 114
80 88 114
80 88 114
80 88 114
80 88 114
80 88 114
80 88 114
80 88 114
80 88 114
80 88 114
80 88 114
80 88 114
80 88 114
80 88 114
80 88 114
80 88 114
80 88 114
80 88 114
80 88 114
80 88 114
80 88 114
80 88 114
80 88 114
80 88 114
80 88 114
80 88 114
80 88 114
80 88 114
80 88 114
80 88 114
80 88 114
80 88 114
80 88 114
80 88 114
80 88 114
80 88 114
80 88 114
80 88 114
80 88 114
80 88 114
80 88 114
80 88 114
80 88 114
80 88 114
80 88 114
80 88 114
80 88 114
80 88 114
80 88 114
80 88 114
80 88 114
80 88 114
80 88 114
80 88 114
80 88 114
80 88 114
80 88 114
80 88 114
80 88 114
80 88 114
80 88 114
80 88 114
80 88 114
80 88 114
80 88 114
80 88 114
80 88 114
80 88 114
80 88 114
80 88 114
80 88 114
80 88 114
80 88 114
80 88 114
80 88 114
80 88 114
80 88 114
80 88 114
80 88 114
80 88 114
80 88 114
80 88 114
80 88 114
80 88 114
80 88 114
80 88 114
80 88 114
80 88 114
80 88 114
80 88 114
80 88 114
80 88 114
80 88 114
80 88 114
80 88 114
80 88 114
80 88 114
80 88 114
80 88 114
80 88 114
80 88 114
80 88 114
80 88 114
80 88 114
80 88 114
80 88 114
80 88 114
80 88 114
80 88 114
80 88 114
80 88 114
80 88 114
80 88 114
80 88 114
80 88 114
80 88 114
80 88 114
80 88 114
80 88 114
80 88 114
80 88 114
80 88 114
80 88 114
80 88 114
80 88 114
80 88 114
80 88 114
80 88 114
80 88 114
80 88 114
80 88 114
80 88 114
80 88 114
80 88 114
80 88 114
80 88 114
80 88 114
80 88 114
80 88 114
80 88 114
80 88 114
80 88 114
80 88 114
80 88 114
80 88 114
80 88 114
80 88 114
80 88 114
80 88 114
80 88 114
80 88 114
80 88 114
80 88 114
80 88 114
80 88 114
80 88 114
80 88 114
80 88 114
80 88 114
80 88 114
80 88 114
80 88 114
80 88 114
80 88 114
80 88 114
80 88 114
80 88 114
80 88 114
80 88 114
80 88 114
80 88 114
80 88 114
80 88 114
80 88 114
80 88 114
80 88 114
80 88 114
80 88 114
80 88 114
80 88 114
80 88 114
80 88 114
80 88 114
80 88 114
80 88 114
80 88 114
80 88 114
80 88 114
80 88 114
80 88 114
80 88 114
80 88 114
80 88 114
80 88 114
80 88 114
80 88 114
80 88 114
80 88 114
80 88 114
80 88 114
80 88 114
80 88 114
80 88 114
80 88 114
80 88 114
80 88 114
80 88 114
80 88 114
80 88 114
80 88 114
80 88 114
80 88 114
80 88 114
80 88 114
80 88 114
80 88 114
80 88 114
80 88 114
80 88 114
80 88 114
80 88 114
80 88 114
80 88 114
80 88 114
80 88 114
80 88 114
80 88 114
80 88 114
80 88 114
80 88 114
80 88 114
80 88 114
80 88 114
80 88 114
80 88 114
80 88 114
80 88 114
80 88 114
80 88 114
80 88 114
80 88 114
80 88 114
80 88 114
80 88 114
80 88 114
80 88 114
80 88 114
80 88 114
80 88 114
80 88 114
80 88 114
80 88 114
80 88 114
80 88 114
80 88 114
80 88 114
80 88 114
80 88 114
80 88 114
80 88 114
80 88 114
80 88 114
80 88 114
80 88 114
80 88 114
80 88 114
80 88 114
80 88 114
80 88 114
80 88 114
80 88 114
80 88 114
80 88 114
80 88 114
80 88 114
80 88 114
80 88 114
80 88 114
80 88 114
80 88 114
80 88 114
80 88 114
80 88 114
80 88 114
80 88 114
80 88 114
80 88 114
80 88 114
80 88 114
80 88 114
80 88 114
80 88 114
80 88 114
80 88 114
80 88 114
80 88 114
80 88 114
80 88 114
80 88 114
80 88 114
80 88 114
80 88 114
80 88 114
80 88 114
80 88 114
80 88 114
80 88 114
80 88 114
80 88 114
80 88 114
80 88 114
80 88 114
80 88 114
80 88 114
80 88 114
80 88 114
80 88 114
80 88 114
80 88 114
80 88 114
80 88 114
80 88 114
80 88 114
80 88 114
80 88 114
80 88 114
80 88 114
80 88 114
80 88 114
80 88 114
80 88 114
80 88 114
80 88 114
80 88 114
80 88 114
80 88 114
80 88 114
80 88 114
80 88 114
80 88 114
80 88 114
80 88 114
80 88 114
80 88 114
80 88 114
80 88 114
80 88 114
80 88 114
80 88 114
80 88 114
80 88 114
80 88 114
80 88 114
80 88 114
80 88 114
80 88 114
80 88 114
80 88 114
80 88 114
80 88 114
80 88 114
80 88 114
80 88 114
80 88 114
80 88 114
80 88 114
80 88 114
80 88 114
80 88 114
80 88 114
80 88 114
80 88 114
80 88 114
80 88 114
80 88 114
80 88 114
80 88 114
80 88 114
80 88 114
80 88 114
80 88 114
80 88 114
80 88 114
80 88 114
80 88 114
80 88 114
80 88 114
80 88 114
80 88 114
80 88 114
80 88 114
80 88 114
80 88 114
80 88 114
80 88 114
80 88 114
80 88 114
80 88 114
80 88 114
80 88 114
80 88 114
80 88 114
80 88 114
80 88 114
80 88 114
80 88 114
80 88 114
80 88 114
80 88 114
80 88 114
80 88 114
80 88 114
80 88 114
80 88 114
80 88 114
80 88 114
80 88 114
80 88 114
80 88 114
80 88 114
80 88 114
80 88 114
80 88 114
80 88 114
80 88 114
80 88 114
80 88 114
80 88 114
80 88 114
80 88 114
80 88 114
80 88 114
80 88 114
80 88 114
80 88 114
80 88 114
80 88 114
80 88 114
80 88 114
80 88 114
80 88 114
80 88 114
80 88 114
80 88 114
80 88 114
80 88 114
80 88 114
80 88 114
80 88 114
80 88 114
80 88 114
80 88 114
80 88 114
80 88 114
80 88 114
80 88 114
80 88 114
80 88 114
80 88 114
80 88 114
80 88 114
80 88 114
80 88 114
80 88 114
80 88 114
80 88 114
80 88 114
80 88 114
80 88 114
80 88 114
80 88 114
80 88 114
80 88 114
80 88 114
80 88 114
80 88 114
80 88 114
80 88 114
80 88 114
80 88 114
80 88 114
80 88 114
80 88 114
80 88 114
80 88 114
80 88 114
80 88 114
80 88 114
80 88 114
80 88 114
80 88 114
80 88 114
80 88 114
80 88 114
80 88 114
80 88 114
80 88 114
80 88 114
80 88 114
80 88 114
80 88 114
80 88 114
80 88 114
80 88 114
80 88 114
80 88 114
80 88 114
80 88 114
80 88 114
80 88 114
80 88 114
80 88 114
80 88 114
80 88 114
80 88 114
80 88 114
80 88 114
80 88 114
80 88 114
80 88 114
80 88 114
80 88 114
80 88 114
80 88 114
80 88 114
80 88 114
80 88 114
80 88 114
80 88 114
80 88 114
80 88 114
80 88 114
80 88 114
80 88 114
80 88 114
80 88 114
80 88 114
80 88 114
80 88 114
80 88 114
80 88 114
80 88 114
80 88 114
80 88 114
80 88 114
80 88 114
80 88 114
80 88 114
80 88 114
80 88 114
80 88 114
80 88 114
80 88 114
80 88 114
80 88 114
80 88 114
80 88 114
80 88 114
80 88 114
80 88 114
80 88 114
80 88 114
80 88 114
80 88 114
80 88 114
80 88 114
80 88 114
80 88 114
80 88 114
80 88 114
80 88 114
80 88 114
80 88 114
80 88 114
80 88 114
80 88 114
80 88 114
80 88 114
80 88 114
80 88 114
80 88 114
80 88 114
80 88 114
80 88 114
80 88 114
80 88 114
80 88 114
80 88 114
80 88 114
80 88 114
80 88 114
80 88 114
80 88 114
80 88 114
80 88 114
80 88 114
80 88 114
80 88 114
80 88 114
80 88 114
80 88 114
80 88 114
80 88 114
80 88 114
80 88 114
80 88 114
80 88 114
80 88 114
80 88 114
80 88 114
80 88 114
80 88 114
80 88 114
80 88 114
80 88 114
80 88 114
80 88 114
80 88 114
80 88 114
80 88 114
80 88 114
80 88 114
80 88 114
80 88 114
80 88 114
80 88 114
80 88 114
80 88 114
80 88 114
80 88 114
80 88 114
80 88 114
80 88 114
80 88 114
80 88 114
80 88 114
80 88 114
80 88 114
80 88 114
80 88 114
80 88 114
80 88 114
80 88 114
80 88 114
80 88 114
80 88 114
80 88 114
80 88 114
80 88 114
80 88 114
80 88 114
80 88 114
80 88 114
80 88 114
80 88 114
80 88 114
80 88 114
80 88 114
80 88 114
80 88 114
80 88 114
80 88 114
80 88 114
80 88 114
80 88 114
80 88 114
80 88 114
80 88 114
80 88 114
80 88 114
80 88 114
80 88 114
80 88 114
80 88 114
80 88 114
80 88 114
80 88 114
80 88 114
80 88 114
80 88 114
80 88 114
80 88 114
80 88 114
80 88 114
80 88 114
80 88 114
80 88 114
80 88 114
80 88 114
80 88 114
80 88 114
80 88 114
80 88 114
80 88 114
80 88 114
80 88 114
80 88 114
80 88 114
80 88 114
80 88 114
80 88 114
80 88 114
80 88 114
80 88 114
80 88 114
80 88 114
80 88 114
80 88 114
80 88 114
80 88 114
80 88 114
80 88 114
80 88 114
80 88 114
80 88 114
80 88 114
80 88 114
80 88 114
80 88 114
80 88 114
80 88 114
80 88 114
80 88 114
80 88 114
80 88 114
80 88 114
80 88 114
80 88 114
80 88 114
80 88 114
80 88 114
80 88 114
80 88 114
80 88 114
80 88 114
80 88 114
80 88 114
80 88 114
80 88 114
80 88 114
80 88 114
80 88 114
80 88 114
80 88 114
80 88 114
80 88 114
80 88 114
80 88 114
80 88 114
80 88 114
80 88 114
80 88 114
80 88 114
80 88 114
80 88 114
80 88 114
80 88 114
80 88 114
80 88 114
80 88 114
80 88 114
80 88 114
80 88 114
80 88 114
80 88 114
80 88 114
80 88 114
80 88 114
80 88 114
80 88 114
80 88 114
80 88 114
80 88 114
80 88 114
80 88 114
80 88 114
80 88 114
80 88 114
80 88 114
80 88 114
80 88 114
80 88 114
80 88 114
80 88 114
80 88 114
80 88 114
80 88 114
80 88 114
80 88 114
80 88 114
80 88 114
80 88 114
80 88 114
80 88 114
80 88 114
80 88 114
80 88 114
80 88 114
80 88 114
80 88 114
80 88 114
80 88 114
80 88 114
80 88 114
80 88 114
80 88 114
80 88 114
80 88 114
80 88 114
80 88 114
80 88 114
80 88 114
80 88 114
80 88 114
80 88 114
80 88 114
80 88 114
80 88 114
80 88 114
80 88 114
80 88 114
80 88 114
80 88 114
80 88 114
80 88 114
80 88 114
80 88 114
80 88 114
80 88 114
80 88 114
80 88 114
80 88 114
80 88 114
80 88 114
80 88 114
80 88 114
80 88 114
80 88 114
80 88 114
80 88 114
80 88 114
80 88 114
80 88 114
80 88 114
80 88 114
80 88 114
80 88 114
80 88 114
80 88 114
80 88 114
80 88 114
80 88 114
80 88 114
80 88 114
80 88 114
80 88 114
80 88 114
80 88 114
80 88 114
80 88 114
80 88 114
80 88 114
80 88 114
80 88 114
80 88 114
80 88 114
80 88 114
80 88 114
80 88 114
80 88 114
80 88 114
80 88 114
80 88 114
80 88 114
80 88 114
80 88 114
80 88 114
80 88 114
80 88 114
80 88 114
80 88 114
80 88 114
80 88 114
80 88 114
80 88 114
80 88 114
80 88 114
80 88 114
80 88 114
80 88 114
80 88 114
80 88 114
80 88 114
80 88 114
80 88 114
80 88 114
80 88 114
80 88 114
80 88 114
80 88 114
80 88 114
80 88 114
80 88 114
80 88 114
80 88 114
80 88 114
80 88 114
80 88 114
80 88 114
80 88 114
80 88 114
80 88 114
80 88 114
80 88 114
80 88 114
80 88 114
80 88 114
80 88 114
80 88 114
80 88 114
80 88 114
80 88 114
80 88 114
80 88 114
80 88 114
80 88 114
80 88 114
80 88 114
80 88 114
80 88 114
80 88 114
80 88 114
80 88 114
80 88 114
80 88 114
80 88 114
80 88 114
80 88 114
80 88 114
80 88 114
80 88 114
80 88 114
80 88 114
80 88 114
80 88 114
80 88 114
80 88 114
80 88 114
80 88 114
80 88 114
80 88 114
80 88 114
80 88 114
80 88 114
80 88 114
80 88 114
80 88 114
80 88 114
80 88 114
80 88 114
80 88 114
80 88 114
80 88 114
80 88 114
80 88 114
80 88 114
80 88 114
80 88 114
80 88 114
80 88 114
80 88 114
80 88 114
80 88 114
80 88 114
80 88 114
80 88 114
80 88 114
80 88 114
80 88 114
80 88 114
80 88 114
80 88 114
80 88 114
80 88 114
80 88 114
80 88 114
80 88 114
80 88 114
80 88 114
80 88 114
80 88 114
80 88 114
80 88 114
80 88 114
80 88 114
80 88 114
80 88 114
80 88 114
80 88 114
80 88 114
80 88 114
80 88 114
80 88 114
80 88 114
80 88 114
80 88 114
80 88 114
80 88 114
80 88 114
80 88 114
80 88 114
80 88 114
80 88 114
80 88 114
80 88 114
80 88 114
80 88 114
80 88 114
80 88 114
80 88 114
80 88 114
80 88 114
80 88 114
80 88 114
80 88 114
80 88 114
80 88 114
80 88 114
80 88 114
80 88 114
80 88 114
80 88 114
80 88 114
80 88 114
80 88 114
80 88 114
80 88 114
80 88 114
80 88 114
80 88 114
80 88 114
80 88 114
80 88 114
80 88 114
80 88 114
80 88 114
80 88 114
80 88 114
80 88 114
80 88 114
80 88 114
80 88 114
80 88 114
80 88 114
80 88 114
80 88 114
80 88 114
80 88 114
80 88 114
80 88 114
80 88 114
80 88 114
80 88 114
80 88 114
80 88 114
80 88 114
80 88 114
80 88 114
80 88 114
80 88 114
80 88 114
80 88 114
80 88 114
80 88 114
80 88 114
80 88 114
80 88 114
80 88 114
80 88 114
80 88 114
80 88 114
80 88 114
80 88 114
80 88 114
80 88 114
80 88 114
80 88 114
80 88 114
80 88 114
80 88 114
80 88 114
80 88 114
80 88 114
80 88 114
80 88 114
80 88 114
80 88 114
80 88 114
80 88 114
80 88 114
80 88 114
80 88 114
80 88 114
80 88 114
80 88 114
80 88 114
80 88 114
80 88 114
80 88 114
80 88 114
80 88 114
80 88 114
80 88 114
80 88 114
80 88 114
80 88 114
80 88 114
80 88 114
80 88 114
80 88 114
80 88 114
80 88 114
80 88 114
80 88 114
80 88 114
80 88 114
80 88 114
80 88 114
80 88 114
80 88 114
80 88 114
80 88 114
80 88 114
80 88 114
80 88 114
80 88 114
80 88 114
80 88 114
80 88 114
80 88 114
80 88 114
80 88 114
80 88 114
80 88 114
80 88 114
80 88 114
80 88 114
80 88 114
80 88 114
80 88 114
80 88 114
80 88 114
80 88 114
80 88 114
80 88 114
80 88 114
80 88 114
80 88 114
80 88 114
80 88 114
80 88 114
80 88 114
80 88 114
80 88 114
80 88 114
80 88 114
80 88 114
80 88 114
80 88 114
80 88 114
80 88 114
80 88 114
80 88 114
80 88 114
80 88 114
80 88 114
80 88 114
80 88 114
80 88 114
80 88 114
80 88 114
80 88 114
80 88 114
80 88 114
80 88 114
80 88 114
80 88 114
80 88 114
80 88 114
80 88 114
80 88 114
80 88 114
80 88 114
80 88 114
80 88 114
80 88 114
80 88 114
80 88 114
80 88 114
80 88 114
80 88 114
80 88 114
80 88 114
80 88 114
80 88 114
80 88 114
80 88 114
80 88 114
80 88 114
80 88 114
80 88 114
80 88 114
80 88 114
80 88 114
80 88 114
80 88 114
80 88 114
80 88 114
80 88 114
80 88 114
80 88 114
80 88 114
80 88 114
80 88 114
80 88 114
80 88 114
80 88 114
80 88 114
80 88 114
80 88 114
80 88 114
80 88 114
80 88 114
80 88 114
80 88 114
80 88 114
80 88 114
80 88 114
80 88 114
80 88 114
80 88 114
80 88 114
80 88 114
80 88 114
80 88 114
80 88 114
80 88 114
80 88 114
80 88 114
80 88 114
80 88 114
80 88 114
80 88 114
80 88 114
80 88 114
80 88 114
80 88 114
80 88 114
80 88 114
80 88 114
80 88 114
80 88 114
80 88 114
80 88 114
80 88 114
80 88 114
80 88 114
80 88 114
80 88 114
80 88 114
80 88 114
80 88 114
80 88 114
80 88 114
80 88 114
80 88 114
80 88 114
80 88 114
80 88 114
80 88 114
80 88 114
80 88 114
80 88 114
80 88 114
80 88 114
80 88 114
80 88 114
80 88 114
80 88 114
80 88 114
80 88 114
80 88 114
80 88 114
80 88 114
80 88 114
80 88 114
80 88 114
80 88 114
80 88 114
80 88 114
80 88 114
80 88 114
80 88 114
80 88 114
80 88 114
80 88 114
80 88 114
80 88 114
80 88 114
80 88 114
80 88 114
80 88 114
80 88 114
80 88 114
80 88 114
80 88 114
80 88 114
80 88 114
80 88 114
80 88 114
80 88 114
80 88 114
80 88 114
80 88 114
80 88 114
80 88 114
80 88 114
80 88 114
80 88 114
80 88 114
80 88 114
80 88 114
80 88 114
80 88 114
80 88 114
80 88 114
80 88 114
80 88 114
80 88 114
80 88 114
80 88 114
80 88 114
80 88 114
80 88 114
80 88 114
80 88 114
80 88 114
80 88 114
80 88 114
80 88 114
80 88 114
80 88 114
80 88 114
80 88 114
80 88 114
80 88 114
80 88 114
80 88 114
80 88 114
80 88 114
80 88 114
80 88 114
80 88 114
80 88 114
80 88 114
80 88 114
80 88 114
80 88 114
80 88 114
80 88 114
80 88 114
80 88 114
80 88 114
80 88 114
80 88 114
80 88 114
80 88 114
80 88 114
80 88 114
80 88 114
80 88 114
80 88 114
80 88 114
80 88 114
80 88 114
80 88 114
80 88 114
80 88 114
80 88 114
80 88 114
80 88 114
80 88 114
80 88 114
80 88 114
80 88 114
80 88 114
80 88 114
80 88 114
80 88 114
80 88 114
80 88 114
80 88 114
80 88 114
80 88 114
80 88 114
80 88 114
80 88 114
80 88 114
80 88 114
80 88 114
80 88 114
80 88 114
80 88 114
80 88 114
80 88 114
80 88 114
80 88 114
80 88 114
80 88 114
80 88 114
80 88 114
80 88 114
80 88 114
80 88 114
80 88 114
80 88 114
80 88 114
80 88 114
80 88 114
80 88 114
80 88 114
80 88 114
80 88 114
80 88 114
80 88 114
80 88 114
80 88 114
80 88 114
80 88 114
80 88 114
80 88 114
80 88 114
80 88 114
80 88 114
80 88 114
80 88 114
80 88 114
80 88 114
80 88 114
80 88 114
80 88 114
80 88 114
80 88 114
80 88 114
80 88 114
80 88 114
80 88 114
80 88 114
80 88 114
80 88 114
80 88 114
80 88 114
80 88 114
80 88 114
80 88 114
80 88 114
80 88 114
80 88 114
80 88 114
80 88 114
80 88 114
80 88 114
80 88 114
80 88 114
80 88 114
80 88 114
80 88 114
80 88 114
80 88 114
80 88 114
80 88 114
80 88 114
80 88 114
80 88 114
80 88 114
80 88 114
80 88 114
80 88 114
80 88 114
80 88 114
80 88 114
80 88 114
80 88 114
80 88 114
80 88 114
80 88 114
80 88 114
80 88 114
80 88 114
80 88 114
80 88 114
80 88 114
80 88 114
80 88 114
80 88 114
80 88 114
80 88 114
80 88 114
80 88 114
80 88 114
80 88 114
80 88 114
80 88 114
80 88 114
80 88 114
80 88 114
80 88 114
80 88 114
80 88 114
80 88 114
80 88 114
80 88 114
80 88 114
80 88 114
80 88 114
80 88 114
80 88 114
80 88 114
80 88 114
80 88 114
80 88 114
80 88 114
80 88 114
80 88 114
80 88 114
80 88 114
80 88 114
80 88 114
80 88 114
80 88 114
80 88 114
80 88 114
80 88 114
80 88 114
80 88 114
80 88 114
80 88 114
80 88 114
80 88 114
80 88 114
80 88 114
80 88 114
80 88 114
80 88 114
80 88 114
80 88 114
80 88 114
80 88 114
80 88 114
80 88 114
80 88 114
80 88 114
80 88 114
80 88 114
80 88 114
80 88 114
80 88 114
80 88 114
80 88 114
80 88 114
80 88 114
80 88 114
80 88 114
80 88 114
80 88 114
80 88 114
80 88 114
80 88 114
80 88 114
80 88 114
80 88 114
80 88 114
80 88 114
80 88 114
80 88 114
80 88 114
80 88 114
80 88 114
80 88 114
80 88 114
80 88 114
80 88 114
80 88 114
80 88 114
80 88 114
80 88 114
80 88 114
80 88 114
80 88 114
80 88 114
80 88 114
80 88 114
80 88 114
80 88 114
80 88 114
80 88 114
80 88 114
80 88 114
80 88 114
80 88 114
80 88 114
80 88 114
80 88 114
80 88 114
80 88 114
80 88 114
80 88 114
80 88 114
80 88 114
80 88 114
80 88 114
80 88 114
80 88 114
80 88 114
80 88 114
80 88 114
80 88 114
80 88 114
80 88 114
80 88 114
80 88 114
80 88 114
80 88 114
80 88 114
80 88 114
80 88 114
80 88 114
80 88 114
80 88 114
80 88 114
80 88 114
80 88 114
80 88 114
80 88 114
80 88 114
80 88 114
80 88 114
80 88 114
80 88 114
80 88 114
80 88 114
80 88 114
80 88 114
80 88 114
80 88 114
80 88 114
80 88 114
80 88 114
80 88 114
80 88 114
80 88 114
80 88 114
80 88 114
80 88 114
80 88 114
80 88 114
80 88 114
80 88 114
80 88 114
80 88 114
80 88 114
80 88 114
80 88 114
80 88 114
80 88 114
80 88 114
80 88 114
80 88 114
80 88 114
80 88 114
80 88 114
80 88 114
80 88 114
80 88 114
80 88 114
80 88 114
80 88 114
80 88 114
80 88 114
80 88 114
80 88 114
80 88 114
80 88 114
80 88 114
80 88 114
80 88 114
80 88 114
80 88 114
80 88 114
80 88 114
80 88 114
80 88 114
80 88 114
80 88 114
80 88 114
80 88 114
80 88 114
80 88 114
80 88 114
80 88 114
80 88 114
80 88 114
80 88 114
80 88 114
80 88 114
80 88 114
80 88 114
80 88 114
80 88 114
80 88 114
80 88 114
80 88 114
80 88 114
80 88 114
80 88 114
80 88 114
80 88 114
80 88 114
80 88 114
80 88 114
80 88 114
80 88 114
80 88 114
80 88 114
80 88 114
80 88 114
80 88 114
80 88 114
80 88 114
80 88 114
80 88 114
80 88 114
80 88 114
80 88 114
80 88 114
80 88 114
80 88 114
80 88 114
80 88 114
80 88 114
80 88 114
80 88 114
80 88 114
80 88 114
80 88 114
80 88 114
80 88 114
80 88 114
80 88 114
80 88 114
80 88 114
80 88 114
80 88 114
80 88 114
80 88 114
80 88 114
80 88 114
80 88 114
80 88 114
80 88 114
80 88 114
80 88 114
80 88 114
80 88 114
80 88 114
80 88 114
80 88 114
80 88 114
80 88 114
80 88 114
80 88 114
80 88 114
80 88 114
80 88 114
80 88 114
80 88 114
80 88 114
80 88 114
80 88 114
80 88 114
80 88 114
80 88 114
80 88 114
80 88 114
80 88 114
80 88 114
80 88 114
80 88 114
80 88 114
80 88 114
80 88 114
80 88 114
80 88 114
80 88 114
80 88 114
80 88 114
80 88 114
80 88 114
80 88 114
80 88 114
80 88 114
80 88 114
80 88 114
80 88 114
80 88 114
80 88 114
80 88 114
80 88 114
80 88 114
80 88 114
80 88 114
80 88 114
80 88 114
80 88 114
80 88 114
80 88 114
80 88 114
80 88 114
80 88 114
80 88 114
80 88 114
80 88 114
80 88 114
80 88 114
80 88 114
80 88 114
80 88 114
80 88 114
80 88 114
80 88 114
80 88 114
80 88 114
80 88 114
80 88 114
80 88 114
80 88 114
80 88 114
80 88 114
80 88 114
80 88 114
80 88 114
80 88 114
80 88 114
80 88 114
80 88 114
80 88 114
80 88 114
80 88 114
80 88 114
80 88 114
80 88 114
80 88 114
80 88 114
80 88 114
80 88 114
80 88 114
80 88 114
80 88 114
80 88 114
80 88 114
80 88 114
80 88 114
80 88 114
80 88 114
80 88 114
80 88 114
80 88 114
80 88 114
80 88 114
80 88 114
80 88 114
80 88 114
80 88 114
80 88 114
80 88 114
80 88 114
80 88 114
80 88 114
80 88 114
80 88 114
80 88 114
80 88 114
80 88 114
80 88 114
80 88 114
80 88 114
80 88 114
80 88 114
80 88 114
80 88 114
80 88 114
80 88 114
80 88 114
80 88 114
80 88 114
80 88 114
80 88 114
80 88 114
80 88 114
80 88 114
80 88 114
80 88 114
80 88 114
80 88 114
80 88 114
80 88 114
80 88 114
80 88 114
80 88 114
80 88 114
80 88 114
80 88 114
80 88 114
80 88 114
80 88 114
80 88 114
80 88 114
80 88 114
80 88 114
80 88 114
80 88 114
80 88 114
80 88 114
80 88 114
80 88 114
80 88 114
80 88 114
80 88 114
80 88 114
80 88 114
80 88 114
80 88 114
80 88 114
80 88 114
80 88 114
80 88 114
80 88 114
80 88 114
80 88 114
80 88 114
80 88 114
80 88 114
80 88 114
80 88 114
80 88 114
80 88 114
80 88 114
80 88 114
80 88 114
80 88 114
80 88 114
80 88 114
80 88 114
80 88 114
80 88 114
80 88 114
80 88 114
80 88 114
80 88 114
80 88 114
80 88 114
80 88 114
80 88 114
80 88 114
80 88 114
80 88 114
80 88 114
80 88 114
80 88 114
80 88 114
80 88 114
80 88 114
80 88 114
80 88 114
80 88 114
80 88 114
80 88 114
80 88 114
80 88 114
80 88 114
80 88 114
80 88 114
80 88 114
80 88 114
80 88 114
80 88 114
80 88 114
80 88 114
80 88 114
80 88 114
80 88 114
80 88 114
80 88 114
80 88 114
80 88 114
80 88 114
80 88 114
80 88 114
80 88 114
80 88 114
80 88 114
80 88 114
80 88 114
80 88 114
80 88 114
80 88 114
80 88 114
80 88 114
80 88 114
80 88 114
80 88 114
80 88 114
80 88 114
80 88 114
80 88 114
80 88 114
80 88 114
80 88 114
80 88 114
80 88 114
80 88 114
80 88 114
80 88 114
80 88 114
80 88 114
80 88 114
80 88 114
80 88 114
80 88 114
80 88 114
80 88 114
80 88 114
80 88 114
80 88 114
80 88 114
80 88 114
80 88 114
80 88 114
80 88 114
80 88 114
80 88 114
80 88 114
80 88 114
80 88 114
80 88 114
80 88 114
80 88 114
80 88 114
80 88 114
80 88 114
80 88 114
80 88 114
80 88 114
80 88 114
80 88 114
80 88 114
80 88 114
80 88 114
80 88 114
80 88 114
80 88 114
80 88 114
80 88 114
80 88 114
80 88 114
80 88 114
80 88 114
80 88 114
80 88 114
80 88 114
80 88 114
80 88 114
80 88 114
80 88 114
80 88 114
80 88 114
80 88 114
80 88 114
80 88 114
80 88 114
80 88 114
80 88 114
80 88 114
80 88 114
80 88 114
80 88 114
80 88 114
80 88 114
80 88 114
80 88 114
80 88 114
80 88 114
80 88 114
80 88 114
80 88 114
80 88 114
80 88 114
80 88 114
80 88 114
80 88 114
80 88 114
80 88 114
80 88 114
80 88 114
80 88 114
80 88 114
80 88 114
80 88 114
80 88 114
80 88 114
80 88 114
80 88 114
80 88 114
80 88 114
80 88 114
80 88 114
80 88 114
80 88 114
80 88 114
80 88 114
80 88 114
80 88 114
80 88 114
80 88 114
80 88 114
80 88 114
80 88 114
80 88 114
80 88 114
80 88 114
80 88 114
80 88 114
80 88 114
80 88 114
80 88 114
80 88 114
80 88 114
80 88 114
80 88 114
80 88 114
80 88 114
80 88 114
80 88 114
80 88 114
80 88 114
80 88 114
80 88 114
80 88 114
80 88 114
80 88 114
80 88 114
80 88 114
80 88 114
80 88 114
80 88 114
80 88 114
80 88 114
80 88 114
80 88 114
80 88 114
80 88 114
80 88 114
80 88 114
80 88 114
80 88 114
80 88 114
80 88 114
80 88 114
80 88 114
80 88 114
80 88 114
80 88 114
80 88 114
80 88 114
80 88 114
80 88 114
80 88 114
80 88 114
80 88 114
80 88 114
80 88 114
80 88 114
80 88 114
80 88 114
80 88 114
80 88 114
80 88 114
80 88 114
80 88 114
80 88 114
80 88 114
80 88 114
80 88 114
80 88 114
80 88 114
80 88 114
80 88 114
80 88 114
80 88 114
80 88 114
80 88 114
80 88 114
80 88 114
80 88 114
80 88 114
80 88 114
80 88 114
80 88 114
80 88 114
80 88 114
80 88 114
80 88 114
80 88 114
80 88 114
80 88 114
80 88 114
80 88 114
80 88 114
80 88 114
80 88 114
80 88 114
80 88 114
80 88 114
80 88 114
80 88 114
80 88 114
80 88 114
80 88 114
80 88 114
80 88 114
80 88 114
80 88 114
80 88 114
80 88 114
80 88 114
80 88 114
80 88 114
80 88 114
80 88 114
80 88 114
80 88 114
80 88 114
80 88 114
80 88 114
80 88 114
80 88 114
80 88 114
80 88 114
80 88 114
80 88 114
80 88 114
80 88 114
80 88 114
80 88 114
80 88 114
80 88 114
80 88 114
80 88 114
80 88 114
80 88 114
80 88 114
80 88 114
80 88 114
80 88 114
80 88 114
80 88 114
80 88 114
80 88 114
80 88 114
80 88 114
80 88 114
80 88 114
80 88 114
80 88 114
80 88 114
80 88 114
80 88 114
80 88 114
80 88 114
80 88 114
80 88 114
80 88 114
80 88 114
80 88 114
80 88 114
80 88 114
80 88 114
80 88 114
80 88 114
80 88 114
80 88 114
80 88 114
80 88 114
80 88 114
80 88 114
80 88 114
80 88 114
80 88 114
80 88 114
80 88 114
80 88 114
80 88 114
80 88 114
80 88 114
80 88 114
80 88 114
80 88 114
80 88 114
80 88 114
80 88 114
80 88 114
80 88 114
80 88 114
80 88 114
80 88 114
80 88 114
80 88 114
80 88 114
80 88 114
80 88 114
80 88 114
80 88 114
80 88 114
80 88 114
80 88 114
80 88 114
80 88 114
80 88 114
80 88 114
80 88 114
80 88 114
80 88 114
80 88 114
80 88 114
80 88 114
80 88 114
80 88 114
80 88 114
80 88 114
80 88 114
80 88 114
80 88 114
80 88 114
80 88 114
80 88 114
80 88 114
80 88 114
80 88 114
80 88 114
80 88 114
80 88 114
80 88 114
80 88 114
80 88 114
80 88 114
80 88 114
80 88 114
80 88 114
80 88 114
80 88 114
80 88 114
80 88 114
80 88 114
80 88 114
80 88 114
80 88 114
80 88 114
80 88 114
80 88 114
80 88 114
80 88 114
80 88 114
80 88 114
80 88 114
80 88 114
80 88 114
80 88 114
80 88 114
80 88 114
80 88 114
80 88 114
80 88 114
80 88 114
80 88 114
80 88 114
80 88 114
80 88 114
80 88 114
80 88 114
80 88 114
80 88 114
80 88 114
80 88 114
80 88 114
80 88 114
80 88 114
80 88 114
80 88 114
80 88 114
80 88 114
80 88 114
80 88 114
80 88 114
80 88 114
80 88 114
80 88 114
80 88 114
80 88 114
80 88 114
80 88 114
80 88 114
80 88 114
80 88 114
80 88 114
80 88 114
80 88 114
80 88 114
80 88 114
80 88 114
80 88 114
80 88 114
80 88 114
80 88 114
80 88 114
80 88 114
80 88 114
80 88 114
80 88 114
80 88 114
80 88 114
80 88 114
80 88 114
80 88 114
80 88 114
80 88 114
80 88 114
80 88 114
80 88 114
80 88 114
80 88 114
80 88 114
80 88 114
80 88 114
80 88 114
80 88 114
80 88 114
80 88 114
80 88 114
80 88 114
80 88 114
80 88 114
80 88 114
80 88 114
80 88 114
80 88 114
80 88 114
80 88 114
80 88 114
80 88 114
80 88 114
80 88 114
80 88 114
80 88 114
80 88 114
80 88 114
80 88 114
80 88 114
80 88 114
80 88 114
80 88 114
80 88 114
80 88 114
80 88 114
80 88 114
80 88 114
80 88 114
80 88 114
80 88 114
80 88 114
80 88 114
80 88 114
80 88 114
80 88 114
80 88 114
80 88 114
80 88 114
80 88 114
80 88 114
80 88 114
80 88 114
80 88 114
80 88 114
80 88 114
80 88 114
80 88 114
80 88 114
80 88 114
80 88 114
80 88 114
80 88 114
80 88 114
80 88 114
80 88 114
80 88 114
80 88 114
80 88 114
80 88 114
80 88 114
80 88 114
80 88 114
80 88 114
80 88 114
80 88 114
80 88 114
80 88 114
80 88 114
80 88 114
80 88 114
80 88 114
80 88 114
80 88 114
80 88 114
80 88 114
80 88 114
80 88 114
80 88 114
80 88 114
80 88 114
80 88 114
80 88 114
80 88 114
80 88 114
80 88 114
80 88 114
80 88 114
80 88 114
80 88 114
80 88 114
80 88 114
80 88 114
80 88 114
80 88 114
80 88 114
80 88 114
80 88 114
80 88 114
80 88 114
80 88 114
80 88 114
80 88 114
80 88 114
80 88 114
80 88 114
80 88 114
80 88 114
80 88 114
80 88 114
80 88 114
80 88 114
80 88 114
80 88 114
80 88 114
80 88 114
80 88 114
80 88 114
80 88 114
80 88 114
80 88 114
80 88 114
80 88 114
80 88 114
80 88 114
80 88 114
80 88 114
80 88 114
80 88 114
80 88 114
80 88 114
80 88 114
80 88 114
80 88 114
80 88 114
80 88 114
80 88 114
80 88 114
80 88 114
80 88 114
80 88 114
80 88 114
80 88 114
80 88 114
80 88 114
80 88 114
80 88 114
80 88 114
80 88 114
80 88 114
80 88 114
80 88 114
80 88 114
80 88 114
80 88 114
80 88 114
80 88 114
80 88 114
80 88 114
80 88 114
80 88 114
80 88 114
80 88 114
80 88 114
80 88 114
80 88 114
80 88 114
80 88 114
80 88 114
80 88 114
80 88 114
80 88 114
80 88 114
80 88 114
80 88 114
80 88 114
80 88 114
80 88 114
80 88 114
80 88 114
80 88 114
80 88 114
80 88 114
80 88 114
80 88 114
80 88 114
80 88 114
80 88 114
80 88 114
80 88 114
80 88 114
80 88 114
80 88 114
80 88 114
80 88 114
80 88 114
80 88 114
80 88 114
80 88 114
80 88 114
80 88 114
80 88 114
80 88 114
80 88 114
80 88 114
80 88 114
80 88 114
80 88 114
80 88 114
80 88 114
80 88 114
80 88 114
80 88 114
80 88 114
80 88 114
80 88 114
80 88 114
80 88 114
80 88 114
80 88 114
80 88 114
80 88 114
80 88 114
80 88 114
80 88 114
80 88 114
80 88 114
80 88 114
80 88 114
80 88 114
80 88 114
80 88 114
80 88 114
80 88 114
80 88 114
80 88 114
80 88 114
80 88 114
80 88 114
80 88 114
80 88 114
80 88 114
80 88 114
80 88 114
80 88 114
80 88 114
80 88 114
80 88 114
80 88 114
80 88 114
80 88 114
80 88 114
80 88 114
80 88 114
80 88 114
80 88 114
80 88 114
80 88 114
80 88 114
80 88 114
80 88 114
80 88 114
80 88 114
80 88 114
80 88 114
80 88 114
80 88 114
80 88 114
80 88 114
80 88 114
80 88 114
80 88 114
80 88 114
80 88 114
80 88 114
80 88 114
80 88 114
80 88 114
80 88 114
80 88 114
80 88 114
80 88 114
80 88 114
80 88 114
80 88 114
80 88 114
80 88 114
80 88 114
80 88 114
80 88 114
80 88 114
80 88 114
80 88 114
80 88 114
80 88 114
80 88 114
80 88 114
80 88 114
80 88 114
80 88 114
80 88 114
80 88 114
80 88 114
80 88 114
80 88 114
80 88 114
80 88 114
80 88 114
80 88 114
80 88 114
80 88 114
80 88 114
80 88 114
80 88 114
80 88 114
80 88 114
80 88 114
80 88 114
80 88 114
80 88 114
80 88 114
80 88 114
80 88 114
80 88 114
80 88 114
80 88 114
80 88 114
80 88 114
80 88 114
80 88 114
80 88 114
80 88 114
80 88 114
80 88 114
80 88 114
80 88 114
80 88 114
80 88 114
80 88 114
80 88 114
80 88 114
80 88 114
80 88 114
80 88 114
80 88 114
80 88 114
80 88 114
80 88 114
80 88 114
80 88 114
80 88 114
80 88 114
80 88 114
80 88 114
80 88 114
80 88 114
80 88 114
80 88 114
80 88 114
80 88 114
80 88 114
80 88 114
80 88 114
80 88 114
80 88 114
80 88 114
80 88 114
80 88 114
80 88 114
80 88 114
80 88 114
80 88 114
80 88 114
80 88 114
80 88 114
80 88 114
80 88 114
80 88 114
80 88 114
80 88 114
80 88 114
80 88 114
80 88 114
80 88 114
80 88 114
80 88 114
80 88 114
80 88 114
80 88 114
80 88 114
80 88 114
80 88 114
80 88 114
80 88 114
80 88 114
80 88 114
80 88 114
80 88 114
80 88 114
80 88 114
80 88 114
80 88 114
80 88 114
80 88 114
80 88 114
80 88 114
80 88 114
80 88 114
80 88 114
80 88 114
80 88 114
80 88 114
80 88 114
80 88 114
80 88 114
80 88 114
80 88 114
80 88 114
80 88 114
80 88 114
80 88 114
80 88 114
80 88 114
80 88 114
80 88 114
80 88 114
80 88 114
80 88 114
80 88 114
80 88 114
80 88 114
80 88 114
80 88 114
80 88 114
80 88 114
80 88 114
80 88 114
80 88 114
80 88 114
80 88 114
80 88 114
80 88 114
80 88 114
80 88 114
80 88 114
80 88 114
80 88 114
80 88 114
80 88 114
80 88 114
80 88 114
80 88 114
80 88 114
80 88 114
80 88 114
80 88 114
80 88 114
80 88 114
80 88 114
80 88 114
80 88 114
80 88 114
80 88 114
80 88 114
80 88 114
80 88 114
80 88 114
80 88 114
80 88 114
80 88 114
80 88 114
80 88 114
80 88 114
80 88 114
80 88 114
80 88 114
80 88 114
80 88 114
80 88 114
80 88 114
80 88 114
80 88 114
80 88 114
80 88 114
80 88 114
80 88 114
80 88 114
80 88 114
80 88 114
80 88 114
80 88 114
80 88 114
80 88 114
80 88 114
80 88 114
80 88 114
80 88 114
80 88 114
80 88 114
80 88 114
80 88 114
80 88 114
80 88 114
80 88 114
80 88 114
80 88 114
80 88 114
80 88 114
80 88 114
80 88 114
80 88 114
80 88 114
80 88 114
80 88 114
80 88 114
80 88 114
80 88 114
80 88 114
80 88 114
80 88 114
80 88 114
80 88 114
80 88 114
80 88 114
80 88 114
80 88 114
80 88 114
80 88 114
80 88 114
80 88 114
80 88 114
80 88 114
80 88 114
80 88 114
80 88 114
80 88 114
80 88 114
80 88 114
80 88 114
80 88 114
80 88 114
80 88 114
80 88 114
80 88 114
80 88 114
80 88 114
80 88 114
80 88 114
80 88 114
80 88 114
80 88 114
80 88 114
80 88 114
80 88 114
80 88 114
80 88 114
80 88 114
80 88 114
80 88 114
80 88 114
80 88 114
80 88 114
80 88 114
80 88 114
80 88 114
80 88 114
80 88 114
80 88 114
80 88 114
80 88 114
80 88 114
80 88 114
80 88 114
80 88 114
80 88 114
80 88 114
80 88 114
80 88 114
80 88 114
80 88 114
80 88 114
80 88 114
80 88 114
80 88 114
80 88 114
80 88 114
80 88 114
80 88 114
80 88 114
80 88 114
80 88 114
80 88 114
80 88 114
80 88 114
80 88 114
80 88 114
80 88 114
80 88 114
80 88 114
80 88 114
80 88 114
80 88 114
80 88 114
80 88 114
80 88 114
80 88 114
80 88 114
80 88 114
80 88 114
80 88 114
80 88 114
80 88 114
80 88 114
80 88 114
80 88 114
80 88 114
80 88 114
80 88 114
80 88 114
80 88 114
80 88 114
80 88 114
80 88 114
80 88 114
80 88 114
80 88 114
80 88 114
80 88 114
80 88 114
80 88 114
80 88 114
80 88 114
80 88 114
80 88 114
80 88 114
80 88 114
80 88 114
80 88 114
80 88 114
80 88 114
80 88 114
80 88 114
80 88 114
80 88 114
80 88 114
80 88 114
80 88 114
80 88 114
80 88 114
80 88 114
80 88 114
80 88 114
80 88 114
80 88 114
80 88 114
80 88 114
80 88 114
80 88 114
80 88 114
80 88 114
80 88 114
80 88 114
80 88 114
80 88 114
80 88 114
80 88 114
80 88 114
80 88 114
80 88 114
80 88 114
80 88 114
80 88 114
80 88 114
80 88 114
80 88 114
80 88 114
80 88 114
80 88 114
80 88 114
80 88 114
80 88 114
80 88 114
80 88 114
80 88 114
80 88 114
80 88 114
80 88 114
80 88 114
80 88 114
80 88 114
80 88 114
80 88 114
80 88 114
80 88 114
80 88 114
80 88 114
80 88 114
80 88 114
80 88 114
80 88 114
80 88 114
80 88 114
80 88 114
80 88 114
80 88 114
80 88 114
80 88 114
80 88 114
80 88 114
80 88 114
80 88 114
80 88 114
80 88 114
80 88 114
80 88 114
80 88 114
80 88 114
80 88 114
80 88 114
80 88 114
80 88 114
80 88 114
80 88 114
80 88 114
80 88 114
80 88 114
80 88 114
80 88 114
80 88 114
80 88 114
80 88 114
80 88 114
80 88 114
80 88 114
80 88 114
80 88 114
80 88 114
80 88 114
80 88 114
80 88 114
80 88 114
80 88 114
80 88 114
80 88 114
80 88 114
80 88 114
80 88 114
80 88 114
80 88 114
80 88 114
80 88 114
80 88 114
80 88 114
80 88 114
80 88 114
80 88 114
80 88 114
80 88 114
80 88 114
80 88 114
80 88 114
80 88 114
80 88 114
80 88 114
80 88 114
80 88 114
80 88 114
80 88 114
80 88 114
80 88 114
80 88 114
80 88 114
80 88 114
80 88 114
80 88 114
80 88 114
80 88 114
80 88 114
80 88 114
80 88 114
80 88 114
80 88 114
80 88 114
80 88 114
80 88 114
80 88 114
80 88 114
80 88 114
80 88 114
80 88 114
80 88 114
80 88 114
80 88 114
80 88 114
80 88 114
80 88 114
80 88 114
80 88 114
80 88 114
80 88 114
80 88 114
80 88 114
80 88 114
80 88 114
80 88 114
80 88 114
80 88 114
80 88 114
80 88 114
80 88 114
80 88 114
80 88 114
80 88 114
80 88 114
80 88 114
80 88 114
80 88 114
80 88 114
80 88 114
80 88 114
80 88 114
80 88 114
80 88 114
80 88 114
80 88 114
80 88 114
80 88 114
80 88 114
80 88 114
80 88 114
80 88 114
80 88 114
80 88 114
80 88 114
80 88 114
80 88 114
80 88 114
80 88 114
80 88 114
80 88 114
80 88 114
80 88 114
80 88 114
80 88 114
80 88 114
80 88 114
80 88 114
80 88 114
80 88 114
80 88 114
80 88 114
80 88 114
80 88 114
80 88 114
80 88 114
80 88 114
80 88 114
80 88 114
80 88 114
80 88 114
80 88 114
80 88 114
80 88 114
80 88 114
80 88 114
80 88 114
80 88 114
80 88 114
80 88 114
80 88 114
80 88 114
80 88 114
80 88 114
80 88 114
80 88 114
80 88 114
80 88 114
80 88 114
80 88 114
80 88 114
80 88 114
80 88 114
80 88 114
80 88 114
80 88 114
80 88 114
80 88 114
80 88 114
80 88 114
80 88 114
80 88 114
80 88 114
80 88 114
80 88 114
80 88 114
80 88 114
80 88 114
80 88 114
80 88 114
80 88 114
80 88 114
80 88 114
80 88 114
80 88 114
80 88 114
80 88 114
80 88 114
80 88 114
80 88 114
80 88 114
80 88 114
80 88 114
80 88 114
80 88 114
80 88 114
80 88 114
80 88 114
80 88 114
80 88 114
80 88 114
80 88 114
80 88 114
80 88 114
80 88 114
80 88 114
80 88 114
80 88 114
80 88 114
80 88 114
80 88 114
80 88 114
80 88 114
80 88 114
80 88 114
80 88 114
80 88 114
80 88 114
80 88 114
80 88 114
80 88 114
80 88 114
80 88 114
80 88 114
80 88 114
80 88 114
80 88 114
80 88 114
80 88 114
80 88 114
80 88 114
80 88 114
80 88 114
80 88 114
80 88 114
80 88 114
80 88 114
80 88 114
80 88 114
80 88 114
80 88 114
80 88 114
80 88 114
80 88 114
80 88 114
80 88 114
80 88 114
80 88 114
80 88 114
80 88 114
80 88 114
80 88 114
80 88 114
80 88 114
80 88 114
80 88 114
80 88 114
80 88 114
80 88 114
80 88 114
80 88 114
80 88 114
80 88 114
80 88 114
80 88 114
80 88 114
80 88 114
80 88 114
80 88 114
80 88 114
80 88 114
80 88 114
80 88 114
80 88 114
80 88 114
80 88 114
80 88 114
80 88 114
80 88 114
80 88 114
80 88 114
80 88 114
80 88 114
80 88 114
80 88 114
80 88 114
80 88 114
80 88 114
80 88 114
80 88 114
80 88 114
80 88 114
80 88 114
80 88 114
80 88 114
80 88 114
80 88 114
80 88 114
80 88 114
80 88 114
80 88 114
80 88 114
80 88 114
80 88 114
80 88 114
80 88 114
80 88 114
80 88 114
80 88 114
80 88 114
80 88 114
80 88 114
80 88 114
80 88 114
80 88 114
80 88 114
80 88 114
80 88 114
80 88 114
80 88 114
80 88 114
80 88 114
80 88 114
80 88 114
80 88 114
80 88 114
80 88 114
80 88 114
80 88 114
80 88 114
80 88 114
80 88 114
80 88 114
80 88 114
80 88 114
80 88 114
80 88 114
80 88 114
80 88 114
80 88 114
80 88 114
80 88 114
80 88 114
80 88 114
80 88 114
80 88 114
80 88 114
80 88 114
80 88 114
80 88 114
80 88 114
80 88 114
80 88 114
80 88 114
80 88 114
80 88 114
80 88 114
80 88 114
80 88 114
80 88 114
80 88 114
80 88 114
80 88 114
80 88 114
80 88 114
80 88 114
80 88 114
80 88 114
80 88 114
80 88 114
80 88 114
80 88 114
80 88 114
80 88 114
80 88 114
80 88 114
80 88 114
80 88 114
80 88 114
80 88 114
80 88 114
80 88 114
80 88 114
80 88 114
80 88 114
80 88 114
80 88 114
80 88 114
80 88 114
80 88 114
80 88 114
80 88 114
80 88 114
80 88 114
80 88 114
80 88 114
80 88 114
80 88 114
80 88 114
80 88 114
80 88 114
80 88 114
80 88 114
80 88 114
80 88 114
80 88 114
80 88 114
80 88 114
80 88 114
80 88 114
80 88 114
80 88 114
80 88 114
80 88 114
80 88 114
80 88 114
80 88 114
80 88 114
80 88 114
80 88 114
80 88 114
80 88 114
80 88 114
80 88 114
80 88 114
80 88 114
80 88 114
80 88 114
80 88 114
80 88 114
80 88 114
80 88 114
80 88 114
80 88 114
80 88 114
80 88 114
80 88 114
80 88 114
80 88 114
80 88 114
80 88 114
80 88 114
80 88 114
80 88 114
80 88 114
80 88 114
80 88 114
80 88 114
80 88 114
80 88 114
80 88 114
80 88 114
80 88 114
80 88 114
80 88 114
80 88 114
80 88 114
80 88 114
80 88 114
80 88 114
80 88 114
80 88 114
80 88 114
80 88 114
80 88 114
80 88 114
80 88 114
80 88 114
80 88 114
80 88 114
80 88 114
80 88 114
80 88 114
80 88 114
80 88 114
80 88 114
80 88 114
80 88 114
80 88 114
80 88 114
80 88 114
80 88 114
80 88 114
80 88 114
80 88 114
80 88 114
80 88 114
80 88 114
80 88 114
80 88 114
80 88 114
80 88 114
80 88 114
80 88 114
80 88 114
80 88 114
80 88 114
80 88 114
80 88 114
80 88 114
80 88 114
80 88 114
80 88 114
80 88 114
80 88 114
80 88 114
80 88 114
80 88 114
80 88 114
80 88 114
80 88 114
80 88 114
80 88 114
80 88 114
80 88 114
80 88 114
80 88 114
80 88 114
80 88 114
80 88 114
80 88 114
80 88 114
80 88 114
80 88 114
80 88 114
80 88 114
80 88 114
80 88 114
80 88 114
80 88 114
80 88 114
80 88 114
80 88 114
80 88 114
80 88 114
80 88 114
80 88 114
80 88 114
80 88 114
80 88 114
80 88 114
80 88 114
80 88 114
80 88 114
80 88 114
80 88 114
80 88 114
80 88 114
80 88 114
80 88 114
80 88 114
80 88 114
80 88 114
80 88 114
80 88 114
80 88 114
80 88 114
80 88 114
80 88 114
80 88 114
80 88 114
80 88 114
80 88 114
80 88 114
80 88 114
80 88 114
80 88 114
80 88 114
80 88 114
80 88 114
80 88 114
80 88 114
80 88 114
80 88 114
80 88 114
80 88 114
80 88 114
80 88 114
80 88 114
80 88 114
80 88 114
80 88 114
80 88 114
80 88 114
80 88 114
80 88 114
80 88 114
80 88 114
80 88 114
80 88 114
80 88 114
80 88 114
80 88 114
80 88 114
80 88 114
80 88 114
80 88 114
80 88 114
80 88 114
80 88 114
80 88 114
80 88 114
80 88 114
80 88 114
80 88 114
80 88 114
80 88 114
80 88 114
80 88 114
80 88 114
80 88 114
80 88 114
80 88 114
80 88 114
80 88 114
80 88 114
80 88 114
80 88 114
80 88 114
80 88 114
80 88 114
80 88 114
80 88 114
80 88 114
80 88 114
80 88 114
80 88 114
80 88 114
80 88 114
80 88 114
80 88 114
80 88 114
80 88 114
80 88 114
80 88 114
80 88 114
80 88 114
80 88 114
80 88 114
80 88 114
80 88 114
80 88 114
80 88 114
80 88 114
80 88 114
80 88 114
80 88 114
80 88 114
80 88 114
80 88 114
80 88 114
80 88 114
80 88 114
80 88 114
80 88 114
80 88 114
80 88 114
80 88 114
80 88 114
80 88 114
80 88 114
80 88 114
80 88 114
80 88 114
80 88 114
80 88 114
80 88 114
80 88 114
80 88 114
80 88 114
80 88 114
80 88 114
80 88 114
80 88 114
80 88 114
80 88 114
80 88 114
80 88 114
80 88 114
80 88 114
80 88 114
80 88 114
80 88 114
80 88 114
80 88 114
80 88 114
80 88 114
80 88 114
80 88 114
80 88 114
80 88 114
80 88 114
80 88 114
80 88 114
80 88 114
80 88 114
80 88 114
80 88 114
80 88 114
80 88 114
80 88 114
80 88 114
80 88 114
80 88 114
80 88 114
80 88 114
80 88 114
80 88 114
80 88 114
80 88 114
80 88 114
80 88 114
80 88 114
80 88 114
80 88 114
80 88 114
80 88 114
80 88 114
80 88 114
80 88 114
80 88 114
80 88 114
80 88 114
80 88 114
80 88 114
80 88 114
80 88 114
80 88 114
80 88 114
80 88 114
80 88 114
80 88 114
80 88 114
80 88 114
80 88 114
80 88 114
80 88 114
80 88 114
80 88 114
80 88 114
80 88 114
80 88 114
80 88 114
80 88 114
80 88 114
80 88 114
80 88 114
80 88 114
80 88 114
80 88 114
80 88 114
80 88 114
80 88 114
80 88 114
80 88 114
80 88 114
80 88 114
80 88 114
80 88 114
80 88 114
80 88 114
80 88 114
80 88 114
80 88 114
80 88 114
80 88 114
80 88 114
80 88 114
80 88 114
80 88 114
80 88 114
80 88 114
80 88 114
80 88 114
80 88 114
80 88 114
80 88 114
80 88 114
80 88 114
80 88 114
80 88 114
80 88 114
80 88 114
80 88 114
80 88 114
80 88 114
80 88 114
80 88 114
80 88 114
80 88 114
80 88 114
80 88 114
80 88 114
80 88 114
80 88 114
80 88 114
80 88 114
80 88 114
80 88 114
80 88 114
80 88 114
80 88 114
80 88 114
80 88 114
80 88 114
80 88 114
80 88 114
80 88 114
80 88 114
80 88 114
80 88 114
80 88 114
80 88 114
80 88 114
80 88 114
80 88 114
80 88 114
80 88 114
80 88 114
80 88 114
80 88 114
80 88 114
80 88 114
80 88 114
80 88 114
80 88 114
80 88 114
80 88 114
80 88 114
80 88 114
80 88 114
80 88 114
80 88 114
80 88 114
80 88 114
80 88 114
80 88 114
80 88 114
80 88 114
80 88 114
80 88 114
80 88 114
80 88 114
80 88 114
80 88 114
80 88 114
80 88 114
80 88 114
80 88 114
80 88 114
80 88 114
80 88 114
80 88 114
80 88 114
80 88 114
80 88 114
80 88 114
80 88 114
80 88 114
80 88 114
80 88 114
80 88 114
80 88 114
80 88 114
80 88 114
80 88 114
80 88 114
80 88 114
80 88 114
80 88 114
80 88 114
80 88 114
80 88 114
80 88 114
80 88 114
80 88 114
80 88 114
80 88 114
80 88 114
80 88 114
80 88 114
80 88 114
80 88 114
80 88 114
80 88 114
80 88 114
80 88 114
80 88 114
80 88 114
80 88 114
80 88 114
80 88 114
80 88 114
80 88 114
80 88 114
80 88 114
80 88 114
80 88 114
80 88 114
80 88 114
80 88 114
80 88 114
80 88 114
80 88 114
80 88 114
80 88 114
80 88 114
80 88 114
80 88 114
80 88 114
80 88 114
80 88 114
80 88 114
80 88 114
80 88 114
80 88 114
80 88 114
80 88 114
80 88 114
80 88 114
80 88 114
80 88 114
80 88 114
80 88 114
80 88 114
80 88 114
80 88 114
80 88 114
80 88 114
80 88 114
80 88 114
80 88 114
80 88 114
80 88 114
80 88 114
80 88 114
80 88 114
80 88 114
80 88 114
80 88 114
80 88 114
80 88 114
80 88 114
80 88 114
80 88 114
80 88 114
80 88 114
80 88 114
80 88 114
80 88 114
80 88 114
80 88 114
80 88 114
80 88 114
80 88 114
80 88 114
80 88 114
80 88 114
80 88 114
80 88 114
80 88 114
80 88 114
80 88 114
80 88 114
80 88 114
80 88 114
80 88 114
80 88 114
80 88 114
80 88 114
80 88 114
80 88 114
80 88 114
80 88 114
80 88 114
80 88 114
80 88 114
80 88 114
80 88 114
80 88 114
80 88 114
80 88 114
80 88 114
80 88 114
80 88 114
80 88 114
80 88 114
80 88 114
80 88 114
80 88 114
80 88 114
80 88 114
80 88 114
80 88 114
80 88 114
80 88 114
80 88 114
80 88 114
80 88 114
80 88 114
80 88 114
80 88 114
80 88 114
80 88 114
80 88 114
80 88 114
80 88 114
80 88 114
80 88 114
80 88 114
80 88 114
80 88 114
80 88 114
80 88 114
80 88 114
80 88 114
80 88 114
80 88 114
80 88 114
80 88 114
80 88 114
80 88 114
80 88 114
80 88 114
80 88 114
80 88 114
80 88 114
80 88 114
80 88 114
80 88 114
80 88 114
80 88 114
80 88 114
80 88 114
80 88 114
80 88 114
80 88 114
80 88 114
80 88 114
80 88 114
80 88 114
80 88 114
80 88 114
80 88 114
80 88 114
80 88 114
80 88 114
80 88 114
80 88 114
80 88 114
80 88 114
80 88 114
80 88 114
80 88 114
80 88 114
80 88 114
80 88 114
80 88 114
80 88 114
80 88 114
80 88 114
80 88 114
80 88 114
80 88 114
80 88 114
80 88 114
80 88 114
80 88 114
80 88 114
80 88 114
80 88 114
80 88 114
80 88 114
80 88 114
80 88 114
80 88 114
80 88 114
80 88 114
80 88 114
80 88 114
80 88 114
80 88 114
80 88 114
80 88 114
80 88 114
80 88 114
80 88 114
80 88 114
80 88 114
80 88 114
80 88 114
80 88 114
80 88 114
80 88 114
80 88 114
80 88 114
80 88 114
80 88 114
80 88 114
80 88 114
80 88 114
80 88 114
80 88 114
80 88 114
80 88 114
80 88 114
80 88 114
80 88 114
80 88 114
80 88 114
80 88 114
80 88 114
80 88 114
80 88 114
80 88 114
80 88 114
80 88 114
80 88 114
80 88 114
80 88 114
80 88 114
80 88 114
80 88 114
80 88 114
80 88 114
80 88 114
80 88 114
80 88 114
80 88 114
80 88 114
80 88 114
80 88 114
80 88 114
80 88 114
80 88 114
80 88 114
80 88 114
80 88 114
80 88 114
80 88 114
80 88 114
80 88 114
80 88 114
80 88 114
80 88 114
80 88 114
80 88 114
80 88 114
80 88 114
80 88 114
80 88 114
80 88 114
80 88 114
80 88 114
80 88 114
80 88 114
80 88 114
80 88 114
80 88 114
80 88 114
80 88 114
80 88 114
80 88 114
80 88 114
80 88 114
80 88 114
80 88 114
80 88 114
80 88 114
80 88 114
80 88 114
80 88 114
80 88 114
80 88 114
80 88 114
80 88 114
80 88 114
80 88 114
80 88 114
80 88 114
80 88 114
80 88 114
80 88 114
80 88 114
80 88 114
80 88 114
80 88 114
80 88 114
80 88 114
80 88 114
80 88 114
80 88 114
80 88 114
80 88 114
80 88 114
80 88 114
80 88 114
80 88 114
80 88 114
80 88 114
80 88 114
80 88 114
80 88 114
80 88 114
80 88 114
80 88 114
80 88 114
80 88 114
80 88 114
80 88 114
80 88 114
80 88 114
80 88 114
80 88 114
80 88 114
80 88 114
80 88 114
80 88 114
80 88 114
80 88 114
80 88 114
80 88 114
80 88 114
80 88 114
80 88 114
80 88 114
80 88 114
80 88 114
80 88 114
80 88 114
80 88 114
80 88 114
80 88 114
80 88 114
80 88 114
80 88 114
80 88 114
80 88 114
80 88 114
80 88 114
80 88 114
80 88 114
80 88 114
80 88 114
80 88 114
80 88 114
80 88 114
80 88 114
80 88 114
80 88 114
80 88 114
80 88 114
80 88 114
80 88 114
80 88 114
80 88 114
80 88 114
80 88 114
80 88 114
80 88 114
80 88 114
80 88 114
80 88 114
80 88 114
80 88 114
80 88 114
80 88 114
80 88 114
80 88 114
80 88 114
80 88 114
80 88 114
80 88 114
80 88 114
80 88 114
80 88 114
80 88 114
80 88 114
80 88 114
80 88 114
80 88 114
80 88 114
80 88 114
80 88 114
80 88 114
80 88 114
80 88 114
80 88 114
80 88 114
80 88 114
80 88 114
80 88 114
80 88 114
80 88 114
80 88 114
80 88 114
80 88 114
80 88 114
80 88 114
80 88 114
80 88 114
80 88 114
80 88 114
80 88 114
80 88 114
80 88 114
80 88 114
80 88 114
80 88 114
80 88 114
80 88 114
80 88 114
80 88 114
80 88 114
80 88 114
80 88 114
80 88 114
80 88 114
80 88 114
80 88 114
80 88 114
80 88 114
80 88 114
80 88 114
80 88 114
80 88 114
80 88 114
80 88 114
80 88 114
80 88 114
80 88 114
80 88 114
80 88 114
80 88 114
80 88 114
80 88 114
80 88 114
80 88 114
80 88 114
80 88 114
80 88 114
80 88 114
80 88 114
80 88 114
80 88 114
80 88 114
80 88 114
80 88 114
80 88 114
80 88 114
80 88 114
80 88 114
80 88 114
80 88 114
80 88 114
80 88 114
80 88 114
80 88 114
80 88 114
80 88 114
80 88 114
80 88 114
80 88 114
80 88 114
80 88 114
80 88 114
80 88 114
80 88 114
80 88 114
80 88 114
80 88 114
80 88 114
80 88 114
80 88 114
80 88 114
80 88 114
80 88 114
80 88 114
80 88 114
80 88 114
80 88 114
80 88 114
80 88 114
80 88 114
80 88 114
80 88 114
80 88 114
80 88 114
80 88 114
80 88 114
80 88 114
80 88 114
80 88 114
80 88 114
80 88 114
80 88 114
80 88 114
80 88 114
80 88 114
80 88 114
80 88 114
80 88 114
80 88 114
80 88 114
80 88 114
80 88 114
80 88 114
80 88 114
80 88 114
80 88 114
80 88 114
80 88 114
80 88 114
80 88 114
80 88 114
80 88 114
80 88 114
80 88 114
80 88 114
80 88 114
80 88 114
80 88 114
80 88 114
80 88 114
80 88 114
80 88 114
80 88 114
80 88 114
80 88 114
80 88 114
80 88 114
80 88 114
80 88 114
80 88 114
80 88 114
80 88 114
80 88 114
80 88 114
80 88 114
80 88 114
80 88 114
80 88 114
80 88 114
80 88 114
80 88 114
80 88 114
80 88 114
80 88 114
80 88 114
80 88 114
80 88 114
80 88 114
80 88 114
80 88 114
80 88 114
80 88 114
80 88 114
80 88 114
80 88 114
80 88 114
80 88 114
80 88 114
80 88 114
80 88 114
80 88 114
80 88 114
80 88 114
80 88 114
80 88 114
80 88 114
80 88 114
80 88 114
80 88 114
80 88 114
80 88 114
80 88 114
80 88 114
80 88 114
80 88 114
80 88 114
80 88 114
80 88 114
80 88 114
80 88 114
80 88 114
80 88 114
80 88 114
80 88 114
80 88 114
80 88 114
80 88 114
80 88 114
80 88 114
80 88 114
80 88 114
80 88 114
80 88 114
80 88 114
80 88 114
80 88 114
80 88 114
80 88 114
80 88 114
80 88 114
80 88 114
80 88 114
80 88 114
80 88 114
80 88 114
80 88 114
80 88 114
80 88 114
80 88 114
80 88 114
80 88 114
80 88 114
80 88 114
80 88 114
80 88 114
80 88 114
80 88 114
80 88 114
80 88 114
80 88 114
80 88 114
80 88 114
80 88 114
80 88 114
80 88 114
80 88 114
80 88 114
80 88 114
80 88 114
80 88 114
80 88 114
80 88 114
80 88 114
80 88 114
80 88 114
80 88 114
80 88 114
80 88 114
80 88 114
80 88 114
80 88 114
80 88 114
80 88 114
80 88 114
80 88 114
80 88 114
80 88 114
80 88 114
80 88 114
80 88 114
80 88 114
80 88 114
80 88 114
80 88 114
80 88 114
80 88 114
80 88 114
80 88 114
80 88 114
80 88 114
80 88 114
80 88 114
80 88 114
80 88 114
80 88 114
80 88 114
80 88 114
80 88 114
80 88 114
80 88 114
80 88 114
80 88 114
80 88 114
80 88 114
80 88 114
80 88 114
80 88 114
80 88 114
80 88 114
80 88 114
80 88 114
80 88 114
80 88 114
80 88 114
80 88 114
80 88 114
80 88 114
80 88 114
80 88 114
80 88 114
80 88 114
80 88 114
80 88 114
80 88 114
80 88 114
80 88 114
80 88 114
80 88 114
80 88 114
80 88 114
80 88 114
80 88 114
80 88 114
80 88 114
80 88 114
80 88 114
80 88 114
80 88 114
80 88 114
80 88 114
80 88 114
80 88 114
80 88 114
80 88 114
80 88 114
80 88 114
80 88 114
80 88 114
80 88 114
80 88 114
80 88 114
80 88 114
80 88 114
80 88 114
80 88 114
80 88 114
80 88 114
80 88 114
80 88 114
80 88 114
80 88 114
80 88 114
80 88 114
80 88 114
80 88 114
80 88 114
80 88 114
80 88 114
80 88 114
80 88 114
80 88 114
80 88 114
80 88 114
80 88 114
80 88 114
80 88 114
80 88 114
80 88 114
80 88 114
80 88 114
80 88 114
80 88 114
80 88 114
80 88 114
80 88 114
80 88 114
80 88 114
80 88 114
80 88 114
80 88 114
80 88 114
80 88 114
80 88 114
80 88 114
80 88 114
80 88 114
80 88 114
80 88 114
80 88 114
80 88 114
80 88 114
80 88 114
80 88 114
80 88 114
80 88 114
80 88 114
80 88 114
80 88 114
80 88 114
80 88 114
80 88 114
80 88 114
80 88 114
80 88 114
80 88 114
80 88 114
80 88 114
80 88 114
80 88 114
80 88 114
80 88 114
80 88 114
80 88 114
80 88 114
80 88 114
80 88 114
80 88 114
80 88 114
80 88 114
80 88 114
80 88 114
80 88 114
80 88 114
80 88 114
80 88 114
80 88 114
80 88 114
80 88 114
80 88 114
80 88 114
80 88 114
80 88 114
80 88 114
80 88 114
80 88 114
80 88 114
80 88 114
80 88 114
80 88 114
80 88 114
80 88 114
80 88 114
80 88 114
80 88 114
80 88 114
80 88 114
80 88 114
80 88 114
80 88 114
80 88 114
80 88 114
80 88 114
80 88 114
80 88 114
80 88 114
80 88 114
80 88 114
80 88 114
80 88 114
80 88 114
80 88 114
80 88 114
80 88 114
80 88 114
80 88 114
80 88 114
80 88 114
80 88 114
80 88 114
80 88 114
80 88 114
80 88 114
80 88 114
80 88 114
80 88 114
80 88 114
80 88 114
80 88 114
80 88 114
80 88 114
80 88 114
80 88 114
80 88 114
80 88 114
80 88 114
80 88 114
80 88 114
80 88 114
80 88 114
80 88 114
80 88 114
80 88 114
80 88 114
80 88 114
80 88 114
80 88 114
80 88 114
80 88 114
80 88 114
80 88 114
80 88 114
80 88 114
80 88 114
80 88 114
80 88 114
80 88 114
80 88 114
80 88 114
80 88 114
80 88 114
80 88 114
80 88 114
80 88 114
80 88 114
80 88 114
80 88 114
80 88 114
80 88 114
80 88 114
80 88 114
80 88 114
80 88 114
80 88 114
80 88 114
80 88 114
80 88 114
80 88 114
80 88 114
80 88 114
80 88 114
80 88 114
80 88 114
80 88 114
80 88 114
80 88 114
80 88 114
80 88 114
80 88 114
80 88 114
80 88 114
80 88 114
80 88 114
80 88 114
80 88 114
80 88 114
80 88 114
80 88 114
80 88 114
80 88 114
80 88 114
80 88 114
80 88 114
80 88 114
80 88 114
80 88 114
80 88 114
80 88 114
80 88 114
80 88 114
80 88 114
80 88 114
80 88 114
80 88 114
80 88 114
80 88 114
80 88 114
80 88 114
80 88 114
80 88 114
80 88 114
80 88 114
80 88 114
80 88 114
80 88 114
80 88 114
80 88 114
80 88 114
80 88 114
80 88 114
80 88 114
80 88 114
80 88 114
80 88 114
80 88 114
80 88 114
80 88 114
80 88 114
80 88 114
80 88 114
80 88 114
80 88 114
80 88 114
80 88 114
80 88 114
80 88 114
80 88 114
80 88 114
80 88 114
80 88 114
80 88 114
80 88 114
80 88 114
80 88 114
80 88 114
80 88 114
80 88 114
80 88 114
80 88 114
80 88 114
80 88 114
80 88 114
80 88 114
80 88 114
80 88 114
80 88 114
80 88 114
80 88 114
80 88 114
80 88 114
80 88 114
80 88 114
80 88 114
80 88 114
80 88 114
80 88 114
80 88 114
80 88 114
80 88 114
80 88 114
80 88 114
80 88 114
80 88 114
80 88 114
80 88 114
80 88 114
80 88 114
80 88 114
80 88 114
80 88 114
80 88 114
80 88 114
80 88 114
80 88 114
80 88 114
80 88 114
80 88 114
80 88 114
80 88 114
80 88 114
80 88 114
80 88 114
80 88 114
80 88 114
80 88 114
80 88 114
80 88 114
80 88 114
80 88 114
80 88 114
80 88 114
80 88 114
80 88 114
80 88 114
80 88 114
80 88 114
80 88 114
80 88 114
80 88 114
80 88 114
80 88 114
80 88 114
80 88 114
80 88 114
80 88 114
80 88 114
80 88 114
80 88 114
80 88 114
80 88 114
80 88 114
80 88 114
80 88 114
80 88 114
80 88 114
80 88 114
80 88 114
80 88 114
80 88 114
80 88 114
80 88 114
80 88 114
80 88 114
80 88 114
80 88 114
80 88 114
80 88 114
80 88 114
80 88 114
80 88 114
80 88 114
80 88 114
80 88 114
80 88 114
80 88 114
80 88 114
80 88 114
80 88 114
80 88 114
80 88 114
80 88 114
80 88 114
80 88 114
80 88 114
80 88 114
80 88 114
80 88 114
80 88 114
80 88 114
80 88 114
80 88 114
80 88 114
80 88 114
80 88 114
80 88 114
80 88 114
80 88 114
80 88 114
80 88 114
80 88 114
80 88 114
80 88 114
80 88 114
80 88 114
80 88 114
80 88 114
80 88 114
80 88 114
80 88 114
80 88 114
80 88 114
80 88 114
80 88 114
80 88 114
80 88 114
80 88 114
80 88 114
80 88 114
80 88 114
80 88 114
80 88 114
80 88 114
80 88 114
80 88 114
80 88 114
80 88 114
80 88 114
80 88 114
80 88 114
80 88 114
80 88 114
80 88 114
80 88 114
80 88 114
80 88 114
80 88 114
80 88 114
80 88 114
80 88 114
80 88 114
80 88 114
80 88 114
80 88 114
80 88 114
80 88 114
80 88 114
80 88 114
80 88 114
80 88 114
80 88 114
80 88 114
80 88 114
80 88 114
80 88 114
80 88 114
80 88 114
80 88 114
80 88 114
80 88 114
80 88 114
80 88 114
80 88 114
80 88 114
80 88 114
80 88 114
80 88 114
80 88 114
80 88 114
80 88 114
80 88 114
80 88 114
80 88 114
80 88 114
80 88 114
80 88 114
80 88 114
80 88 114
80 88 114
80 88 114
80 88 114
80 88 114
80 88 114
80 88 114
80 88 114
80 88 114
80 88 114
80 88 114
80 88 114
80 88 114
80 88 114
80 88 114
80 88 114
80 88 114
80 88 114
80 88 114
80 88 114
80 88 114
80 88 114
80 88 114
80 88 114
80 88 114
80 88 114
80 88 114
80 88 114
80 88 114
80 88 114
80 88 114
80 88 114
80 88 114
80 88 114
80 88 114
80 88 114
80 88 114
80 88 114
80 88 114
80 88 114
80 88 114
80 88 114
80 88 114
80 88 114
80 88 114
80 88 114
80 88 114
80 88 114
80 88 114
80 88 114
80 88 114
80 88 114
80 88 114
80 88 114
80 88 114
80 88 114
80 88 114
80 88 114
80 88 114
80 88 114
80 88 114
80 88 114
80 88 114
80 88 114
80 88 114
80 88 114
80 88 114
80 88 114
80 88 114
80 88 114
80 88 114
80 88 114
80 88 114
80 88 114
80 88 114
80 88 114
80 88 114
80 88 114
80 88 114
80 88 114
80 88 114
80 88 114
80 88 114
80 88 114
80 88 114
80 88 114
80 88 114
80 88 114
80 88 114
80 88 114
80 88 114
80 88 114
80 88 114
80 88 114
80 88 114
80 88 114
80 88 114
80 88 114
80 88 114
80 88 114
80 88 114
80 88 114
80 88 114
80 88 114
80 88 114
80 88 114
80 88 114
80 88 114
80 88 114
80 88 114
80 88 114
80 88 114
80 88 114
80 88 114
80 88 114
80 88 114
80 88 114
80 88 114
80 88 114
80 88 114
80 88 114
80 88 114
80 88 114
80 88 114
80 88 114
80 88 114
80 88 114
80 88 114
80 88 114
80 88 114
80 88 114
80 88 114
80 88 114
80 88 114
80 88 114
80 88 114
80 88 114
80 88 114
80 88 114
80 88 114
80 88 114
80 88 114
80 88 114
80 88 114
80 88 114
80 88 114
80 88 114
80 88 114
80 88 114
80 88 114
80 88 114
80 88 114
80 88 114
80 88 114
80 88 114
80 88 114
80 88 114
80 88 114
80 88 114
80 88 114
80 88 114
80 88 114
80 88 114
80 88 114
80 88 114
80 88 114
80 88 114
80 88 114
80 88 114
80 88 114
80 88 114
80 88 114
80 88 114
80 88 114
80 88 114
80 88 114
80 88 114
80 88 114
80 88 114
80 88 114
80 88 114
80 88 114
80 88 114
80 88 114
80 88 114
80 88 114
80 88 114
80 88 114
80 88 114
80 88 114
80 88 114
80 88 114
80 88 114
80 88 114
80 88 114
80 88 114
80 88 114
80 88 114
80 88 114
80 88 114
80 88 114
80 88 114
80 88 114
80 88 114
80 88 114
80 88 114
80 88 114
80 88 114
80 88 114
80 88 114
80 88 114
80 88 114
80 88 114
80 88 114
80 88 114
80 88 114
80 88 114
80 88 114
80 88 114
80 88 114
80 88 114
80 88 114
80 88 114
80 88 114
80 88 114
80 88 114
80 88 114
80 88 114
80 88 114
80 88 114
80 88 114
80 88 114
80 88 114
80 88 114
80 88 114
80 88 114
80 88 114
80 88 114
80 88 114
80 88 114
80 88 114
80 88 114
80 88 114
80 88 114
80 88 114
80 88 114
80 88 114
80 88 114
80 88 114
80 88 114
80 88 114
80 88 114
80 88 114
80 88 114
80 88 114
80 88 114
80 88 114
80 88 114
80 88 114
80 88 114
80 88 114
80 88 114
80 88 114
80 88 114
80 88 114
80 88 114
80 88 114
80 88 114
80 88 114
80 88 114
80 88 114
80 88 114
80 88 114
80 88 114
80 88 114
80 88 114
80 88 114
80 88 114
80 88 114
80 88 114
80 88 114
80 88 114
80 88 114
80 88 114
80 88 114
80 88 114
80 88 114
80 88 114
80 88 114
80 88 114
80 88 114
80 88 114
80 88 114
80 88 114
80 88 114
80 88 114
80 88 114
80 88 114
80 88 114
80 88 114
80 88 114
80 88 114
80 88 114
80 88 114
80 88 114
80 88 114
80 88 114
80 88 114
80 88 114
80 88 114
80 88 114
80 88 114
80 88 114
80 88 114
80 88 114
80 88 114
80 88 114
80 88 114
80 88 114
80 88 114
80 88 114
80 88 114
80 88 114
80 88 114
80 88 114
80 88 114
80 88 114
80 88 114
80 88 114
80 88 114
80 88 114
80 88 114
80 88 114
80 88 114
80 88 114
80 88 114
80 88 114
80 88 114
80 88 114
80 88 114
80 88 114
80 88 114
80 88 114
80 88 114
80 88 114
80 88 114
80 88 114
80 88 114
80 88 114
80 88 114
80 88 114
80 88 114
80 88 114
80 88 114
80 88 114
80 88 114
80 88 114
80 88 114
80 88 114
80 88 114
80 88 114
80 88 114
80 88 114
80 88 114
80 88 114
80 88 114
80 88 114
80 88 114
80 88 114
80 88 114
80 88 114
80 88 114
80 88 114
80 88 114
80 88 114
80 88 114
80 88 114
80 88 114
80 88 114
80 88 114
80 88 114
80 88 114
80 88 114
80 88 114
80 88 114
80 88 114
80 88 114
80 88 114
80 88 114
80 88 114
80 88 114
80 88 114
80 88 114
80 88 114
80 88 114
80 88 114
80 88 114
80 88 114
80 88 114
80 88 114
80 88 114
80 88 114
80 88 114
80 88 114
80 88 114
80 88 114
80 88 114
80 88 114
80 88 114
80 88 114
80 88 114
80 88 114
80 88 114
80 88 114
80 88 114
80 88 114
80 88 114
80 88 114
80 88 114
80 88 114
80 88 114
80 88 114
80 88 114
80 88 114
80 88 114
80 88 114
80 88 114
80 88 114
80 88 114
80 88 114
80 88 114
80 88 114
80 88 114
80 88 114
80 88 114
80 88 114
80 88 114
80 88 114
80 88 114
80 88 114
80 88 114
80 88 114
80 88 114
80 88 114
80 88 114
80 88 114
80 88 114
80 88 114
80 88 114
80 88 114
80 88 114
80 88 114
80 88 114
80 88 114
80 88 114
80 88 114
80 88 114
80 88 114
80 88 114
80 88 114
80 88 114
80 88 114
80 88 114
80 88 114
80 88 114
80 88 114
80 88 114
80 88 114
80 88 114
80 88 114
80 88 114
80 88 114
80 88 114
80 88 114
80 88 114
80 88 114
80 88 114
80 88 114
80 88 114
80 88 114
80 88 114
80 88 114
80 88 114
80 88 114
80 88 114
80 88 114
80 88 114
80 88 114
80 88 114
80 88 114
80 88 114
80 88 114
80 88 114
80 88 114
80 88 114
80 88 114
80 88 114
80 88 114
80 88 114
80 88 114
80 88 114
80 88 114
80 88 114
80 88 114
80 88 114
80 88 114
80 88 114
80 88 114
80 88 114
80 88 114
80 88 114
80 88 114
80 88 114
80 88 114
80 88 114
80 88 114
80 88 114
80 88 114
80 88 114
80 88 114
80 88 114
80 88 114
80 88 114
80 88 114
80 88 114
80 88 114
80 88 114
80 88 114
80 88 114
80 88 114
80 88 114
80 88 114
80 88 114
80 88 114
80 88 114
80 88 114
80 88 114
80 88 114
80 88 114
80 88 114
80 88 114
80 88 114
80 88 114
80 88 114
80 88 114
80 88 114
80 88 114
80 88 114
80 88 114
80 88 114
80 88 114
80 88 114
80 88 114
80 88 114
80 88 114
80 88 114
80 88 114
80 88 114
80 88 114
80 88 114
80 88 114
80 88 114
80 88 114
80 88 114
80 88 114
80 88 114
80 88 114
80 88 114
80 88 114
80 88 114
80 88 114
80 88 114
80 88 114
80 88 114
80 88 114
80 88 114
80 88 114
80 88 114
80 88 114
80 88 114
80 88 114
80 88 114
80 88 114
80 88 114
80 88 114
80 88 114
80 88 114
80 88 114
80 88 114
80 88 114
80 88 114
80 88 114
80 88 114
80 88 114
80 88 114
80 88 114
80 88 114
80 88 114
80 88 114
80 88 114
80 88 114
80 88 114
80 88 114
80 88 114
80 88 114
80 88 114
80 88 114
80 88 114
80 88 114
80 88 114
80 88 114
80 88 114
80 88 114
80 88 114
80 88 114
80 88 114
80 88 114
80 88 114
80 88 114
80 88 114
80 88 114
80 88 114
80 88 114
80 88 114
80 88 114
80 88 114
80 88 114
80 88 114
80 88 114
80 88 114
80 88 114
80 88 114
80 88 114
80 88 114
80 88 114
80 88 114
80 88 114
80 88 114
80 88 114
80 88 114
80 88 114
80 88 114
80 88 114
80 88 114
80 88 114
80 88 114
80 88 114
80 88 114
80 88 114
80 88 114
80 88 114
80 88 114
80 88 114
80 88 114
80 88 114
80 88 114
80 88 114
80 88 114
80 88 114
80 88 114
80 88 114
80 88 114
80 88 114
80 88 114
80 88 114
80 88 114
80 88 114
80 88 114
80 88 114
80 88 114
80 88 114
80 88 114
80 88 114
80 88 114
80 88 114
80 88 114
80 88 114
80 88 114
80 88 114
80 88 114
80 88 114
80 88 114
80 88 114
80 88 114
80 88 114
80 88 114
80 88 114
80 88 114
80 88 114
80 88 114
80 88 114
80 88 114
80 88 114
80 88 114
80 88 114
80 88 114
80 88 114
80 88 114
80 88 114
80 88 114
80 88 114
80 88 114
80 88 114
80 88 114
80 88 114
80 88 114
80 88 114
80 88 114
80 88 114
80 88 114
80 88 114
80 88 114
80 88 114
80 88 114
80 88 114
80 88 114
80 88 114
80 88 114
80 88 114
80 88 114
80 88 114
80 88 114
80 88 114
80 88 114
80 88 114
80 88 114
80 88 114
80 88 114
80 88 114
80 88 114
80 88 114
80 88 114
80 88 114
80 88 114
80 88 114
80 88 114
80 88 114
80 88 114
80 88 114
80 88 114
80 88 114
80 88 114
80 88 114
80 88 114
80 88 114
80 88 114
80 88 114
80 88 114
80 88 114
80 88 114
80 88 114
80 88 114
80 88 114
80 88 114
80 88 114
80 88 114
80 88 114
80 88 114
80 88 114
80 88 114
80 88 114
80 88 114
80 88 114
80 88 114
80 88 114
80 88 114
80 88 114
80 88 114
80 88 114
80 88 114
80 88 114
80 88 114
80 88 114
80 88 114
80 88 114
80 88 114
80 88 114
80 88 114
80 88 114
80 88 114
80 88 114
80 88 114
80 88 114
80 88 114
80 88 114
80 88 114
80 88 114
80 88 114
80 88 114
80 88 114
80 88 114
80 88 114
80 88 114
80 88 114
80 88 114
80 88 114
80 88 114
80 88 114
80 88 114
80 88 114
80 88 114
80 88 114
80 88 114
80 88 114
80 88 114
80 88 114
80 88 114
80 88 114
80 88 114
80 88 114
80 88 114
80 88 114
80 88 114
80 88 114
80 88 114
80 88 114
80 88 114
80 88 114
80 88 114
80 88 114
80 88 114
80 88 114
80 88 114
80 88 114
80 88 114
80 88 114
80 88 114
80 88 114
80 88 114
80 88 114
80 88 114
80 88 114
80 88 114
80 88 114
80 88 114
80 88 114
80 88 114
80 88 114
80 88 114
80 88 114
80 88 114
80 88 114
80 88 114
80 88 114
80 88 114
80 88 114
80 88 114
80 88 114
80 88 114
80 88 114
80 88 114
80 88 114
80 88 114
80 88 114
80 88 114
80 88 114
80 88 114
80 88 114
80 88 114
80 88 114
80 88 114
80 88 114
80 88 114
80 88 114
80 88 114
80 88 114
80 88 114
80 88 114
80 88 114
80 88 114
80 88 114
80 88 114
80 88 114
80 88 114
80 88 114
80 88 114
80 88 114
80 88 114
80 88 114
80 88 114
80 88 114
80 88 114
80 88 114
80 88 114
80 88 114
80 88 114
80 88 114
80 88 114
80 88 114
80 88 114
80 88 114
80 88 114
80 88 114
80 88 114
80 88 114
80 88 114
80 88 114
80 88 114
80 88 114
80 88 114
80 88 114
80 88 114
80 88 114
80 88 114
80 88 114
80 88 114
80 88 114
80 88 114
80 88 114
80 88 114
80 88 114
80 88 114
80 88 114
80 88 114
80 88 114
80 88 114
80 88 114
80 88 114
80 88 114
80 88 114
80 88 114
80 88 114
80 88 114
80 88 114
80 88 114
80 88 114
80 88 114
80 88 114
80 88 114
80 88 114
80 88 114
80 88 114
80 88 114
80 88 114
80 88 114
80 88 114
80 88 114
80 88 114
80 88 114
80 88 114
80 88 114
80 88 114
80 88 114
80 88 114
80 88 114
80 88 114
80 88 114
80 88 114
80 88 114
80 88 114
80 88 114
80 88 114
80 88 114
80 88 114
80 88 114
80 88 114
80 88 114
80 88 114
80 88 114
80 88 114
80 88 114
80 88 114
80 88 114
80 88 114
80 88 114
80 88 114
80 88 114
80 88 114
80 88 114
80 88 114
80 88 114
80 88 114
80 88 114
80 88 114
80 88 114
80 88 114
80 88 114
80 88 114
80 88 114
80 88 114
80 88 114
80 88 114
80 88 114
80 88 114
80 88 114
80 88 114
80 88 114
80 88 114
80 88 114
80 88 114
80 88 114
80 88 114
80 88 114
80 88 114
80 88 114
80 88 114
80 88 114
80 88 114
80 88 114
80 88 114
80 88 114
80 88 114
80 88 114
80 88 114
80 88 114
80 88 114
80 88 114
80 88 114
80 88 114
80 88 114
80 88 114
80 88 114
80 88 114
80 88 114
80 88 114
80 88 114
80 88 114
80 88 114
80 88 114
80 88 114
80 88 114
80 88 114
80 88 114
80 88 114
80 88 114
80 88 114
80 88 114
80 88 114
80 88 114
80 88 114
80 88 114
80 88 114
80 88 114
80 88 114
80 88 114
80 88 114
80 88 114
80 88 114
80 88 114
80 88 114
80 88 114
80 88 114
80 88 114
80 88 114
80 88 114
80 88 114
80 88 114
80 88 114
80 88 114
80 88 114
80 88 114
80 88 114
80 88 114
80 88 114
80 88 114
80 88 114
80 88 114
80 88 114
80 88 114
80 88 114
80 88 114
80 88 114
80 88 114
80 88 114
80 88 114
80 88 114
80 88 114
80 88 114
80 88 114
80 88 114
80 88 114
80 88 114
80 88 114
80 88 114
80 88 114
80 88 114
80 88 114
80 88 114
80 88 114
80 88 114
80 88 114
80 88 114
80 88 114
80 88 114
80 88 114
80 88 114
80 88 114
80 88 114
80 88 114
80 88 114
80 88 114
80 88 114
80 88 114
80 88 114
80 88 114
80 88 114
80 88 114
80 88 114
80 88 114
80 88 114
80 88 114
80 88 114
80 88 114
80 88 114
80 88 114
80 88 114
80 88 114
80 88 114
80 88 114
80 88 114
80 88 114
80 88 114
80 88 114
80 88 114
80 88 114
80 88 114
80 88 114
80 88 114
80 88 114
80 88 114
80 88 114
80 88 114
80 88 114
80 88 114
80 88 114
80 88 114
80 88 114
80 88 114
80 88 114
80 88 114
80 88 114
80 88 114
80 88 114
80 88 114
80 88 114
80 88 114
80 88 114
80 88 114
80 88 114
80 88 114
80 88 114
80 88 114
80 88 114
80 88 114
80 88 114
80 88 114
80 88 114
80 88 114
80 88 114
80 88 114
80 88 114
80 88 114
80 88 114
80 88 114
80 88 114
80 88 114
80 88 114
80 88 114
80 88 114
80 88 114
80 88 114
80 88 114
80 88 114
80 88 114
80 88 114
80 88 114
80 88 114
80 88 114
80 88 114
80 88 114
80 88 114
80 88 114
80 88 114
80 88 114
80 88 114
80 88 114
80 88 114
80 88 114
80 88 114
80 88 114
80 88 114
80 88 114
80 88 114
80 88 114
80 88 114
80 88 114
80 88 114
80 88 114
80 88 114
80 88 114
80 88 114
80 88 114
80 88 114
80 88 114
80 88 114
80 88 114
80 88 114
80 88 114
80 88 114
80 88 114
80 88 114
80 88 114
80 88 114
80 88 114
80 88 114
80 88 114
80 88 114
80 88 114
80 88 114
80 88 114
80 88 114
80 88 114
80 88 114
80 88 114
80 88 114
80 88 114
80 88 114
80 88 114
80 88 114
80 88 114
80 88 114
80 88 114
80 88 114
80 88 114
80 88 114
80 88 114
80 88 114
80 88 114
80 88 114
80 88 114
80 88 114
80 88 114
80 88 114
80 88 114
80 88 114
80 88 114
80 88 114
80 88 114
80 88 114
80 88 114
80 88 114
80 88 114
80 88 114
80 88 114
80 88 114
80 88 114
80 88 114
80 88 114
80 88 114
80 88 114
80 88 114
80 88 114
80 88 114
80 88 114
80 88 114
80 88 114
80 88 114
80 88 114
80 88 114
80 88 114
80 88 114
80 88 114
80 88 114
80 88 114
80 88 114
80 88 114
80 88 114
80 88 114
80 88 114
80 88 114
80 88 114
80 88 114
80 88 114
80 88 114
80 88 114
80 88 114
80 88 114
80 88 114
80 88 114
80 88 114
80 88 114
80 88 114
80 88 114
80 88 114
80 88 114
80 88 114
80 88 114
80 88 114
80 88 114
80 88 114
80 88 114
80 88 114
80 88 114
80 88 114
80 88 114
80 88 114
80 88 114
80 88 114
80 88 114
80 88 114
80 88 114
80 88 114
80 88 114
80 88 114
80 88 114
80 88 114
80 88 114
80 88 114
80 88 114
80 88 114
80 88 114
80 88 114
80 88 114
80 88 114
80 88 114
80 88 114
80 88 114
80 88 114
80 88 114
80 88 114
80 88 114
80 88 114
80 88 114
80 88 114
80 88 114
80 88 114
80 88 114
80 88 114
80 88 114
80 88 114
80 88 114
80 88 114
80 88 114
80 88 114
80 88 114
80 88 114
80 88 114
80 88 114
80 88 114
80 88 114
80 88 114
80 88 114
80 88 114
80 88 114
80 88 114
80 88 114
80 88 114
80 88 114
80 88 114
80 88 114
80 88 114
80 88 114
80 88 114
80 88 114
80 88 114
80 88 114
80 88 114
80 88 114
80 88 114
80 88 114
80 88 114
80 88 114
80 88 114
80 88 114
80 88 114
80 88 114
80 88 114
80 88 114
80 88 114
80 88 114
80 88 114
80 88 114
80 88 114
80 88 114
80 88 114
80 88 114
80 88 114
80 88 114
80 88 114
80 88 114
80 88 114
80 88 114
80 88 114
80 88 114
80 88 114
80 88 114
80 88 114
80 88 114
80 88 114
80 88 114
80 88 114
80 88 114
80 88 114
80 88 114
80 88 114
80 88 114
80 88 114
80 88 114
80 88 114
80 88 114
80 88 114
80 88 114
80 88 114
80 88 114
80 88 114
80 88 114
80 88 114
80 88 114
80 88 114
80 88 114
80 88 114
80 88 114
80 88 114
80 88 114
80 88 114
80 88 114
80 88 114
80 88 114
80 88 114
80 88 114
80 88 114
80 88 114
80 88 114
80 88 114
80 88 114
80 88 114
80 88 114
80 88 114
80 88 114
80 88 114
80 88 114
80 88 114
80 88 114
80 88 114
80 88 114
80 88 114
80 88 114
80 88 114
80 88 114
80 88 114
80 88 114
80 88 114
80 88 114
80 88 114
80 88 114
80 88 114
80 88 114
80 88 114
80 88 114
80 88 114
80 88 114
80 88 114
80 88 114
80 88 114
80 88 114
80 88 114
80 88 114
80 88 114
80 88 114
80 88 114
80 88 114
80 88 114
80 88 114
80 88 114
80 88 114
80 88 114
80 88 114
80 88 114
80 88 114
80 88 114
80 88 114
80 88 114
80 88 114
80 88 114
80 88 114
80 88 114
80 88 114
80 88 114
80 88 114
80 88 114
80 88 114
80 88 114
80 88 114
80 88 114
80 88 114
80 88 114
80 88 114
80 88 114
80 88 114
80 88 114
80 88 114
80 88 114
80 88 114
80 88 114
80 88 114
80 88 114
80 88 114
80 88 114
80 88 114
80 88 114
80 88 114
80 88 114
80 88 114
80 88 114
80 88 114
80 88 114
80 88 114
80 88 114
80 88 114
80 88 114
80 88 114
80 88 114
80 88 114
80 88 114
80 88 114
80 88 114
80 88 114
80 88 114
80 88 114
80 88 114
80 88 114
80 88 114
80 88 114
80 88 114
80 88 114
80 88 114
80 88 114
80 88 114
80 88 114
80 88 114
80 88 114
80 88 114
80 88 114
80 88 114
80 88 114
80 88 114
80 88 114
80 88 114
80 88 114
80 88 114
80 88 114
80 88 114
80 88 114
80 88 114
80 88 114
80 88 114
80 88 114
80 88 114
80 88 114
80 88 114
80 88 114
80 88 114
80 88 114
80 88 114
80 88 114
80 88 114
80 88 114
80 88 114
80 88 114
80 88 114
80 88 114
80 88 114
80 88 114
80 88 114
80 88 114
80 88 114
80 88 114
80 88 114
80 88 114
80 88 114
80 88 114
80 88 114
80 88 114
80 88 114
80 88 114
80 88 114
80 88 114
80 88 114
80 88 114
80 88 114
80 88 114
80 88 114
80 88 114
80 88 114
80 88 114
80 88 114
80 88 114
80 88 114
80 88 114
80 88 114
80 88 114
80 88 114
80 88 114
80 88 114
80 88 114
80 88 114
80 88 114
80 88 114
80 88 114
80 88 114
80 88 114
80 88 114
80 88 114
80 88 114
80 88 114
80 88 114
80 88 114
80 88 114
80 88 114
80 88 114
80 88 114
80 88 114
80 88 114
80 88 114
80 88 114
80 88 114
80 88 114
80 88 114
80 88 114
80 88 114
80 88 114
80 88 114
80 88 114
80 88 114
80 88 114
80 88 114
80 88 114
80 88 114
80 88 114
80 88 114
80 88 114
80 88 114
80 88 114
80 88 114
80 88 114
80 88 114
80 88 114
80 88 114
80 88 114
80 88 114
80 88 114
80 88 114
80 88 114
80 88 114
80 88 114
80 88 114
80 88 114
80 88 114
80 88 114
80 88 114
80 88 114
80 88 114
80 88 114
80 88 114
80 88 114
80 88 114
80 88 114
80 88 114
80 88 114
80 88 114
80 88 114
80 88 114
80 88 114
80 88 114
80 88 114
80 88 114
80 88 114
80 88 114
80 88 114
80 88 114
80 88 114
80 88 114
80 88 114
80 88 114
80 88 114
80 88 114
80 88 114
80 88 114
80 88 114
80 88 114
80 88 114
80 88 114
80 88 114
80 88 114
80 88 114
80 88 114
80 88 114
80 88 114
80 88 114
80 88 114
80 88 114
80 88 114
80 88 114
80 88 114
80 88 114
80 88 114
80 88 114
80 88 114
80 88 114
80 88 114
80 88 114
80 88 114
80 88 114
80 88 114
80 88 114
80 88 114
80 88 114
80 88 114
80 88 114
80 88 114
80 88 114
80 88 114
80 88 114
80 88 114
80 88 114
80 88 114
80 88 114
80 88 114
80 88 114
80 88 114
80 88 114
80 88 114
80 88 114
80 88 114
80 88 114
80 88 114
80 88 114
80 88 114
80 88 114
80 88 114
80 88 114
80 88 114
80 88 114
80 88 114
80 88 114
80 88 114
80 88 114
80 88 114
80 88 114
80 88 114
80 88 114
80 88 114
80 88 114
80 88 114
80 88 114
80 88 114
80 88 114
80 88 114
80 88 114
80 88 114
80 88 114
80 88 114
80 88 114
80 88 114
80 88 114
80 88 114
80 88 114
80 88 114
80 88 114
80 88 114
80 88 114
80 88 114
80 88 114
80 88 114
80 88 114
80 88 114
80 88 114
80 88 114
80 88 114
80 88 114
80 88 114
80 88 114
80 88 114
80 88 114
80 88 114
80 88 114
80 88 114
80 88 114
80 88 114
80 88 114
80 88 114
80 88 114
80 88 114
80 88 114
80 88 114
80 88 114
80 88 114
80 88 114
80 88 114
80 88 114
80 88 114
80 88 114
80 88 114
80 88 114
80 88 114
80 88 114
80 88 114
80 88 114
80 88 114
80 88 114
80 88 114
80 88 114
80 88 114
80 88 114
80 88 114
80 88 114
80 88 114
80 88 114
80 88 114
80 88 114
80 88 114
80 88 114
80 88 114
80 88 114
80 88 114
80 88 114
80 88 114
80 88 114
80 88 114
80 88 114
80 88 114
80 88 114
80 88 114
80 88 114
80 88 114
80 88 114
80 88 114
80 88 114
80 88 114
80 88 114
80 88 114
80 88 114
80 88 114
80 88 114
80 88 114
80 88 114
80 88 114
80 88 114
80 88 114
80 88 114
80 88 114
80 88 114
80 88 114
80 88 114
80 88 114
80 88 114
80 88 114
80 88 114
80 88 114
80 88 114
80 88 114
80 88 114
80 88 114
80 88 114
80 88 114
80 88 114
80 88 114
80 88 114
80 88 114
80 88 114
80 88 114
80 88 114
80 88 114
80 88 114
80 88 114
80 88 114
80 88 114
80 88 114
80 88 114
80 88 114
80 88 114
80 88 114
80 88 114
80 88 114
80 88 114
80 88 114
80 88 114
80 88 114
80 88 114
80 88 114
80 88 114
80 88 114
80 88 114
80 88 114
80 88 114
80 88 114
80 88 114
80 88 114
80 88 114
80 88 114
80 88 114
80 88 114
80 88 114
80 88 114
80 88 114
80 88 114
80 88 114
80 88 114
80 88 114
80 88 114
80 88 114
80 88 114
80 88 114
80 88 114
80 88 114
80 88 114
80 88 114
80 88 114
80 88 114
80 88 114
80 88 114
80 88 114
80 88 114
80 88 114
80 88 114
80 88 114
80 88 114
80 88 114
80 88 114
80 88 114
80 88 114
80 88 114
80 88 114
80 88 114
80 88 114
80 88 114
80 88 114
80 88 114
80 88 114
80 88 114
80 88 114
80 88 114
80 88 114
80 88 114
80 88 114
80 88 114
80 88 114
80 88 114
80 88 114
80 88 114
80 88 114
80 88 114
80 88 114
80 88 114
80 88 114
80 88 114
80 88 114
80 88 114
80 88 114
80 88 114
80 88 114
80 88 114
80 88 114
80 88 114
80 88 114
80 88 114
80 88 114
80 88 114
80 88 114
80 88 114
80 88 114
80 88 114
80 88 114
80 88 114
80 88 114
80 88 114
80 88 114
80 88 114
80 88 114
80 88 114
80 88 114
80 88 114
80 88 114
80 88 114
80 88 114
80 88 114
80 88 114
80 88 114
80 88 114
80 88 114
80 88 114
80 88 114
80 88 114
80 88 114
80 88 114
80 88 114
80 88 114
80 88 114
80 88 114
80 88 114
80 88 114
80 88 114
80 88 114
80 88 114
80 88 114
80 88 114
80 88 114
80 88 114
80 88 114
80 88 114
80 88 114
80 88 114
80 88 114
80 88 114
80 88 114
80 88 114
80 88 114
80 88 114
80 88 114
80 88 114
80 88 114
80 88 114
80 88 114
80 88 114
80 88 114
80 88 114
80 88 114
80 88 114
80 88 114
80 88 114
80 88 114
80 88 114
80 88 114
80 88 114
80 88 114
80 88 114
80 88 114
80 88 114
80 88 114
80 88 114
80 88 114
80 88 114
80 88 114
80 88 114
80 88 114
80 88 114
80 88 114
80 88 114
80 88 114
80 88 114
80 88 114
80 88 114
80 88 114
80 88 114
80 88 114
80 88 114
80 88 114
80 88 114
80 88 114
80 88 114
80 88 114
80 88 114
80 88 114
80 88 114
80 88 114
80 88 114
80 88 114
80 88 114
80 88 114
80 88 114
80 88 114
80 88 114
80 88 114
80 88 114
80 88 114
80 88 114
80 88 114
80 88 114
80 88 114
80 88 114
80 88 114
80 88 114
80 88 114
80 88 114
80 88 114
80 88 114
80 88 114
80 88 114
80 88 114
80 88 114
80 88 114
80 88 114
80 88 114
80 88 114
80 88 114
80 88 114
80 88 114
80 88 114
80 88 114
80 88 114
80 88 114
80 88 114
80 88 114
80 88 114
80 88 114
80 88 114
80 88 114
80 88 114
80 88 114
80 88 114
80 88 114
80 88 114
80 88 114
80 88 114
80 88 114
80 88 114
80 88 114
80 88 114
80 88 114
80 88 114
80 88 114
80 88 114
80 88 114
80 88 114
80 88 114
80 88 114
80 88 114
80 88 114
80 88 114
80 88 114
80 88 114
80 88 114
80 88 114
80 88 114
80 88 114
80 88 114
80 88 114
80 88 114
80 88 114
80 88 114
80 88 114
80 88 114
80 88 114
80 88 114
80 88 114
80 88 114
80 88 114
80 88 114
80 88 114
80 88 114
80 88 114
80 88 114
80 88 114
80 88 114
80 88 114
80 88 114
80 88 114
80 88 114
80 88 114
80 88 114
80 88 114
80 88 114
80 88 114
80 88 114
80 88 114
80 88 114
80 88 114
80 88 114
80 88 114
80 88 114
80 88 114
80 88 114
80 88 114
80 88 114
80 88 114
80 88 114
80 88 114
80 88 114
80 88 114
80 88 114
80 88 114
80 88 114
80 88 114
80 88 114
80 88 114
80 88 114
80 88 114
80 88 114
80 88 114
80 88 114
80 88 114
80 88 114
80 88 114
80 88 114
80 88 114
80 88 114
80 88 114
80 88 114
80 88 114
80 88 114
80 88 114
80 88 114
80 88 114
80 88 114
80 88 114
80 88 114
80 88 114
80 88 114
80 88 114
80 88 114
80 88 114
80 88 114
80 88 114
80 88 114
80 88 114
80 88 114
80 88 114
80 88 114
80 88 114
80 88 114
80 88 114
80 88 114
80 88 114
80 88 114
80 88 114
80 88 114
80 88 114
80 88 114
80 88 114
80 88 114
80 88 114
80 88 114
80 88 114
80 88 114
80 88 114
80 88 114
80 88 114
80 88 114
80 88 114
80 88 114
80 88 114
80 88 114
80 88 114
80 88 114
80 88 114
80 88 114
80 88 114
80 88 114
80 88 114
80 88 114
80 88 114
80 88 114
80 88 114
80 88 114
80 88 114
80 88 114
80 88 114
80 88 114
80 88 114
80 88 114
80 88 114
80 88 114
80 88 114
80 88 114
80 88 114
80 88 114
80 88 114
80 88 114
80 88 114
80 88 114
80 88 114
80 88 114
80 88 114
80 88 114
80 88 114
80 88 114
80 88 114
80 88 114
80 88 114
80 88 114
80 88 114
80 88 114
80 88 114
80 88 114
80 88 114
80 88 114
80 88 114
80 88 114
80 88 114
80 88 114
80 88 114
80 88 114
80 88 114
80 88 114
80 88 114
80 88 114
80 88 114
80 88 114
80 88 114
80 88 114
80 88 114
80 88 114
80 88 114
80 88 114
80 88 114
80 88 114
80 88 114
80 88 114
80 88 114
80 88 114
80 88 114
80 88 114
80 88 114
80 88 114
80 88 114
80 88 114
80 88 114
80 88 114
80 88 114
80 88 114
80 88 114
80 88 114
80 88 114
80 88 114
80 88 114
80 88 114
80 88 114
80 88 114
80 88 114
80 88 114
80 88 114
80 88 114
80 88 114
80 88 114
80 88 114
80 88 114
80 88 114
80 88 114
80 88 114
80 88 114
80 88 114
80 88 114
80 88 114
80 88 114
80 88 114
80 88 114
80 88 114
80 88 114
80 88 114
80 88 114
80 88 114
80 88 114
80 88 114
80 88 114
80 88 114
80 88 114
80 88 114
80 88 114
80 88 114
80 88 114
80 88 114
80 88 114
80 88 114
80 88 114
80 88 114
80 88 114
80 88 114
80 88 114
80 88 114
80 88 114
80 88 114
80 88 114
80 88 114
80 88 114
80 88 114
80 88 114
80 88 114
80 88 114
80 88 114
80 88 114
80 88 114
80 88 114
80 88 114
80 88 114
80 88 114
80 88 114
80 88 114
80 88 114
80 88 114
80 88 114
80 88 114
80 88 114
80 88 114
80 88 114
80 88 114
80 88 114
80 88 114
80 88 114
80 88 114
80 88 114
80 88 114
80 88 114
80 88 114
80 88 114
80 88 114
80 88 114
80 88 114
80 88 114
80 88 114
80 88 114
80 88 114
80 88 114
80 88 114
80 88 114
80 88 114
80 88 114
80 88 114
80 88 114
80 88 114
80 88 114
80 88 114
80 88 114
80 88 114
80 88 114
80 88 114
80 88 114
80 88 114
80 88 114
80 88 114
80 88 114
80 88 114
80 88 114
80 88 114
80 88 114
80 88 114
80 88 114
80 88 114
80 88 114
80 88 114
80 88 114
80 88 114
80 88 114
80 88 114
80 88 114
80 88 114
80 88 114
80 88 114
80 88 114
80 88 114
80 88 114
80 88 114
80 88 114
80 88 114
80 88 114
80 88 114
80 88 114
80 88 114
80 88 114
80 88 114
80 88 114
80 88 114
80 88 114
80 88 114
80 88 114
80 88 114
80 88 114
80 88 114
80 88 114
80 88 114
80 88 114
80 88 114
80 88 114
80 88 114
80 88 114
80 88 114
80 88 114
80 88 114
80 88 114
80 88 114
80 88 114
80 88 114
80 88 114
80 88 114
80 88 114
80 88 114
80 88 114
80 88 114
80 88 114
80 88 114
80 88 114
80 88 114
80 88 114
80 88 114
80 88 114
80 88 114
80 88 114
80 88 114
80 88 114
80 88 114
80 88 114
80 88 114
80 88 114
80 88 114
80 88 114
80 88 114
80 88 114
80 88 114
80 88 114
80 88 114
80 88 114
80 88 114
80 88 114
80 88 114
80 88 114
80 88 114
80 88 114
80 88 114
80 88 114
80 88 114
80 88 114
80 88 114
80 88 114
80 88 114
80 88 114
80 88 114
80 88 114
80 88 114
80 88 114
80 88 114
80 88 114
80 88 114
80 88 114
80 88 114
80 88 114
80 88 114
80 88 114
80 88 114
80 88 114
80 88 114
80 88 114
80 88 114
80 88 114
80 88 114
80 88 114
80 88 114
80 88 114
80 88 114
80 88 114
80 88 114
80 88 114
80 88 114
80 88 114
80 88 114
80 88 114
80 88 114
80 88 114
80 88 114
80 88 114
80 88 114
80 88 114
80 88 114
80 88 114
80 88 114
80 88 114
80 88 114
80 88 114
80 88 114
80 88 114
80 88 114
80 88 114
80 88 114
80 88 114
80 88 114
80 88 114
80 88 114
80 88 114
80 88 114
80 88 114
80 88 114
80 88 114
80 88 114
80 88 114
80 88 114
80 88 114
80 88 114
80 88 114
80 88 114
80 88 114
80 88 114
80 88 114
80 88 114
80 88 114
80 88 114
80 88 114
80 88 114
80 88 114
80 88 114
80 88 114
80 88 114
80 88 114
80 88 114
80 88 114
80 88 114
80 88 114
80 88 114
80 88 114
80 88 114
80 88 114
80 88 114
80 88 114
80 88 114
80 88 114
80 88 114
80 88 114
80 88 114
80 88 114
80 88 114
80 88 114
80 88 114
80 88 114
80 88 114
80 88 114
80 88 114
80 88 114
80 88 114
80 88 114
80 88 114
80 88 114
80 88 114
80 88 114
80 88 114
80 88 114
80 88 114
80 88 114
80 88 114
80 88 114
80 88 114
80 88 114
80 88 114
80 88 114
80 88 114
80 88 114
80 88 114
80 88 114
80 88 114
80 88 114
80 88 114
80 88 114
80 88 114
80 88 114
80 88 114
80 88 114
80 88 114
80 88 114
80 88 114
80 88 114
80 88 114
80 88 114
80 88 114
80 88 114
80 88 114
80 88 114
80 88 114
80 88 114
80 88 114
80 88 114
80 88 114
80 88 114
80 88 114
80 88 114
80 88 114
80 88 114
80 88 114
80 88 114
80 88 114
80 88 114
80 88 114
80 88 114
80 88 114
80 88 114
80 88 114
80 88 114
80 88 114
80 88 114
80 88 114
80 88 114
80 88 114
80 88 114
80 88 114
80 88 114
80 88 114
80 88 114
80 88 114
80 88 114
80 88 114
80 88 114
80 88 114
80 88 114
80 88 114
80 88 114
80 88 114
80 88 114
80 88 114
80 88 114
80 88 114
80 88 114
80 88 114
80 88 114
80 88 114
80 88 114
80 88 114
80 88 114
80 88 114
80 88 114
80 88 114
80 88 114
80 88 114
80 88 114
80 88 114
80 88 114
80 88 114
80 88 114
80 88 114
80 88 114
80 88 114
80 88 114
80 88 114
80 88 114
80 88 114
80 88 114
80 88 114
80 88 114
80 88 114
80 88 114
80 88 114
80 88 114
80 88 114
80 88 114
80 88 114
80 88 114
80 88 114
80 88 114
80 88 114
80 88 114
80 88 114
80 88 114
80 88 114
80 88 114
80 88 114
80 88 114
80 88 114
80 88 114
80 88 114
80 88 114
80 88 114
80 88 114
80 88 114
80 88 114
80 88 114
80 88 114
80 88 114
80 88 114
80 88 114
80 88 114
80 88 114
80 88 114
80 88 114
80 88 114
80 88 114
80 88 114
80 88 114
80 88 114
80 88 114
80 88 114
80 88 114
80 88 114
80 88 114
80 88 114
80 88 114
80 88 114
80 88 114
80 88 114
80 88 114
80 88 114
80 88 114
80 88 114
80 88 114
80 88 114
80 88 114
80 88 114
80 88 114
80 88 114
80 88 114
80 88 114
80 88 114
80 88 114
80 88 114
80 88 114
80 88 114
80 88 114
80 88 114
80 88 114
80 88 114
80 88 114
80 88 114
80 88 114
80 88 114
80 88 114
80 88 114
80 88 114
80 88 114
80 88 114
80 88 114
80 88 114
80 88 114
80 88 114
80 88 114
80 88 114
80 88 114
80 88 114
80 88 114
80 88 114
80 88 114
80 88 114
80 88 114
80 88 114
80 88 114
80 88 114
80 88 114
80 88 114
80 88 114
80 88 114
80 88 114
80 88 114
80 88 114
80 88 114
80 88 114
80 88 114
80 88 114
80 88 114
80 88 114
80 88 114
80 88 114
80 88 114
80 88 114
80 88 114
80 88 114
80 88 114
80 88 114
80 88 114
80 88 114
80 88 114
80 88 114
80 88 114
80 88 114
80 88 114
80 88 114
80 88 114
80 88 114
80 88 114
80 88 114
80 88 114
80 88 114
80 88 114
80 88 114
80 88 114
80 88 114
80 88 114
80 88 114
80 88 114
80 88 114
80 88 114
80 88 114
80 88 114
80 88 114
80 88 114
80 88 114
80 88 114
80 88 114
80 88 114
80 88 114
80 88 114
80 88 114
80 88 114
80 88 114
80 88 114
80 88 114
80 88 114
80 88 114
80 88 114
80 88 114
80 88 114
80 88 114
80 88 114
80 88 114
80 88 114
80 88 114
80 88 114
80 88 114
80 88 114
80 88 114
80 88 114
80 88 114
80 88 114
80 88 114
80 88 114
80 88 114
80 88 114
80 88 114
80 88 114
80 88 114
80 88 114
80 88 114
80 88 114
80 88 114
80 88 114
80 88 114
80 88 114
80 88 114
80 88 114
80 88 114
80 88 114
80 88 114
80 88 114
80 88 114
80 88 114
80 88 114
80 88 114
80 88 114
80 88 114
80 88 114
80 88 114
80 88 114
80 88 114
80 88 114
80 88 114
80 88 114
80 88 114
80 88 114
80 88 114
80 88 114
80 88 114
80 88 114
80 88 114
80 88 114
80 88 114
80 88 114
80 88 114
80 88 114
80 88 114
80 88 114
80 88 114
80 88 114
80 88 114
80 88 114
80 88 114
80 88 114
80 88 114
80 88 114
80 88 114
80 88 114
80 88 114
80 88 114
80 88 114
80 88 114
80 88 114
80 88 114
80 88 114
80 88 114
80 88 114
80 88 114
80 88 114
80 88 114
80 88 114
80 88 114
80 88 114
80 88 114
80 88 114
80 88 114
80 88 114
80 88 114
80 88 114
80 88 114
80 88 114
80 88 114
80 88 114
80 88 114
80 88 114
80 88 114
80 88 114
80 88 114
80 88 114
80 88 114
80 88 114
80 88 114
80 88 114
80 88 114
80 88 114
80 88 114
80 88 114
80 88 114
80 88 114
80 88 114
80 88 114
80 88 114
80 88 114
80 88 114
80 88 114
80 88 114
80 88 114
80 88 114
80 88 114
80 88 114
80 88 114
80 88 114
80 88 114
80 88 114
80 88 114
80 88 114
80 88 114
80 88 114
80 88 114
80 88 114
80 88 114
80 88 114
80 88 114
80 88 114
80 88 114
80 88 114
80 88 114
80 88 114
80 88 114
80 88 114
80 88 114
80 88 114
80 88 114
80 88 114
80 88 114
80 88 114
80 88 114
80 88 114
80 88 114
80 88 114
80 88 114
80 88 114
80 88 114
80 88 114
80 88 114
80 88 114
80 88 114
80 88 114
80 88 114
80 88 114
80 88 114
80 88 114
80 88 114
80 88 114
80 88 114
80 88 114
80 88 114
80 88 114
80 88 114
80 88 114
80 88 114
80 88 114
80 88 114
80 88 114
80 88 114
80 88 114
80 88 114
80 88 114
80 88 114
80 88 114
80 88 114
80 88 114
80 88 114
80 88 114
80 88 114
80 88 114
80 88 114
80 88 114
80 88 114
80 88 114
80 88 114
80 88 114
80 88 114
80 88 114
80 88 114
80 88 114
80 88 114
80 88 114
80 88 114
80 88 114
80 88 114
80 88 114
80 88 114
80 88 114
80 88 114
80 88 114
80 88 114
80 88 114
80 88 114
80 88 114
80 88 114
80 88 114
80 88 114
80 88 114
80 88 114
80 88 114
80 88 114
80 88 114
80 88 114
80 88 114
80 88 114
80 88 114
80 88 114
80 88 114
80 88 114
80 88 114
80 88 114
80 88 114
80 88 114
80 88 114
80 88 114
80 88 114
80 88 114
80 88 114
80 88 114
80 88 114
80 88 114
80 88 114
80 88 114
80 88 114
80 88 114
80 88 114
80 88 114
80 88 114
80 88 114
80 88 114
80 88 114
80 88 114
80 88 114
80 88 114
80 88 114
80 88 114
80 88 114
80 88 114
80 88 114
80 88 114
80 88 114
80 88 114
80 88 114
80 88 114
80 88 114
80 88 114
80 88 114
80 88 114
80 88 114
80 88 114
80 88 114
80 88 114
80 88 114
80 88 114
80 88 114
80 88 114
80 88 114
80 88 114
80 88 114
80 88 114
80 88 114
80 88 114
80 88 114
80 88 114
80 88 114
80 88 114
80 88 114
80 88 114
80 88 114
80 88 114
80 88 114
80 88 114
80 88 114
80 88 114
80 88 114
80 88 114
80 88 114
80 88 114
80 88 114
80 88 114
80 88 114
80 88 114
80 88 114
80 88 114
80 88 114
80 88 114
80 88 114
80 88 114
80 88 114
80 88 114
80 88 114
80 88 114
80 88 114
80 88 114
80 88 114
80 88 114
80 88 114
80 88 114
80 88 114
80 88 114
80 88 114
80 88 114
80 88 114
80 88 114
80 88 114
80 88 114
80 88 114
80 88 114
80 88 114
80 88 114
80 88 114
80 88 114
80 88 114
80 88 114
80 88 114
80 88 114
80 88 114
80 88 114
80 88 114
80 88 114
80 88 114
80 88 114
80 88 114
80 88 114
80 88 114
80 88 114
80 88 114
80 88 114
80 88 114
80 88 114
80 88 114
80 88 114
80 88 114
80 88 114
80 88 114
80 88 114
80 88 114
80 88 114
80 88 114
80 88 114
80 88 114
80 88 114
80 88 114
80 88 114
80 88 114
80 88 114
80 88 114
80 88 114
80 88 114
80 88 114
80 88 114
80 88 114
80 88 114
80 88 114
80 88 114
80 88 114
80 88 114
80 88 114
80 88 114
80 88 114
80 88 114
80 88 114
80 88 114
80 88 114
80 88 114
80 88 114
80 88 114
80 88 114
80 88 114
80 88 114
80 88 114
80 88 114
80 88 114
80 88 114
80 88 114
80 88 114
80 88 114
80 88 114
80 88 114
80 88 114
80 88 114
80 88 114
80 88 114
80 88 114
80 88 114
80 88 114
80 88 114
80 88 114
80 88 114
80 88 114
80 88 114
80 88 114
80 88 114
80 88 114
80 88 114
80 88 114
80 88 114
80 88 114
80 88 114
80 88 114
80 88 114
80 88 114
80 88 114
80 88 114
80 88 114
80 88 114
80 88 114
80 88 114
80 88 114
80 88 114
80 88 114
80 88 114
80 88 114
80 88 114
80 88 114
80 88 114
80 88 114
80 88 114
80 88 114
80 88 114
80 88 114
80 88 114
80 88 114
80 88 114
80 88 114
80 88 114
80 88 114
80 88 114
80 88 114
80 88 114
80 88 114
80 88 114
80 88 114
80 88 114
80 88 114
80 88 114
80 88 114
80 88 114
80 88 114
80 88 114
80 88 114
80 88 114
80 88 114
80 88 114
80 88 114
80 88 114
80 88 114
80 88 114
80 88 114
80 88 114
80 88 114
80 88 114
80 88 114
80 88 114
80 88 114
80 88 114
80 88 114
80 88 114
80 88 114
80 88 114
80 88 114
80 88 114
80 88 114
80 88 114
80 88 114
80 88 114
80 88 114
80 88 114
80 88 114
80 88 114
80 88 114
80 88 114
80 88 114
80 88 114
80 88 114
80 88 114
80 88 114
80 88 114
80 88 114
80 88 114
80 88 114
80 88 114
80 88 114
80 88 114
80 88 114
80 88 114
80 88 114
80 88 114
80 88 114
80 88 114
80 88 114
80 88 114
80 88 114
80 88 114
80 88 114
80 88 114
80 88 114
80 88 114
80 88 114
80 88 114
80 88 114
80 88 114
80 88 114
80 88 114
80 88 114
80 88 114
80 88 114
80 88 114
80 88 114
80 88 114
80 88 114
80 88 114
80 88 114
80 88 114
80 88 114
80 88 114
80 88 114
80 88 114
80 88 114
80 88 114
80 88 114
80 88 114
80 88 114
80 88 114
80 88 114
80 88 114
80 88 114
80 88 114
80 88 114
80 88 114
80 88 114
80 88 114
80 88 114
80 88 114
80 88 114
80 88 114
80 88 114
80 88 114
80 88 114
80 88 114
80 88 114
80 88 114
80 88 114
80 88 114
80 88 114
80 88 114
80 88 114
80 88 114
80 88 114
80 88 114
80 88 114
80 88 114
80 88 114
80 88 114
80 88 114
80 88 114
80 88 114
80 88 114
80 88 114
80 88 114
80 88 114
80 88 114
80 88 114
80 88 114
80 88 114
80 88 114
80 88 114
80 88 114
80 88 114
80 88 114
80 88 114
80 88 114
80 88 114
80 88 114
80 88 114
80 88 114
80 88 114
80 88 114
80 88 114
80 88 114
80 88 114
80 88 114
80 88 114
80 88 114
80 88 114
80 88 114
80 88 114
80 88 114
80 88 114
80 88 114
80 88 114
80 88 114
80 88 114
80 88 114
80 88 114
80 88 114
80 88 114
80 88 114
80 88 114
80 88 114
80 88 114
80 88 114
80 88 114
80 88 114
80 88 114
80 88 114
80 88 114
80 88 114
80 88 114
80 88 114
80 88 114
80 88 114
80 88 114
80 88 114
80 88 114
80 88 114
80 88 114
80 88 114
80 88 114
80 88 114
80 88 114
80 88 114
80 88 114
80 88 114
80 88 114
80 88 114
80 88 114
80 88 114
80 88 114
80 88 114
80 88 114
80 88 114
80 88 114
80 88 114
80 88 114
80 88 114
80 88 114
80 88 114
80 88 114
80 88 114
80 88 114
80 88 114
80 88 114
80 88 114
80 88 114
80 88 114
80 88 114
80 88 114
80 88 114
80 88 114
80 88 114
80 88 114
80 88 114
80 88 114
80 88 114
80 88 114
80 88 114
80 88 114
80 88 114
80 88 114
80 88 114
80 88 114
80 88 114
80 88 114
80 88 114
80 88 114
80 88 114
80 88 114
80 88 114
80 88 114
80 88 114
80 88 114
80 88 114
80 88 114
80 88 114
80 88 114
80 88 114
80 88 114
80 88 114
80 88 114
80 88 114
80 88 114
80 88 114
80 88 114
80 88 114
80 88 114
80 88 114
80 88 114
80 88 114
80 88 114
80 88 114
80 88 114
80 88 114
80 88 114
80 88 114
80 88 114
80 88 114
80 88 114
80 88 114
80 88 114
80 88 114
80 88 114
80 88 114
80 88 114
80 88 114
80 88 114
80 88 114
80 88 114
80 88 114
80 88 114
80 88 114
80 88 114
80 88 114
80 88 114
80 88 114
80 88 114
80 88 114
80 88 114
80 88 114
80 88 114
80 88 114
80 88 114
80 88 114
80 88 114
80 88 114
80 88 114
80 88 114
80 88 114
80 88 114
80 88 114
80 88 114
80 88 114
80 88 114
80 88 114
80 88 114
80 88 114
80 88 114
80 88 114
80 88 114
80 88 114
80 88 114
80 88 114
80 88 114
80 88 114
80 88 114
80 88 114
80 88 114
80 88 114
80 88 114
80 88 114
80 88 114
80 88 114
80 88 114
80 88 114
80 88 114
80 88 114
80 88 114
80 88 114
80 88 114
80 88 114
80 88 114
80 88 114
80 88 114
80 88 114
80 88 114
80 88 114
80 88 114
80 88 114
80 88 114
80 88 114
80 88 114
80 88 114
80 88 114
80 88 114
80 88 114
80 88 114
80 88 114
80 88 114
80 88 114
80 88 114
80 88 114
80 88 114
80 88 114
80 88 114
80 88 114
80 88 114
80 88 114
80 88 114
80 88 114
80 88 114
80 88 114
80 88 114
80 88 114
80 88 114
80 88 114
80 88 114
80 88 114
80 88 114
80 88 114
80 88 114
80 88 114
80 88 114
80 88 114
80 88 114
80 88 114
80 88 114
80 88 114
80 88 114
80 88 114
80 88 114
80 88 114
80 88 114
80 88 114
80 88 114
80 88 114
80 88 114
80 88 114
80 88 114
80 88 114
80 88 114
80 88 114
80 88 114
80 88 114
80 88 114
80 88 114
80 88 114
80 88 114
80 88 114
80 88 114
80 88 114
80 88 114
80 88 114
80 88 114
80 88 114
80 88 114
80 88 114
80 88 114
80 88 114
80 88 114
80 88 114
80 88 114
80 88 114
80 88 114
80 88 114
80 88 114
80 88 114
80 88 114
80 88 114
80 88 114
80 88 114
80 88 114
80 88 114
80 88 114
80 88 114
80 88 114
80 88 114
80 88 114
80 88 114
80 88 114
80 88 114
80 88 114
80 88 114
80 88 114
80 88 114
80 88 114
80 88 114
80 88 114
80 88 114
80 88 114
80 88 114
80 88 114
80 88 114
80 88 114
80 88 114
80 88 114
80 88 114
80 88 114
80 88 114
80 88 114
80 88 114
80 88 114
80 88 114
80 88 114
80 88 114
80 88 114
80 88 114
80 88 114
80 88 114
80 88 114
80 88 114
80 88 114
80 88 114
80 88 114
80 88 114
80 88 114
80 88 114
80 88 114
80 88 114
80 88 114
80 88 114
80 88 114
80 88 114
80 88 114
80 88 114
80 88 114
80 88 114
80 88 114
80 88 114
80 88 114
80 88 114
80 88 114
80 88 114
80 88 114
80 88 114
80 88 114
80 88 114
80 88 114
80 88 114
80 88 114
80 88 114
80 88 114
80 88 114
80 88 114
80 88 114
80 88 114
80 88 114
80 88 114
80 88 114
80 88 114
80 88 114
80 88 114
80 88 114
80 88 114
80 88 114
80 88 114
80 88 114
80 88 114
80 88 114
80 88 114
80 88 114
80 88 114
80 88 114
80 88 114
80 88 114
80 88 114
80 88 114
80 88 114
80 88 114
80 88 114
80 88 114
80 88 114
80 88 114
80 88 114
80 88 114
80 88 114
80 88 114
80 88 114
80 88 114
80 88 114
80 88 114
80 88 114
80 88 114
80 88 114
80 88 114
80 88 114
80 88 114
80 88 114
80 88 114
80 88 114
80 88 114
80 88 114
80 88 114
80 88 114
80 88 114
80 88 114
80 88 114
80 88 114
80 88 114
80 88 114
80 88 114
80 88 114
80 88 114
80 88 114
80 88 114
80 88 114
80 88 114
80 88 114
80 88 114
80 88 114
80 88 114
80 88 114
80 88 114
80 88 114
80 88 114
80 88 114
80 88 114
80 88 114
80 88 114
80 88 114
80 88 114
80 88 114
80 88 114
80 88 114
80 88 114
80 88 114
80 88 114
80 88 114
80 88 114
80 88 114
80 88 114
80 88 114
80 88 114
80 88 114
80 88 114
80 88 114
80 88 114
80 88 114
80 88 114
80 88 114
80 88 114
80 88 114
80 88 114
80 88 114
80 88 114
80 88 114
80 88 114
80 88 114
80 88 114
80 88 114
80 88 114
80 88 114
80 88 114
80 88 114
80 88 114
80 88 114
80 88 114
80 88 114
80 88 114
80 88 114
80 88 114
80 88 114
80 88 114
80 88 114
80 88 114
80 88 114
80 88 114
80 88 114
80 88 114
80 88 114
80 88 114
80 88 114
80 88 114
80 88 114
80 88 114
80 88 114
80 88 114
80 88 114
80 88 114
80 88 114
80 88 114
80 88 114
80 88 114
80 88 114
80 88 114
80 88 114
80 88 114
80 88 114
80 88 114
80 88 114
80 88 114
80 88 114
80 88 114
80 88 114
80 88 114
80 88 114
80 88 114
80 88 114
80 88 114
80 88 114
80 88 114
80 88 114
80 88 114
80 88 114
80 88 114
80 88 114
80 88 114
80 88 114
80 88 114
80 88 114
80 88 114
80 88 114
80 88 114
80 88 114
80 88 114
80 88 114
80 88 114
80 88 114
80 88 114
80 88 114
80 88 114
80 88 114
80 88 114
80 88 114
80 88 114
80 88 114
80 88 114
80 88 114
80 88 114
80 88 114
80 88 114
80 88 114
80 88 114
80 88 114
80 88 114
80 88 114
80 88 114
80 88 114
80 88 114
80 88 114
80 88 114
80 88 114
80 88 114
80 88 114
80 88 114
80 88 114
80 88 114
80 88 114
80 88 114
80 88 114
80 88 114
80 88 114
80 88 114
80 88 114
80 88 114
80 88 114
80 88 114
80 88 114
80 88 114
80 88 114
80 88 114
80 88 114
80 88 114
80 88 114
80 88 114
80 88 114
80 88 114
80 88 114
80 88 114
80 88 114
80 88 114
80 88 114
80 88 114
80 88 114
80 88 114
80 88 114
80 88 114
80 88 114
80 88 114
80 88 114
80 88 114
80 88 114
80 88 114
80 88 114
80 88 114
80 88 114
80 88 114
80 88 114
80 88 114
80 88 114
80 88 114
80 88 114
80 88 114
80 88 114
80 88 114
80 88 114
80 88 114
80 88 114
80 88 114
80 88 114
80 88 114
80 88 114
80 88 114
80 88 114
80 88 114
80 88 114
80 88 114
80 88 114
80 88 114
80 88 114
80 88 114
80 88 114
80 88 114
80 88 114
80 88 114
80 88 114
80 88 114
80 88 114
80 88 114
80 88 114
80 88 114
80 88 114
80 88 114
80 88 114
80 88 114
80 88 114
80 88 114
80 88 114
80 88 114
80 88 114
80 88 114
80 88 114
80 88 114
80 88 114
80 88 114
80 88 114
80 88 114
80 88 114
80 88 114
80 88 114
80 88 114
80 88 114
80 88 114
80 88 114
80 88 114
80 88 114
80 88 114
80 88 114
80 88 114
80 88 114
80 88 114
80 88 114
80 88 114
80 88 114
80 88 114
80 88 114
80 88 114
80 88 114
80 88 114
80 88 114
80 88 114
80 88 114
80 88 114
80 88 114
80 88 114
80 88 114
80 88 114
80 88 114
80 88 114
80 88 114
80 88 114
80 88 114
80 88 114
80 88 114
80 88 114
80 88 114
80 88 114
80 88 114
80 88 114
80 88 114
80 88 114
80 88 114
80 88 114
80 88 114
80 88 114
80 88 114
80 88 114
80 88 114
80 88 114
80 88 114
80 88 114
80 88 114
80 88 114
80 88 114
80 88 114
80 88 114
80 88 114
80 88 114
80 88 114
80 88 114
80 88 114
80 88 114
80 88 114
80 88 114
80 88 114
80 88 114
80 88 114
80 88 114
80 88 114
80 88 114
80 88 114
80 88 114
80 88 114
80 88 114
80 88 114
80 88 114
80 88 114
80 88 114
80 88 114
80 88 114
80 88 114
80 88 114
80 88 114
80 88 114
80 88 114
80 88 114
80 88 114
80 88 114
80 88 114
80 88 114
80 88 114
80 88 114
80 88 114
80 88 114
80 88 114
80 88 114
80 88 114
80 88 114
80 88 114
80 88 114
80 88 114
80 88 114
80 88 114
80 88 114
80 88 114
80 88 114
80 88 114
80 88 114
80 88 114
80 88 114
80 88 114
80 88 114
80 88 114
80 88 114
80 88 114
80 88 114
80 88 114
80 88 114
80 88 114
80 88 114
80 88 114
80 88 114
80 88 114
80 88 114
80 88 114
80 88 114
80 88 114
80 88 114
80 88 114
80 88 114
80 88 114
80 88 114
80 88 114
80 88 114
80 88 114
80 88 114
80 88 114
80 88 114
80 88 114
80 88 114
80 88 114
80 88 114
80 88 114
80 88 114
80 88 114
80 88 114
80 88 114
80 88 114
80 88 114
80 88 114
80 88 114
80 88 114
80 88 114
80 88 114
80 88 114
80 88 114
80 88 114
80 88 114
80 88 114
80 88 114
80 88 114
80 88 114
80 88 114
80 88 114
80 88 114
80 88 114
80 88 114
80 88 114
80 88 114
80 88 114
80 88 114
80 88 114
80 88 114
80 88 114
80 88 114
80 88 114
80 88 114
80 88 114
80 88 114
80 88 114
80 88 114
80 88 114
80 88 114
80 88 114
80 88 114
80 88 114
80 88 114
80 88 114
80 88 114
80 88 114
80 88 114
80 88 114
80 88 114
80 88 114
80 88 114
80 88 114
80 88 114
80 88 114
80 88 114
80 88 114
80 88 114
80 88 114
80 88 114
80 88 114
80 88 114
80 88 114
80 88 114
80 88 114
80 88 114
80 88 114
80 88 114
80 88 114
80 88 114
80 88 114
80 88 114
80 88 114
80 88 114
80 88 114
80 88 114
80 88 114
80 88 114
80 88 114
80 88 114
80 88 114
80 88 114
80 88 114
80 88 114
80 88 114
80 88 114
80 88 114
80 88 114
80 88 114
80 88 114
80 88 114
80 88 114
80 88 114
80 88 114
80 88 114
80 88 114
80 88 114
80 88 114
80 88 114
80 88 114
80 88 114
80 88 114
80 88 114
80 88 114
80 88 114
80 88 114
80 88 114
80 88 114
80 88 114
80 88 114
80 88 114
80 88 114
80 88 114
80 88 114
80 88 114
80 88 114
80 88 114
80 88 114
80 88 114
80 88 114
80 88 114
80 88 114
80 88 114
80 88 114
80 88 114
80 88 114
80 88 114
80 88 114
80 88 114
80 88 114
80 88 114
80 88 114
80 88 114
80 88 114
80 88 114
80 88 114
80 88 114
80 88 114
80 88 114
80 88 114
80 88 114
80 88 114
80 88 114
80 88 114
80 88 114
80 88 114
80 88 114
80 88 114
80 88 114
80 88 114
80 88 114
80 88 114
80 88 114
80 88 114
80 88 114
80 88 114
80 88 114
80 88 114
80 88 114
80 88 114
80 88 114
80 88 114
80 88 114
80 88 114
80 88 114
80 88 114
80 88 114
80 88 114
80 88 114
80 88 114
80 88 114
80 88 114
80 88 114
80 88 114
80 88 114
80 88 114
80 88 114
80 88 114
80 88 114
80 88 114
80 88 114
80 88 114
80 88 114
80 88 114
80 88 114
80 88 114
80 88 114
80 88 114
80 88 114
80 88 114
80 88 114
80 88 114
80 88 114
80 88 114
80 88 114
80 88 114
80 88 114
80 88 114
80 88 114
80 88 114
80 88 114
80 88 114
80 88 114
80 88 114
80 88 114
80 88 114
80 88 114
80 88 114
80 88 114
80 88 114
80 88 114
80 88 114
80 88 114
80 88 114
80 88 114
80 88 114
80 88 114
80 88 114
80 88 114
80 88 114
80 88 114
80 88 114
80 88 114
80 88 114
80 88 114
80 88 114
80 88 114
80 88 114
80 88 114
80 88 114
80 88 114
80 88 114
80 88 114
80 88 114
80 88 114
80 88 114
80 88 114
80 88 114
80 88 114
80 88 114
80 88 114
80 88 114
80 88 114
80 88 114
80 88 114
80 88 114
80 88 114
80 88 114
80 88 114
80 88 114
80 88 114
80 88 114
80 88 114
80 88 114
80 88 114
80 88 114
80 88 114
80 88 114
80 88 114
80 88 114
80 88 114
80 88 114
80 88 114
80 88 114
80 88 114
80 88 114
80 88 114
80 88 114
80 88 114
80 88 114
80 88 114
80 88 114
80 88 114
80 88 114
80 88 114
80 88 114
80 88 114
80 88 114
80 88 114
80 88 114
80 88 114
80 88 114
80 88 114
80 88 114
80 88 114
80 88 114
80 88 114
80 88 114
80 88 114
80 88 114
80 88 114
80 88 114
80 88 114
80 88 114
80 88 114
80 88 114
80 88 114
80 88 114
80 88 114
80 88 114
80 88 114
80 88 114
80 88 114
80 88 114
80 88 114
80 88 114
80 88 114
80 88 114
80 88 114
80 88 114
80 88 114
80 88 114
80 88 114
80 88 114
80 88 114
80 88 114
80 88 114
80 88 114
80 88 114
80 88 114
80 88 114
80 88 114
80 88 114
80 88 114
80 88 114
80 88 114
80 88 114
80 88 114
80 88 114
80 88 114
80 88 114
80 88 114
80 88 114
80 88 114
80 88 114
80 88 114
80 88 114
80 88 114
80 88 114
80 88 114
80 88 114
80 88 114
80 88 114
80 88 114
80 88 114
80 88 114
80 88 114
80 88 114
80 88 114
80 88 114
80 88 114
80 88 114
80 88 114
80 88 114
80 88 114
80 88 114
80 88 114
80 88 114
80 88 114
80 88 114
80 88 114
80 88 114
80 88 114
80 88 114
80 88 114
80 88 114
80 88 114
80 88 114
80 88 114
80 88 114
80 88 114
80 88 114
80 88 114
80 88 114
80 88 114
80 88 114
80 88 114
80 88 114
80 88 114
80 88 114
80 88 114
80 88 114
80 88 114
80 88 114
80 88 114
80 88 114
80 88 114
80 88 114
80 88 114
80 88 114
80 88 114
80 88 114
80 88 114
80 88 114
80 88 114
80 88 114
80 88 114
80 88 114
80 88 114
80 88 114
80 88 114
80 88 114
80 88 114
80 88 114
80 88 114
80 88 114
80 88 114
80 88 114
80 88 114
80 88 114
80 88 114
80 88 114
80 88 114
80 88 114
80 88 114
80 88 114
80 88 114
80 88 114
80 88 114
80 88 114
80 88 114
80 88 114
80 88 114
80 88 114
80 88 114
80 88 114
80 88 114
80 88 114
80 88 114
80 88 114
80 88 114
80 88 114
80 88 114
80 88 114
80 88 114
80 88 114
80 88 114
80 88 114
80 88 114
80 88 114
80 88 114
80 88 114
80 88 114
80 88 114
80 88 114
80 88 114
80 88 114
80 88 114
80 88 114
80 88 114
80 88 114
80 88 114
80 88 114
80 88 114
80 88 114
80 88 114
80 88 114
80 88 114
80 88 114
80 88 114
80 88 114
80 88 114
80 88 114
80 88 114
80 88 114
80 88 114
80 88 114
80 88 114
80 88 114
80 88 114
80 88 114
80 88 114
80 88 114
80 88 114
80 88 114
80 88 114
80 88 114
80 88 114
80 88 114
80 88 114
80 88 114
80 88 114
80 88 114
80 88 114
80 88 114
80 88 114
80 88 114
80 88 114
80 88 114
80 88 114
80 88 114
80 88 114
80 88 114
80 88 114
80 88 114
80 88 114
80 88 114
80 88 114
80 88 114
80 88 114
80 88 114
80 88 114
80 88 114
80 88 114
80 88 114
80 88 114
80 88 114
80 88 114
80 88 114
80 88 114
80 88 114
80 88 114
80 88 114
80 88 114
80 88 114
80 88 114
80 88 114
80 88 114
80 88 114
80 88 114
80 88 114
80 88 114
80 88 114
80 88 114
80 88 114
80 88 114
80 88 114
80 88 114
80 88 114
80 88 114
80 88 114
80 88 114
80 88 114
80 88 114
80 88 114
80 88 114
80 88 114
80 88 114
80 88 114
80 88 114
80 88 114
80 88 114
80 88 114
80 88 114
80 88 114
80 88 114
80 88 114
80 88 114
80 88 114
80 88 114
80 88 114
80 88 114
80 88 114
80 88 114
80 88 114
80 88 114
80 88 114
80 88 114
80 88 114
80 88 114
80 88 114
80 88 114
80 88 114
80 88 114
80 88 114
80 88 114
80 88 114
80 88 114
80 88 114
80 88 114
80 88 114
80 88 114
80 88 114
80 88 114
80 88 114
80 88 114
80 88 114
80 88 114
80 88 114
80 88 114
80 88 114
80 88 114
80 88 114
80 88 114
80 88 114
80 88 114
80 88 114
80 88 114
80 88 114
80 88 114
80 88 114
80 88 114
80 88 114
80 88 114
80 88 114
80 88 114
80 88 114
80 88 114
80 88 114
80 88 114
80 88 114
80 88 114
80 88 114
80 88 114
80 88 114
80 88 114
80 88 114
80 88 114
80 88 114
80 88 114
80 88 114
80 88 114
80 88 114
80 88 114
80 88 114
80 88 114
80 88 114
80 88 114
80 88 114
80 88 114
80 88 114
80 88 114
80 88 114
80 88 114
80 88 114
80 88 114
80 88 114
80 88 114
80 88 114
80 88 114
80 88 114
80 88 114
80 88 114
80 88 114
80 88 114
80 88 114
80 88 114
80 88 114
80 88 114
80 88 114
80 88 114
80 88 114
80 88 114
80 88 114
80 88 114
80 88 114
80 88 114
80 88 114
80 88 114
80 88 114
80 88 114
80 88 114
80 88 114
80 88 114
80 88 114
80 88 114
80 88 114
80 88 114
80 88 114
80 88 114
80 88 114
80 88 114
80 88 114
80 88 114
80 88 114
80 88 114
80 88 114
80 88 114
80 88 114
80 88 114
80 88 114
80 88 114
80 88 114
80 88 114
80 88 114
80 88 114
80 88 114
80 88 114
80 88 114
80 88 114
80 88 114
80 88 114
80 88 114
80 88 114
80 88 114
80 88 114
80 88 114
80 88 114
80 88 114
80 88 114
80 88 114
80 88 114
80 88 114
80 88 114
80 88 114
80 88 114
80 88 114
80 88 114
80 88 114
80 88 114
80 88 114
80 88 114
80 88 114
80 88 114
80 88 114
80 88 114
80 88 114
80 88 114
80 88 114
80 88 114
80 88 114
80 88 114
80 88 114
80 88 114
80 88 114
80 88 114
80 88 114
80 88 114
80 88 114
80 88 114
80 88 114
80 88 114
80 88 114
80 88 114
80 88 114
80 88 114
80 88 114
80 88 114
80 88 114
80 88 114
80 88 114
80 88 114
80 88 114
80 88 114
80 88 114
80 88 114
80 88 114
80 88 114
80 88 114
80 88 114
80 88 114
80 88 114
80 88 114
80 88 114
80 88 114
80 88 114
80 88 114
80 88 114
80 88 114
80 88 114
80 88 114
80 88 114
80 88 114
80 88 114
80 88 114
80 88 114
80 88 114
80 88 114
80 88 114
80 88 114
80 88 114
80 88 114
80 88 114
80 88 114
80 88 114
80 88 114
80 88 114
80 88 114
80 88 114
80 88 114
80 88 114
80 88 114
80 88 114
80 88 114
80 88 114
80 88 114
80 88 114
80 88 114
80 88 114
80 88 114
80 88 114
80 88 114
80 88 114
80 88 114
80 88 114
80 88 114
80 88 114
80 88 114
80 88 114
80 88 114
80 88 114
80 88 114
80 88 114
80 88 114
80 88 114
80 88 114
80 88 114
80 88 114
80 88 114
80 88 114
80 88 114
80 88 114
80 88 114
80 88 114
80 88 114
80 88 114
80 88 114
80 88 114
80 88 114
80 88 114
80 88 114
80 88 114
80 88 114
80 88 114
80 88 114
80 88 114
80 88 114
80 88 114
80 88 114
80 88 114
80 88 114
80 88 114
80 88 114
80 88 114
80 88 114
80 88 114
80 88 114
80 88 114
80 88 114
80 88 114
80 88 114
80 88 114
80 88 114
80 88 114
80 88 114
80 88 114
80 88 114
80 88 114
80 88 114
80 88 114
80 88 114
80 88 114
80 88 114
80 88 114
80 88 114
80 88 114
80 88 114
80 88 114
80 88 114
80 88 114
80 88 114
80 88 114
80 88 114
80 88 114
80 88 114
80 88 114
80 88 114
80 88 114
80 88 114
80 88 114
80 88 114
80 88 114
80 88 114
80 88 114
80 88 114
80 88 114
80 88 114
80 88 114
80 88 114
80 88 114
80 88 114
80 88 114
80 88 114
80 88 114
80 88 114
80 88 114
80 88 114
80 88 114
80 88 114
80 88 114
80 88 114
80 88 114
80 88 114
80 88 114
80 88 114
80 88 114
80 88 114
80 88 114
80 88 114
80 88 114
80 88 114
80 88 114
80 88 114
80 88 114
80 88 114
80 88 114
80 88 114
80 88 114
80 88 114
80 88 114
80 88 114
80 88 114
80 88 114
80 88 114
80 88 114
80 88 114
80 88 114
80 88 114
80 88 114
80 88 114
80 88 114
80 88 114
80 88 114
80 88 114
80 88 114
80 88 114
80 88 114
80 88 114
80 88 114
80 88 114
80 88 114
80 88 114
80 88 114
80 88 114
80 88 114
80 88 114
80 88 114
80 88 114
80 88 114
80 88 114
80 88 114
80 88 114
80 88 114
80 88 114
80 88 114
80 88 114
80 88 114
80 88 114
80 88 114
80 88 114
80 88 114
80 88 114
80 88 114
80 88 114
80 88 114
80 88 114
80 88 114
80 88 114
80 88 114
80 88 114
80 88 114
80 88 114
80 88 114
80 88 114
80 88 114
80 88 114
80 88 114
80 88 114
80 88 114
80 88 114
80 88 114
80 88 114
80 88 114
80 88 114
80 88 114
80 88 114
80 88 114
80 88 114
80 88 114
80 88 114
80 88 114
80 88 114
80 88 114
80 88 114
80 88 114
80 88 114
80 88 114
80 88 114
80 88 114
80 88 114
80 88 114
80 88 114
80 88 114
80 88 114
80 88 114
80 88 114
80 88 114
80 88 114
80 88 114
80 88 114
80 88 114
80 88 114
80 88 114
80 88 114
80 88 114
80 88 114
80 88 114
80 88 114
80 88 114
80 88 114
80 88 114
80 88 114
80 88 114
80 88 114
80 88 114
80 88 114
80 88 114
80 88 114
80 88 114
80 88 114
80 88 114
80 88 114
80 88 114
80 88 114
80 88 114
80 88 114
80 88 114
80 88 114
80 88 114
80 88 114
80 88 114
80 88 114
80 88 114
80 88 114
80 88 114
80 88 114
80 88 114
80 88 114
80 88 114
80 88 114
80 88 114
80 88 114
80 88 114
80 88 114
80 88 114
80 88 114
80 88 114
80 88 114
80 88 114
80 88 114
80 88 114
80 88 114
80 88 114
80 88 114
80 88 114
80 88 114
80 88 114
80 88 114
80 88 114
80 88 114
80 88 114
80 88 114
80 88 114
80 88 114
80 88 114
80 88 114
80 88 114
80 88 114
80 88 114
80 88 114
80 88 114
80 88 114
80 88 114
80 88 114
80 88 114
80 88 114
80 88 114
80 88 114
80 88 114
80 88 114
80 88 114
80 88 114
80 88 114
80 88 114
80 88 114
80 88 114
80 88 114
80 88 114
80 88 114
80 88 114
80 88 114
80 88 114
80 88 114
80 88 114
80 88 114
80 88 114
80 88 114
80 88 114
80 88 114
80 88 114
80 88 114
80 88 114
80 88 114
80 88 114
80 88 114
80 88 114
80 88 114
80 88 114
80 88 114
80 88 114
80 88 114
80 88 114
80 88 114
80 88 114
80 88 114
80 88 114
80 88 114
80 88 114
80 88 114
80 88 114
80 88 114
80 88 114
80 88 114
80 88 114
80 88 114
80 88 114
80 88 114
80 88 114
80 88 114
80 88 114
80 88 114
80 88 114
80 88 114
80 88 114
80 88 114
80 88 114
80 88 114
80 88 114
80 88 114
80 88 114
80 88 114
80 88 114
80 88 114
80 88 114
80 88 114
80 88 114
80 88 114
80 88 114
80 88 114
80 88 114
80 88 114
80 88 114
80 88 114
80 88 114
80 88 114
80 88 114
80 88 114
80 88 114
80 88 114
80 88 114
80 88 114
80 88 114
80 88 114
80 88 114
80 88 114
80 88 114
80 88 114
80 88 114
80 88 114
80 88 114
80 88 114
80 88 114
80 88 114
80 88 114
80 88 114
80 88 114
80 88 114
80 88 114
80 88 114
80 88 114
80 88 114
80 88 114
80 88 114
80 88 114
80 88 114
80 88 114
80 88 114
80 88 114
80 88 114
80 88 114
80 88 114
80 88 114
80 88 114
80 88 114
80 88 114
80 88 114
80 88 114
80 88 114
80 88 114
80 88 114
80 88 114
80 88 114
80 88 114
80 88 114
80 88 114
80 88 114
80 88 114
80 88 114
80 88 114
80 88 114
80 88 114
80 88 114
80 88 114
80 88 114
80 88 114
80 88 114
80 88 114
80 88 114
80 88 114
80 88 114
80 88 114
80 88 114
80 88 114
80 88 114
80 88 114
80 88 114
80 88 114
80 88 114
80 88 114
80 88 114
80 88 114
80 88 114
80 88 114
80 88 114
80 88 114
80 88 114
80 88 114
80 88 114
80 88 114
80 88 114
80 88 114
80 88 114
80 88 114
80 88 114
80 88 114
80 88 114
80 88 114
80 88 114
80 88 114
80 88 114
80 88 114
80 88 114
80 88 114
80 88 114
80 88 114
80 88 114
80 88 114
80 88 114
80 88 114
80 88 114
80 88 114
80 88 114
80 88 114
80 88 114
80 88 114
80 88 114
80 88 114
80 88 114
80 88 114
80 88 114
80 88 114
80 88 114
80 88 114
80 88 114
80 88 114
80 88 114
80 88 114
80 88 114
80 88 114
80 88 114
80 88 114
80 88 114
80 88 114
80 88 114
80 88 114
80 88 114
80 88 114
80 88 114
80 88 114
80 88 114
80 88 114
80 88 114
80 88 114
80 88 114
80 88 114
80 88 114
80 88 114
80 88 114
80 88 114
80 88 114
80 88 114
80 88 114
80 88 114
80 88 114
80 88 114
80 88 114
80 88 114
80 88 114
80 88 114
80 88 114
80 88 114
80 88 114
80 88 114
80 88 114
80 88 114
80 88 114
80 88 114
80 88 114
80 88 114
80 88 114
80 88 114
80 88 114
80 88 114
80 88 114
80 88 114
80 88 114
80 88 114
80 88 114
80 88 114
80 88 114
80 88 114
80 88 114
80 88 114
80 88 114
80 88 114
80 88 114
80 88 114
80 88 114
80 88 114
80 88 114
80 88 114
80 88 114
80 88 114
80 88 114
80 88 114
80 88 114
80 88 114
80 88 114
80 88 114
80 88 114
80 88 114
80 88 114
80 88 114
80 88 114
80 88 114
80 88 114
80 88 114
80 88 114
80 88 114
80 88 114
80 88 114
80 88 114
80 88 114
80 88 114
80 88 114
80 88 114
80 88 114
80 88 114
80 88 114
80 88 114
80 88 114
80 88 114
80 88 114
80 88 114
80 88 114
80 88 114
80 88 114
80 88 114
80 88 114
80 88 114
80 88 114
80 88 114
80 88 114
80 88 114
80 88 114
80 88 114
80 88 114
80 88 114
80 88 114
80 88 114
80 88 114
80 88 114
80 88 114
80 88 114
80 88 114
80 88 114
80 88 114
80 88 114
80 88 114
80 88 114
80 88 114
80 88 114
80 88 114
80 88 114
80 88 114
80 88 114
80 88 114
80 88 114
80 88 114
80 88 114
80 88 114
80 88 114
80 88 114
80 88 114
80 88 114
80 88 114
80 88 114
80 88 114
80 88 114
80 88 114
80 88 114
80 88 114
80 88 114
80 88 114
80 88 114
80 88 114
80 88 114
80 88 114
80 88 114
80 88 114
80 88 114
80 88 114
80 88 114
80 88 114
80 88 114
80 88 114
80 88 114
80 88 114
80 88 114
80 88 114
80 88 114
80 88 114
80 88 114
80 88 114
80 88 114
80 88 114
80 88 114
80 88 114
80 88 114
80 88 114
80 88 114
80 88 114
80 88 114
80 88 114
80 88 114
80 88 114
80 88 114
80 88 114
80 88 114
80 88 114
80 88 114
80 88 114
80 88 114
80 88 114
80 88 114
80 88 114
80 88 114
80 88 114
80 88 114
80 88 114
80 88 114
80 88 114
80 88 114
80 88 114
80 88 114
80 88 114
80 88 114
80 88 114
80 88 114
80 88 114
80 88 114
80 88 114
80 88 114
80 88 114
80 88 114
80 88 114
80 88 114
80 88 114
80 88 114
80 88 114
80 88 114
80 88 114
80 88 114
80 88 114
80 88 114
80 88 114
80 88 114
80 88 114
80 88 114
80 88 114
80 88 114
80 88 114
80 88 114
80 88 114
80 88 114
80 88 114
80 88 114
80 88 114
80 88 114
80 88 114
80 88 114
80 88 114
80 88 114
80 88 114
80 88 114
80 88 114
80 88 114
80 88 114
80 88 114
80 88 114
80 88 114
80 88 114
80 88 114
80 88 114
80 88 114
80 88 114
80 88 114
80 88 114
80 88 114
80 88 114
80 88 114
80 88 114
80 88 114
80 88 114
80 88 114
80 88 114
80 88 114
80 88 114
80 88 114
80 88 114
80 88 114
80 88 114
80 88 114
80 88 114
80 88 114
80 88 114
80 88 114
80 88 114
80 88 114
80 88 114
80 88 114
80 88 114
80 88 114
80 88 114
80 88 114
80 88 114
80 88 114
80 88 114
80 88 114
80 88 114
80 88 114
80 88 114
80 88 114
80 88 114
80 88 114
80 88 114
80 88 114
80 88 114
80 88 114
80 88 114
80 88 114
80 88 114
80 88 114
80 88 114
80 88 114
80 88 114
80 88 114
80 88 114
80 88 114
80 88 114
80 88 114
80 88 114
80 88 114
80 88 114
80 88 114
80 88 114
80 88 114
80 88 114
80 88 114
80 88 114
80 88 114
80 88 114
80 88 114
80 88 114
80 88 114
80 88 114
80 88 114
80 88 114
80 88 114
80 88 114
80 88 114
80 88 114
80 88 114
80 88 114
80 88 114
80 88 114
80 88 114
80 88 114
80 88 114
80 88 114
80 88 114
80 88 114
80 88 114
80 88 114
80 88 114
80 88 114
80 88 114
80 88 114
80 88 114
80 88 114
80 88 114
80 88 114
80 88 114
80 88 114
80 88 114
80 88 114
80 88 114
80 88 114
80 88 114
80 88 114
80 88 114
80 88 114
80 88 114
80 88 114
80 88 114
80 88 114
80 88 114
80 88 114
80 88 114
80 88 114
80 88 114
80 88 114
80 88 114
80 88 114
80 88 114
80 88 114
80 88 114
80 88 114
80 88 114
80 88 114
80 88 114
80 88 114
80 88 114
80 88 114
80 88 114
80 88 114
80 88 114
80 88 114
80 88 114
80 88 114
80 88 114
80 88 114
80 88 114
80 88 114
80 88 114
80 88 114
80 88 114
80 88 114
80 88 114
80 88 114
80 88 114
80 88 114
80 88 114
80 88 114
80 88 114
80 88 114
80 88 114
80 88 114
80 88 114
80 88 114
80 88 114
80 88 114
80 88 114
80 88 114
80 88 114
80 88 114
80 88 114
80 88 114
80 88 114
80 88 114
80 88 114
80 88 114
80 88 114
80 88 114
80 88 114
80 88 114
80 88 114
80 88 114
80 88 114
80 88 114
80 88 114
80 88 114
80 88 114
80 88 114
80 88 114
80 88 114
80 88 114
80 88 114
80 88 114
80 88 114
80 88 114
80 88 114
80 88 114
80 88 114
80 88 114
80 88 114
80 88 114
80 88 114
80 88 114
80 88 114
80 88 114
80 88 114
80 88 114
80 88 114
80 88 114
80 88 114
80 88 114
80 88 114
80 88 114
80 88 114
80 88 114
80 88 114
80 88 114
80 88 114
80 88 114
80 88 114
80 88 114
80 88 114
80 88 114
80 88 114
80 88 114
80 88 114
80 88 114
80 88 114
80 88 114
80 88 114
80 88 114
80 88 114
80 88 114
80 88 114
80 88 114
80 88 114
80 88 114
80 88 114
80 88 114
80 88 114
80 88 114
80 88 114
80 88 114
80 88 114
80 88 114
80 88 114
80 88 114
80 88 114
80 88 114
80 88 114
80 88 114
80 88 114
80 88 114
80 88 114
80 88 114
80 88 114
80 88 114
80 88 114
80 88 114
80 88 114
80 88 114
80 88 114
80 88 114
80 88 114
80 88 114
80 88 114
80 88 114
80 88 114
80 88 114
80 88 114
80 88 114
80 88 114
80 88 114
80 88 114
80 88 114
80 88 114
80 88 114
80 88 114
80 88 114
80 88 114
80 88 114
80 88 114
80 88 114
80 88 114
80 88 114
80 88 114
80 88 114
80 88 114
80 88 114
80 88 114
80 88 114
80 88 114
80 88 114
80 88 114
80 88 114
80 88 114
80 88 114
80 88 114
80 88 114
80 88 114
80 88 114
80 88 114
80 88 114
80 88 114
80 88 114
80 88 114
80 88 114
80 88 114
80 88 114
80 88 114
80 88 114
80 88 114
80 88 114
80 88 114
80 88 114
80 88 114
80 88 114
80 88 114
80 88 114
80 88 114
80 88 114
80 88 114
80 88 114
80 88 114
80 88 114
80 88 114
80 88 114
80 88 114
80 88 114
80 88 114
80 88 114
80 88 114
80 88 114
80 88 114
80 88 114
80 88 114
80 88 114
80 88 114
80 88 114
80 88 114
80 88 114
80 88 114
80 88 114
80 88 114
80 88 114
80 88 114
80 88 114
80 88 114
80 88 114
80 88 114
80 88 114
80 88 114
80 88 114
80 88 114
80 88 114
80 88 114
80 88 114
80 88 114
80 88 114
80 88 114
80 88 114
80 88 114
80 88 114
80 88 114
80 88 114
80 88 114
80 88 114
80 88 114
80 88 114
80 88 114
80 88 114
80 88 114
80 88 114
80 88 114
80 88 114
80 88 114
80 88 114
80 88 114
80 88 114
80 88 114
80 88 114
80 88 114
80 88 114
80 88 114
80 88 114
80 88 114
80 88 114
80 88 114
80 88 114
80 88 114
80 88 114
80 88 114
80 88 114
80 88 114
80 88 114
80 88 114
80 88 114
80 88 114
80 88 114
80 88 114
80 88 114
80 88 114
80 88 114
80 88 114
80 88 114
80 88 114
80 88 114
80 88 114
80 88 114
80 88 114
80 88 114
80 88 114
80 88 114
80 88 114
80 88 114
80 88 114
80 88 114
80 88 114
80 88 114
80 88 114
80 88 114
80 88 114
80 88 114
80 88 114
80 88 114
80 88 114
80 88 114
80 88 114
80 88 114
80 88 114
80 88 114
80 88 114
80 88 114
80 88 114
80 88 114
80 88 114
80 88 114
80 88 114
80 88 114
80 88 114
80 88 114
80 88 114
80 88 114
80 88 114
80 88 114
80 88 114
80 88 114
80 88 114
80 88 114
80 88 114
80 88 114
80 88 114
80 88 114
80 88 114
80 88 114
80 88 114
80 88 114
80 88 114
80 88 114
80 88 114
80 88 114
80 88 114
80 88 114
80 88 114
80 88 114
80 88 114
80 88 114
80 88 114
80 88 114
80 88 114
80 88 114
80 88 114
80 88 114
80 88 114
80 88 114
80 88 114
80 88 114
80 88 114
80 88 114
80 88 114
80 88 114
80 88 114
80 88 114
80 88 114
80 88 114
80 88 114
80 88 114
80 88 114
80 88 114
80 88 114
80 88 114
80 88 114
80 88 114
80 88 114
80 88 114
80 88 114
80 88 114
80 88 114
80 88 114
80 88 114
80 88 114
80 88 114
80 88 114
80 88 114
80 88 114
80 88 114
80 88 114
80 88 114
80 88 114
80 88 114
80 88 114
80 88 114
80 88 114
80 88 114
80 88 114
80 88 114
80 88 114
80 88 114
80 88 114
80 88 114
80 88 114
80 88 114
80 88 114
80 88 114
80 88 114
80 88 114
80 88 114
80 88 114
80 88 114
80 88 114
80 88 114
80 88 114
80 88 114
80 88 114
80 88 114
80 88 114
80 88 114
80 88 114
80 88 114
80 88 114
80 88 114
80 88 114
80 88 114
80 88 114
80 88 114
80 88 114
80 88 114
80 88 114
80 88 114
80 88 114
80 88 114
80 88 114
80 88 114
80 88 114
80 88 114
80 88 114
80 88 114
80 88 114
80 88 114
80 88 114
80 88 114
80 88 114
80 88 114
80 88 114
80 88 114
80 88 114
80 88 114
80 88 114
80 88 114
80 88 114
80 88 114
80 88 114
80 88 114
80 88 114
80 88 114
80 88 114
80 88 114
80 88 114
80 88 114
80 88 114
80 88 114
80 88 114
80 88 114
80 88 114
80 88 114
80 88 114
80 88 114
80 88 114
80 88 114
80 88 114
80 88 114
80 88 114
80 88 114
80 88 114
80 88 114
80 88 114
80 88 114
80 88 114
80 88 114
80 88 114
80 88 114
80 88 114
80 88 114
80 88 114
80 88 114
80 88 114
80 88 114
80 88 114
80 88 114
80 88 114
80 88 114
80 88 114
80 88 114
80 88 114
80 88 114
80 88 114
80 88 114
80 88 114
80 88 114
80 88 114
80 88 114
80 88 114
80 88 114
80 88 114
80 88 114
80 88 114
80 88 114
80 88 114
80 88 114
80 88 114
80 88 114
80 88 114
80 88 114
80 88 114
80 88 114
80 88 114
80 88 114
80 88 114
80 88 114
80 88 114
80 88 114
80 88 114
80 88 114
80 88 114
80 88 114
80 88 114
80 88 114
80 88 114
80 88 114
80 88 114
80 88 114
80 88 114
80 88 114
80 88 114
80 88 114
80 88 114
80 88 114
80 88 114
80 88 114
80 88 114
80 88 114
80 88 114
80 88 114
80 88 114
80 88 114
80 88 114
80 88 114
80 88 114
80 88 114
80 88 114
80 88 114
80 88 114
80 88 114
80 88 114
80 88 114
80 88 114
80 88 114
80 88 114
80 88 114
80 88 114
80 88 114
80 88 114
80 88 114
80 88 114
80 88 114
80 88 114
80 88 114
80 88 114
80 88 114
80 88 114
80 88 114
80 88 114
80 88 114
80 88 114
80 88 114
80 88 114
80 88 114
80 88 114
80 88 114
80 88 114
80 88 114
80 88 114
80 88 114
80 88 114
80 88 114
80 88 114
80 88 114
80 88 114
80 88 114
80 88 114
80 88 114
80 88 114
80 88 114
80 88 114
80 88 114
80 88 114
80 88 114
80 88 114
80 88 114
80 88 114
80 88 114
80 88 114
80 88 114
80 88 114
80 88 114
80 88 114
80 88 114
80 88 114
80 88 114
80 88 114
80 88 114
80 88 114
80 88 114
80 88 114
80 88 114
80 88 114
80 88 114
80 88 114
80 88 114
80 88 114
80 88 114
80 88 114
80 88 114
80 88 114
80 88 114
80 88 114
80 88 114
80 88 114
80 88 114
80 88 114
80 88 114
80 88 114
80 88 114
80 88 114
80 88 114
80 88 114
80 88 114
80 88 114
80 88 114
80 88 114
80 88 114
80 88 114
80 88 114
80 88 114
80 88 114
80 88 114
80 88 114
80 88 114
80 88 114
80 88 114
80 88 114
80 88 114
80 88 114
80 88 114
80 88 114
80 88 114
80 88 114
80 88 114
80 88 114
80 88 114
80 88 114
80 88 114
80 88 114
80 88 114
80 88 114
80 88 114
80 88 114
80 88 114
80 88 114
80 88 114
80 88 114
80 88 114
80 88 114
80 88 114
80 88 114
80 88 114
80 88 114
80 88 114
80 88 114
80 88 114
80 88 114
80 88 114
80 88 114
80 88 114
80 88 114
80 88 114
80 88 114
80 88 114
80 88 114
80 88 114
80 88 114
80 88 114
80 88 114
80 88 114
80 88 114
80 88 114
80 88 114
80 88 114
80 88 114
80 88 114
80 88 114
80 88 114
80 88 114
80 88 114
80 88 114
80 88 114
80 88 114
80 88 114
80 88 114
80 88 114
80 88 114
80 88 114
80 88 114
80 88 114
80 88 114
80 88 114
80 88 114
80 88 114
80 88 114
80 88 114
80 88 114
80 88 114
80 88 114
80 88 114
80 88 114
80 88 114
80 88 114
80 88 114
80 88 114
80 88 114
80 88 114
80 88 114
80 88 114
80 88 114
80 88 114
80 88 114
80 88 114
80 88 114
80 88 114
80 88 114
80 88 114
80 88 114
80 88 114
80 88 114
80 88 114
80 88 114
80 88 114
80 88 114
80 88 114
80 88 114
80 88 114
80 88 114
80 88 114
80 88 114
80 88 114
80 88 114
80 88 114
80 88 114
80 88 114
80 88 114
80 88 114
80 88 114
80 88 114
80 88 114
80 88 114
80 88 114
80 88 114
80 88 114
80 88 114
80 88 114
80 88 114
80 88 114
80 88 114
80 88 114
80 88 114
80 88 114
80 88 114
80 88 114
80 88 114
80 88 114
80 88 114
80 88 114
80 88 114
80 88 114
80 88 114
80 88 114
80 88 114
80 88 114
80 88 114
80 88 114
80 88 114
80 88 114
80 88 114
80 88 114
80 88 114
80 88 114
80 88 114
80 88 114
80 88 114
80 88 114
80 88 114
80 88 114
80 88 114
80 88 114
80 88 114
80 88 114
80 88 114
80 88 114
80 88 114
80 88 114
80 88 114
80 88 114
80 88 114
80 88 114
80 88 114
80 88 114
80 88 114
80 88 114
80 88 114
80 88 114
80 88 114
80 88 114
80 88 114
80 88 114
80 88 114
80 88 114
80 88 114
80 88 114
80 88 114
80 88 114
80 88 114
80 88 114
80 88 114
80 88 114
80 88 114
80 88 114
80 88 114
80 88 114
80 88 114
80 88 114
80 88 114
80 88 114
80 88 114
80 88 114
80 88 114
80 88 114
80 88 114
80 88 114
80 88 114
80 88 114
80 88 114
80 88 114
80 88 114
80 88 114
80 88 114
80 88 114
80 88 114
80 88 114
80 88 114
80 88 114
80 88 114
80 88 114
80 88 114
80 88 114
80 88 114
80 88 114
80 88 114
80 88 114
80 88 114
80 88 114
80 88 114
80 88 114
80 88 114
80 88 114
80 88 114
80 88 114
80 88 114
80 88 114
80 88 114
80 88 114
80 88 114
80 88 114
80 88 114
80 88 114
80 88 114
80 88 114
80 88 114
80 88 114
80 88 114
80 88 114
80 88 114
80 88 114
80 88 114
80 88 114
80 88 114
80 88 114
80 88 114
80 88 114
80 88 114
80 88 114
80 88 114
80 88 114
80 88 114
80 88 114
80 88 114
80 88 114
80 88 114
80 88 114
80 88 114
80 88 114
80 88 114
80 88 114
80 88 114
80 88 114
80 88 114
80 88 114
80 88 114
80 88 114
80 88 114
80 88 114
80 88 114
80 88 114
80 88 114
80 88 114
80 88 114
80 88 114
80 88 114
80 88 114
80 88 114
80 88 114
80 88 114
80 88 114
80 88 114
80 88 114
80 88 114
80 88 114
80 88 114
80 88 114
80 88 114
80 88 114
80 88 114
80 88 114
80 88 114
80 88 114
80 88 114
80 88 114
80 88 114
80 88 114
80 88 114
80 88 114
80 88 114
80 88 114
80 88 114
80 88 114
80 88 114
80 88 114
80 88 114
80 88 114
80 88 114
80 88 114
80 88 114
80 88 114
80 88 114
80 88 114
80 88 114
80 88 114
80 88 114
80 88 114
80 88 114
80 88 114
80 88 114
80 88 114
80 88 114
80 88 114
80 88 114
80 88 114
80 88 114
80 88 114
80 88 114
80 88 114
80 88 114
80 88 114
80 88 114
80 88 114
80 88 114
80 88 114
80 88 114
80 88 114
80 88 114
80 88 114
80 88 114
80 88 114
80 88 114
80 88 114
80 88 114
80 88 114
80 88 114
80 88 114
80 88 114
80 88 114
80 88 114
80 88 114
80 88 114
80 88 114
80 88 114
80 88 114
80 88 114
80 88 114
80 88 114
80 88 114
80 88 114
80 88 114
80 88 114
80 88 114
80 88 114
80 88 114
80 88 114
80 88 114
80 88 114
80 88 114
80 88 114
80 88 114
80 88 114
80 88 114
80 88 114
80 88 114
80 88 114
80 88 114
80 88 114
80 88 114
80 88 114
80 88 114
80 88 114
80 88 114
80 88 114
80 88 114
80 88 114
80 88 114
80 88 114
80 88 114
80 88 114
80 88 114
80 88 114
80 88 114
80 88 114
80 88 114
80 88 114
80 88 114
80 88 114
80 88 114
80 88 114
80 88 114
80 88 114
80 88 114
80 88 114
80 88 114
80 88 114
80 88 114
80 88 114
80 88 114
80 88 114
80 88 114
80 88 114
80 88 114
80 88 114
80 88 114
80 88 114
80 88 114
80 88 114
80 88 114
80 88 114
80 88 114
80 88 114
80 88 114
80 88 114
80 88 114
80 88 114
80 88 114
80 88 114
80 88 114
80 88 114
80 88 114
80 88 114
80 88 114
80 88 114
80 88 114
80 88 114
80 88 114
80 88 114
80 88 114
80 88 114
80 88 114
80 88 114
80 88 114
80 88 114
80 88 114
80 88 114
80 88 114
80 88 114
80 88 114
80 88 114
80 88 114
80 88 114
80 88 114
80 88 114
80 88 114
80 88 114
80 88 114
80 88 114
80 88 114
80 88 114
80 88 114
80 88 114
80 88 114
80 88 114
80 88 114
80 88 114
80 88 114
80 88 114
80 88 114
80 88 114
80 88 114
80 88 114
80 88 114
80 88 114
80 88 114
80 88 114
80 88 114
80 88 114
80 88 114
80 88 114
80 88 114
80 88 114
80 88 114
80 88 114
80 88 114
80 88 114
80 88 114
80 88 114
80 88 114
80 88 114
80 88 114
80 88 114
80 88 114
80 88 114
80 88 114
80 88 114
80 88 114
80 88 114
80 88 114
80 88 114
80 88 114
80 88 114
80 88 114
80 88 114
80 88 114
80 88 114
80 88 114
80 88 114
80 88 114
80 88 114
80 88 114
80 88 114
80 88 114
80 88 114
80 88 114
80 88 114
80 88 114
80 88 114
80 88 114
80 88 114
80 88 114
80 88 114
80 88 114
80 88 114
80 88 114
80 88 114
80 88 114
80 88 114
80 88 114
80 88 114
80 88 114
80 88 114
80 88 114
80 88 114
80 88 114
80 88 114
80 88 114
80 88 114
80 88 114
80 88 114
80 88 114
80 88 114
80 88 114
80 88 114
80 88 114
80 88 114
80 88 114
80 88 114
80 88 114
80 88 114
80 88 114
80 88 114
80 88 114
80 88 114
80 88 114
80 88 114
80 88 114
80 88 114
80 88 114
80 88 114
80 88 114
80 88 114
80 88 114
80 88 114
80 88 114
80 88 114
80 88 114
80 88 114
80 88 114
80 88 114
80 88 114
80 88 114
80 88 114
80 88 114
80 88 114
80 88 114
80 88 114
80 88 114
80 88 114
80 88 114
80 88 114
80 88 114
80 88 114
80 88 114
80 88 114
80 88 114
80 88 114
80 88 114
80 88 114
80 88 114
80 88 114
80 88 114
80 88 114
80 88 114
80 88 114
80 88 114
80 88 114
80 88 114
80 88 114
80 88 114
80 88 114
80 88 114
80 88 114
80 88 114
80 88 114
80 88 114
80 88 114
80 88 114
80 88 114
80 88 114
80 88 114
80 88 114
80 88 114
80 88 114
80 88 114
80 88 114
80 88 114
80 88 114
80 88 114
80 88 114
80 88 114
80 88 114
80 88 114
80 88 114
80 88 114
80 88 114
80 88 114
80 88 114
80 88 114
80 88 114
80 88 114
80 88 114
80 88 114
80 88 114
80 88 114
80 88 114
80 88 114
80 88 114
80 88 114
80 88 114
80 88 114
80 88 114
80 88 114
80 88 114
80 88 114
80 88 114
80 88 114
80 88 114
80 88 114
80 88 114
80 88 114
80 88 114
80 88 114
80 88 114
80 88 114
80 88 114
80 88 114
80 88 114
80 88 114
80 88 114
80 88 114
80 88 114
80 88 114
80 88 114
80 88 114
80 88 114
80 88 114
80 88 114
80 88 114
80 88 114
80 88 114
80 88 114
80 88 114
80 88 114
80 88 114
80 88 114
80 88 114
80 88 114
80 88 114
80 88 114
80 88 114
80 88 114
80 88 114
80 88 114
80 88 114
80 88 114
80 88 114
80 88 114
80 88 114
80 88 114
80 88 114
80 88 114
80 88 114
80 88 114
80 88 114
80 88 114
80 88 114
80 88 114
80 88 114
80 88 114
80 88 114
80 88 114
80 88 114
80 88 114
80 88 114
80 88 114
80 88 114
80 88 114
80 88 114
80 88 114
80 88 114
80 88 114
80 88 114
80 88 114
80 88 114
80 88 114
80 88 114
80 88 114
80 88 114
80 88 114
80 88 114
80 88 114
80 88 114
80 88 114
80 88 114
80 88 114
80 88 114
80 88 114
80 88 114
80 88 114
80 88 114
80 88 114
80 88 114
80 88 114
80 88 114
80 88 114
80 88 114
80 88 114
80 88 114
80 88 114
80 88 114
80 88 114
80 88 114
80 88 114
80 88 114
80 88 114
80 88 114
80 88 114
80 88 114
80 88 114
80 88 114
80 88 114
80 88 114
80 88 114
80 88 114
80 88 114
80 88 114
80 88 114
80 88 114
80 88 114
80 88 114
80 88 114
80 88 114
80 88 114
80 88 114
80 88 114
80 88 114
80 88 114
80 88 114
80 88 114
80 88 114
80 88 114
80 88 114
80 88 114
80 88 114
80 88 114
80 88 114
80 88 114
80 88 114
80 88 114
80 88 114
80 88 114
80 88 114
80 88 114
80 88 114
80 88 114
80 88 114
80 88 114
80 88 114
80 88 114
80 88 114
80 88 114
80 88 114
80 88 114
80 88 114
80 88 114
80 88 114
80 88 114
80 88 114
80 88 114
80 88 114
80 88 114
80 88 114
80 88 114
80 88 114
80 88 114
80 88 114
80 88 114
80 88 114
80 88 114
80 88 114
80 88 114
80 88 114
80 88 114
80 88 114
80 88 114
80 88 114
80 88 114
80 88 114
80 88 114
80 88 114
80 88 114
80 88 114
80 88 114
80 88 114
80 88 114
80 88 114
80 88 114
80 88 114
80 88 114
80 88 114
80 88 114
80 88 114
80 88 114
80 88 114
80 88 114
80 88 114
80 88 114
80 88 114
80 88 114
80 88 114
80 88 114
80 88 114
80 88 114
80 88 114
80 88 114
80 88 114
80 88 114
80 88 114
80 88 114
80 88 114
80 88 114
80 88 114
80 88 114
80 88 114
80 88 114
80 88 114
80 88 114
80 88 114
80 88 114
80 88 114
80 88 114
80 88 114
80 88 114
80 88 114
80 88 114
80 88 114
80 88 114
80 88 114
80 88 114
80 88 114
80 88 114
80 88 114
80 88 114
80 88 114
80 88 114
80 88 114
80 88 114
80 88 114
80 88 114
80 88 114
80 88 114
80 88 114
80 88 114
80 88 114
80 88 114
80 88 114
80 88 114
80 88 114
80 88 114
80 88 114
80 88 114
80 88 114
80 88 114
80 88 114
80 88 114
80 88 114
80 88 114
80 88 114
80 88 114
80 88 114
80 88 114
80 88 114
80 88 114
80 88 114
80 88 114
80 88 114
80 88 114
80 88 114
80 88 114
80 88 114
80 88 114
80 88 114
80 88 114
80 88 114
80 88 114
80 88 114
80 88 114
80 88 114
80 88 114
80 88 114
80 88 114
80 88 114
80 88 114
80 88 114
80 88 114
80 88 114
80 88 114
80 88 114
80 88 114
80 88 114
80 88 114
80 88 114
80 88 114
80 88 114
80 88 114
80 88 114
80 88 114
80 88 114
80 88 114
80 88 114
80 88 114
80 88 114
80 88 114
80 88 114
80 88 114
80 88 114
80 88 114
80 88 114
80 88 114
80 88 114
80 88 114
80 88 114
80 88 114
80 88 114
80 88 114
80 88 114
80 88 114
80 88 114
80 88 114
80 88 114
80 88 114
80 88 114
80 88 114
80 88 114
80 88 114
80 88 114
80 88 114
80 88 114
80 88 114
80 88 114
80 88 114
80 88 114
80 88 114
80 88 114
80 88 114
80 88 114
80 88 114
80 88 114
80 88 114
80 88 114
80 88 114
80 88 114
80 88 114
80 88 114
80 88 114
80 88 114
80 88 114
80 88 114
80 88 114
80 88 114
80 88 114
80 88 114
80 88 114
80 88 114
80 88 114
80 88 114
80 88 114
80 88 114
80 88 114
80 88 114
80 88 114
80 88 114
80 88 114
80 88 114
80 88 114
80 88 114
80 88 114
80 88 114
80 88 114
80 88 114
80 88 114
80 88 114
80 88 114
80 88 114
80 88 114
80 88 114
80 88 114
80 88 114
80 88 114
80 88 114
80 88 114
80 88 114
80 88 114
80 88 114
80 88 114
80 88 114
80 88 114
80 88 114
80 88 114
80 88 114
80 88 114
80 88 114
80 88 114
80 88 114
80 88 114
80 88 114
80 88 114
80 88 114
80 88 114
80 88 114
80 88 114
80 88 114
80 88 114
80 88 114
80 88 114
80 88 114
80 88 114
80 88 114
80 88 114
80 88 114
80 88 114
80 88 114
80 88 114
80 88 114
80 88 114
80 88 114
80 88 114
80 88 114
80 88 114
80 88 114
80 88 114
80 88 114
80 88 114
80 88 114
80 88 114
80 88 114
80 88 114
80 88 114
80 88 114
80 88 114
80 88 114
80 88 114
80 88 114
80 88 114
80 88 114
80 88 114
80 88 114
80 88 114
80 88 114
80 88 114
80 88 114
80 88 114
80 88 114
80 88 114
80 88 114
80 88 114
80 88 114
80 88 114
80 88 114
80 88 114
80 88 114
80 88 114
80 88 114
80 88 114
80 88 114
80 88 114
80 88 114
80 88 114
80 88 114
80 88 114
80 88 114
80 88 114
80 88 114
80 88 114
80 88 114
80 88 114
80 88 114
80 88 114
80 88 114
80 88 114
80 88 114
80 88 114
80 88 114
80 88 114
80 88 114
80 88 114
80 88 114
80 88 114
80 88 114
80 88 114
80 88 114
80 88 114
80 88 114
80 88 114
80 88 114
80 88 114
80 88 114
80 88 114
80 88 114
80 88 114
80 88 114
80 88 114
80 88 114
80 88 114
80 88 114
80 88 114
80 88 114
80 88 114
80 88 114
80 88 114
80 88 114
80 88 114
80 88 114
80 88 114
80 88 114
80 88 114
80 88 114
80 88 114
80 88 114
80 88 114
80 88 114
80 88 114
80 88 114
80 88 114
80 88 114
80 88 114
80 88 114
80 88 114
80 88 114
80 88 114
80 88 114
80 88 114
80 88 114
80 88 114
80 88 114
80 88 114
80 88 114
80 88 114
80 88 114
80 88 114
80 88 114
80 88 114
80 88 114
80 88 114
80 88 114
80 88 114
80 88 114
80 88 114
80 88 114
80 88 114
80 88 114
80 88 114
80 88 114
80 88 114
80 88 114
80 88 114
80 88 114
80 88 114
80 88 114
80 88 114
80 88 114
80 88 114
80 88 114
80 88 114
80 88 114
80 88 114
80 88 114
80 88 114
80 88 114
80 88 114
80 88 114
80 88 114
80 88 114
80 88 114
80 88 114
80 88 114
80 88 114
80 88 114
80 88 114
80 88 114
80 88 114
80 88 114
80 88 114
80 88 114
80 88 114
80 88 114
80 88 114
80 88 114
80 88 114
80 88 114
80 88 114
80 88 114
80 88 114
80 88 114
80 88 114
80 88 114
80 88 114
80 88 114
80 88 114
80 88 114
80 88 114
80 88 114
80 88 114
80 88 114
80 88 114
80 88 114
80 88 114
80 88 114
80 88 114
80 88 114
80 88 114
80 88 114
80 88 114
80 88 114
80 88 114
80 88 114
80 88 114
80 88 114
80 88 114
80 88 114
80 88 114
80 88 114
80 88 114
80 88 114
80 88 114
80 88 114
80 88 114
80 88 114
80 88 114
80 88 114
80 88 114
80 88 114
80 88 114
80 88 114
80 88 114
80 88 114
80 88 114
80 88 114
80 88 114
80 88 114
80 88 114
80 88 114
80 88 114
80 88 114
80 88 114
80 88 114
80 88 114
80 88 114
80 88 114
80 88 114
80 88 114
80 88 114
80 88 114
80 88 114
80 88 114
80 88 114
80 88 114
80 88 114
80 88 114
80 88 114
80 88 114
80 88 114
80 88 114
80 88 114
80 88 114
80 88 114
80 88 114
80 88 114
80 88 114
80 88 114
80 88 114
80 88 114
80 88 114
80 88 114
80 88 114
80 88 114
80 88 114
80 88 114
80 88 114
80 88 114
80 88 114
80 88 114
80 88 114
80 88 114
80 88 114
80 88 114
80 88 114
80 88 114
80 88 114
80 88 114
80 88 114
80 88 114
80 88 114
80 88 114
80 88 114
80 88 114
80 88 114
80 88 114
80 88 114
80 88 114
80 88 114
80 88 114
80 88 114
80 88 114
80 88 114
80 88 114
80 88 114
80 88 114
80 88 114
80 88 114
80 88 114
80 88 114
80 88 114
80 88 114
80 88 114
80 88 114
80 88 114
80 88 114
80 88 114
80 88 114
80 88 114
80 88 114
80 88 114
80 88 114
80 88 114
80 88 114
80 88 114
80 88 114
80 88 114
80 88 114
80 88 114
80 88 114
80 88 114
80 88 114
80 88 114
80 88 114
80 88 114
80 88 114
80 88 114
80 88 114
80 88 114
80 88 114
80 88 114
80 88 114
80 88 114
80 88 114
80 88 114
80 88 114
80 88 114
80 88 114
80 88 114
80 88 114
80 88 114
80 88 114
80 88 114
80 88 114
80 88 114
80 88 114
80 88 114
80 88 114
80 88 114
80 88 114
80 88 114
80 88 114
80 88 114
80 88 114
80 88 114
80 88 114
80 88 114
80 88 114
80 88 114
80 88 114
80 88 114
80 88 114
80 88 114
80 88 114
80 88 114
80 88 114
80 88 114
80 88 114
80 88 114
80 88 114
80 88 114
80 88 114
80 88 114
80 88 114
80 88 114
80 88 114
80 88 114
80 88 114
80 88 114
80 88 114
80 88 114
80 88 114
80 88 114
80 88 114
80 88 114
80 88 114
80 88 114
80 88 114
80 88 114
80 88 114
80 88 114
80 88 114
80 88 114
80 88 114
80 88 114
80 88 114
80 88 114
80 88 114
80 88 114
80 88 114
80 88 114
80 88 114
80 88 114
80 88 114
80 88 114
80 88 114
80 88 114
80 88 114
80 88 114
80 88 114
80 88 114
80 88 114
80 88 114
80 88 114
80 88 114
80 88 114
80 88 114
80 88 114
80 88 114
80 88 114
80 88 114
80 88 114
80 88 114
80 88 114
80 88 114
80 88 114
80 88 114
80 88 114
80 88 114
80 88 114
80 88 114
80 88 114
80 88 114
80 88 114
80 88 114
80 88 114
80 88 114
80 88 114
80 88 114
80 88 114
80 88 114
80 88 114
80 88 114
80 88 114
80 88 114
80 88 114
80 88 114
80 88 114
80 88 114
80 88 114
80 88 114
80 88 114
80 88 114
80 88 114
80 88 114
80 88 114
80 88 114
80 88 114
80 88 114
80 88 114
80 88 114
80 88 114
80 88 114
80 88 114
80 88 114
80 88 114
80 88 114
80 88 114
80 88 114
80 88 114
80 88 114
80 88 114
80 88 114
80 88 114
80 88 114
80 88 114
80 88 114
80 88 114
80 88 114
80 88 114
80 88 114
80 88 114
80 88 114
80 88 114
80 88 114
80 88 114
80 88 114
80 88 114
80 88 114
80 88 114
80 88 114
80 88 114
80 88 114
80 88 114
80 88 114
80 88 114
80 88 114
80 88 114
80 88 114
80 88 114
80 88 114
80 88 114
80 88 114
80 88 114
80 88 114
80 88 114
80 88 114
80 88 114
80 88 114
80 88 114
80 88 114
80 88 114
80 88 114
80 88 114
80 88 114
80 88 114
80 88 114
80 88 114
80 88 114
80 88 114
80 88 114
80 88 114
80 88 114
80 88 114
80 88 114
80 88 114
80 88 114
80 88 114
80 88 114
80 88 114
80 88 114
80 88 114
80 88 114
80 88 114
80 88 114
80 88 114
80 88 114
80 88 114
80 88 114
80 88 114
80 88 114
80 88 114
80 88 114
80 88 114
80 88 114
80 88 114
80 88 114
80 88 114
80 88 114
80 88 114
80 88 114
80 88 114
80 88 114
80 88 114
80 88 114
80 88 114
80 88 114
80 88 114
80 88 114
80 88 114
80 88 114
80 88 114
80 88 114
80 88 114
80 88 114
80 88 114
80 88 114
80 88 114
80 88 114
80 88 114
80 88 114
80 88 114
80 88 114
80 88 114
80 88 114
80 88 114
80 88 114
80 88 114
80 88 114
80 88 114
80 88 114
80 88 114
80 88 114
80 88 114
80 88 114
80 88 114
80 88 114
80 88 114
80 88 114
80 88 114
80 88 114
80 88 114
80 88 114
80 88 114
80 88 114
80 88 114
80 88 114
80 88 114
80 88 114
80 88 114
80 88 114
80 88 114
80 88 114
80 88 114
80 88 114
80 88 114
80 88 114
80 88 114
80 88 114
80 88 114
80 88 114
80 88 114
80 88 114
80 88 114
80 88 114
80 88 114
80 88 114
80 88 114
80 88 114
80 88 114
80 88 114
80 88 114
80 88 114
80 88 114
80 88 114
80 88 114
80 88 114
80 88 114
80 88 114
80 88 114
80 88 114
80 88 114
80 88 114
80 88 114
80 88 114
80 88 114
80 88 114
80 88 114
80 88 114
80 88 114
80 88 114
80 88 114
80 88 114
80 88 114
80 88 114
80 88 114
80 88 114
80 88 114
80 88 114
80 88 114
80 88 114
80 88 114
80 88 114
80 88 114
80 88 114
80 88 114
80 88 114
80 88 114
80 88 114
80 88 114
80 88 114
80 88 114
80 88 114
80 88 114
80 88 114
80 88 114
80 88 114
80 88 114
80 88 114
80 88 114
80 88 114
80 88 114
80 88 114
80 88 114
80 88 114
80 88 114
80 88 114
80 88 114
80 88 114
80 88 114
80 88 114
80 88 114
80 88 114
80 88 114
80 88 114
80 88 114
80 88 114
80 88 114
80 88 114
80 88 114
80 88 114
80 88 114
80 88 114
80 88 114
80 88 114
80 88 114
80 88 114
80 88 114
80 88 114
80 88 114
80 88 114
80 88 114
80 88 114
80 88 114
80 88 114
80 88 114
80 88 114
80 88 114
80 88 114
80 88 114
80 88 114
80 88 114
80 88 114
80 88 114
80 88 114
80 88 114
80 88 114
80 88 114
80 88 114
80 88 114
80 88 114
80 88 114
80 88 114
80 88 114
80 88 114
80 88 114
80 88 114
80 88 114
80 88 114
80 88 114
80 88 114
80 88 114
80 88 114
80 88 114
80 88 114
80 88 114
80 88 114
80 88 114
80 88 114
80 88 114
80 88 114
80 88 114
80 88 114
80 88 114
80 88 114
80 88 114
80 88 114
80 88 114
80 88 114
80 88 114
80 88 114
80 88 114
80 88 114
80 88 114
80 88 114
80 88 114
80 88 114
80 88 114
80 88 114
80 88 114
80 88 114
80 88 114
80 88 114
80 88 114
80 88 114
80 88 114
80 88 114
80 88 114
80 88 114
80 88 114
80 88 114
80 88 114
80 88 114
80 88 114
80 88 114
80 88 114
80 88 114
80 88 114
80 88 114
80 88 114
80 88 114
80 88 114
80 88 114
80 88 114
80 88 114
80 88 114
80 88 114
80 88 114
80 88 114
80 88 114
80 88 114
80 88 114
80 88 114
80 88 114
80 88 114
80 88 114
80 88 114
80 88 114
80 88 114
80 88 114
80 88 114
80 88 114
80 88 114
80 88 114
80 88 114
80 88 114
80 88 114
80 88 114
80 88 114
80 88 114
80 88 114
80 88 114
80 88 114
80 88 114
80 88 114
80 88 114
80 88 114
80 88 114
80 88 114
80 88 114
80 88 114
80 88 114
80 88 114
80 88 114
80 88 114
80 88 114
80 88 114
80 88 114
80 88 114
80 88 114
80 88 114
80 88 114
80 88 114
80 88 114
80 88 114
80 88 114
80 88 114
80 88 114
80 88 114
80 88 114
80 88 114
80 88 114
80 88 114
80 88 114
80 88 114
80 88 114
80 88 114
80 88 114
80 88 114
80 88 114
80 88 114
80 88 114
80 88 114
80 88 114
80 88 114
80 88 114
80 88 114
80 88 114
80 88 114
80 88 114
80 88 114
80 88 114
80 88 114
80 88 114
80 88 114
80 88 114
80 88 114
80 88 114
80 88 114
80 88 114
80 88 114
80 88 114
80 88 114
80 88 114
80 88 114
80 88 114
80 88 114
80 88 114
80 88 114
80 88 114
80 88 114
80 88 114
80 88 114
80 88 114
80 88 114
80 88 114
80 88 114
80 88 114
80 88 114
80 88 114
80 88 114
80 88 114
80 88 114
80 88 114
80 88 114
80 88 114
80 88 114
80 88 114
80 88 114
80 88 114
80 88 114
80 88 114
80 88 114
80 88 114
80 88 114
80 88 114
80 88 114
80 88 114
80 88 114
80 88 114
80 88 114
80 88 114
80 88 114
80 88 114
80 88 114
80 88 114
80 88 114
80 88 114
80 88 114
80 88 114
80 88 114
80 88 114
80 88 114
80 88 114
80 88 114
80 88 114
80 88 114
80 88 114
80 88 114
80 88 114
80 88 114
80 88 114
80 88 114
80 88 114
80 88 114
80 88 114
80 88 114
80 88 114
80 88 114
80 88 114
80 88 114
80 88 114
80 88 114
80 88 114
80 88 114
80 88 114
80 88 114
80 88 114
80 88 114
80 88 114
80 88 114
80 88 114
80 88 114
80 88 114
80 88 114
80 88 114
80 88 114
80 88 114
80 88 114
80 88 114
80 88 114
80 88 114
80 88 114
80 88 114
80 88 114
80 88 114
80 88 114
80 88 114
80 88 114
80 88 114
80 88 114
80 88 114
80 88 114
80 88 114
80 88 114
80 88 114
80 88 114
80 88 114
80 88 114
80 88 114
80 88 114
80 88 114
80 88 114
80 88 114
80 88 114
80 88 114
80 88 114
80 88 114
80 88 114
80 88 114
80 88 114
80 88 114
80 88 114
80 88 114
80 88 114
80 88 114
80 88 114
80 88 114
80 88 114
80 88 114
80 88 114
80 88 114
80 88 114
80 88 114
80 88 114
80 88 114
80 88 114
80 88 114
80 88 114
80 88 114
80 88 114
80 88 114
80 88 114
80 88 114
80 88 114
80 88 114
80 88 114
80 88 114
80 88 114
80 88 114
80 88 114
80 88 114
80 88 114
80 88 114
80 88 114
80 88 114
80 88 114
80 88 114
80 88 114
80 88 114
80 88 114
80 88 114
80 88 114
80 88 114
80 88 114
80 88 114
80 88 114
80 88 114
80 88 114
80 88 114
80 88 114
80 88 114
80 88 114
80 88 114
80 88 114
80 88 114
80 88 114
80 88 114
80 88 114
80 88 114
80 88 114
80 88 114
80 88 114
80 88 114
80 88 114
80 88 114
80 88 114
80 88 114
80 88 114
80 88 114
80 88 114
80 88 114
80 88 114
80 88 114
80 88 114
80 88 114
80 88 114
80 88 114
80 88 114
80 88 114
80 88 114
80 88 114
80 88 114
80 88 114
80 88 114
80 88 114
80 88 114
80 88 114
80 88 114
80 88 114
80 88 114
80 88 114
80 88 114
80 88 114
80 88 114
80 88 114
80 88 114
80 88 114
80 88 114
80 88 114
80 88 114
80 88 114
80 88 114
80 88 114
80 88 114
80 88 114
80 88 114
80 88 114
80 88 114
80 88 114
80 88 114
80 88 114
80 88 114
80 88 114
80 88 114
80 88 114
80 88 114
80 88 114
80 88 114
80 88 114
80 88 114
80 88 114
80 88 114
80 88 114
80 88 114
80 88 114
80 88 114
80 88 114
80 88 114
80 88 114
80 88 114
80 88 114
80 88 114
80 88 114
80 88 114
80 88 114
80 88 114
80 88 114
80 88 114
80 88 114
80 88 114
80 88 114
80 88 114
80 88 114
80 88 114
80 88 114
80 88 114
80 88 114
80 88 114
80 88 114
80 88 114
80 88 114
80 88 114
80 88 114
80 88 114
80 88 114
80 88 114
80 88 114
80 88 114
80 88 114
80 88 114
80 88 114
80 88 114
80 88 114
80 88 114
80 88 114
80 88 114
80 88 114
80 88 114
80 88 114
80 88 114
80 88 114
80 88 114
80 88 114
80 88 114
80 88 114
80 88 114
80 88 114
80 88 114
80 88 114
80 88 114
80 88 114
80 88 114
80 88 114
80 88 114
80 88 114
80 88 114
80 88 114
80 88 114
80 88 114
80 88 114
80 88 114
80 88 114
80 88 114
80 88 114
80 88 114
80 88 114
80 88 114
80 88 114
80 88 114
80 88 114
80 88 114
80 88 114
80 88 114
80 88 114
80 88 114
80 88 114
80 88 114
80 88 114
80 88 114
80 88 114
80 88 114
80 88 114
80 88 114
80 88 114
80 88 114
80 88 114
80 88 114
80 88 114
80 88 114
80 88 114
80 88 114
80 88 114
80 88 114
80 88 114
80 88 114
80 88 114
80 88 114
80 88 114
80 88 114
80 88 114
80 88 114
80 88 114
80 88 114
80 88 114
80 88 114
80 88 114
80 88 114
80 88 114
80 88 114
80 88 114
80 88 114
80 88 114
80 88 114
80 88 114
80 88 114
80 88 114
80 88 114
80 88 114
80 88 114
80 88 114
80 88 114
80 88 114
80 88 114
80 88 114
80 88 114
80 88 114
80 88 114
80 88 114
80 88 114
80 88 114
80 88 114
80 88 114
80 88 114
80 88 114
80 88 114
80 88 114
80 88 114
80 88 114
80 88 114
80 88 114
80 88 114
80 88 114
80 88 114
80 88 114
80 88 114
80 88 114
80 88 114
80 88 114
80 88 114
80 88 114
80 88 114
80 88 114
80 88 114
80 88 114
80 88 114
80 88 114
80 88 114
80 88 114
80 88 114
80 88 114
80 88 114
80 88 114
80 88 114
80 88 114
80 88 114
80 88 114
80 88 114
80 88 114
80 88 114
80 88 114
80 88 114
80 88 114
80 88 114
80 88 114
80 88 114
80 88 114
80 88 114
80 88 114
80 88 114
80 88 114
80 88 114
80 88 114
80 88 114
80 88 114
80 88 114
80 88 114
80 88 114
80 88 114
80 88 114
80 88 114
80 88 114
80 88 114
80 88 114
80 88 114
80 88 114
80 88 114
80 88 114
80 88 114
80 88 114
80 88 114
80 88 114
80 88 114
80 88 114
80 88 114
80 88 114
80 88 114
80 88 114
80 88 114
80 88 114
80 88 114
80 88 114
80 88 114
80 88 114
80 88 114
80 88 114
80 88 114
80 88 114
80 88 114
80 88 114
80 88 114
80 88 114
80 88 114
80 88 114
80 88 114
80 88 114
80 88 114
80 88 114
80 88 114
80 88 114
80 88 114
80 88 114
80 88 114
80 88 114
80 88 114
80 88 114
80 88 114
80 88 114
80 88 114
80 88 114
80 88 114
80 88 114
80 88 114
80 88 114
80 88 114
80 88 114
80 88 114
80 88 114
80 88 114
80 88 114
80 88 114
80 88 114
80 88 114
80 88 114
80 88 114
80 88 114
80 88 114
80 88 114
80 88 114
80 88 114
80 88 114
80 88 114
80 88 114
80 88 114
80 88 114
80 88 114
80 88 114
80 88 114
80 88 114
80 88 114
80 88 114
80 88 114
80 88 114
80 88 114
80 88 114
80 88 114
80 88 114
80 88 114
80 88 114
80 88 114
80 88 114
80 88 114
80 88 114
80 88 114
80 88 114
80 88 114
80 88 114
80 88 114
80 88 114
80 88 114
80 88 114
80 88 114
80 88 114
80 88 114
80 88 114
80 88 114
80 88 114
80 88 114
80 88 114
80 88 114
80 88 114
80 88 114
80 88 114
80 88 114
80 88 114
80 88 114
80 88 114
80 88 114
80 88 114
80 88 114
80 88 114
80 88 114
80 88 114
80 88 114
80 88 114
80 88 114
80 88 114
80 88 114
80 88 114
80 88 114
80 88 114
80 88 114
80 88 114
80 88 114
80 88 114
80 88 114
80 88 114
80 88 114
80 88 114
80 88 114
80 88 114
80 88 114
80 88 114
80 88 114
80 88 114
80 88 114
80 88 114
80 88 114
80 88 114
80 88 114
80 88 114
80 88 114
80 88 114
80 88 114
80 88 114
80 88 114
80 88 114
80 88 114
80 88 114
80 88 114
80 88 114
80 88 114
80 88 114
80 88 114
80 88 114
80 88 114
80 88 114
80 88 114
80 88 114
80 88 114
80 88 114
80 88 114
80 88 114
80 88 114
80 88 114
80 88 114
80 88 114
80 88 114
80 88 114
80 88 114
80 88 114
80 88 114
80 88 114
80 88 114
80 88 114
80 88 114
80 88 114
80 88 114
80 88 114
80 88 114
80 88 114
80 88 114
80 88 114
80 88 114
80 88 114
80 88 114
80 88 114
80 88 114
80 88 114
80 88 114
80 88 114
80 88 114
80 88 114
80 88 114
80 88 114
80 88 114
80 88 114
80 88 114
80 88 114
80 88 114
80 88 114
80 88 114
80 88 114
80 88 114
80 88 114
80 88 114
80 88 114
80 88 114
80 88 114
80 88 114
80 88 114
80 88 114
80 88 114
80 88 114
80 88 114
80 88 114
80 88 114
80 88 114
80 88 114
80 88 114
80 88 114
80 88 114
80 88 114
80 88 114
80 88 114
80 88 114
80 88 114
80 88 114
80 88 114
80 88 114
80 88 114
80 88 114
80 88 114
80 88 114
80 88 114
80 88 114
80 88 114
80 88 114
80 88 114
80 88 114
80 88 114
80 88 114
80 88 114
80 88 114
80 88 114
80 88 114
80 88 114
80 88 114
80 88 114
80 88 114
80 88 114
80 88 114
80 88 114
80 88 114
80 88 114
80 88 114
80 88 114
80 88 114
80 88 114
80 88 114
80 88 114
80 88 114
80 88 114
80 88 114
80 88 114
80 88 114
80 88 114
80 88 114
80 88 114
80 88 114
80 88 114
80 88 114
80 88 114
80 88 114
80 88 114
80 88 114
80 88 114
80 88 114
80 88 114
80 88 114
80 88 114
80 88 114
80 88 114
80 88 114
80 88 114
80 88 114
80 88 114
80 88 114
80 88 114
80 88 114
80 88 114
80 88 114
80 88 114
80 88 114
80 88 114
80 88 114
80 88 114
80 88 114
80 88 114
80 88 114
80 88 114
80 88 114
80 88 114
80 88 114
80 88 114
80 88 114
80 88 114
80 88 114
80 88 114
80 88 114
80 88 114
80 88 114
80 88 114
80 88 114
80 88 114
80 88 114
80 88 114
80 88 114
80 88 114
80 88 114
80 88 114
80 88 114
80 88 114
80 88 114
80 88 114
80 88 114
80 88 114
80 88 114
80 88 114
80 88 114
80 88 114
80 88 114
80 88 114
80 88 114
80 88 114
80 88 114
80 88 114
80 88 114
80 88 114
80 88 114
80 88 114
80 88 114
80 88 114
80 88 114
80 88 114
80 88 114
80 88 114
80 88 114
80 88 114
80 88 114
80 88 114
80 88 114
80 88 114
80 88 114
80 88 114
80 88 114
80 88 114
80 88 114
80 88 114
80 88 114
80 88 114
80 88 114
80 88 114
80 88 114
80 88 114
80 88 114
80 88 114
80 88 114
80 88 114
80 88 114
80 88 114
80 88 114
80 88 114
80 88 114
80 88 114
80 88 114
80 88 114
80 88 114
80 88 114
80 88 114
80 88 114
80 88 114
80 88 114
80 88 114
80 88 114
80 88 114
80 88 114
80 88 114
80 88 114
80 88 114
80 88 114
80 88 114
80 88 114
80 88 114
80 88 114
80 88 114
80 88 114
80 88 114
80 88 114
80 88 114
80 88 114
80 88 114
80 88 114
80 88 114
80 88 114
80 88 114
80 88 114
80 88 114
80 88 114
80 88 114
80 88 114
80 88 114
80 88 114
80 88 114
80 88 114
80 88 114
80 88 114
80 88 114
80 88 114
80 88 114
80 88 114
80 88 114
80 88 114
80 88 114
80 88 114
80 88 114
80 88 114
80 88 114
80 88 114
80 88 114
80 88 114
80 88 114
80 88 114
80 88 114
80 88 114
80 88 114
80 88 114
80 88 114
80 88 114
80 88 114
80 88 114
80 88 114
80 88 114
80 88 114
80 88 114
80 88 114
80 88 114
80 88 114
80 88 114
80 88 114
80 88 114
80 88 114
80 88 114
80 88 114
80 88 114
80 88 114
80 88 114
80 88 114
80 88 114
80 88 114
80 88 114
80 88 114
80 88 114
80 88 114
80 88 114
80 88 114
80 88 114
80 88 114
80 88 114
80 88 114
80 88 114
80 88 114
80 88 114
80 88 114
80 88 114
80 88 114
80 88 114
80 88 114
80 88 114
80 88 114
80 88 114
80 88 114
80 88 114
80 88 114
80 88 114
80 88 114
80 88 114
80 88 114
80 88 114
80 88 114
80 88 114
80 88 114
80 88 114
80 88 114
80 88 114
80 88 114
80 88 114
80 88 114
80 88 114
80 88 114
80 88 114
80 88 114
80 88 114
80 88 114
80 88 114
80 88 114
80 88 114
80 88 114
80 88 114
80 88 114
80 88 114
80 88 114
80 88 114
80 88 114
80 88 114
80 88 114
80 88 114
80 88 114
80 88 114
80 88 114
80 88 114
80 88 114
80 88 114
80 88 114
80 88 114
80 88 114
80 88 114
80 88 114
80 88 114
80 88 114
80 88 114
80 88 114
80 88 114
80 88 114
80 88 114
80 88 114
80 88 114
80 88 114
80 88 114
80 88 114
80 88 114
80 88 114
80 88 114
80 88 114
80 88 114
80 88 114
80 88 114
80 88 114
80 88 114
80 88 114
80 88 114
80 88 114
80 88 114
80 88 114
80 88 114
80 88 114
80 88 114
80 88 114
80 88 114
80 88 114
80 88 114
80 88 114
80 88 114
80 88 114
80 88 114
80 88 114
80 88 114
80 88 114
80 88 114
80 88 114
80 88 114
80 88 114
80 88 114
80 88 114
80 88 114
80 88 114
80 88 114
80 88 114
80 88 114
80 88 114
80 88 114
80 88 114
80 88 114
80 88 114
80 88 114
80 88 114
80 88 114
80 88 114
80 88 114
80 88 114
80 88 114
80 88 114
80 88 114
80 88 114
80 88 114
80 88 114
80 88 114
80 88 114
80 88 114
80 88 114
80 88 114
80 88 114
80 88 114
80 88 114
80 88 114
80 88 114
80 88 114
80 88 114
80 88 114
80 88 114
80 88 114
80 88 114
80 88 114
80 88 114
80 88 114
80 88 114
80 88 114
80 88 114
80 88 114
80 88 114
80 88 114
80 88 114
80 88 114
80 88 114
80 88 114
80 88 114
80 88 114
80 88 114
80 88 114
80 88 114
80 88 114
80 88 114
80 88 114
80 88 114
80 88 114
80 88 114
80 88 114
80 88 114
80 88 114
80 88 114
80 88 114
80 88 114
80 88 114
80 88 114
80 88 114
80 88 114
80 88 114
80 88 114
80 88 114
80 88 114
80 88 114
80 88 114
80 88 114
80 88 114
80 88 114
80 88 114
80 88 114
80 88 114
80 88 114
80 88 114
80 88 114
80 88 114
80 88 114
80 88 114
80 88 114
80 88 114
80 88 114
80 88 114
80 88 114
80 88 114
80 88 114
80 88 114
80 88 114
80 88 114
80 88 114
80 88 114
80 88 114
80 88 114
80 88 114
80 88 114
80 88 114
80 88 114
80 88 114
80 88 114
80 88 114
80 88 114
80 88 114
80 88 114
80 88 114
80 88 114
80 88 114
80 88 114
80 88 114
80 88 114
80 88 114
80 88 114
80 88 114
80 88 114
80 88 114
80 88 114
80 88 114
80 88 114
80 88 114
80 88 114
80 88 114
80 88 114
80 88 114
80 88 114
80 88 114
80 88 114
80 88 114
80 88 114
80 88 114
80 88 114
80 88 114
80 88 114
80 88 114
80 88 114
80 88 114
80 88 114
80 88 114
80 88 114
80 88 114
80 88 114
80 88 114
80 88 114
80 88 114
80 88 114
80 88 114
80 88 114
80 88 114
80 88 114
80 88 114
80 88 114
80 88 114
80 88 114
80 88 114
80 88 114
80 88 114
80 88 114
80 88 114
80 88 114
80 88 114
80 88 114
80 88 114
80 88 114
80 88 114
80 88 114
80 88 114
80 88 114
80 88 114
80 88 114
80 88 114
80 88 114
80 88 114
80 88 114
80 88 114
80 88 114
80 88 114
80 88 114
80 88 114
80 88 114
80 88 114
80 88 114
80 88 114
80 88 114
80 88 114
80 88 114
80 88 114
80 88 114
80 88 114
80 88 114
80 88 114
80 88 114
80 88 114
80 88 114
80 88 114
80 88 114
80 88 114
80 88 114
80 88 114
80 88 114
80 88 114
80 88 114
80 88 114
80 88 114
80 88 114
80 88 114
80 88 114
80 88 114
80 88 114
80 88 114
80 88 114
80 88 114
80 88 114
80 88 114
80 88 114
80 88 114
80 88 114
80 88 114
80 88 114
80 88 114
80 88 114
80 88 114
80 88 114
80 88 114
80 88 114
80 88 114
80 88 114
80 88 114
80 88 114
80 88 114
80 88 114
80 88 114
80 88 114
80 88 114
80 88 114
80 88 114
80 88 114
80 88 114
80 88 114
80 88 114
80 88 114
80 88 114
80 88 114
80 88 114
80 88 114
80 88 114
80 88 114
80 88 114
80 88 114
80 88 114
80 88 114
80 88 114
80 88 114
80 88 114
80 88 114
80 88 114
80 88 114
80 88 114
80 88 114
80 88 114
80 88 114
80 88 114
80 88 114
80 88 114
80 88 114
80 88 114
80 88 114
80 88 114
80 88 114
80 88 114
80 88 114
80 88 114
80 88 114
80 88 114
80 88 114
80 88 114
80 88 114
80 88 114
80 88 114
80 88 114
80 88 114
80 88 114
80 88 114
80 88 114
80 88 114
80 88 114
80 88 114
80 88 114
80 88 114
80 88 114
80 88 114
80 88 114
80 88 114
80 88 114
80 88 114
80 88 114
80 88 114
80 88 114
80 88 114
80 88 114
80 88 114
80 88 114
80 88 114
80 88 114
80 88 114
80 88 114
80 88 114
80 88 114
80 88 114
80 88 114
80 88 114
80 88 114
80 88 114
80 88 114
80 88 114
80 88 114
80 88 114
80 88 114
80 88 114
80 88 114
80 88 114
80 88 114
80 88 114
80 88 114
80 88 114
80 88 114
80 88 114
80 88 114
80 88 114
80 88 114
80 88 114
80 88 114
80 88 114
80 88 114
80 88 114
80 88 114
80 88 114
80 88 114
80 88 114
80 88 114
80 88 114
80 88 114
80 88 114
80 88 114
80 88 114
80 88 114
80 88 114
80 88 114
80 88 114
80 88 114
80 88 114
80 88 114
80 88 114
80 88 114
80 88 114
80 88 114
80 88 114
80 88 114
80 88 114
80 88 114
80 88 114
80 88 114
80 88 114
80 88 114
80 88 114
80 88 114
80 88 114
80 88 114
80 88 114
80 88 114
80 88 114
80 88 114
80 88 114
80 88 114
80 88 114
80 88 114
80 88 114
80 88 114
80 88 114
80 88 114
80 88 114
80 88 114
80 88 114
80 88 114
80 88 114
80 88 114
80 88 114
80 88 114
80 88 114
80 88 114
80 88 114
80 88 114
80 88 114
80 88 114
80 88 114
80 88 114
80 88 114
80 88 114
80 88 114
80 88 114
80 88 114
80 88 114
80 88 114
80 88 114
80 88 114
80 88 114
80 88 114
80 88 114
80 88 114
80 88 114
80 88 114
80 88 114
80 88 114
80 88 114
80 88 114
80 88 114
80 88 114
80 88 114
80 88 114
80 88 114
80 88 114
80 88 114
80 88 114
80 88 114
80 88 114
80 88 114
80 88 114
80 88 114
80 88 114
80 88 114
80 88 114
80 88 114
80 88 114
80 88 114
80 88 114
80 88 114
80 88 114
80 88 114
80 88 114
80 88 114
80 88 114
80 88 114
80 88 114
80 88 114
80 88 114
80 88 114
80 88 114
80 88 114
80 88 114
80 88 114
80 88 114
80 88 114
80 88 114
80 88 114
80 88 114
80 88 114
80 88 114
80 88 114
80 88 114
80 88 114
80 88 114
80 88 114
80 88 114
80 88 114
80 88 114
80 88 114
80 88 114
80 88 114
80 88 114
80 88 114
80 88 114
80 88 114
80 88 114
80 88 114
80 88 114
80 88 114
80 88 114
80 88 114
80 88 114
80 88 114
80 88 114
80 88 114
80 88 114
80 88 114
80 88 114
80 88 114
80 88 114
80 88 114
80 88 114
80 88 114
80 88 114
80 88 114
80 88 114
80 88 114
80 88 114
80 88 114
80 88 114
80 88 114
80 88 114
80 88 114
80 88 114
80 88 114
80 88 114
80 88 114
80 88 114
80 88 114
80 88 114
80 88 114
80 88 114
80 88 114
80 88 114
80 88 114
80 88 114
80 88 114
80 88 114
80 88 114
80 88 114
80 88 114
80 88 114
80 88 114
80 88 114
80 88 114
80 88 114
80 88 114
80 88 114
80 88 114
80 88 114
80 88 114
80 88 114
80 88 114
80 88 114
80 88 114
80 88 114
80 88 114
80 88 114
80 88 114
80 88 114
80 88 114
80 88 114
80 88 114
80 88 114
80 88 114
80 88 114
80 88 114
80 88 114
80 88 114
80 88 114
80 88 114
80 88 114
80 88 114
80 88 114
80 88 114
80 88 114
80 88 114
80 88 114
80 88 114
80 88 114
80 88 114
80 88 114
80 88 114
80 88 114
80 88 114
80 88 114
80 88 114
80 88 114
80 88 114
80 88 114
80 88 114
80 88 114
80 88 114
80 88 114
80 88 114
80 88 114
80 88 114
80 88 114
80 88 114
80 88 114
80 88 114
80 88 114
80 88 114
80 88 114
80 88 114
80 88 114
80 88 114
80 88 114
80 88 114
80 88 114
80 88 114
80 88 114
80 88 114
80 88 114
80 88 114
80 88 114
80 88 114
80 88 114
80 88 114
80 88 114
80 88 114
80 88 114
80 88 114
80 88 114
80 88 114
80 88 114
80 88 114
80 88 114
80 88 114
80 88 114
80 88 114
80 88 114
80 88 114
80 88 114
80 88 114
80 88 114
80 88 114
80 88 114
80 88 114
80 88 114
80 88 114
80 88 114
80 88 114
80 88 114
80 88 114
80 88 114
80 88 114
80 88 114
80 88 114
80 88 114
80 88 114
80 88 114
80 88 114
80 88 114
80 88 114
80 88 114
80 88 114
80 88 114
80 88 114
80 88 114
80 88 114
80 88 114
80 88 114
80 88 114
80 88 114
80 88 114
80 88 114
80 88 114
80 88 114
80 88 114
80 88 114
80 88 114
80 88 114
80 88 114
80 88 114
80 88 114
80 88 114
80 88 114
80 88 114
80 88 114
80 88 114
80 88 114
80 88 114
80 88 114
80 88 114
80 88 114
80 88 114
80 88 114
80 88 114
80 88 114
80 88 114
80 88 114
80 88 114
80 88 114
80 88 114
80 88 114
80 88 114
80 88 114
80 88 114
80 88 114
80 88 114
80 88 114
80 88 114
80 88 114
80 88 114
80 88 114
80 88 114
80 88 114
80 88 114
80 88 114
80 88 114
80 88 114
80 88 114
80 88 114
80 88 114
80 88 114
80 88 114
80 88 114
80 88 114
80 88 114
80 88 114
80 88 114
80 88 114
80 88 114
80 88 114
80 88 114
80 88 114
80 88 114
80 88 114
80 88 114
80 88 114
80 88 114
80 88 114
80 88 114
80 88 114
80 88 114
80 88 114
80 88 114
80 88 114
80 88 114
80 88 114
80 88 114
80 88 114
80 88 114
80 88 114
80 88 114
80 88 114
80 88 114
80 88 114
80 88 114
80 88 114
80 88 114
80 88 114
80 88 114
80 88 114
80 88 114
80 88 114
80 88 114
80 88 114
80 88 114
80 88 114
80 88 114
80 88 114
80 88 114
80 88 114
80 88 114
80 88 114
80 88 114
80 88 114
80 88 114
80 88 114
80 88 114
80 88 114
80 88 114
80 88 114
80 88 114
80 88 114
80 88 114
80 88 114
80 88 114
80 88 114
80 88 114
80 88 114
80 88 114
80 88 114
80 88 114
80 88 114
80 88 114
80 88 114
80 88 114
80 88 114
80 88 114
80 88 114
80 88 114
80 88 114
80 88 114
80 88 114
80 88 114
80 88 114
80 88 114
80 88 114
80 88 114
80 88 114
80 88 114
80 88 114
80 88 114
80 88 114
80 88 114
80 88 114
80 88 114
80 88 114
80 88 114
80 88 114
80 88 114
80 88 114
80 88 114
80 88 114
80 88 114
80 88 114
80 88 114
80 88 114
80 88 114
80 88 114
80 88 114
80 88 114
80 88 114
80 88 114
80 88 114
80 88 114
80 88 114
80 88 114
80 88 114
80 88 114
80 88 114
80 88 114
80 88 114
80 88 114
80 88 114
80 88 114
80 88 114
80 88 114
80 88 114
80 88 114
80 88 114
80 88 114
80 88 114
80 88 114
80 88 114
80 88 114
80 88 114
80 88 114
80 88 114
80 88 114
80 88 114
80 88 114
80 88 114
80 88 114
80 88 114
80 88 114
80 88 114
80 88 114
80 88 114
80 88 114
80 88 114
80 88 114
80 88 114
80 88 114
80 88 114
80 88 114
80 88 114
80 88 114
80 88 114
80 88 114
80 88 114
80 88 114
80 88 114
80 88 114
80 88 114
80 88 114
80 88 114
80 88 114
80 88 114
80 88 114
80 88 114
80 88 114
80 88 114
80 88 114
80 88 114
80 88 114
80 88 114
80 88 114
80 88 114
80 88 114
80 88 114
80 88 114
80 88 114
80 88 114
80 88 114
80 88 114
80 88 114
80 88 114
80 88 114
80 88 114
80 88 114
80 88 114
80 88 114
80 88 114
80 88 114
80 88 114
80 88 114
80 88 114
80 88 114
80 88 114
80 88 114
80 88 114
80 88 114
80 88 114
80 88 114
80 88 114
80 88 114
80 88 114
80 88 114
80 88 114
80 88 114
80 88 114
80 88 114
80 88 114
80 88 114
80 88 114
80 88 114
80 88 114
80 88 114
80 88 114
80 88 114
80 88 114
80 88 114
80 88 114
80 88 114
80 88 114
80 88 114
80 88 114
80 88 114
80 88 114
80 88 114
80 88 114
80 88 114
80 88 114
80 88 114
80 88 114
80 88 114
80 88 114
80 88 114
80 88 114
80 88 114
80 88 114
80 88 114
80 88 114
80 88 114
80 88 114
80 88 114
80 88 114
80 88 114
80 88 114
80 88 114
80 88 114
80 88 114
80 88 114
80 88 114
80 88 114
80 88 114
80 88 114
80 88 114
80 88 114
80 88 114
80 88 114
80 88 114
80 88 114
80 88 114
80 88 114
80 88 114
80 88 114
80 88 114
80 88 114
80 88 114
80 88 114
80 88 114
80 88 114
80 88 114
80 88 114
80 88 114
80 88 114
80 88 114
80 88 114
80 88 114
80 88 114
80 88 114
80 88 114
80 88 114
80 88 114
80 88 114
80 88 114
80 88 114
80 88 114
80 88 114
80 88 114
80 88 114
80 88 114
80 88 114
80 88 114
80 88 114
80 88 114
80 88 114
80 88 114
80 88 114
80 88 114
80 88 114
80 88 114
80 88 114
80 88 114
80 88 114
80 88 114
80 88 114
80 88 114
80 88 114
80 88 114
80 88 114
80 88 114
80 88 114
80 88 114
80 88 114
80 88 114
80 88 114
80 88 114
80 88 114
80 88 114
80 88 114
80 88 114
80 88 114
80 88 114
80 88 114
80 88 114
80 88 114
80 88 114
80 88 114
80 88 114
80 88 114
80 88 114
80 88 114
80 88 114
80 88 114
80 88 114
80 88 114
80 88 114
80 88 114
80 88 114
80 88 114
80 88 114
80 88 114
80 88 114
80 88 114
80 88 114
80 88 114
80 88 114
80 88 114
80 88 114
80 88 114
80 88 114
80 88 114
80 88 114
80 88 114
80 88 114
80 88 114
80 88 114
80 88 114
80 88 114
80 88 114
80 88 114
80 88 114
80 88 114
80 88 114
80 88 114
80 88 114
80 88 114
80 88 114
80 88 114
80 88 114
80 88 114
80 88 114
80 88 114
80 88 114
80 88 114
80 88 114
80 88 114
80 88 114
80 88 114
80 88 114
80 88 114
80 88 114
80 88 114
80 88 114
80 88 114
80 88 114
80 88 114
80 88 114
80 88 114
80 88 114
80 88 114
80 88 114
80 88 114
80 88 114
80 88 114
80 88 114
80 88 114
80 88 114
80 88 114
80 88 114
80 88 114
80 88 114
80 88 114
80 88 114
80 88 114
80 88 114
80 88 114
80 88 114
80 88 114
80 88 114
80 88 114
80 88 114
80 88 114
80 88 114
80 88 114
80 88 114
80 88 114
80 88 114
80 88 114
80 88 114
80 88 114
80 88 114
80 88 114
80 88 114
80 88 114
80 88 114
80 88 114
80 88 114
80 88 114
80 88 114
80 88 114
80 88 114
80 88 114
80 88 114
80 88 114
80 88 114
80 88 114
80 88 114
80 88 114
80 88 114
80 88 114
80 88 114
80 88 114
80 88 114
80 88 114
80 88 114
80 88 114
80 88 114
80 88 114
80 88 114
80 88 114
80 88 114
80 88 114
80 88 114
80 88 114
80 88 114
80 88 114
80 88 114
80 88 114
80 88 114
80 88 114
80 88 114
80 88 114
80 88 114
80 88 114
80 88 114
80 88 114
80 88 114
80 88 114
80 88 114
80 88 114
80 88 114
80 88 114
80 88 114
80 88 114
80 88 114
80 88 114
80 88 114
80 88 114
80 88 114
80 88 114
80 88 114
80 88 114
80 88 114
80 88 114
80 88 114
80 88 114
80 88 114
80 88 114
80 88 114
80 88 114
80 88 114
80 88 114
80 88 114
80 88 114
80 88 114
80 88 114
80 88 114
80 88 114
80 88 114
80 88 114
80 88 114
80 88 114
80 88 114
80 88 114
80 88 114
80 88 114
80 88 114
80 88 114
80 88 114
80 88 114
80 88 114
80 88 114
80 88 114
80 88 114
80 88 114
80 88 114
80 88 114
80 88 114
80 88 114
80 88 114
80 88 114
80 88 114
80 88 114
80 88 114
80 88 114
80 88 114
80 88 114
80 88 114
80 88 114
80 88 114
80 88 114
80 88 114
80 88 114
80 88 114
80 88 114
80 88 114
80 88 114
80 88 114
80 88 114
80 88 114
80 88 114
80 88 114
80 88 114
80 88 114
80 88 114
80 88 114
80 88 114
80 88 114
80 88 114
80 88 114
80 88 114
80 88 114
80 88 114
80 88 114
80 88 114
80 88 114
80 88 114
80 88 114
80 88 114
80 88 114
80 88 114
80 88 114
80 88 114
80 88 114
80 88 114
80 88 114
80 88 114
80 88 114
80 88 114
80 88 114
80 88 114
80 88 114
80 88 114
80 88 114
80 88 114
80 88 114
80 88 114
80 88 114
80 88 114
80 88 114
80 88 114
80 88 114
80 88 114
80 88 114
80 88 114
80 88 114
80 88 114
80 88 114
80 88 114
80 88 114
80 88 114
80 88 114
80 88 114
80 88 114
80 88 114
80 88 114
80 88 114
80 88 114
80 88 114
80 88 114
80 88 114
80 88 114
80 88 114
80 88 114
80 88 114
80 88 114
80 88 114
80 88 114
80 88 114
80 88 114
80 88 114
80 88 114
80 88 114
80 88 114
80 88 114
80 88 114
80 88 114
80 88 114
80 88 114
80 88 114
80 88 114
80 88 114
80 88 114
80 88 114
80 88 114
80 88 114
80 88 114
80 88 114
80 88 114
80 88 114
80 88 114
80 88 114
80 88 114
80 88 114
80 88 114
80 88 114
80 88 114
80 88 114
80 88 114
80 88 114
80 88 114
80 88 114
80 88 114
80 88 114
80 88 114
80 88 114
80 88 114
80 88 114
80 88 114
80 88 114
80 88 114
80 88 114
80 88 114
80 88 114
80 88 114
80 88 114
80 88 114
80 88 114
80 88 114
80 88 114
80 88 114
80 88 114
80 88 114
80 88 114
80 88 114
80 88 114
80 88 114
80 88 114
80 88 114
80 88 114
80 88 114
80 88 114
80 88 114
80 88 114
80 88 114
80 88 114
80 88 114
80 88 114
80 88 114
80 88 114
80 88 114
80 88 114
80 88 114
80 88 114
80 88 114
80 88 114
80 88 114
80 88 114
80 88 114
80 88 114
80 88 114
80 88 114
80 88 114
80 88 114
80 88 114
80 88 114
80 88 114
80 88 114
80 88 114
80 88 114
80 88 114
80 88 114
80 88 114
80 88 114
80 88 114
80 88 114
80 88 114
80 88 114
80 88 114
80 88 114
80 88 114
80 88 114
80 88 114
80 88 114
80 88 114
80 88 114
80 88 114
80 88 114
80 88 114
80 88 114
80 88 114
80 88 114
80 88 114
80 88 114
80 88 114
80 88 114
80 88 114
80 88 114
80 88 114
80 88 114
80 88 114
80 88 114
80 88 114
80 88 114
80 88 114
80 88 114
80 88 114
80 88 114
80 88 114
80 88 114
80 88 114
80 88 114
80 88 114
80 88 114
80 88 114
80 88 114
80 88 114
80 88 114
80 88 114
80 88 114
80 88 114
80 88 114
80 88 114
80 88 114
80 88 114
80 88 114
80 88 114
80 88 114
80 88 114
80 88 114
80 88 114
80 88 114
80 88 114
80 88 114
80 88 114
80 88 114
80 88 114
80 88 114
80 88 114
80 88 114
80 88 114
80 88 114
80 88 114
80 88 114
80 88 114
80 88 114
80 88 114
80 88 114
80 88 114
80 88 114
80 88 114
80 88 114
80 88 114
80 88 114
80 88 114
80 88 114
80 88 114
80 88 114
80 88 114
80 88 114
80 88 114
80 88 114
80 88 114
80 88 114
80 88 114
80 88 114
80 88 114
80 88 114
80 88 114
80 88 114
80 88 114
80 88 114
80 88 114
80 88 114
80 88 114
80 88 114
80 88 114
80 88 114
80 88 114
80 88 114
80 88 114
80 88 114
80 88 114
80 88 114
80 88 114
80 88 114
80 88 114
80 88 114
80 88 114
80 88 114
80 88 114
80 88 114
80 88 114
80 88 114
80 88 114
80 88 114
80 88 114
80 88 114
80 88 114
80 88 114
80 88 114
80 88 114
80 88 114
80 88 114
80 88 114
80 88 114
80 88 114
80 88 114
80 88 114
80 88 114
80 88 114
80 88 114
80 88 114
80 88 114
80 88 114
80 88 114
80 88 114
80 88 114
80 88 114
80 88 114
80 88 114
80 88 114
80 88 114
80 88 114
80 88 114
80 88 114
80 88 114
80 88 114
80 88 114
80 88 114
80 88 114
80 88 114
80 88 114
80 88 114
80 88 114
80 88 114
80 88 114
80 88 114
80 88 114
80 88 114
80 88 114
80 88 114
80 88 114
80 88 114
80 88 114
80 88 114
80 88 114
80 88 114
80 88 114
80 88 114
80 88 114
80 88 114
80 88 114
80 88 114
80 88 114
80 88 114
80 88 114
80 88 114
80 88 114
80 88 114
80 88 114
80 88 114
80 88 114
80 88 114
80 88 114
80 88 114
80 88 114
80 88 114
80 88 114
80 88 114
80 88 114
80 88 114
80 88 114
80 88 114
80 88 114
80 88 114
80 88 114
80 88 114
80 88 114
80 88 114
80 88 114
80 88 114
80 88 114
80 88 114
80 88 114
80 88 114
80 88 114
80 88 114
80 88 114
80 88 114
80 88 114
80 88 114
80 88 114
80 88 114
80 88 114
80 88 114
80 88 114
80 88 114
80 88 114
80 88 114
80 88 114
80 88 114
80 88 114
80 88 114
80 88 114
80 88 114
80 88 114
80 88 114
80 88 114
80 88 114
80 88 114
80 88 114
80 88 114
80 88 114
80 88 114
80 88 114
80 88 114
80 88 114
80 88 114
80 88 114
80 88 114
80 88 114
80 88 114
80 88 114
80 88 114
80 88 114
80 88 114
80 88 114
80 88 114
80 88 114
80 88 114
80 88 114
80 88 114
80 88 114
80 88 114
80 88 114
80 88 114
80 88 114
80 88 114
80 88 114
80 88 114
80 88 114
80 88 114
80 88 114
80 88 114
80 88 114
80 88 114
80 88 114
80 88 114
80 88 114
80 88 114
80 88 114
80 88 114
80 88 114
80 88 114
80 88 114
80 88 114
80 88 114
80 88 114
80 88 114
80 88 114
80 88 114
80 88 114
80 88 114
80 88 114
80 88 114
80 88 114
80 88 114
80 88 114
80 88 114
80 88 114
80 88 114
80 88 114
80 88 114
80 88 114
80 88 114
80 88 114
80 88 114
80 88 114
80 88 114
80 88 114
80 88 114
80 88 114
80 88 114
80 88 114
80 88 114
80 88 114
80 88 114
80 88 114
80 88 114
80 88 114
80 88 114
80 88 114
80 88 114
80 88 114
80 88 114
80 88 114
80 88 114
80 88 114
80 88 114
80 88 114
80 88 114
80 88 114
80 88 114
80 88 114
80 88 114
80 88 114
80 88 114
80 88 114
80 88 114
80 88 114
80 88 114
80 88 114
80 88 114
80 88 114
80 88 114
80 88 114
80 88 114
80 88 114
80 88 114
80 88 114
80 88 114
80 88 114
80 88 114
80 88 114
80 88 114
80 88 114
80 88 114
80 88 114
80 88 114
80 88 114
80 88 114
80 88 114
80 88 114
80 88 114
80 88 114
80 88 114
80 88 114
80 88 114
80 88 114
80 88 114
80 88 114
80 88 114
80 88 114
80 88 114
80 88 114
80 88 114
80 88 114
80 88 114
80 88 114
80 88 114
80 88 114
80 88 114
80 88 114
80 88 114
80 88 114
80 88 114
80 88 114
80 88 114
80 88 114
80 88 114
80 88 114
80 88 114
80 88 114
80 88 114
80 88 114
80 88 114
80 88 114
80 88 114
80 88 114
80 88 114
80 88 114
80 88 114
80 88 114
80 88 114
80 88 114
80 88 114
80 88 114
80 88 114
80 88 114
80 88 114
80 88 114
80 88 114
80 88 114
80 88 114
80 88 114
80 88 114
80 88 114
80 88 114
80 88 114
80 88 114
80 88 114
80 88 114
80 88 114
80 88 114
80 88 114
80 88 114
80 88 114
80 88 114
80 88 114
80 88 114
80 88 114
80 88 114
80 88 114
80 88 114
80 88 114
80 88 114
80 88 114
80 88 114
80 88 114
80 88 114
80 88 114
80 88 114
80 88 114
80 88 114
80 88 114
80 88 114
80 88 114
80 88 114
80 88 114
80 88 114
80 88 114
80 88 114
80 88 114
80 88 114
80 88 114
80 88 114
80 88 114
80 88 114
80 88 114
80 88 114
80 88 114
80 88 114
80 88 114
80 88 114
80 88 114
80 88 114
80 88 114
80 88 114
80 88 114
80 88 114
80 88 114
80 88 114
80 88 114
80 88 114
80 88 114
80 88 114
80 88 114
80 88 114
80 88 114
80 88 114
80 88 114
80 88 114
80 88 114
80 88 114
80 88 114
80 88 114
80 88 114
80 88 114
80 88 114
80 88 114
80 88 114
80 88 114
80 88 114
80 88 114
80 88 114
80 88 114
80 88 114
80 88 114
80 88 114
80 88 114
80 88 114
80 88 114
80 88 114
80 88 114
80 88 114
80 88 114
80 88 114
80 88 114
80 88 114
80 88 114
80 88 114
80 88 114
80 88 114
80 88 114
80 88 114
80 88 114
80 88 114
80 88 114
80 88 114
80 88 114
80 88 114
80 88 114
80 88 114
80 88 114
80 88 114
80 88 114
80 88 114
80 88 114
80 88 114
80 88 114
80 88 114
80 88 114
80 88 114
80 88 114
80 88 114
80 88 114
80 88 114
80 88 114
80 88 114
80 88 114
80 88 114
80 88 114
80 88 114
80 88 114
80 88 114
80 88 114
80 88 114
80 88 114
80 88 114
80 88 114
80 88 114
80 88 114
80 88 114
80 88 114
80 88 114
80 88 114
80 88 114
80 88 114
80 88 114
80 88 114
80 88 114
80 88 114
80 88 114
80 88 114
80 88 114
80 88 114
80 88 114
80 88 114
80 88 114
80 88 114
80 88 114
80 88 114
80 88 114
80 88 114
80 88 114
80 88 114
80 88 114
80 88 114
80 88 114
80 88 114
80 88 114
80 88 114
80 88 114
80 88 114
80 88 114
80 88 114
80 88 114
80 88 114
80 88 114
80 88 114
80 88 114
80 88 114
80 88 114
80 88 114
80 88 114
80 88 114
80 88 114
80 88 114
80 88 114
80 88 114
80 88 114
80 88 114
80 88 114
80 88 114
80 88 114
80 88 114
80 88 114
80 88 114
80 88 114
80 88 114
80 88 114
80 88 114
80 88 114
80 88 114
80 88 114
80 88 114
80 88 114
80 88 114
80 88 114
80 88 114
80 88 114
80 88 114
80 88 114
80 88 114
80 88 114
80 88 114
80 88 114
80 88 114
80 88 114
80 88 114
80 88 114
80 88 114
80 88 114
80 88 114
80 88 114
80 88 114
80 88 114
80 88 114
80 88 114
80 88 114
80 88 114
80 88 114
80 88 114
80 88 114
80 88 114
80 88 114
80 88 114
80 88 114
80 88 114
80 88 114
80 88 114
80 88 114
80 88 114
80 88 114
80 88 114
80 88 114
80 88 114
80 88 114
80 88 114
80 88 114
80 88 114
80 88 114
80 88 114
80 88 114
80 88 114
80 88 114
80 88 114
80 88 114
80 88 114
80 88 114
80 88 114
80 88 114
80 88 114
80 88 114
80 88 114
80 88 114
80 88 114
80 88 114
80 88 114
80 88 114
80 88 114
80 88 114
80 88 114
80 88 114
80 88 114
80 88 114
80 88 114
80 88 114
80 88 114
80 88 114
80 88 114
80 88 114
80 88 114
80 88 114
80 88 114
80 88 114
80 88 114
80 88 114
80 88 114
80 88 114
80 88 114
80 88 114
80 88 114
80 88 114
80 88 114
80 88 114
80 88 114
80 88 114
80 88 114
80 88 114
80 88 114
80 88 114
80 88 114
80 88 114
80 88 114
80 88 114
80 88 114
80 88 114
80 88 114
80 88 114
80 88 114
80 88 114
80 88 114
80 88 114
80 88 114
80 88 114
80 88 114
80 88 114
80 88 114
80 88 114
80 88 114
80 88 114
80 88 114
80 88 114
80 88 114
80 88 114
80 88 114
80 88 114
80 88 114
80 88 114
80 88 114
80 88 114
80 88 114
80 88 114
80 88 114
80 88 114
80 88 114
80 88 114
80 88 114
80 88 114
80 88 114
80 88 114
80 88 114
80 88 114
80 88 114
80 88 114
80 88 114
80 88 114
80 88 114
80 88 114
80 88 114
80 88 114
80 88 114
80 88 114
80 88 114
80 88 114
80 88 114
80 88 114
80 88 114
80 88 114
80 88 114
80 88 114
80 88 114
80 88 114
80 88 114
80 88 114
80 88 114
80 88 114
80 88 114
80 88 114
80 88 114
80 88 114
80 88 114
80 88 114
80 88 114
80 88 114
80 88 114
80 88 114
80 88 114
80 88 114
80 88 114
80 88 114
80 88 114
80 88 114
80 88 114
80 88 114
80 88 114
80 88 114
80 88 114
80 88 114
80 88 114
80 88 114
80 88 114
80 88 114
80 88 114
80 88 114
80 88 114
80 88 114
80 88 114
80 88 114
80 88 114
80 88 114
80 88 114
80 88 114
80 88 114
80 88 114
80 88 114
80 88 114
80 88 114
80 88 114
80 88 114
80 88 114
80 88 114
80 88 114
80 88 114
80 88 114
80 88 114
80 88 114
80 88 114
80 88 114
80 88 114
80 88 114
80 88 114
80 88 114
80 88 114
80 88 114
80 88 114
80 88 114
80 88 114
80 88 114
80 88 114
80 88 114
80 88 114
80 88 114
80 88 114
80 88 114
80 88 114
80 88 114
80 88 114
80 88 114
80 88 114
80 88 114
80 88 114
80 88 114
80 88 114
80 88 114
80 88 114
80 88 114
80 88 114
80 88 114
80 88 114
80 88 114
80 88 114
80 88 114
80 88 114
80 88 114
80 88 114
80 88 114
80 88 114
80 88 114
80 88 114
80 88 114
80 88 114
80 88 114
80 88 114
80 88 114
80 88 114
80 88 114
80 88 114
80 88 114
80 88 114
80 88 114
80 88 114
80 88 114
80 88 114
80 88 114
80 88 114
80 88 114
80 88 114
80 88 114
80 88 114
80 88 114
80 88 114
80 88 114
80 88 114
80 88 114
80 88 114
80 88 114
80 88 114
80 88 114
80 88 114
80 88 114
80 88 114
80 88 114
80 88 114
80 88 114
80 88 114
80 88 114
80 88 114
80 88 114
80 88 114
80 88 114
80 88 114
80 88 114
80 88 114
80 88 114
80 88 114
80 88 114
80 88 114
80 88 114
80 88 114
80 88 114
80 88 114
80 88 114
80 88 114
80 88 114
80 88 114
80 88 114
80 88 114
80 88 114
80 88 114
80 88 114
80 88 114
80 88 114
80 88 114
80 88 114
80 88 114
80 88 114
80 88 114
80 88 114
80 88 114
80 88 114
80 88 114
80 88 114
80 88 114
80 88 114
80 88 114
80 88 114
80 88 114
80 88 114
80 88 114
80 88 114
80 88 114
80 88 114
80 88 114
80 88 114
80 88 114
80 88 114
80 88 114
80 88 114
80 88 114
80 88 114
80 88 114
80 88 114
80 88 114
80 88 114
80 88 114
80 88 114
80 88 114
80 88 114
80 88 114
80 88 114
80 88 114
80 88 114
80 88 114
80 88 114
80 88 114
80 88 114
80 88 114
80 88 114
80 88 114
80 88 114
80 88 114
80 88 114
80 88 114
80 88 114
80 88 114
80 88 114
80 88 114
80 88 114
80 88 114
80 88 114
80 88 114
80 88 114
80 88 114
80 88 114
80 88 114
80 88 114
80 88 114
80 88 114
80 88 114
80 88 114
80 88 114
80 88 114
80 88 114
80 88 114
80 88 114
80 88 114
80 88 114
80 88 114
80 88 114
80 88 114
80 88 114
80 88 114
80 88 114
80 88 114
80 88 114
80 88 114
80 88 114
80 88 114
80 88 114
80 88 114
80 88 114
80 88 114
80 88 114
80 88 114
80 88 114
80 88 114
80 88 114
80 88 114
80 88 114
80 88 114
80 88 114
80 88 114
80 88 114
80 88 114
80 88 114
80 88 114
80 88 114
80 88 114
80 88 114
80 88 114
80 88 114
80 88 114
80 88 114
80 88 114
80 88 114
80 88 114
80 88 114
80 88 114
80 88 114
80 88 114
80 88 114
80 88 114
80 88 114
80 88 114
80 88 114
80 88 114
80 88 114
80 88 114
80 88 114
80 88 114
80 88 114
80 88 114
80 88 114
80 88 114
80 88 114
80 88 114
80 88 114
80 88 114
80 88 114
80 88 114
80 88 114
80 88 114
80 88 114
80 88 114
80 88 114
80 88 114
80 88 114
80 88 114
80 88 114
80 88 114
80 88 114
80 88 114
80 88 114
80 88 114
80 88 114
80 88 114
80 88 114
80 88 114
80 88 114
80 88 114
80 88 114
80 88 114
80 88 114
80 88 114
80 88 114
80 88 114
80 88 114
80 88 114
80 88 114
80 88 114
80 88 114
80 88 114
80 88 114
80 88 114
80 88 114
80 88 114
80 88 114
80 88 114
80 88 114
80 88 114
80 88 114
80 88 114
80 88 114
80 88 114
80 88 114
80 88 114
80 88 114
80 88 114
80 88 114
80 88 114
80 88 114
80 88 114
80 88 114
80 88 114
80 88 114
80 88 114
80 88 114
80 88 114
80 88 114
80 88 114
80 88 114
80 88 114
80 88 114
80 88 114
80 88 114
80 88 114
80 88 114
80 88 114
80 88 114
80 88 114
80 88 114
80 88 114
80 88 114
80 88 114
80 88 114
80 88 114
80 88 114
80 88 114
80 88 114
80 88 114
80 88 114
80 88 114
80 88 114
80 88 114
80 88 114
80 88 114
80 88 114
80 88 114
80 88 114
80 88 114
80 88 114
80 88 114
80 88 114
80 88 114
80 88 114
80 88 114
80 88 114
80 88 114
80 88 114
80 88 114
80 88 114
80 88 114
80 88 114
80 88 114
80 88 114
80 88 114
80 88 114
80 88 114
80 88 114
80 88 114
80 88 114
80 88 114
80 88 114
80 88 114
80 88 114
80 88 114
80 88 114
80 88 114
80 88 114
80 88 114
80 88 114
80 88 114
80 88 114
80 88 114
80 88 114
80 88 114
80 88 114
80 88 114
80 88 114
80 88 114
80 88 114
80 88 114
80 88 114
80 88 114
80 88 114
80 88 114
80 88 114
80 88 114
80 88 114
80 88 114
80 88 114
80 88 114
80 88 114
80 88 114
80 88 114
80 88 114
80 88 114
80 88 114
80 88 114
80 88 114
80 88 114
80 88 114
80 88 114
80 88 114
80 88 114
80 88 114
80 88 114
80 88 114
80 88 114
80 88 114
80 88 114
80 88 114
80 88 114
80 88 114
80 88 114
80 88 114
80 88 114
80 88 114
80 88 114
80 88 114
80 88 114
80 88 114
80 88 114
80 88 114
80 88 114
80 88 114
80 88 114
80 88 114
80 88 114
80 88 114
80 88 114
80 88 114
80 88 114
80 88 114
80 88 114
80 88 114
80 88 114
80 88 114
80 88 114
80 88 114
80 88 114
80 88 114
80 88 114
80 88 114
80 88 114
80 88 114
80 88 114
80 88 114
80 88 114
80 88 114
80 88 114
80 88 114
80 88 114
80 88 114
80 88 114
80 88 114
80 88 114
80 88 114
80 88 114
80 88 114
80 88 114
80 88 114
80 88 114
80 88 114
80 88 114
80 88 114
80 88 114
80 88 114
80 88 114
80 88 114
80 88 114
80 88 114
80 88 114
80 88 114
80 88 114
80 88 114
80 88 114
80 88 114
80 88 114
80 88 114
80 88 114
80 88 114
80 88 114
80 88 114
80 88 114
80 88 114
80 88 114
80 88 114
80 88 114
80 88 114
80 88 114
80 88 114
80 88 114
80 88 114
80 88 114
80 88 114
80 88 114
80 88 114
80 88 114
80 88 114
80 88 114
80 88 114
80 88 114
80 88 114
80 88 114
80 88 114
80 88 114
80 88 114
80 88 114
80 88 114
80 88 114
80 88 114
80 88 114
80 88 114
80 88 114
80 88 114
80 88 114
80 88 114
80 88 114
80 88 114
80 88 114
80 88 114
80 88 114
80 88 114
80 88 114
80 88 114
80 88 114
80 88 114
80 88 114
80 88 114
80 88 114
80 88 114
80 88 114
80 88 114
80 88 114
80 88 114
80 88 114
80 88 114
80 88 114
80 88 114
80 88 114
80 88 114
80 88 114
80 88 114
80 88 114
80 88 114
80 88 114
80 88 114
80 88 114
80 88 114
80 88 114
80 88 114
80 88 114
80 88 114
80 88 114
80 88 114
80 88 114
80 88 114
80 88 114
80 88 114
80 88 114
80 88 114
80 88 114
80 88 114
80 88 114
80 88 114
80 88 114
80 88 114
80 88 114
80 88 114
80 88 114
80 88 114
80 88 114
80 88 114
80 88 114
80 88 114
80 88 114
80 88 114
80 88 114
80 88 114
80 88 114
80 88 114
80 88 114
80 88 114
80 88 114
80 88 114
80 88 114
80 88 114
80 88 114
80 88 114
80 88 114
80 88 114
80 88 114
80 88 114
80 88 114
80 88 114
80 88 114
80 88 114
80 88 114
80 88 114
80 88 114
80 88 114
80 88 114
80 88 114
80 88 114
80 88 114
80 88 114
80 88 114
80 88 114
80 88 114
80 88 114
80 88 114
80 88 114
80 88 114
80 88 114
80 88 114
80 88 114
80 88 114
80 88 114
80 88 114
80 88 114
80 88 114
80 88 114
80 88 114
80 88 114
80 88 114
80 88 114
80 88 114
80 88 114
80 88 114
80 88 114
80 88 114
80 88 114
80 88 114
80 88 114
80 88 114
80 88 114
80 88 114
80 88 114
80 88 114
80 88 114
80 88 114
80 88 114
80 88 114
80 88 114
80 88 114
80 88 114
80 88 114
80 88 114
80 88 114
80 88 114
80 88 114
80 88 114
80 88 114
80 88 114
80 88 114
80 88 114
80 88 114
80 88 114
80 88 114
80 88 114
80 88 114
80 88 114
80 88 114
80 88 114
80 88 114
80 88 114
80 88 114
80 88 114
80 88 114
80 88 114
80 88 114
80 88 114
80 88 114
80 88 114
80 88 114
80 88 114
80 88 114
80 88 114
80 88 114
80 88 114
80 88 114
80 88 114
80 88 114
80 88 114
80 88 114
80 88 114
80 88 114
80 88 114
80 88 114
80 88 114
80 88 114
80 88 114
80 88 114
80 88 114
80 88 114
80 88 114
80 88 114
80 88 114
80 88 114
80 88 114
80 88 114
80 88 114
80 88 114
80 88 114
80 88 114
80 88 114
80 88 114
80 88 114
80 88 114
80 88 114
80 88 114
80 88 114
80 88 114
80 88 114
80 88 114
80 88 114
80 88 114
80 88 114
80 88 114
80 88 114
80 88 114
80 88 114
80 88 114
80 88 114
80 88 114
80 88 114
80 88 114
80 88 114
80 88 114
80 88 114
80 88 114
80 88 114
80 88 114
80 88 114
80 88 114
80 88 114
80 88 114
80 88 114
80 88 114
80 88 114
80 88 114
80 88 114
80 88 114
80 88 114
80 88 114
80 88 114
80 88 114
80 88 114
80 88 114
80 88 114
80 88 114
80 88 114
80 88 114
80 88 114
80 88 114
80 88 114
80 88 114
80 88 114
80 88 114
80 88 114
80 88 114
80 88 114
80 88 114
80 88 114
80 88 114
80 88 114
80 88 114
80 88 114
80 88 114
80 88 114
80 88 114
80 88 114
80 88 114
80 88 114
80 88 114
80 88 114
80 88 114
80 88 114
80 88 114
80 88 114
80 88 114
80 88 114
80 88 114
80 88 114
80 88 114
80 88 114
80 88 114
80 88 114
80 88 114
80 88 114
80 88 114
80 88 114
80 88 114
80 88 114
80 88 114
80 88 114
80 88 114
80 88 114
80 88 114
80 88 114
80 88 114
80 88 114
80 88 114
80 88 114
80 88 114
80 88 114
80 88 114
80 88 114
80 88 114
80 88 114
80 88 114
80 88 114
80 88 114
80 88 114
80 88 114
80 88 114
80 88 114
80 88 114
80 88 114
80 88 114
80 88 114
80 88 114
80 88 114
80 88 114
80 88 114
80 88 114
80 88 114
80 88 114
80 88 114
80 88 114
80 88 114
80 88 114
80 88 114
80 88 114
80 88 114
80 88 114
80 88 114
80 88 114
80 88 114
80 88 114
80 88 114
80 88 114
80 88 114
80 88 114
80 88 114
80 88 114
80 88 114
80 88 114
80 88 114
80 88 114
80 88 114
80 88 114
80 88 114
80 88 114
80 88 114
80 88 114
80 88 114
80 88 114
80 88 114
80 88 114
80 88 114
80 88 114
80 88 114
80 88 114
80 88 114
80 88 114
80 88 114
80 88 114
80 88 114
80 88 114
80 88 114
80 88 114
80 88 114
80 88 114
80 88 114
80 88 114
80 88 114
80 88 114
80 88 114
80 88 114
80 88 114
80 88 114
80 88 114
80 88 114
80 88 114
80 88 114
80 88 114
80 88 114
80 88 114
80 88 114
80 88 114
80 88 114
80 88 114
80 88 114
80 88 114
80 88 114
80 88 114
80 88 114
80 88 114
80 88 114
80 88 114
80 88 114
80 88 114
80 88 114
80 88 114
80 88 114
80 88 114
80 88 114
80 88 114
80 88 114
80 88 114
80 88 114
80 88 114
80 88 114
80 88 114
80 88 114
80 88 114
80 88 114
80 88 114
80 88 114
80 88 114
80 88 114
80 88 114
80 88 114
80 88 114
80 88 114
80 88 114
80 88 114
80 88 114
80 88 114
80 88 114
80 88 114
80 88 114
80 88 114
80 88 114
80 88 114
80 88 114
80 88 114
80 88 114
80 88 114
80 88 114
80 88 114
80 88 114
80 88 114
80 88 114
80 88 114
80 88 114
80 88 114
80 88 114
80 88 114
80 88 114
80 88 114
80 88 114
80 88 114
80 88 114
80 88 114
80 88 114
80 88 114
80 88 114
80 88 114
80 88 114
80 88 114
80 88 114
80 88 114
80 88 114
80 88 114
80 88 114
80 88 114
80 88 114
80 88 114
80 88 114
80 88 114
80 88 114
80 88 114
80 88 114
80 88 114
80 88 114
80 88 114
80 88 114
80 88 114
80 88 114
80 88 114
80 88 114
80 88 114
80 88 114
80 88 114
80 88 114
80 88 114
80 88 114
80 88 114
80 88 114
80 88 114
80 88 114
80 88 114
80 88 114
80 88 114
80 88 114
80 88 114
80 88 114
80 88 114
80 88 114
80 88 114
80 88 114
80 88 114
80 88 114
80 88 114
80 88 114
80 88 114
80 88 114
80 88 114
80 88 114
80 88 114
80 88 114
80 88 114
80 88 114
80 88 114
80 88 114
80 88 114
80 88 114
80 88 114
80 88 114
80 88 114
80 88 114
80 88 114
80 88 114
80 88 114
80 88 114
80 88 114
80 88 114
80 88 114
80 88 114
80 88 114
80 88 114
80 88 114
80 88 114
80 88 114
80 88 114
80 88 114
80 88 114
80 88 114
80 88 114
80 88 114
80 88 114
80 88 114
80 88 114
80 88 114
80 88 114
80 88 114
80 88 114
80 88 114
80 88 114
80 88 114
80 88 114
80 88 114
80 88 114
80 88 114
80 88 114
80 88 114
80 88 114
80 88 114
80 88 114
80 88 114
80 88 114
80 88 114
80 88 114
80 88 114
80 88 114
80 88 114
80 88 114
80 88 114
80 88 114
80 88 114
80 88 114
80 88 114
80 88 114
80 88 114
80 88 114
80 88 114
80 88 114
80 88 114
80 88 114
80 88 114
80 88 114
80 88 114
80 88 114
80 88 114
80 88 114
80 88 114
80 88 114
80 88 114
80 88 114
80 88 114
80 88 114
80 88 114
80 88 114
80 88 114
80 88 114
80 88 114
80 88 114
80 88 114
80 88 114
80 88 114
80 88 114
80 88 114
80 88 114
80 88 114
80 88 114
80 88 114
80 88 114
80 88 114
80 88 114
80 88 114
80 88 114
80 88 114
80 88 114
80 88 114
80 88 114
80 88 114
80 88 114
80 88 114
80 88 114
80 88 114
80 88 114
80 88 114
80 88 114
80 88 114
80 88 114
80 88 114
80 88 114
80 88 114
80 88 114
80 88 114
80 88 114
80 88 114
80 88 114
80 88 114
80 88 114
80 88 114
80 88 114
80 88 114
80 88 114
80 88 114
80 88 114
80 88 114
80 88 114
80 88 114
80 88 114
80 88 114
80 88 114
80 88 114
80 88 114
80 88 114
80 88 114
80 88 114
80 88 114
80 88 114
80 88 114
80 88 114
80 88 114
80 88 114
80 88 114
80 88 114
80 88 114
80 88 114
80 88 114
80 88 114
80 88 114
80 88 114
80 88 114
80 88 114
80 88 114
80 88 114
80 88 114
80 88 114
80 88 114
80 88 114
80 88 114
80 88 114
80 88 114
80 88 114
80 88 114
80 88 114
80 88 114
80 88 114
80 88 114
80 88 114
80 88 114
80 88 114
80 88 114
80 88 114
80 88 114
80 88 114
80 88 114
80 88 114
80 88 114
80 88 114
80 88 114
80 88 114
80 88 114
80 88 114
80 88 114
80 88 114
80 88 114
80 88 114
80 88 114
80 88 114
80 88 114
80 88 114
80 88 114
80 88 114
80 88 114
80 88 114
80 88 114
80 88 114
80 88 114
80 88 114
80 88 114
80 88 114
80 88 114
80 88 114
80 88 114
80 88 114
80 88 114
80 88 114
80 88 114
80 88 114
80 88 114
80 88 114
80 88 114
80 88 114
80 88 114
80 88 114
80 88 114
80 88 114
80 88 114
80 88 114
80 88 114
80 88 114
80 88 114
80 88 114
80 88 114
80 88 114
80 88 114
80 88 114
80 88 114
80 88 114
80 88 114
80 88 114
80 88 114
80 88 114
80 88 114
80 88 114
80 88 114
80 88 114
80 88 114
80 88 114
80 88 114
80 88 114
80 88 114
80 88 114
80 88 114
80 88 114
80 88 114
80 88 114
80 88 114
80 88 114
80 88 114
80 88 114
80 88 114
80 88 114
80 88 114
80 88 114
80 88 114
80 88 114
80 88 114
80 88 114
80 88 114
80 88 114
80 88 114
80 88 114
80 88 114
80 88 114
80 88 114
80 88 114
80 88 114
80 88 114
80 88 114
80 88 114
80 88 114
80 88 114
80 88 114
80 88 114
80 88 114
80 88 114
80 88 114
80 88 114
80 88 114
80 88 114
80 88 114
80 88 114
80 88 114
80 88 114
80 88 114
80 88 114
80 88 114
80 88 114
80 88 114
80 88 114
80 88 114
80 88 114
80 88 114
80 88 114
80 88 114
80 88 114
80 88 114
80 88 114
80 88 114
80 88 114
80 88 114
80 88 114
80 88 114
80 88 114
80 88 114
80 88 114
80 88 114
80 88 114
80 88 114
80 88 114
80 88 114
80 88 114
80 88 114
80 88 114
80 88 114
80 88 114
80 88 114
80 88 114
80 88 114
80 88 114
80 88 114
80 88 114
80 88 114
80 88 114
80 88 114
80 88 114
80 88 114
80 88 114
80 88 114
80 88 114
80 88 114
80 88 114
80 88 114
80 88 114
80 88 114
80 88 114
80 88 114
80 88 114
80 88 114
80 88 114
80 88 114
80 88 114
80 88 114
80 88 114
80 88 114
80 88 114
80 88 114
80 88 114
80 88 114
80 88 114
80 88 114
80 88 114
80 88 114
80 88 114
80 88 114
80 88 114
80 88 114
80 88 114
80 88 114
80 88 114
80 88 114
80 88 114
80 88 114
80 88 114
80 88 114
80 88 114
80 88 114
80 88 114
80 88 114
80 88 114
80 88 114
80 88 114
80 88 114
80 88 114
80 88 114
80 88 114
80 88 114
80 88 114
80 88 114
80 88 114
80 88 114
80 88 114
80 88 114
80 88 114
80 88 114
80 88 114
80 88 114
80 88 114
80 88 114
80 88 114
80 88 114
80 88 114
80 88 114
80 88 114
80 88 114
80 88 114
80 88 114
80 88 114
80 88 114
80 88 114
80 88 114
80 88 114
80 88 114
80 88 114
80 88 114
80 88 114
80 88 114
80 88 114
80 88 114
80 88 114
80 88 114
80 88 114
80 88 114
80 88 114
80 88 114
80 88 114
80 88 114
80 88 114
80 88 114
80 88 114
80 88 114
80 88 114
80 88 114
80 88 114
80 88 114
80 88 114
80 88 114
80 88 114
80 88 114
80 88 114
80 88 114
80 88 114
80 88 114
80 88 114
80 88 114
80 88 114
80 88 114
80 88 114
80 88 114
80 88 114
80 88 114
80 88 114
80 88 114
80 88 114
80 88 114
80 88 114
80 88 114
80 88 114
80 88 114
80 88 114
80 88 114
80 88 114
80 88 114
80 88 114
80 88 114
80 88 114
80 88 114
80 88 114
80 88 114
80 88 114
80 88 114
80 88 114
80 88 114
80 88 114
80 88 114
80 88 114
80 88 114
80 88 114
80 88 114
80 88 114
80 88 114
80 88 114
80 88 114
80 88 114
80 88 114
80 88 114
80 88 114
80 88 114
80 88 114
80 88 114
80 88 114
80 88 114
80 88 114
80 88 114
80 88 114
80 88 114
80 88 114
80 88 114
80 88 114
80 88 114
80 88 114
80 88 114
80 88 114
80 88 114
80 88 114
80 88 114
80 88 114
80 88 114
80 88 114
80 88 114
80 88 114
80 88 114
80 88 114
80 88 114
80 88 114
80 88 114
80 88 114
80 88 114
80 88 114
80 88 114
80 88 114
80 88 114
80 88 114
80 88 114
80 88 114
80 88 114
80 88 114
80 88 114
80 88 114
80 88 114
80 88 114
80 88 114
80 88 114
80 88 114
80 88 114
80 88 114
80 88 114
80 88 114
80 88 114
80 88 114
80 88 114
80 88 114
80 88 114
80 88 114
80 88 114
80 88 114
80 88 114
80 88 114
80 88 114
80 88 114
80 88 114
80 88 114
80 88 114
80 88 114
80 88 114
80 88 114
80 88 114
80 88 114
80 88 114
80 88 114
80 88 114
80 88 114
80 88 114
80 88 114
80 88 114
80 88 114
80 88 114
80 88 114
80 88 114
80 88 114
80 88 114
80 88 114
80 88 114
80 88 114
80 88 114
80 88 114
80 88 114
80 88 114
80 88 114
80 88 114
80 88 114
80 88 114
80 88 114
80 88 114
80 88 114
80 88 114
80 88 114
80 88 114
80 88 114
80 88 114
80 88 114
80 88 114
80 88 114
80 88 114
80 88 114
80 88 114
80 88 114
80 88 114
80 88 114
80 88 114
80 88 114
80 88 114
80 88 114
80 88 114
80 88 114
80 88 114
80 88 114
80 88 114
80 88 114
80 88 114
80 88 114
80 88 114
80 88 114
80 88 114
80 88 114
80 88 114
80 88 114
80 88 114
80 88 114
80 88 114
80 88 114
80 88 114
80 88 114
80 88 114
80 88 114
80 88 114
80 88 114
80 88 114
80 88 114
80 88 114
80 88 114
80 88 114
80 88 114
80 88 114
80 88 114
80 88 114
80 88 114
80 88 114
80 88 114
80 88 114
80 88 114
80 88 114
80 88 114
80 88 114
80 88 114
80 88 114
80 88 114
80 88 114
80 88 114
80 88 114
80 88 114
80 88 114
80 88 114
80 88 114
80 88 114
80 88 114
80 88 114
80 88 114
80 88 114
80 88 114
80 88 114
80 88 114
80 88 114
80 88 114
80 88 114
80 88 114
80 88 114
80 88 114
80 88 114
80 88 114
80 88 114
80 88 114
80 88 114
80 88 114
80 88 114
80 88 114
80 88 114
80 88 114
80 88 114
80 88 114
80 88 114
80 88 114
80 88 114
80 88 114
80 88 114
80 88 114
80 88 114
80 88 114
80 88 114
80 88 114
80 88 114
80 88 114
80 88 114
80 88 114
80 88 114
80 88 114
80 88 114
80 88 114
80 88 114
80 88 114
80 88 114
80 88 114
80 88 114
80 88 114
80 88 114
80 88 114
80 88 114
80 88 114
80 88 114
80 88 114
80 88 114
80 88 114
80 88 114
80 88 114
80 88 114
80 88 114
80 88 114
80 88 114
80 88 114
80 88 114
80 88 114
80 88 114
80 88 114
80 88 114
80 88 114
80 88 114
80 88 114
80 88 114
80 88 114
80 88 114
80 88 114
80 88 114
80 88 114
80 88 114
80 88 114
80 88 114
80 88 114
80 88 114
80 88 114
80 88 114
80 88 114
80 88 114
80 88 114
80 88 114
80 88 114
80 88 114
80 88 114
80 88 114
80 88 114
80 88 114
80 88 114
80 88 114
80 88 114
80 88 114
80 88 114
80 88 114
80 88 114
80 88 114
80 88 114
80 88 114
80 88 114
80 88 114
80 88 114
80 88 114
80 88 114
80 88 114
80 88 114
80 88 114
80 88 114
80 88 114
80 88 114
80 88 114
80 88 114
80 88 114
80 88 114
80 88 114
80 88 114
80 88 114
80 88 114
80 88 114
80 88 114
80 88 114
80 88 114
80 88 114
80 88 114
80 88 114
80 88 114
80 88 114
80 88 114
80 88 114
80 88 114
80 88 114
80 88 114
80 88 114
80 88 114
80 88 114
80 88 114
80 88 114
80 88 114
80 88 114
80 88 114
80 88 114
80 88 114
80 88 114
80 88 114
80 88 114
80 88 114
80 88 114
80 88 114
80 88 114
80 88 114
80 88 114
80 88 114
80 88 114
80 88 114
80 88 114
80 88 114
80 88 114
80 88 114
80 88 114
80 88 114
80 88 114
80 88 114
80 88 114
80 88 114
80 88 114
80 88 114
80 88 114
80 88 114
80 88 114
80 88 114
80 88 114
80 88 114
80 88 114
80 88 114
80 88 114
80 88 114
80 88 114
80 88 114
80 88 114
80 88 114
80 88 114
80 88 114
80 88 114
80 88 114
80 88 114
80 88 114
80 88 114
80 88 114
80 88 114
80 88 114
80 88 114
80 88 114
80 88 114
80 88 114
80 88 114
80 88 114
80 88 114
80 88 114
80 88 114
80 88 114
80 88 114
80 88 114
80 88 114
80 88 114
80 88 114
80 88 114
80 88 114
80 88 114
80 88 114
80 88 114
80 88 114
80 88 114
80 88 114
80 88 114
80 88 114
80 88 114
80 88 114
80 88 114
80 88 114
80 88 114
80 88 114
80 88 114
80 88 114
80 88 114
80 88 114
80 88 114
80 88 114
80 88 114
80 88 114
80 88 114
80 88 114
80 88 114
80 88 114
80 88 114
80 88 114
80 88 114
80 88 114
80 88 114
80 88 114
80 88 114
80 88 114
80 88 114
80 88 114
80 88 114
80 88 114
80 88 114
80 88 114
80 88 114
80 88 114
80 88 114
80 88 114
80 88 114
80 88 114
80 88 114
80 88 114
80 88 114
80 88 114
80 88 114
80 88 114
80 88 114
80 88 114
80 88 114
80 88 114
80 88 114
80 88 114
80 88 114
80 88 114
80 88 114
80 88 114
80 88 114
80 88 114
80 88 114
80 88 114
80 88 114
80 88 114
80 88 114
80 88 114
80 88 114
80 88 114
80 88 114
80 88 114
80 88 114
80 88 114
80 88 114
80 88 114
80 88 114
80 88 114
80 88 114
80 88 114
80 88 114
80 88 114
80 88 114
80 88 114
80 88 114
80 88 114
80 88 114
80 88 114
80 88 114
80 88 114
80 88 114
80 88 114
80 88 114
80 88 114
80 88 114
80 88 114
80 88 114
80 88 114
80 88 114
80 88 114
80 88 114
80 88 114
80 88 114
80 88 114
80 88 114
80 88 114
80 88 114
80 88 114
80 88 114
80 88 114
80 88 114
80 88 114
80 88 114
80 88 114
80 88 114
80 88 114
80 88 114
80 88 114
80 88 114
80 88 114
80 88 114
80 88 114
80 88 114
80 88 114
80 88 114
80 88 114
80 88 114
80 88 114
80 88 114
80 88 114
80 88 114
80 88 114
80 88 114
80 88 114
80 88 114
80 88 114
80 88 114
80 88 114
80 88 114
80 88 114
80 88 114
80 88 114
80 88 114
80 88 114
80 88 114
80 88 114
80 88 114
80 88 114
80 88 114
80 88 114
80 88 114
80 88 114
80 88 114
80 88 114
80 88 114
80 88 114
80 88 114
80 88 114
80 88 114
80 88 114
80 88 114
80 88 114
80 88 114
80 88 114
80 88 114
80 88 114
80 88 114
80 88 114
80 88 114
80 88 114
80 88 114
80 88 114
80 88 114
80 88 114
80 88 114
80 88 114
80 88 114
80 88 114
80 88 114
80 88 114
80 88 114
80 88 114
80 88 114
80 88 114
80 88 114
80 88 114
80 88 114
80 88 114
80 88 114
80 88 114
80 88 114
80 88 114
80 88 114
80 88 114
80 88 114
80 88 114
80 88 114
80 88 114
80 88 114
80 88 114
80 88 114
80 88 114
80 88 114
80 88 114
80 88 114
80 88 114
80 88 114
80 88 114
80 88 114
80 88 114
80 88 114
80 88 114
80 88 114
80 88 114
80 88 114
80 88 114
80 88 114
80 88 114
80 88 114
80 88 114
80 88 114
80 88 114
80 88 114
80 88 114
80 88 114
80 88 114
80 88 114
80 88 114
80 88 114
80 88 114
80 88 114
80 88 114
80 88 114
80 88 114
80 88 114
80 88 114
80 88 114
80 88 114
80 88 114
80 88 114
80 88 114
80 88 114
80 88 114
80 88 114
80 88 114
80 88 114
80 88 114
80 88 114
80 88 114
80 88 114
80 88 114
80 88 114
80 88 114
80 88 114
80 88 114
80 88 114
80 88 114
80 88 114
80 88 114
80 88 114
80 88 114
80 88 114
80 88 114
80 88 114
80 88 114
80 88 114
80 88 114
80 88 114
80 88 114
80 88 114
80 88 114
80 88 114
80 88 114
80 88 114
80 88 114
80 88 114
80 88 114
80 88 114
80 88 114
80 88 114
80 88 114
80 88 114
80 88 114
80 88 114
80 88 114
80 88 114
80 88 114
80 88 114
80 88 114
80 88 114
80 88 114
80 88 114
80 88 114
80 88 114
80 88 114
80 88 114
80 88 114
80 88 114
80 88 114
80 88 114
80 88 114
80 88 114
80 88 114
80 88 114
80 88 114
80 88 114
80 88 114
80 88 114
80 88 114
80 88 114
80 88 114
80 88 114
80 88 114
80 88 114
80 88 114
80 88 114
80 88 114
80 88 114
80 88 114
80 88 114
80 88 114
80 88 114
80 88 114
80 88 114
80 88 114
80 88 114
80 88 114
80 88 114
80 88 114
80 88 114
80 88 114
80 88 114
80 88 114
80 88 114
114 118 130
193 192 176
166 166 159
90 96 118
80 88 114
80 88 114
80 88 114
80 88 114
80 88 114
80 88 114
80 88 114
80 88 114
80 88 114
80 88 114
80 88 114
80 88 114
80 88 114
80 88 114
80 88 114
80 88 114
80 88 114
80 88 114
80 88 114
80 88 114
80 88 114
80 88 114
80 88 114
80 88 114
80 88 114
80 88 114
80 88 114
80 88 114
80 88 114
80 88 114
80 88 114
80 88 114
80 88 114
80 88 114
80 88 114
80 88 114
80 88 114
80 88 114
80 88 114
80 88 114
80 88 114
80 88 114
80 88 114
80 88 114
80 88 114
80 88 114
80 88 114
80 88 114
80 88 114
80 88 114
80 88 114
80 88 114
80 88 114
80 88 114
80 88 114
80 88 114
80 88 114
80 88 114
80 88 114
80 88 114
80 88 114
80 88 114
80 88 114
80 88 114
80 88 114
80 88 114
80 88 114
80 88 114
80 88 114
80 88 114
80 88 114
80 88 114
80 88 114
80 88 114
80 88 114
80 88 114
80 88 114
80 88 114
80 88 114
80 88 114
80 88 114
80 88 114
80 88 114
80 88 114
80 88 114
80 88 114
80 88 114
80 88 114
80 88 114
80 88 114
80 88 114
80 88 114
80 88 114
80 88 114
80 88 114
80 88 114
80 88 114
80 88 114
80 88 114
80 88 114
80 88 114
80 88 114
80 88 114
80 88 114
80 88 114
80 88 114
80 88 114
80 88 114
80 88 114
80 88 114
80 88 114
80 88 114
80 88 114
80 88 114
80 88 114
80 88 114
80 88 114
80 88 114
80 88 114
80 88 114
80 88 114
80 88 114
80 88 114
80 88 114
80 88 114
80 88 114
80 88 114
80 88 114
80 88 114
80 88 114
80 88 114
80 88 114
80 88 114
80 88 114
80 88 114
80 88 114
80 88 114
80 88 114
80 88 114
80 88 114
80 88 114
80 88 114
80 88 114
80 88 114
80 88 114
80 88 114
80 88 114
80 88 114
80 88 114
80 88 114
80 88 114
80 88 114
80 88 114
80 88 114
80 88 114
80 88 114
80 88 114
80 88 114
80 88 114
80 88 114
80 88 114
80 88 114
80 88 114
80 88 114
80 88 114
80 88 114
80 88 114
80 88 114
80 88 114
80 88 114
80 88 114
80 88 114
80 88 114
80 88 114
80 88 114
80 88 114
80 88 114
80 88 114
80 88 114
80 88 114
80 88 114
80 88 114
80 88 114
80 88 114
80 88 114
80 88 114
80 88 114
80 88 114
80 88 114
80 88 114
80 88 114
80 88 114
80 88 114
80 88 114
80 88 114
80 88 114
80 88 114
80 88 114
80 88 114
80 88 114
80 88 114
80 88 114
80 88 114
80 88 114
80 88 114
80 88 114
80 88 114
80 88 114
80 88 114
80 88 114
80 88 114
80 88 114
80 88 114
80 88 114
80 88 114
80 88 114
80 88 114
80 88 114
80 88 114
80 88 114
80 88 114
80 88 114
80 88 114
80 88 114
80 88 114
80 88 114
80 88 114
80 88 114
80 88 114
80 88 114
80 88 114
80 88 114
80 88 114
80 88 114
80 88 114
80 88 114
80 88 114
80 88 114
80 88 114
80 88 114
80 88 114
80 88 114
80 88 114
80 88 114
80 88 114
80 88 114
80 88 114
80 88 114
80 88 114
80 88 114
80 88 114
80 88 114
80 88 114
80 88 114
80 88 114
80 88 114
80 88 114
80 88 114
80 88 114
80 88 114
80 88 114
80 88 114
80 88 114
80 88 114
80 88 114
80 88 114
80 88 114
80 88 114
80 88 114
80 88 114
80 88 114
80 88 114
80 88 114
80 88 114
80 88 114
80 88 114
80 88 114
80 88 114
80 88 114
80 88 114
80 88 114
80 88 114
80 88 114
80 88 114
80 88 114
80 88 114
80 88 114
80 88 114
80 88 114
80 88 114
80 88 114
80 88 114
80 88 114
80 88 114
80 88 114
80 88 114
80 88 114
80 88 114
80 88 114
80 88 114
80 88 114
80 88 114
80 88 114
80 88 114
80 88 114
80 88 114
80 88 114
80 88 114
80 88 114
80 88 114
80 88 114
80 88 114
80 88 114
80 88 114
80 88 114
80 88 114
80 88 114
80 88 114
80 88 114
80 88 114
80 88 114
80 88 114
80 88 114
80 88 114
80 88 114
80 88 114
80 88 114
80 88 114
80 88 114
80 88 114
80 88 114
80 88 114
80 88 114
80 88 114
80 88 114
80 88 114
80 88 114
80 88 114
80 88 114
80 88 114
80 88 114
80 88 114
80 88 114
80 88 114
80 88 114
80 88 114
80 88 114
80 88 114
80 88 114
80 88 114
80 88 114
80 88 114
80 88 114
80 88 114
80 88 114
80 88 114
80 88 114
80 88 114
80 88 114
80 88 114
80 88 114
80 88 114
80 88 114
80 88 114
80 88 114
80 88 114
80 88 114
80 88 114
80 88 114
80 88 114
80 88 114
80 88 114
80 88 114
80 88 114
80 88 114
80 88 114
80 88 114
80 88 114
80 88 114
80 88 114
80 88 114
80 88 114
80 88 114
80 88 114
80 88 114
80 88 114
80 88 114
80 88 114
80 88 114
80 88 114
80 88 114
114 118 130
255 255 255
255 255 255
255 255 255
255 255 255
255 255 255
255 255 255
255 255 255
255 255 255
255 255 255
255 255 255
255 255 255
248 245 213
80 88 114
80 88 114
80 88 114
80 88 114
80 88 114
80 88 114
80 88 114
80 88 114
80 88 114
80 88 114
80 88 114
80 88 114
80 88 114
80 88 114
80 88 114
80 88 114
80 88 114
80 88 114
80 88 114
80 88 114
80 88 114
80 88 114
80 88 114
80 88 114
80 88 114
80 88 114
80 88 114
80 88 114
80 88 114
80 88 114
80 88 114
80 88 114
80 88 114
80 88 114
80 88 114
80 88 114
80 88 114
80 88 114
80 88 114
80 88 114
80 88 114
80 88 114
80 88 114
80 88 114
80 88 114
80 88 114
80 88 114
80 88 114
80 88 114
80 88 114
80 88 114
80 88 114
80 88 114
80 88 114
80 88 114
80 88 114
80 88 114
80 88 114
80 88 114
80 88 114
80 88 114
80 88 114
80 88 114
80 88 114
80 88 114
80 88 114
80 88 114
80 88 114
80 88 114
80 88 114
80 88 114
80 88 114
80 88 114
80 88 114
80 88 114
80 88 114
80 88 114
80 88 114
80 88 114
80 88 114
80 88 114
80 88 114
80 88 114
80 88 114
80 88 114
80 88 114
80 88 114
80 88 114
80 88 114
80 88 114
80 88 114
80 88 114
80 88 114
80 88 114
80 88 114
80 88 114
80 88 114
80 88 114
80 88 114
80 88 114
80 88 114
80 88 114
80 88 114
80 88 114
80 88 114
80 88 114
80 88 114
80 88 114
80 88 114
80 88 114
80 88 114
80 88 114
80 88 114
80 88 114
80 88 114
80 88 114
80 88 114
80 88 114
80 88 114
80 88 114
80 88 114
80 88 114
80 88 114
80 88 114
80 88 114
80 88 114
80 88 114
80 88 114
80 88 114
80 88 114
80 88 114
80 88 114
80 88 114
80 88 114
80 88 114
80 88 114
80 88 114
80 88 114
80 88 114
80 88 114
80 88 114
80 88 114
80 88 114
80 88 114
80 88 114
80 88 114
80 88 114
80 88 114
80 88 114
80 88 114
80 88 114
80 88 114
80 88 114
80 88 114
80 88 114
80 88 114
80 88 114
80 88 114
80 88 114
80 88 114
80 88 114
80 88 114
80 88 114
80 88 114
80 88 114
80 88 114
80 88 114
80 88 114
80 88 114
80 88 114
80 88 114
80 88 114
80 88 114
80 88 114
80 88 114
80 88 114
80 88 114
80 88 114
80 88 114
80 88 114
80 88 114
80 88 114
80 88 114
80 88 114
80 88 114
80 88 114
80 88 114
80 88 114
80 88 114
80 88 114
80 88 114
80 88 114
80 88 114
80 88 114
80 88 114
80 88 114
80 88 114
80 88 114
80 88 114
80 88 114
80 88 114
80 88 114
80 88 114
80 88 114
80 88 114
80 88 114
80 88 114
80 88 114
80 88 114
80 88 114
80 88 114
80 88 114
80 88 114
80 88 114
80 88 114
80 88 114
80 88 114
80 88 114
80 88 114
80 88 114
80 88 114
80 88 114
80 88 114
80 88 114
80 88 114
80 88 114
80 88 114
80 88 114
80 88 114
80 88 114
80 88 114
80 88 114
80 88 114
80 88 114
80 88 114
80 88 114
80 88 114
80 88 114
80 88 114
80 88 114
80 88 114
80 88 114
80 88 114
80 88 114
80 88 114
80 88 114
80 88 114
80 88 114
80 88 114
80 88 114
80 88 114
80 88 114
80 88 114
80 88 114
80 88 114
80 88 114
80 88 114
80 88 114
80 88 114
80 88 114
80 88 114
80 88 114
80 88 114
80 88 114
80 88 114
80 88 114
80 88 114
80 88 114
80 88 114
80 88 114
80 88 114
80 88 114
80 88 114
80 88 114
80 88 114
80 88 114
80 88 114
80 88 114
80 88 114
80 88 114
80 88 114
80 88 114
80 88 114
80 88 114
80 88 114
80 88 114
80 88 114
80 88 114
80 88 114
80 88 114
80 88 114
80 88 114
80 88 114
80 88 114
80 88 114
80 88 114
80 88 114
80 88 114
80 88 114
80 88 114
80 88 114
80 88 114
80 88 114
80 88 114
80 88 114
80 88 114
80 88 114
80 88 114
80 88 114
80 88 114
80 88 114
80 88 114
80 88 114
80 88 114
80 88 114
80 88 114
80 88 114
80 88 114
80 88 114
80 88 114
80 88 114
80 88 114
80 88 114
80 88 114
80 88 114
80 88 114
80 88 114
80 88 114
80 88 114
80 88 114
80 88 114
80 88 114
80 88 114
80 88 114
80 88 114
80 88 114
80 88 114
80 88 114
80 88 114
80 88 114
80 88 114
80 88 114
80 88 114
80 88 114
80 88 114
80 88 114
80 88 114
80 88 114
80 88 114
80 88 114
80 88 114
80 88 114
80 88 114
80 88 114
80 88 114
80 88 114
80 88 114
80 88 114
80 88 114
80 88 114
80 88 114
80 88 114
80 88 114
80 88 114
80 88 114
80 88 114
80 88 114
80 88 114
80 88 114
80 88 114
80 88 114
80 88 114
80 88 114
80 88 114
80 88 114
80 88 114
80 88 114
80 88 114
80 88 114
80 88 114
80 88 114
80 88 114
80 88 114
80 88 114
80 88 114
197 196 179
255 255 255
255 255 255
255 255 255
255 255 255
255 255 255
255 255 255
255 255 255
255 255 255
255 255 255
255 255 255
255 255 255
255 255 255
255 255 255
255 255 255
255 255 255
255 255 255
80 88 114
80 88 114
80 88 114
80 88 114
80 88 114
80 88 114
80 88 114
80 88 114
80 88 114
80 88 114
80 88 114
80 88 114
80 88 114
80 88 114
80 88 114
80 88 114
80 88 114
80 88 114
80 88 114
80 88 114
80 88 114
80 88 114
80 88 114
80 88 114
80 88 114
80 88 114
80 88 114
80 88 114
80 88 114
80 88 114
80 88 114
80 88 114
80 88 114
80 88 114
80 88 114
80 88 114
80 88 114
80 88 114
80 88 114
80 88 114
80 88 114
80 88 114
80 88 114
80 88 114
80 88 114
80 88 114
80 88 114
80 88 114
80 88 114
80 88 114
80 88 114
80 88 114
80 88 114
80 88 114
80 88 114
80 88 114
80 88 114
80 88 114
80 88 114
80 88 114
80 88 114
80 88 114
80 88 114
80 88 114
80 88 114
80 88 114
80 88 114
80 88 114
80 88 114
80 88 114
80 88 114
80 88 114
80 88 114
80 88 114
80 88 114
80 88 114
80 88 114
80 88 114
80 88 114
80 88 114
80 88 114
80 88 114
80 88 114
80 88 114
80 88 114
80 88 114
80 88 114
80 88 114
80 88 114
80 88 114
80 88 114
80 88 114
80 88 114
80 88 114
80 88 114
80 88 114
80 88 114
80 88 114
80 88 114
80 88 114
80 88 114
80 88 114
80 88 114
80 88 114
80 88 114
80 88 114
80 88 114
80 88 114
80 88 114
80 88 114
80 88 114
80 88 114
80 88 114
80 88 114
80 88 114
80 88 114
80 88 114
80 88 114
80 88 114
80 88 114
80 88 114
80 88 114
80 88 114
80 88 114
80 88 114
80 88 114
80 88 114
80 88 114
80 88 114
80 88 114
80 88 114
80 88 114
80 88 114
80 88 114
80 88 114
80 88 114
80 88 114
80 88 114
80 88 114
80 88 114
80 88 114
80 88 114
80 88 114
80 88 114
80 88 114
80 88 114
80 88 114
80 88 114
80 88 114
80 88 114
80 88 114
80 88 114
80 88 114
80 88 114
80 88 114
80 88 114
80 88 114
80 88 114
80 88 114
80 88 114
80 88 114
80 88 114
80 88 114
80 88 114
80 88 114
80 88 114
80 88 114
80 88 114
80 88 114
80 88 114
80 88 114
80 88 114
80 88 114
80 88 114
80 88 114
80 88 114
80 88 114
80 88 114
80 88 114
80 88 114
80 88 114
80 88 114
80 88 114
80 88 114
80 88 114
80 88 114
80 88 114
80 88 114
80 88 114
80 88 114
80 88 114
80 88 114
80 88 114
80 88 114
80 88 114
80 88 114
80 88 114
80 88 114
80 88 114
80 88 114
80 88 114
80 88 114
80 88 114
80 88 114
80 88 114
80 88 114
80 88 114
80 88 114
80 88 114
80 88 114
80 88 114
80 88 114
80 88 114
80 88 114
80 88 114
80 88 114
80 88 114
80 88 114
80 88 114
80 88 114
80 88 114
80 88 114
80 88 114
80 88 114
80 88 114
80 88 114
80 88 114
80 88 114
80 88 114
80 88 114
80 88 114
80 88 114
80 88 114
80 88 114
80 88 114
80 88 114
80 88 114
80 88 114
80 88 114
80 88 114
80 88 114
80 88 114
80 88 114
80 88 114
80 88 114
80 88 114
80 88 114
80 88 114
80 88 114
80 88 114
80 88 114
80 88 114
80 88 114
80 88 114
80 88 114
80 88 114
80 88 114
80 88 114
80 88 114
80 88 114
80 88 114
80 88 114
80 88 114
80 88 114
80 88 114
80 88 114
80 88 114
80 88 114
80 88 114
80 88 114
80 88 114
80 88 114
80 88 114
80 88 114
80 88 114
80 88 114
80 88 114
80 88 114
80 88 114
80 88 114
80 88 114
80 88 114
80 88 114
80 88 114
80 88 114
80 88 114
80 88 114
80 88 114
80 88 114
80 88 114
80 88 114
80 88 114
80 88 114
80 88 114
80 88 114
80 88 114
80 88 114
80 88 114
80 88 114
80 88 114
80 88 114
80 88 114
80 88 114
80 88 114
80 88 114
80 88 114
80 88 114
80 88 114
80 88 114
80 88 114
80 88 114
80 88 114
80 88 114
80 88 114
80 88 114
80 88 114
80 88 114
80 88 114
80 88 114
80 88 114
80 88 114
80 88 114
80 88 114
80 88 114
80 88 114
80 88 114
80 88 114
80 88 114
80 88 114
80 88 114
80 88 114
80 88 114
80 88 114
80 88 114
80 88 114
80 88 114
80 88 114
80 88 114
80 88 114
80 88 114
80 88 114
80 88 114
80 88 114
80 88 114
80 88 114
80 88 114
80 88 114
80 88 114
80 88 114
80 88 114
80 88 114
80 88 114
80 88 114
80 88 114
80 88 114
80 88 114
80 88 114
80 88 114
80 88 114
80 88 114
80 88 114
80 88 114
80 88 114
80 88 114
80 88 114
80 88 114
80 88 114
80 88 114
80 88 114
80 88 114
80 88 114
80 88 114
80 88 114
80 88 114
80 88 114
80 88 114
80 88 114
80 88 114
80 88 114
80 88 114
80 88 114
80 88 114
255 255 255
255 255 255
255 255 255
255 255 255
255 255 255
255 255 255
255 255 255
255 255 255
255 255 255
255 255 255
255 255 255
255 255 255
255 255 255
255 255 255
255 255 255
255 255 255
255 255 255
255 255 255
255 255 255
255 255 230
80 88 114
80 88 114
80 88 114
80 88 114
80 88 114
80 88 114
80 88 114
80 88 114
80 88 114
80 88 114
80 88 114
80 88 114
80 88 114
80 88 114
80 88 114
80 88 114
80 88 114
80 88 114
80 88 114
80 88 114
80 88 114
80 88 114
80 88 114
80 88 114
80 88 114
80 88 114
80 88 114
80 88 114
80 88 114
80 88 114
80 88 114
80 88 114
80 88 114
80 88 114
80 88 114
80 88 114
80 88 114
80 88 114
80 88 114
80 88 114
80 88 114
80 88 114
80 88 114
80 88 114
80 88 114
80 88 114
80 88 114
80 88 114
80 88 114
80 88 114
80 88 114
80 88 114
80 88 114
80 88 114
80 88 114
80 88 114
80 88 114
80 88 114
80 88 114
80 88 114
80 88 114
80 88 114
80 88 114
80 88 114
80 88 114
80 88 114
80 88 114
80 88 114
80 88 114
80 88 114
80 88 114
80 88 114
80 88 114
80 88 114
80 88 114
80 88 114
80 88 114
80 88 114
80 88 114
80 88 114
80 88 114
80 88 114
80 88 114
80 88 114
80 88 114
80 88 114
80 88 114
80 88 114
80 88 114
80 88 114
80 88 114
80 88 114
80 88 114
80 88 114
80 88 114
80 88 114
80 88 114
80 88 114
80 88 114
80 88 114
80 88 114
80 88 114
80 88 114
80 88 114
80 88 114
80 88 114
80 88 114
80 88 114
80 88 114
80 88 114
80 88 114
80 88 114
80 88 114
80 88 114
80 88 114
80 88 114
80 88 114
80 88 114
80 88 114
80 88 114
80 88 114
80 88 114
80 88 114
80 88 114
80 88 114
80 88 114
80 88 114
80 88 114
80 88 114
80 88 114
80 88 114
80 88 114
80 88 114
80 88 114
80 88 114
80 88 114
80 88 114
80 88 114
80 88 114
80 88 114
80 88 114
80 88 114
80 88 114
80 88 114
80 88 114
80 88 114
80 88 114
80 88 114
80 88 114
80 88 114
80 88 114
80 88 114
80 88 114
80 88 114
80 88 114
80 88 114
80 88 114
80 88 114
80 88 114
80 88 114
80 88 114
80 88 114
80 88 114
80 88 114
80 88 114
80 88 114
80 88 114
80 88 114
80 88 114
80 88 114
80 88 114
80 88 114
80 88 114
80 88 114
80 88 114
80 88 114
80 88 114
80 88 114
80 88 114
80 88 114
80 88 114
80 88 114
80 88 114
80 88 114
80 88 114
80 88 114
80 88 114
80 88 114
80 88 114
80 88 114
80 88 114
80 88 114
80 88 114
80 88 114
80 88 114
80 88 114
80 88 114
80 88 114
80 88 114
80 88 114
80 88 114
80 88 114
80 88 114
80 88 114
80 88 114
80 88 114
80 88 114
80 88 114
80 88 114
80 88 114
80 88 114
80 88 114
80 88 114
80 88 114
80 88 114
80 88 114
80 88 114
80 88 114
80 88 114
80 88 114
80 88 114
80 88 114
80 88 114
80 88 114
80 88 114
80 88 114
80 88 114
80 88 114
80 88 114
80 88 114
80 88 114
80 88 114
80 88 114
80 88 114
80 88 114
80 88 114
80 88 114
80 88 114
80 88 114
80 88 114
80 88 114
80 88 114
80 88 114
80 88 114
80 88 114
80 88 114
80 88 114
80 88 114
80 88 114
80 88 114
80 88 114
80 88 114
80 88 114
80 88 114
80 88 114
80 88 114
80 88 114
80 88 114
80 88 114
80 88 114
80 88 114
80 88 114
80 88 114
80 88 114
80 88 114
80 88 114
80 88 114
80 88 114
80 88 114
80 88 114
80 88 114
80 88 114
80 88 114
80 88 114
80 88 114
80 88 114
80 88 114
80 88 114
80 88 114
80 88 114
80 88 114
80 88 114
80 88 114
80 88 114
80 88 114
80 88 114
80 88 114
80 88 114
80 88 114
80 88 114
80 88 114
80 88 114
80 88 114
80 88 114
80 88 114
80 88 114
80 88 114
80 88 114
80 88 114
80 88 114
80 88 114
80 88 114
80 88 114
80 88 114
80 88 114
80 88 114
80 88 114
80 88 114
80 88 114
80 88 114
80 88 114
80 88 114
80 88 114
80 88 114
80 88 114
80 88 114
80 88 114
80 88 114
80 88 114
80 88 114
80 88 114
80 88 114
80 88 114
80 88 114
80 88 114
80 88 114
80 88 114
80 88 114
80 88 114
80 88 114
80 88 114
80 88 114
80 88 114
80 88 114
80 88 114
80 88 114
80 88 114
80 88 114
80 88 114
80 88 114
80 88 114
80 88 114
80 88 114
80 88 114
80 88 114
80 88 114
80 88 114
80 88 114
80 88 114
80 88 114
80 88 114
80 88 114
80 88 114
80 88 114
80 88 114
80 88 114
80 88 114
80 88 114
80 88 114
80 88 114
80 88 114
80 88 114
80 88 114
80 88 114
80 88 114
80 88 114
80 88 114
80 88 114
80 88 114
80 88 114
80 88 114
80 88 114
80 88 114
80 88 114
80 88 114
80 88 114
80 88 114
80 88 114
205 204 184
255 255 255
255 255 255
255 255 255
255 255 255
255 255 255
255 255 255
255 255 255
255 255 255
255 255 255
255 255 255
255 255 255
255 255 255
255 255 255
255 255 255
255 255 255
255 255 255
255 255 255
255 255 255
255 255 255
255 255 255
255 255 255
255 255 255
80 88 114
80 88 114
80 88 114
80 88 114
80 88 114
80 88 114
80 88 114
80 88 114
80 88 114
80 88 114
80 88 114
80 88 114
80 88 114
80 88 114
80 88 114
80 88 114
80 88 114
80 88 114
80 88 114
80 88 114
80 88 114
80 88 114
80 88 114
80 88 114
80 88 114
80 88 114
80 88 114
80 88 114
80 88 114
80 88 114
80 88 114
80 88 114
80 88 114
80 88 114
80 88 114
80 88 114
80 88 114
80 88 114
80 88 114
80 88 114
80 88 114
80 88 114
80 88 114
80 88 114
80 88 114
80 88 114
80 88 114
80 88 114
80 88 114
80 88 114
80 88 114
80 88 114
80 88 114
80 88 114
80 88 114
80 88 114
80 88 114
80 88 114
80 88 114
80 88 114
80 88 114
80 88 114
80 88 114
80 88 114
80 88 114
80 88 114
80 88 114
80 88 114
80 88 114
80 88 114
80 88 114
80 88 114
80 88 114
80 88 114
80 88 114
80 88 114
80 88 114
80 88 114
80 88 114
80 88 114
80 88 114
80 88 114
80 88 114
80 88 114
80 88 114
80 88 114
80 88 114
80 88 114
80 88 114
80 88 114
80 88 114
80 88 114
80 88 114
80 88 114
80 88 114
80 88 114
80 88 114
80 88 114
80 88 114
80 88 114
80 88 114
80 88 114
80 88 114
80 88 114
80 88 114
80 88 114
80 88 114
80 88 114
80 88 114
80 88 114
80 88 114
80 88 114
80 88 114
80 88 114
80 88 114
80 88 114
80 88 114
80 88 114
80 88 114
80 88 114
80 88 114
80 88 114
80 88 114
80 88 114
80 88 114
80 88 114
80 88 114
80 88 114
80 88 114
80 88 114
80 88 114
80 88 114
80 88 114
80 88 114
80 88 114
80 88 114
80 88 114
80 88 114
80 88 114
80 88 114
80 88 114
80 88 114
80 88 114
80 88 114
80 88 114
80 88 114
80 88 114
80 88 114
80 88 114
80 88 114
80 88 114
80 88 114
80 88 114
80 88 114
80 88 114
80 88 114
80 88 114
80 88 114
80 88 114
80 88 114
80 88 114
80 88 114
80 88 114
80 88 114
80 88 114
80 88 114
80 88 114
80 88 114
80 88 114
80 88 114
80 88 114
80 88 114
80 88 114
80 88 114
80 88 114
80 88 114
80 88 114
80 88 114
80 88 114
80 88 114
80 88 114
80 88 114
80 88 114
80 88 114
80 88 114
80 88 114
80 88 114
80 88 114
80 88 114
80 88 114
80 88 114
80 88 114
80 88 114
80 88 114
80 88 114
80 88 114
80 88 114
80 88 114
80 88 114
80 88 114
80 88 114
80 88 114
80 88 114
80 88 114
80 88 114
80 88 114
80 88 114
80 88 114
80 88 114
80 88 114
80 88 114
80 88 114
80 88 114
80 88 114
80 88 114
80 88 114
80 88 114
80 88 114
80 88 114
80 88 114
80 88 114
80 88 114
80 88 114
80 88 114
80 88 114
80 88 114
80 88 114
80 88 114
80 88 114
80 88 114
80 88 114
80 88 114
80 88 114
80 88 114
80 88 114
80 88 114
80 88 114
80 88 114
80 88 114
80 88 114
80 88 114
80 88 114
80 88 114
80 88 114
80 88 114
80 88 114
80 88 114
80 88 114
80 88 114
80 88 114
80 88 114
80 88 114
80 88 114
80 88 114
80 88 114
80 88 114
80 88 114
80 88 114
80 88 114
80 88 114
80 88 114
80 88 114
80 88 114
80 88 114
80 88 114
80 88 114
80 88 114
80 88 114
80 88 114
80 88 114
80 88 114
80 88 114
80 88 114
80 88 114
80 88 114
80 88 114
80 88 114
80 88 114
80 88 114
80 88 114
80 88 114
80 88 114
80 88 114
80 88 114
80 88 114
80 88 114
80 88 114
80 88 114
80 88 114
80 88 114
80 88 114
80 88 114
80 88 114
80 88 114
80 88 114
80 88 114
80 88 114
80 88 114
80 88 114
80 88 114
80 88 114
80 88 114
80 88 114
80 88 114
80 88 114
80 88 114
80 88 114
80 88 114
80 88 114
80 88 114
80 88 114
80 88 114
80 88 114
80 88 114
80 88 114
80 88 114
80 88 114
80 88 114
80 88 114
80 88 114
80 88 114
80 88 114
80 88 114
80 88 114
80 88 114
80 88 114
80 88 114
80 88 114
80 88 114
80 88 114
80 88 114
80 88 114
80 88 114
80 88 114
80 88 114
80 88 114
80 88 114
80 88 114
80 88 114
80 88 114
80 88 114
80 88 114
80 88 114
80 88 114
80 88 114
80 88 114
80 88 114
80 88 114
80 88 114
80 88 114
80 88 114
80 88 114
80 88 114
80 88 114
80 88 114
80 88 114
80 88 114
80 88 114
80 88 114
80 88 114
80 88 114
80 88 114
80 88 114
80 88 114
80 88 114
80 88 114
80 88 114
80 88 114
80 88 114
80 88 114
80 88 114
80 88 114
80 88 114
80 88 114
80 88 114
80 88 114
254 251 217
255 255 255
255 255 255
255 255 255
255 255 255
255 255 255
255 255 255
255 255 255
255 255 255
255 255 255
255 255 255
255 255 255
255 255 255
255 255 255
255 255 255
255 255 255
255 255 255
255 255 255
255 255 255
255 255 255
255 255 255
255 255 255
255 255 255
255 255 255
255 255 255
80 88 114
80 88 114
80 88 114
80 88 114
80 88 114
80 88 114
80 88 114
80 88 114
80 88 114
80 88 114
80 88 114
80 88 114
80 88 114
80 88 114
80 88 114
80 88 114
80 88 114
80 88 114
80 88 114
80 88 114
80 88 114
80 88 114
80 88 114
80 88 114
80 88 114
80 88 114
80 88 114
80 88 114
80 88 114
80 88 114
80 88 114
80 88 114
80 88 114
80 88 114
80 88 114
80 88 114
80 88 114
80 88 114
80 88 114
80 88 114
80 88 114
80 88 114
80 88 114
80 88 114
80 88 114
80 88 114
80 88 114
80 88 114
80 88 114
80 88 114
80 88 114
80 88 114
80 88 114
80 88 114
80 88 114
80 88 114
80 88 114
80 88 114
80 88 114
80 88 114
80 88 114
80 88 114
80 88 114
80 88 114
80 88 114
80 88 114
80 88 114
80 88 114
80 88 114
80 88 114
80 88 114
80 88 114
80 88 114
80 88 114
80 88 114
80 88 114
80 88 114
80 88 114
80 88 114
80 88 114
80 88 114
80 88 114
80 88 114
80 88 114
80 88 114
80 88 114
80 88 114
80 88 114
80 88 114
80 88 114
80 88 114
80 88 114
80 88 114
80 88 114
80 88 114
80 88 114
80 88 114
80 88 114
80 88 114
80 88 114
80 88 114
80 88 114
80 88 114
80 88 114
80 88 114
80 88 114
80 88 114
80 88 114
80 88 114
80 88 114
80 88 114
80 88 114
80 88 114
80 88 114
80 88 114
80 88 114
80 88 114
80 88 114
80 88 114
80 88 114
80 88 114
80 88 114
80 88 114
80 88 114
80 88 114
80 88 114
80 88 114
80 88 114
80 88 114
80 88 114
80 88 114
80 88 114
80 88 114
80 88 114
80 88 114
80 88 114
80 88 114
80 88 114
80 88 114
80 88 114
80 88 114
80 88 114
80 88 114
80 88 114
80 88 114
80 88 114
80 88 114
80 88 114
80 88 114
80 88 114
80 88 114
80 88 114
80 88 114
80 88 114
80 88 114
80 88 114
80 88 114
80 88 114
80 88 114
80 88 114
80 88 114
80 88 114
80 88 114
80 88 114
80 88 114
80 88 114
80 88 114
80 88 114
80 88 114
80 88 114
80 88 114
80 88 114
80 88 114
80 88 114
80 88 114
80 88 114
80 88 114
80 88 114
80 88 114
80 88 114
80 88 114
80 88 114
80 88 114
80 88 114
80 88 114
80 88 114
80 88 114
80 88 114
80 88 114
80 88 114
80 88 114
80 88 114
80 88 114
80 88 114
80 88 114
80 88 114
80 88 114
80 88 114
80 88 114
80 88 114
80 88 114
80 88 114
80 88 114
80 88 114
80 88 114
80 88 114
80 88 114
80 88 114
80 88 114
80 88 114
80 88 114
80 88 114
80 88 114
80 88 114
80 88 114
80 88 114
80 88 114
80 88 114
80 88 114
80 88 114
80 88 114
80 88 114
80 88 114
80 88 114
80 88 114
80 88 114
80 88 114
80 88 114
80 88 114
80 88 114
80 88 114
80 88 114
80 88 114
80 88 114
80 88 114
80 88 114
80 88 114
80 88 114
80 88 114
80 88 114
80 88 114
80 88 114
80 88 114
80 88 114
80 88 114
80 88 114
80 88 114
80 88 114
80 88 114
80 88 114
80 88 114
80 88 114
80 88 114
80 88 114
80 88 114
80 88 114
80 88 114
80 88 114
80 88 114
80 88 114
80 88 114
80 88 114
80 88 114
80 88 114
80 88 114
80 88 114
80 88 114
80 88 114
80 88 114
80 88 114
80 88 114
80 88 114
80 88 114
80 88 114
80 88 114
80 88 114
80 88 114
80 88 114
80 88 114
80 88 114
80 88 114
80 88 114
80 88 114
80 88 114
80 88 114
80 88 114
80 88 114
80 88 114
80 88 114
80 88 114
80 88 114
80 88 114
80 88 114
80 88 114
80 88 114
80 88 114
80 88 114
80 88 114
80 88 114
80 88 114
80 88 114
80 88 114
80 88 114
80 88 114
80 88 114
80 88 114
80 88 114
80 88 114
80 88 114
80 88 114
80 88 114
80 88 114
80 88 114
80 88 114
80 88 114
80 88 114
80 88 114
80 88 114
80 88 114
80 88 114
80 88 114
80 88 114
80 88 114
80 88 114
80 88 114
80 88 114
80 88 114
80 88 114
80 88 114
80 88 114
80 88 114
80 88 114
80 88 114
80 88 114
80 88 114
80 88 114
80 88 114
80 88 114
80 88 114
80 88 114
80 88 114
80 88 114
80 88 114
80 88 114
80 88 114
80 88 114
80 88 114
80 88 114
80 88 114
80 88 114
80 88 114
80 88 114
80 88 114
80 88 114
80 88 114
80 88 114
80 88 114
80 88 114
80 88 114
80 88 114
80 88 114
80 88 114
80 88 114
80 88 114
80 88 114
80 88 114
80 88 114
80 88 114
80 88 114
80 88 114
80 88 114
80 88 114
80 88 114
80 88 114
227 225 199
255 255 255
255 255 255
255 255 255
255 255 255
255 255 255
255 255 255
255 255 255
255 255 255
255 255 255
255 255 255
255 255 255
255 255 255
255 255 255
255 255 255
255 255 255
255 255 255
255 255 255
255 255 255
255 255 255
255 255 255
255 255 255
255 255 255
255 255 255
255 255 255
255 255 255
255 255 255
80 88 114
80 88 114
80 88 114
80 88 114
80 88 114
80 88 114
80 88 114
80 88 114
80 88 114
80 88 114
80 88 114
80 88 114
80 88 114
80 88 114
80 88 114
80 88 114
80 88 114
80 88 114
80 88 114
80 88 114
80 88 114
80 88 114
80 88 114
80 88 114
80 88 114
80 88 114
80 88 114
80 88 114
80 88 114
80 88 114
80 88 114
80 88 114
80 88 114
80 88 114
80 88 114
80 88 114
80 88 114
80 88 114
80 88 114
80 88 114
80 88 114
80 88 114
80 88 114
80 88 114
80 88 114
80 88 114
80 88 114
80 88 114
80 88 114
80 88 114
80 88 114
80 88 114
80 88 114
80 88 114
80 88 114
80 88 114
80 88 114
80 88 114
80 88 114
80 88 114
80 88 114
80 88 114
80 88 114
80 88 114
80 88 114
80 88 114
80 88 114
80 88 114
80 88 114
80 88 114
80 88 114
80 88 114
80 88 114
80 88 114
80 88 114
80 88 114
80 88 114
80 88 114
80 88 114
80 88 114
80 88 114
80 88 114
80 88 114
80 88 114
80 88 114
80 88 114
80 88 114
80 88 114
80 88 114
80 88 114
80 88 114
80 88 114
80 88 114
80 88 114
80 88 114
80 88 114
80 88 114
80 88 114
80 88 114
80 88 114
80 88 114
80 88 114
80 88 114
80 88 114
80 88 114
80 88 114
80 88 114
80 88 114
80 88 114
80 88 114
80 88 114
80 88 114
80 88 114
80 88 114
80 88 114
80 88 114
80 88 114
80 88 114
80 88 114
80 88 114
80 88 114
80 88 114
80 88 114
80 88 114
80 88 114
80 88 114
80 88 114
80 88 114
80 88 114
80 88 114
80 88 114
80 88 114
80 88 114
80 88 114
80 88 114
80 88 114
80 88 114
80 88 114
80 88 114
80 88 114
80 88 114
80 88 114
80 88 114
80 88 114
80 88 114
80 88 114
80 88 114
80 88 114
80 88 114
80 88 114
80 88 114
80 88 114
80 88 114
80 88 114
80 88 114
80 88 114
80 88 114
80 88 114
80 88 114
80 88 114
80 88 114
80 88 114
80 88 114
80 88 114
80 88 114
80 88 114
80 88 114
80 88 114
80 88 114
80 88 114
80 88 114
80 88 114
80 88 114
80 88 114
80 88 114
80 88 114
80 88 114
80 88 114
80 88 114
80 88 114
80 88 114
80 88 114
80 88 114
80 88 114
80 88 114
80 88 114
80 88 114
80 88 114
80 88 114
80 88 114
80 88 114
80 88 114
80 88 114
80 88 114
80 88 114
80 88 114
80 88 114
80 88 114
80 88 114
80 88 114
80 88 114
80 88 114
80 88 114
80 88 114
80 88 114
80 88 114
80 88 114
80 88 114
80 88 114
80 88 114
80 88 114
80 88 114
80 88 114
80 88 114
80 88 114
80 88 114
80 88 114
80 88 114
80 88 114
80 88 114
80 88 114
80 88 114
80 88 114
80 88 114
80 88 114
80 88 114
80 88 114
80 88 114
80 88 114
80 88 114
80 88 114
80 88 114
80 88 114
80 88 114
80 88 114
80 88 114
80 88 114
80 88 114
80 88 114
80 88 114
80 88 114
80 88 114
80 88 114
80 88 114
80 88 114
80 88 114
80 88 114
80 88 114
80 88 114
80 88 114
80 88 114
80 88 114
80 88 114
80 88 114
80 88 114
80 88 114
80 88 114
80 88 114
80 88 114
80 88 114
80 88 114
80 88 114
80 88 114
80 88 114
80 88 114
80 88 114
80 88 114
80 88 114
80 88 114
80 88 114
80 88 114
80 88 114
80 88 114
80 88 114
80 88 114
80 88 114
80 88 114
80 88 114
80 88 114
80 88 114
80 88 114
80 88 114
80 88 114
80 88 114
80 88 114
80 88 114
80 88 114
80 88 114
80 88 114
80 88 114
80 88 114
80 88 114
80 88 114
80 88 114
80 88 114
80 88 114
80 88 114
80 88 114
80 88 114
80 88 114
80 88 114
80 88 114
80 88 114
80 88 114
80 88 114
80 88 114
80 88 114
80 88 114
80 88 114
80 88 114
80 88 114
80 88 114
80 88 114
80 88 114
80 88 114
80 88 114
80 88 114
80 88 114
80 88 114
80 88 114
80 88 114
80 88 114
80 88 114
80 88 114
80 88 114
80 88 114
80 88 114
80 88 114
80 88 114
80 88 114
80 88 114
80 88 114
80 88 114
80 88 114
80 88 114
80 88 114
80 88 114
80 88 114
80 88 114
80 88 114
80 88 114
80 88 114
80 88 114
80 88 114
80 88 114
80 88 114
80 88 114
80 88 114
80 88 114
80 88 114
80 88 114
80 88 114
80 88 114
80 88 114
80 88 114
80 88 114
80 88 114
80 88 114
80 88 114
80 88 114
80 88 114
80 88 114
80 88 114
80 88 114
80 88 114
80 88 114
80 88 114
80 88 114
80 88 114
80 88 114
80 88 114
80 88 114
127 130 137
255 255 255
255 255 255
255 255 255
255 255 255
255 255 255
255 255 255
255 255 255
255 255 255
255 255 255
255 255 255
255 255 255
255 255 255
255 255 255
255 255 255
255 255 255
255 255 255
255 255 255
255 255 255
255 255 255
255 255 255
255 255 255
255 255 255
255 255 255
255 255 255
255 255 255
255 255 255
255 255 255
255 255 255
80 88 114
80 88 114
80 88 114
80 88 114
80 88 114
80 88 114
80 88 114
80 88 114
80 88 114
80 88 114
80 88 114
80 88 114
80 88 114
80 88 114
80 88 114
80 88 114
80 88 114
80 88 114
80 88 114
80 88 114
80 88 114
80 88 114
80 88 114
80 88 114
80 88 114
80 88 114
80 88 114
80 88 114
80 88 114
80 88 114
80 88 114
80 88 114
80 88 114
80 88 114
80 88 114
80 88 114
80 88 114
80 88 114
80 88 114
80 88 114
80 88 114
80 88 114
80 88 114
80 88 114
80 88 114
80 88 114
80 88 114
80 88 114
80 88 114
80 88 114
80 88 114
80 88 114
80 88 114
80 88 114
80 88 114
80 88 114
80 88 114
80 88 114
80 88 114
80 88 114
80 88 114
80 88 114
80 88 114
80 88 114
80 88 114
80 88 114
80 88 114
80 88 114
80 88 114
80 88 114
80 88 114
80 88 114
80 88 114
80 88 114
80 88 114
80 88 114
80 88 114
80 88 114
80 88 114
80 88 114
80 88 114
80 88 114
80 88 114
80 88 114
80 88 114
80 88 114
80 88 114
80 88 114
80 88 114
80 88 114
80 88 114
80 88 114
80 88 114
80 88 114
80 88 114
80 88 114
80 88 114
80 88 114
80 88 114
80 88 114
80 88 114
80 88 114
80 88 114
80 88 114
80 88 114
80 88 114
80 88 114
80 88 114
80 88 114
80 88 114
80 88 114
80 88 114
80 88 114
80 88 114
80 88 114
80 88 114
80 88 114
80 88 114
80 88 114
80 88 114
80 88 114
80 88 114
80 88 114
80 88 114
80 88 114
80 88 114
80 88 114
80 88 114
80 88 114
80 88 114
80 88 114
80 88 114
80 88 114
80 88 114
80 88 114
80 88 114
80 88 114
80 88 114
80 88 114
80 88 114
80 88 114
80 88 114
80 88 114
80 88 114
80 88 114
80 88 114
80 88 114
80 88 114
80 88 114
80 88 114
80 88 114
80 88 114
80 88 114
80 88 114
80 88 114
80 88 114
80 88 114
80 88 114
80 88 114
80 88 114
80 88 114
80 88 114
80 88 114
80 88 114
80 88 114
80 88 114
80 88 114
80 88 114
80 88 114
80 88 114
80 88 114
80 88 114
80 88 114
80 88 114
80 88 114
80 88 114
80 88 114
80 88 114
80 88 114
80 88 114
80 88 114
80 88 114
80 88 114
80 88 114
80 88 114
80 88 114
80 88 114
80 88 114
80 88 114
80 88 114
80 88 114
80 88 114
80 88 114
80 88 114
80 88 114
80 88 114
80 88 114
80 88 114
80 88 114
80 88 114
80 88 114
80 88 114
80 88 114
80 88 114
80 88 114
80 88 114
80 88 114
80 88 114
80 88 114
80 88 114
80 88 114
80 88 114
80 88 114
80 88 114
80 88 114
80 88 114
80 88 114
80 88 114
80 88 114
80 88 114
80 88 114
80 88 114
80 88 114
80 88 114
80 88 114
80 88 114
80 88 114
80 88 114
80 88 114
80 88 114
80 88 114
80 88 114
80 88 114
80 88 114
80 88 114
80 88 114
80 88 114
80 88 114
80 88 114
80 88 114
80 88 114
80 88 114
80 88 114
80 88 114
80 88 114
80 88 114
80 88 114
80 88 114
80 88 114
80 88 114
80 88 114
80 88 114
80 88 114
80 88 114
80 88 114
80 88 114
80 88 114
80 88 114
80 88 114
80 88 114
80 88 114
80 88 114
80 88 114
80 88 114
80 88 114
80 88 114
80 88 114
80 88 114
80 88 114
80 88 114
80 88 114
80 88 114
80 88 114
80 88 114
80 88 114
80 88 114
80 88 114
80 88 114
80 88 114
80 88 114
80 88 114
80 88 114
80 88 114
80 88 114
80 88 114
80 88 114
80 88 114
80 88 114
80 88 114
80 88 114
80 88 114
80 88 114
80 88 114
80 88 114
80 88 114
80 88 114
80 88 114
80 88 114
80 88 114
80 88 114
80 88 114
80 88 114
80 88 114
80 88 114
80 88 114
80 88 114
80 88 114
80 88 114
80 88 114
80 88 114
80 88 114
80 88 114
80 88 114
80 88 114
80 88 114
80 88 114
80 88 114
80 88 114
80 88 114
80 88 114
80 88 114
80 88 114
80 88 114
80 88 114
80 88 114
80 88 114
80 88 114
80 88 114
80 88 114
80 88 114
80 88 114
80 88 114
80 88 114
80 88 114
80 88 114
80 88 114
80 88 114
80 88 114
80 88 114
80 88 114
80 88 114
80 88 114
80 88 114
80 88 114
80 88 114
80 88 114
80 88 114
80 88 114
80 88 114
80 88 114
80 88 114
80 88 114
80 88 114
80 88 114
80 88 114
80 88 114
80 88 114
80 88 114
80 88 114
80 88 114
80 88 114
80 88 114
80 88 114
80 88 114
80 88 114
80 88 114
80 88 114
80 88 114
80 88 114
80 88 114
80 88 114
255 255 255
255 255 255
255 255 255
255 255 255
255 255 255
255 255 255
255 255 255
255 255 255
255 255 255
255 255 255
255 255 255
255 255 255
255 255 255
255 255 255
255 255 255
255 255 255
255 255 255
255 255 255
255 255 255
255 255 255
255 255 255
255 255 255
255 255 255
255 255 255
255 255 255
255 255 255
255 255 255
255 255 255
255 255 255
255 255 236
80 88 114
80 88 114
80 88 114
80 88 114
80 88 114
80 88 114
80 88 114
80 88 114
80 88 114
80 88 114
80 88 114
80 88 114
80 88 114
80 88 114
80 88 114
80 88 114
80 88 114
80 88 114
80 88 114
80 88 114
80 88 114
80 88 114
80 88 114
80 88 114
80 88 114
80 88 114
80 88 114
80 88 114
80 88 114
80 88 114
80 88 114
80 88 114
80 88 114
80 88 114
80 88 114
80 88 114
80 88 114
80 88 114
80 88 114
80 88 114
80 88 114
80 88 114
80 88 114
80 88 114
80 88 114
80 88 114
80 88 114
80 88 114
80 88 114
80 88 114
80 88 114
80 88 114
80 88 114
80 88 114
80 88 114
80 88 114
80 88 114
80 88 114
80 88 114
80 88 114
80 88 114
80 88 114
80 88 114
80 88 114
80 88 114
80 88 114
80 88 114
80 88 114
80 88 114
80 88 114
80 88 114
80 88 114
80 88 114
80 88 114
80 88 114
80 88 114
80 88 114
80 88 114
80 88 114
80 88 114
80 88 114
80 88 114
80 88 114
80 88 114
80 88 114
80 88 114
80 88 114
80 88 114
80 88 114
80 88 114
80 88 114
80 88 114
80 88 114
80 88 114
80 88 114
80 88 114
80 88 114
80 88 114
80 88 114
80 88 114
80 88 114
80 88 114
80 88 114
80 88 114
80 88 114
80 88 114
80 88 114
80 88 114
80 88 114
80 88 114
80 88 114
80 88 114
80 88 114
80 88 114
80 88 114
80 88 114
80 88 114
80 88 114
80 88 114
80 88 114
80 88 114
80 88 114
80 88 114
80 88 114
80 88 114
80 88 114
80 88 114
80 88 114
80 88 114
80 88 114
80 88 114
80 88 114
80 88 114
80 88 114
80 88 114
80 88 114
80 88 114
80 88 114
80 88 114
80 88 114
80 88 114
80 88 114
80 88 114
80 88 114
80 88 114
80 88 114
80 88 114
80 88 114
80 88 114
80 88 114
80 88 114
80 88 114
80 88 114
80 88 114
80 88 114
80 88 114
80 88 114
80 88 114
80 88 114
80 88 114
80 88 114
80 88 114
80 88 114
80 88 114
80 88 114
80 88 114
80 88 114
80 88 114
80 88 114
80 88 114
80 88 114
80 88 114
80 88 114
80 88 114
80 88 114
80 88 114
80 88 114
80 88 114
80 88 114
80 88 114
80 88 114
80 88 114
80 88 114
80 88 114
80 88 114
80 88 114
80 88 114
80 88 114
80 88 114
80 88 114
80 88 114
80 88 114
80 88 114
80 88 114
80 88 114
80 88 114
80 88 114
80 88 114
80 88 114
80 88 114
80 88 114
80 88 114
80 88 114
80 88 114
80 88 114
80 88 114
80 88 114
80 88 114
80 88 114
80 88 114
80 88 114
80 88 114
80 88 114
80 88 114
80 88 114
80 88 114
80 88 114
80 88 114
80 88 114
80 88 114
80 88 114
80 88 114
80 88 114
80 88 114
80 88 114
80 88 114
80 88 114
80 88 114
80 88 114
80 88 114
80 88 114
80 88 114
80 88 114
80 88 114
80 88 114
80 88 114
80 88 114
80 88 114
80 88 114
80 88 114
80 88 114
80 88 114
80 88 114
80 88 114
80 88 114
80 88 114
80 88 114
80 88 114
80 88 114
80 88 114
80 88 114
80 88 114
80 88 114
80 88 114
80 88 114
80 88 114
80 88 114
80 88 114
80 88 114
80 88 114
80 88 114
80 88 114
80 88 114
80 88 114
80 88 114
80 88 114
80 88 114
80 88 114
80 88 114
80 88 114
80 88 114
80 88 114
80 88 114
80 88 114
80 88 114
80 88 114
80 88 114
80 88 114
80 88 114
80 88 114
80 88 114
80 88 114
80 88 114
80 88 114
80 88 114
80 88 114
80 88 114
80 88 114
80 88 114
80 88 114
80 88 114
80 88 114
80 88 114
80 88 114
80 88 114
80 88 114
80 88 114
80 88 114
80 88 114
80 88 114
80 88 114
80 88 114
80 88 114
80 88 114
80 88 114
80 88 114
80 88 114
80 88 114
80 88 114
80 88 114
80 88 114
80 88 114
80 88 114
80 88 114
80 88 114
80 88 114
80 88 114
80 88 114
80 88 114
80 88 114
80 88 114
80 88 114
80 88 114
80 88 114
80 88 114
80 88 114
80 88 114
80 88 114
80 88 114
80 88 114
80 88 114
80 88 114
80 88 114
80 88 114
80 88 114
80 88 114
80 88 114
80 88 114
80 88 114
80 88 114
80 88 114
80 88 114
80 88 114
80 88 114
80 88 114
80 88 114
80 88 114
80 88 114
80 88 114
80 88 114
80 88 114
80 88 114
80 88 114
80 88 114
80 88 114
80 88 114
80 88 114
80 88 114
80 88 114
80 88 114
80 88 114
80 88 114
80 88 114
80 88 114
80 88 114
80 88 114
80 88 114
80 88 114
80 88 114
255 255 255
255 255 255
255 255 255
255 255 255
255 255 255
255 255 255
255 255 255
255 255 255
255 255 255
255 255 255
255 255 255
255 255 255
255 255 255
255 255 255
255 255 255
255 255 255
255 255 255
255 255 255
255 255 255
255 255 255
255 255 255
255 255 255
255 255 255
255 255 255
255 255 255
255 255 255
255 255 255
255 255 255
255 255 255
255 255 255
255 255 255
80 88 114
80 88 114
80 88 114
80 88 114
80 88 114
80 88 114
80 88 114
80 88 114
80 88 114
80 88 114
80 88 114
80 88 114
80 88 114
80 88 114
80 88 114
80 88 114
80 88 114
80 88 114
80 88 114
80 88 114
80 88 114
80 88 114
80 88 114
80 88 114
80 88 114
80 88 114
80 88 114
80 88 114
80 88 114
80 88 114
80 88 114
80 88 114
80 88 114
80 88 114
80 88 114
80 88 114
80 88 114
80 88 114
80 88 114
80 88 114
80 88 114
80 88 114
80 88 114
80 88 114
80 88 114
80 88 114
80 88 114
80 88 114
80 88 114
80 88 114
80 88 114
80 88 114
80 88 114
80 88 114
80 88 114
80 88 114
80 88 114
80 88 114
80 88 114
80 88 114
80 88 114
80 88 114
80 88 114
80 88 114
80 88 114
80 88 114
80 88 114
80 88 114
80 88 114
80 88 114
80 88 114
80 88 114
80 88 114
80 88 114
80 88 114
80 88 114
80 88 114
80 88 114
80 88 114
80 88 114
80 88 114
80 88 114
80 88 114
80 88 114
80 88 114
80 88 114
80 88 114
80 88 114
80 88 114
80 88 114
80 88 114
80 88 114
80 88 114
80 88 114
80 88 114
80 88 114
80 88 114
80 88 114
80 88 114
80 88 114
80 88 114
80 88 114
80 88 114
80 88 114
80 88 114
80 88 114
80 88 114
80 88 114
80 88 114
80 88 114
80 88 114
80 88 114
80 88 114
80 88 114
80 88 114
80 88 114
80 88 114
80 88 114
80 88 114
80 88 114
80 88 114
80 88 114
80 88 114
80 88 114
80 88 114
80 88 114
80 88 114
80 88 114
80 88 114
80 88 114
80 88 114
80 88 114
80 88 114
80 88 114
80 88 114
80 88 114
80 88 114
80 88 114
80 88 114
80 88 114
80 88 114
80 88 114
80 88 114
80 88 114
80 88 114
80 88 114
80 88 114
80 88 114
80 88 114
80 88 114
80 88 114
80 88 114
80 88 114
80 88 114
80 88 114
80 88 114
80 88 114
80 88 114
80 88 114
80 88 114
80 88 114
80 88 114
80 88 114
80 88 114
80 88 114
80 88 114
80 88 114
80 88 114
80 88 114
80 88 114
80 88 114
80 88 114
80 88 114
80 88 114
80 88 114
80 88 114
80 88 114
80 88 114
80 88 114
80 88 114
80 88 114
80 88 114
80 88 114
80 88 114
80 88 114
80 88 114
80 88 114
80 88 114
80 88 114
80 88 114
80 88 114
80 88 114
80 88 114
80 88 114
80 88 114
80 88 114
80 88 114
80 88 114
80 88 114
80 88 114
80 88 114
80 88 114
80 88 114
80 88 114
80 88 114
80 88 114
80 88 114
80 88 114
80 88 114
80 88 114
80 88 114
80 88 114
80 88 114
80 88 114
80 88 114
80 88 114
80 88 114
80 88 114
80 88 114
80 88 114
80 88 114
80 88 114
80 88 114
80 88 114
80 88 114
80 88 114
80 88 114
80 88 114
80 88 114
80 88 114
80 88 114
80 88 114
80 88 114
80 88 114
80 88 114
80 88 114
80 88 114
80 88 114
80 88 114
80 88 114
80 88 114
80 88 114
80 88 114
80 88 114
80 88 114
80 88 114
80 88 114
80 88 114
80 88 114
80 88 114
80 88 114
80 88 114
80 88 114
80 88 114
80 88 114
80 88 114
80 88 114
80 88 114
80 88 114
80 88 114
80 88 114
80 88 114
80 88 114
80 88 114
80 88 114
80 88 114
80 88 114
80 88 114
80 88 114
80 88 114
80 88 114
80 88 114
80 88 114
80 88 114
80 88 114
80 88 114
80 88 114
80 88 114
80 88 114
80 88 114
80 88 114
80 88 114
80 88 114
80 88 114
80 88 114
80 88 114
80 88 114
80 88 114
80 88 114
80 88 114
80 88 114
80 88 114
80 88 114
80 88 114
80 88 114
80 88 114
80 88 114
80 88 114
80 88 114
80 88 114
80 88 114
80 88 114
80 88 114
80 88 114
80 88 114
80 88 114
80 88 114
80 88 114
80 88 114
80 88 114
80 88 114
80 88 114
80 88 114
80 88 114
80 88 114
80 88 114
80 88 114
80 88 114
80 88 114
80 88 114
80 88 114
80 88 114
80 88 114
80 88 114
80 88 114
80 88 114
80 88 114
80 88 114
80 88 114
80 88 114
80 88 114
80 88 114
80 88 114
80 88 114
80 88 114
80 88 114
80 88 114
80 88 114
80 88 114
80 88 114
80 88 114
80 88 114
80 88 114
80 88 114
80 88 114
80 88 114
80 88 114
80 88 114
80 88 114
80 88 114
80 88 114
80 88 114
80 88 114
80 88 114
80 88 114
80 88 114
80 88 114
80 88 114
80 88 114
80 88 114
80 88 114
80 88 114
80 88 114
80 88 114
80 88 114
80 88 114
80 88 114
80 88 114
80 88 114
255 255 255
255 255 255
255 255 255
255 255 255
255 255 255
255 255 255
255 255 255
255 255 255
255 255 255
255 255 255
255 255 255
255 255 255
255 255 255
255 255 255
255 255 255
255 255 255
255 255 255
255 255 255
255 255 255
255 255 255
255 255 255
255 255 255
255 255 255
255 255 255
255 255 255
255 255 255
255 255 255
255 255 255
255 255 255
255 255 255
255 255 255
255 255 255
80 88 114
80 88 114
80 88 114
80 88 114
80 88 114
80 88 114
80 88 114
80 88 114
80 88 114
80 88 114
80 88 114
80 88 114
80 88 114
80 88 114
80 88 114
80 88 114
80 88 114
80 88 114
80 88 114
80 88 114
80 88 114
80 88 114
80 88 114
80 88 114
80 88 114
80 88 114
80 88 114
80 88 114
80 88 114
80 88 114
80 88 114
80 88 114
80 88 114
80 88 114
80 88 114
80 88 114
80 88 114
80 88 114
80 88 114
80 88 114
80 88 114
80 88 114
80 88 114
80 88 114
80 88 114
80 88 114
80 88 114
80 88 114
80 88 114
80 88 114
80 88 114
80 88 114
80 88 114
80 88 114
80 88 114
80 88 114
80 88 114
80 88 114
80 88 114
80 88 114
80 88 114
80 88 114
80 88 114
80 88 114
80 88 114
80 88 114
80 88 114
80 88 114
80 88 114
80 88 114
80 88 114
80 88 114
80 88 114
80 88 114
80 88 114
80 88 114
80 88 114
80 88 114
80 88 114
80 88 114
80 88 114
80 88 114
80 88 114
80 88 114
80 88 114
80 88 114
80 88 114
80 88 114
80 88 114
80 88 114
80 88 114
80 88 114
80 88 114
80 88 114
80 88 114
80 88 114
80 88 114
80 88 114
80 88 114
80 88 114
80 88 114
80 88 114
80 88 114
80 88 114
80 88 114
80 88 114
80 88 114
80 88 114
80 88 114
80 88 114
80 88 114
80 88 114
80 88 114
80 88 114
80 88 114
80 88 114
80 88 114
80 88 114
80 88 114
80 88 114
80 88 114
80 88 114
80 88 114
80 88 114
80 88 114
80 88 114
80 88 114
80 88 114
80 88 114
80 88 114
80 88 114
80 88 114
80 88 114
80 88 114
80 88 114
80 88 114
80 88 114
80 88 114
80 88 114
80 88 114
80 88 114
80 88 114
80 88 114
80 88 114
80 88 114
80 88 114
80 88 114
80 88 114
80 88 114
80 88 114
80 88 114
80 88 114
80 88 114
80 88 114
80 88 114
80 88 114
80 88 114
80 88 114
80 88 114
80 88 114
80 88 114
80 88 114
80 88 114
80 88 114
80 88 114
80 88 114
80 88 114
80 88 114
80 88 114
80 88 114
80 88 114
80 88 114
80 88 114
80 88 114
80 88 114
80 88 114
80 88 114
80 88 114
80 88 114
80 88 114
80 88 114
80 88 114
80 88 114
80 88 114
80 88 114
80 88 114
80 88 114
80 88 114
80 88 114
80 88 114
80 88 114
80 88 114
80 88 114
80 88 114
80 88 114
80 88 114
80 88 114
80 88 114
80 88 114
80 88 114
80 88 114
80 88 114
80 88 114
80 88 114
80 88 114
80 88 114
80 88 114
80 88 114
80 88 114
80 88 114
80 88 114
80 88 114
80 88 114
80 88 114
80 88 114
80 88 114
80 88 114
80 88 114
80 88 114
80 88 114
80 88 114
80 88 114
80 88 114
80 88 114
80 88 114
80 88 114
80 88 114
80 88 114
80 88 114
80 88 114
80 88 114
80 88 114
80 88 114
80 88 114
80 88 114
80 88 114
80 88 114
80 88 114
80 88 114
80 88 114
80 88 114
80 88 114
80 88 114
80 88 114
80 88 114
80 88 114
80 88 114
80 88 114
80 88 114
80 88 114
80 88 114
80 88 114
80 88 114
80 88 114
80 88 114
80 88 114
80 88 114
80 88 114
80 88 114
80 88 114
80 88 114
80 88 114
80 88 114
80 88 114
80 88 114
80 88 114
80 88 114
80 88 114
80 88 114
80 88 114
80 88 114
80 88 114
80 88 114
80 88 114
80 88 114
80 88 114
80 88 114
80 88 114
80 88 114
80 88 114
80 88 114
80 88 114
80 88 114
80 88 114
80 88 114
80 88 114
80 88 114
80 88 114
80 88 114
80 88 114
80 88 114
80 88 114
80 88 114
80 88 114
80 88 114
80 88 114
80 88 114
80 88 114
80 88 114
80 88 114
80 88 114
80 88 114
80 88 114
80 88 114
80 88 114
80 88 114
80 88 114
80 88 114
80 88 114
80 88 114
80 88 114
80 88 114
80 88 114
80 88 114
80 88 114
80 88 114
80 88 114
80 88 114
80 88 114
80 88 114
80 88 114
80 88 114
80 88 114
80 88 114
80 88 114
80 88 114
80 88 114
80 88 114
80 88 114
80 88 114
80 88 114
80 88 114
80 88 114
80 88 114
80 88 114
80 88 114
80 88 114
80 88 114
80 88 114
80 88 114
80 88 114
80 88 114
80 88 114
80 88 114
80 88 114
80 88 114
80 88 114
80 88 114
80 88 114
80 88 114
80 88 114
80 88 114
80 88 114
80 88 114
80 88 114
80 88 114
80 88 114
80 88 114
80 88 114
80 88 114
80 88 114
80 88 114
80 88 114
80 88 114
80 88 114
80 88 114
80 88 114
255 255 242
255 255 255
255 255 255
255 255 255
255 255 255
255 255 255
255 255 255
255 255 255
255 255 255
255 255 255
255 255 255
255 255 255
255 255 255
255 255 255
255 255 255
255 255 255
255 255 255
255 255 255
255 255 255
255 255 255
255 255 255
255 255 255
255 255 255
255 255 255
255 255 255
255 255 255
255 255 255
255 255 255
255 255 255
255 255 255
255 255 255
255 255 255
255 255 255
80 88 114
80 88 114
80 88 114
80 88 114
80 88 114
80 88 114
80 88 114
80 88 114
80 88 114
80 88 114
80 88 114
80 88 114
80 88 114
80 88 114
80 88 114
80 88 114
80 88 114
80 88 114
80 88 114
80 88 114
80 88 114
80 88 114
80 88 114
80 88 114
80 88 114
80 88 114
80 88 114
80 88 114
80 88 114
80 88 114
80 88 114
80 88 114
80 88 114
80 88 114
80 88 114
80 88 114
80 88 114
80 88 114
80 88 114
80 88 114
80 88 114
80 88 114
80 88 114
80 88 114
80 88 114
80 88 114
80 88 114
80 88 114
80 88 114
80 88 114
80 88 114
80 88 114
80 88 114
80 88 114
80 88 114
80 88 114
80 88 114
80 88 114
80 88 114
80 88 114
80 88 114
80 88 114
80 88 114
80 88 114
80 88 114
80 88 114
80 88 114
80 88 114
80 88 114
80 88 114
80 88 114
80 88 114
80 88 114
80 88 114
80 88 114
80 88 114
80 88 114
80 88 114
80 88 114
80 88 114
80 88 114
80 88 114
80 88 114
80 88 114
80 88 114
80 88 114
80 88 114
80 88 114
80 88 114
80 88 114
80 88 114
80 88 114
80 88 114
80 88 114
80 88 114
80 88 114
80 88 114
80 88 114
80 88 114
80 88 114
80 88 114
80 88 114
80 88 114
80 88 114
80 88 114
80 88 114
80 88 114
80 88 114
80 88 114
80 88 114
80 88 114
80 88 114
80 88 114
80 88 114
80 88 114
80 88 114
80 88 114
80 88 114
80 88 114
80 88 114
80 88 114
80 88 114
80 88 114
80 88 114
80 88 114
80 88 114
80 88 114
80 88 114
80 88 114
80 88 114
80 88 114
80 88 114
80 88 114
80 88 114
80 88 114
80 88 114
80 88 114
80 88 114
80 88 114
80 88 114
80 88 114
80 88 114
80 88 114
80 88 114
80 88 114
80 88 114
80 88 114
80 88 114
80 88 114
80 88 114
80 88 114
80 88 114
80 88 114
80 88 114
80 88 114
80 88 114
80 88 114
80 88 114
80 88 114
80 88 114
80 88 114
80 88 114
80 88 114
80 88 114
80 88 114
80 88 114
80 88 114
80 88 114
80 88 114
80 88 114
80 88 114
80 88 114
80 88 114
80 88 114
80 88 114
80 88 114
80 88 114
80 88 114
80 88 114
80 88 114
80 88 114
80 88 114
80 88 114
80 88 114
80 88 114
80 88 114
80 88 114
80 88 114
80 88 114
80 88 114
80 88 114
80 88 114
80 88 114
80 88 114
80 88 114
80 88 114
80 88 114
80 88 114
80 88 114
80 88 114
80 88 114
80 88 114
80 88 114
80 88 114
80 88 114
80 88 114
80 88 114
80 88 114
80 88 114
80 88 114
80 88 114
80 88 114
80 88 114
80 88 114
80 88 114
80 88 114
80 88 114
80 88 114
80 88 114
80 88 114
80 88 114
80 88 114
80 88 114
80 88 114
80 88 114
80 88 114
80 88 114
80 88 114
80 88 114
80 88 114
80 88 114
80 88 114
80 88 114
80 88 114
80 88 114
80 88 114
80 88 114
80 88 114
80 88 114
80 88 114
80 88 114
80 88 114
80 88 114
80 88 114
80 88 114
80 88 114
80 88 114
80 88 114
80 88 114
80 88 114
80 88 114
80 88 114
80 88 114
80 88 114
80 88 114
80 88 114
80 88 114
80 88 114
80 88 114
80 88 114
80 88 114
80 88 114
80 88 114
80 88 114
80 88 114
80 88 114
80 88 114
80 88 114
80 88 114
80 88 114
80 88 114
80 88 114
80 88 114
80 88 114
80 88 114
80 88 114
80 88 114
80 88 114
80 88 114
80 88 114
80 88 114
80 88 114
80 88 114
80 88 114
80 88 114
80 88 114
80 88 114
80 88 114
80 88 114
80 88 114
80 88 114
80 88 114
80 88 114
80 88 114
80 88 114
80 88 114
80 88 114
80 88 114
80 88 114
80 88 114
80 88 114
80 88 114
80 88 114
80 88 114
80 88 114
80 88 114
80 88 114
80 88 114
80 88 114
80 88 114
80 88 114
80 88 114
80 88 114
80 88 114
80 88 114
80 88 114
80 88 114
80 88 114
80 88 114
80 88 114
80 88 114
80 88 114
80 88 114
80 88 114
80 88 114
80 88 114
80 88 114
80 88 114
80 88 114
80 88 114
80 88 114
80 88 114
80 88 114
80 88 114
80 88 114
80 88 114
80 88 114
80 88 114
80 88 114
80 88 114
80 88 114
80 88 114
80 88 114
80 88 114
80 88 114
80 88 114
80 88 114
80 88 114
80 88 114
80 88 114
80 88 114
80 88 114
80 88 114
80 88 114
80 88 114
80 88 114
80 88 114
80 88 114
80 88 114
80 88 114
80 88 114
80 88 114
80 88 114
80 88 114
80 88 114
80 88 114
80 88 114
255 255 255
255 255 255
255 255 255
255 255 255
255 255 255
255 255 255
255 255 255
255 255 255
255 255 255
255 255 255
255 255 255
255 255 255
255 255 255
255 255 255
255 255 255
255 255 255
255 255 255
255 255 255
255 255 255
255 255 255
255 255 255
255 255 255
255 255 255
255 255 255
255 255 255
255 255 255
255 255 255
255 255 255
255 255 255
255 255 255
255 255 255
255 255 255
255 255 255
251 248 215
80 88 114
80 88 114
80 88 114
80 88 114
80 88 114
80 88 114
80 88 114
80 88 114
80 88 114
80 88 114
80 88 114
80 88 114
80 88 114
80 88 114
80 88 114
80 88 114
80 88 114
80 88 114
80 88 114
80 88 114
80 88 114
80 88 114
80 88 114
80 88 114
80 88 114
80 88 114
80 88 114
80 88 114
80 88 114
80 88 114
80 88 114
80 88 114
80 88 114
80 88 114
80 88 114
80 88 114
80 88 114
80 88 114
80 88 114
80 88 114
80 88 114
80 88 114
80 88 114
80 88 114
80 88 114
80 88 114
80 88 114
80 88 114
80 88 114
80 88 114
80 88 114
80 88 114
80 88 114
80 88 114
80 88 114
80 88 114
80 88 114
80 88 114
80 88 114
80 88 114
80 88 114
80 88 114
80 88 114
80 88 114
80 88 114
80 88 114
80 88 114
80 88 114
80 88 114
80 88 114
80 88 114
80 88 114
80 88 114
80 88 114
80 88 114
80 88 114
80 88 114
80 88 114
80 88 114
80 88 114
80 88 114
80 88 114
80 88 114
80 88 114
80 88 114
80 88 114
80 88 114
80 88 114
80 88 114
80 88 114
80 88 114
80 88 114
80 88 114
80 88 114
80 88 114
80 88 114
80 88 114
80 88 114
80 88 114
80 88 114
80 88 114
80 88 114
80 88 114
80 88 114
80 88 114
80 88 114
80 88 114
80 88 114
80 88 114
80 88 114
80 88 114
80 88 114
80 88 114
80 88 114
80 88 114
80 88 114
80 88 114
80 88 114
80 88 114
80 88 114
80 88 114
80 88 114
80 88 114
80 88 114
80 88 114
80 88 114
80 88 114
80 88 114
80 88 114
80 88 114
80 88 114
80 88 114
80 88 114
80 88 114
80 88 114
80 88 114
80 88 114
80 88 114
80 88 114
80 88 114
80 88 114
80 88 114
80 88 114
80 88 114
80 88 114
80 88 114
80 88 114
80 88 114
80 88 114
80 88 114
80 88 114
80 88 114
80 88 114
80 88 114
80 88 114
80 88 114
80 88 114
80 88 114
80 88 114
80 88 114
80 88 114
80 88 114
80 88 114
80 88 114
80 88 114
80 88 114
80 88 114
80 88 114
80 88 114
80 88 114
80 88 114
80 88 114
80 88 114
80 88 114
80 88 114
80 88 114
80 88 114
80 88 114
80 88 114
80 88 114
80 88 114
80 88 114
80 88 114
80 88 114
80 88 114
80 88 114
80 88 114
80 88 114
80 88 114
80 88 114
80 88 114
80 88 114
80 88 114
80 88 114
80 88 114
80 88 114
80 88 114
80 88 114
80 88 114
80 88 114
80 88 114
80 88 114
80 88 114
80 88 114
80 88 114
80 88 114
80 88 114
80 88 114
80 88 114
80 88 114
80 88 114
80 88 114
80 88 114
80 88 114
80 88 114
80 88 114
80 88 114
80 88 114
80 88 114
80 88 114
80 88 114
80 88 114
80 88 114
80 88 114
80 88 114
80 88 114
80 88 114
80 88 114
80 88 114
80 88 114
80 88 114
80 88 114
80 88 114
80 88 114
80 88 114
80 88 114
80 88 114
80 88 114
80 88 114
80 88 114
80 88 114
80 88 114
80 88 114
80 88 114
80 88 114
80 88 114
80 88 114
80 88 114
80 88 114
80 88 114
80 88 114
80 88 114
80 88 114
80 88 114
80 88 114
80 88 114
80 88 114
80 88 114
80 88 114
80 88 114
80 88 114
80 88 114
80 88 114
80 88 114
80 88 114
80 88 114
80 88 114
80 88 114
80 88 114
80 88 114
80 88 114
80 88 114
80 88 114
80 88 114
80 88 114
80 88 114
80 88 114
80 88 114
80 88 114
80 88 114
80 88 114
80 88 114
80 88 114
80 88 114
80 88 114
80 88 114
80 88 114
80 88 114
80 88 114
80 88 114
80 88 114
80 88 114
80 88 114
80 88 114
80 88 114
80 88 114
80 88 114
80 88 114
80 88 114
80 88 114
80 88 114
80 88 114
80 88 114
80 88 114
80 88 114
80 88 114
80 88 114
80 88 114
80 88 114
80 88 114
80 88 114
80 88 114
80 88 114
80 88 114
80 88 114
80 88 114
80 88 114
80 88 114
80 88 114
80 88 114
80 88 114
80 88 114
80 88 114
80 88 114
80 88 114
80 88 114
80 88 114
80 88 114
80 88 114
80 88 114
80 88 114
80 88 114
80 88 114
80 88 114
80 88 114
80 88 114
80 88 114
80 88 114
80 88 114
80 88 114
80 88 114
80 88 114
80 88 114
80 88 114
80 88 114
80 88 114
80 88 114
80 88 114
80 88 114
80 88 114
80 88 114
80 88 114
80 88 114
80 88 114
80 88 114
80 88 114
80 88 114
80 88 114
80 88 114
80 88 114
80 88 114
80 88 114
80 88 114
80 88 114
80 88 114
80 88 114
255 255 255
255 255 255
255 255 255
255 255 255
255 255 255
255 255 255
255 255 255
255 255 255
255 255 255
255 255 255
255 255 255
255 255 255
255 255 255
255 255 255
255 255 255
255 255 255
255 255 255
255 255 255
255 255 255
255 255 255
255 255 255
255 255 255
255 255 255
255 255 255
255 255 255
255 255 255
255 255 255
255 255 255
255 255 255
255 255 255
255 255 255
255 255 255
255 255 255
255 255 255
80 88 114
80 88 114
80 88 114
80 88 114
80 88 114
80 88 114
80 88 114
80 88 114
80 88 114
80 88 114
80 88 114
80 88 114
80 88 114
80 88 114
80 88 114
80 88 114
80 88 114
80 88 114
80 88 114
80 88 114
80 88 114
80 88 114
80 88 114
80 88 114
80 88 114
80 88 114
80 88 114
80 88 114
80 88 114
80 88 114
80 88 114
80 88 114
80 88 114
80 88 114
80 88 114
80 88 114
80 88 114
80 88 114
80 88 114
80 88 114
80 88 114
80 88 114
80 88 114
80 88 114
80 88 114
80 88 114
80 88 114
80 88 114
80 88 114
80 88 114
80 88 114
80 88 114
80 88 114
80 88 114
80 88 114
80 88 114
80 88 114
80 88 114
80 88 114
80 88 114
80 88 114
80 88 114
80 88 114
80 88 114
80 88 114
80 88 114
80 88 114
80 88 114
80 88 114
80 88 114
80 88 114
80 88 114
80 88 114
80 88 114
80 88 114
80 88 114
80 88 114
80 88 114
80 88 114
80 88 114
80 88 114
80 88 114
80 88 114
80 88 114
80 88 114
80 88 114
80 88 114
80 88 114
80 88 114
80 88 114
80 88 114
80 88 114
80 88 114
80 88 114
80 88 114
80 88 114
80 88 114
80 88 114
80 88 114
80 88 114
80 88 114
80 88 114
80 88 114
80 88 114
80 88 114
80 88 114
80 88 114
80 88 114
80 88 114
80 88 114
80 88 114
80 88 114
80 88 114
80 88 114
80 88 114
80 88 114
80 88 114
80 88 114
80 88 114
80 88 114
80 88 114
80 88 114
80 88 114
80 88 114
80 88 114
80 88 114
80 88 114
80 88 114
80 88 114
80 88 114
80 88 114
80 88 114
80 88 114
80 88 114
80 88 114
80 88 114
80 88 114
80 88 114
80 88 114
80 88 114
80 88 114
80 88 114
80 88 114
80 88 114
80 88 114
80 88 114
80 88 114
80 88 114
80 88 114
80 88 114
80 88 114
80 88 114
80 88 114
80 88 114
80 88 114
80 88 114
80 88 114
80 88 114
80 88 114
80 88 114
80 88 114
80 88 114
80 88 114
80 88 114
80 88 114
80 88 114
80 88 114
80 88 114
80 88 114
80 88 114
80 88 114
80 88 114
80 88 114
80 88 114
80 88 114
80 88 114
80 88 114
80 88 114
80 88 114
80 88 114
80 88 114
80 88 114
80 88 114
80 88 114
80 88 114
80 88 114
80 88 114
80 88 114
80 88 114
80 88 114
80 88 114
80 88 114
80 88 114
80 88 114
80 88 114
80 88 114
80 88 114
80 88 114
80 88 114
80 88 114
80 88 114
80 88 114
80 88 114
80 88 114
80 88 114
80 88 114
80 88 114
80 88 114
80 88 114
80 88 114
80 88 114
80 88 114
80 88 114
80 88 114
80 88 114
80 88 114
80 88 114
80 88 114
80 88 114
80 88 114
80 88 114
80 88 114
80 88 114
80 88 114
80 88 114
80 88 114
80 88 114
80 88 114
80 88 114
80 88 114
80 88 114
80 88 114
80 88 114
80 88 114
80 88 114
80 88 114
80 88 114
80 88 114
80 88 114
80 88 114
80 88 114
80 88 114
80 88 114
80 88 114
80 88 114
80 88 114
80 88 114
80 88 114
80 88 114
80 88 114
80 88 114
80 88 114
80 88 114
80 88 114
80 88 114
80 88 114
80 88 114
80 88 114
80 88 114
80 88 114
80 88 114
80 88 114
80 88 114
80 88 114
80 88 114
80 88 114
80 88 114
80 88 114
80 88 114
80 88 114
80 88 114
80 88 114
80 88 114
80 88 114
80 88 114
80 88 114
80 88 114
80 88 114
80 88 114
80 88 114
80 88 114
80 88 114
80 88 114
80 88 114
80 88 114
80 88 114
80 88 114
80 88 114
80 88 114
80 88 114
80 88 114
80 88 114
80 88 114
80 88 114
80 88 114
80 88 114
80 88 114
80 88 114
80 88 114
80 88 114
80 88 114
80 88 114
80 88 114
80 88 114
80 88 114
80 88 114
80 88 114
80 88 114
80 88 114
80 88 114
80 88 114
80 88 114
80 88 114
80 88 114
80 88 114
80 88 114
80 88 114
80 88 114
80 88 114
80 88 114
80 88 114
80 88 114
80 88 114
80 88 114
80 88 114
80 88 114
80 88 114
80 88 114
80 88 114
80 88 114
80 88 114
80 88 114
80 88 114
80 88 114
80 88 114
80 88 114
80 88 114
80 88 114
80 88 114
80 88 114
80 88 114
80 88 114
80 88 114
80 88 114
80 88 114
80 88 114
80 88 114
80 88 114
80 88 114
80 88 114
80 88 114
80 88 114
80 88 114
80 88 114
80 88 114
80 88 114
80 88 114
80 88 114
80 88 114
80 88 114
80 88 114
80 88 114
80 88 114
80 88 114
80 88 114
197 196 179
255 255 255
255 255 255
255 255 255
255 255 255
255 255 255
255 255 255
255 255 255
255 255 255
255 255 255
255 255 255
255 255 255
255 255 255
255 255 255
255 255 255
255 255 255
255 255 255
255 255 255
255 255 255
255 255 255
255 255 255
255 255 255
255 255 255
255 255 255
255 255 255
255 255 255
255 255 255
255 255 255
255 255 255
255 255 255
255 255 255
255 255 255
255 255 255
255 255 255
255 255 255
80 88 114
80 88 114
80 88 114
80 88 114
80 88 114
80 88 114
80 88 114
80 88 114
80 88 114
80 88 114
80 88 114
80 88 114
80 88 114
80 88 114
80 88 114
80 88 114
80 88 114
80 88 114
80 88 114
80 88 114
80 88 114
80 88 114
80 88 114
80 88 114
80 88 114
80 88 114
80 88 114
80 88 114
80 88 114
80 88 114
80 88 114
80 88 114
80 88 114
80 88 114
80 88 114
80 88 114
80 88 114
80 88 114
80 88 114
80 88 114
80 88 114
80 88 114
80 88 114
80 88 114
80 88 114
80 88 114
80 88 114
80 88 114
80 88 114
80 88 114
80 88 114
80 88 114
80 88 114
80 88 114
80 88 114
80 88 114
80 88 114
80 88 114
80 88 114
80 88 114
80 88 114
80 88 114
80 88 114
80 88 114
80 88 114
80 88 114
80 88 114
80 88 114
80 88 114
80 88 114
80 88 114
80 88 114
80 88 114
80 88 114
80 88 114
80 88 114
80 88 114
80 88 114
80 88 114
80 88 114
80 88 114
80 88 114
80 88 114
80 88 114
80 88 114
80 88 114
80 88 114
80 88 114
80 88 114
80 88 114
80 88 114
80 88 114
80 88 114
80 88 114
80 88 114
80 88 114
80 88 114
80 88 114
80 88 114
80 88 114
80 88 114
80 88 114
80 88 114
80 88 114
80 88 114
80 88 114
80 88 114
80 88 114
80 88 114
80 88 114
80 88 114
80 88 114
80 88 114
80 88 114
80 88 114
80 88 114
80 88 114
80 88 114
80 88 114
80 88 114
80 88 114
80 88 114
80 88 114
80 88 114
80 88 114
80 88 114
80 88 114
80 88 114
80 88 114
80 88 114
80 88 114
80 88 114
80 88 114
80 88 114
80 88 114
80 88 114
80 88 114
80 88 114
80 88 114
80 88 114
80 88 114
80 88 114
80 88 114
80 88 114
80 88 114
80 88 114
80 88 114
80 88 114
80 88 114
80 88 114
80 88 114
80 88 114
80 88 114
80 88 114
80 88 114
80 88 114
80 88 114
80 88 114
80 88 114
80 88 114
80 88 114
80 88 114
80 88 114
80 88 114
80 88 114
80 88 114
80 88 114
80 88 114
80 88 114
80 88 114
80 88 114
80 88 114
80 88 114
80 88 114
80 88 114
80 88 114
80 88 114
80 88 114
80 88 114
80 88 114
80 88 114
80 88 114
80 88 114
80 88 114
80 88 114
80 88 114
80 88 114
80 88 114
80 88 114
80 88 114
80 88 114
80 88 114
80 88 114
80 88 114
80 88 114
80 88 114
80 88 114
80 88 114
80 88 114
80 88 114
80 88 114
80 88 114
80 88 114
80 88 114
80 88 114
80 88 114
80 88 114
80 88 114
80 88 114
80 88 114
80 88 114
80 88 114
80 88 114
80 88 114
80 88 114
80 88 114
80 88 114
80 88 114
80 88 114
80 88 114
80 88 114
80 88 114
80 88 114
80 88 114
80 88 114
80 88 114
80 88 114
80 88 114
80 88 114
80 88 114
80 88 114
80 88 114
80 88 114
80 88 114
80 88 114
80 88 114
80 88 114
80 88 114
80 88 114
80 88 114
80 88 114
80 88 114
80 88 114
80 88 114
80 88 114
80 88 114
80 88 114
80 88 114
80 88 114
80 88 114
80 88 114
80 88 114
80 88 114
80 88 114
80 88 114
80 88 114
80 88 114
80 88 114
80 88 114
80 88 114
80 88 114
80 88 114
80 88 114
80 88 114
80 88 114
80 88 114
80 88 114
80 88 114
80 88 114
80 88 114
80 88 114
80 88 114
80 88 114
80 88 114
80 88 114
80 88 114
80 88 114
80 88 114
80 88 114
80 88 114
80 88 114
80 88 114
80 88 114
80 88 114
80 88 114
80 88 114
80 88 114
80 88 114
80 88 114
80 88 114
80 88 114
80 88 114
80 88 114
80 88 114
80 88 114
80 88 114
80 88 114
80 88 114
80 88 114
80 88 114
80 88 114
80 88 114
80 88 114
80 88 114
80 88 114
80 88 114
80 88 114
80 88 114
80 88 114
80 88 114
80 88 114
80 88 114
80 88 114
80 88 114
80 88 114
80 88 114
80 88 114
80 88 114
80 88 114
80 88 114
80 88 114
80 88 114
80 88 114
80 88 114
80 88 114
80 88 114
80 88 114
80 88 114
80 88 114
80 88 114
80 88 114
80 88 114
80 88 114
80 88 114
80 88 114
80 88 114
80 88 114
80 88 114
80 88 114
80 88 114
80 88 114
80 88 114
80 88 114
80 88 114
80 88 114
80 88 114
80 88 114
80 88 114
80 88 114
80 88 114
80 88 114
80 88 114
80 88 114
80 88 114
80 88 114
80 88 114
80 88 114
80 88 114
80 88 114
80 88 114
80 88 114
80 88 114
80 88 114
80 88 114
80 88 114
255 255 255
255 255 255
255 255 255
255 255 255
255 255 255
255 255 255
255 255 255
255 255 255
255 255 255
255 255 255
255 255 255
255 255 255
255 255 255
255 255 255
255 255 255
255 255 255
255 255 255
255 255 255
255 255 255
255 255 255
255 255 255
255 255 255
255 255 255
255 255 255
255 255 255
255 255 255
255 255 255
255 255 255
255 255 255
255 255 255
255 255 255
255 255 255
255 255 255
255 255 255
255 255 255
80 88 114
80 88 114
80 88 114
80 88 114
80 88 114
80 88 114
80 88 114
80 88 114
80 88 114
80 88 114
80 88 114
80 88 114
80 88 114
80 88 114
80 88 114
80 88 114
80 88 114
80 88 114
80 88 114
80 88 114
80 88 114
80 88 114
80 88 114
80 88 114
80 88 114
80 88 114
80 88 114
80 88 114
80 88 114
80 88 114
80 88 114
80 88 114
80 88 114
80 88 114
80 88 114
80 88 114
80 88 114
80 88 114
80 88 114
80 88 114
80 88 114
80 88 114
80 88 114
80 88 114
80 88 114
80 88 114
80 88 114
80 88 114
80 88 114
80 88 114
80 88 114
80 88 114
80 88 114
80 88 114
80 88 114
80 88 114
80 88 114
80 88 114
80 88 114
80 88 114
80 88 114
80 88 114
80 88 114
80 88 114
80 88 114
80 88 114
80 88 114
80 88 114
80 88 114
80 88 114
80 88 114
80 88 114
80 88 114
80 88 114
80 88 114
80 88 114
80 88 114
80 88 114
80 88 114
80 88 114
80 88 114
80 88 114
80 88 114
80 88 114
80 88 114
80 88 114
80 88 114
80 88 114
80 88 114
80 88 114
80 88 114
80 88 114
80 88 114
80 88 114
80 88 114
80 88 114
80 88 114
80 88 114
80 88 114
80 88 114
80 88 114
80 88 114
80 88 114
80 88 114
80 88 114
80 88 114
80 88 114
80 88 114
80 88 114
80 88 114
80 88 114
80 88 114
80 88 114
80 88 114
80 88 114
80 88 114
80 88 114
80 88 114
80 88 114
80 88 114
80 88 114
80 88 114
80 88 114
80 88 114
80 88 114
80 88 114
80 88 114
80 88 114
80 88 114
80 88 114
80 88 114
80 88 114
80 88 114
80 88 114
80 88 114
80 88 114
80 88 114
80 88 114
80 88 114
80 88 114
80 88 114
80 88 114
80 88 114
80 88 114
80 88 114
80 88 114
80 88 114
80 88 114
80 88 114
80 88 114
80 88 114
80 88 114
80 88 114
80 88 114
80 88 114
80 88 114
80 88 114
80 88 114
80 88 114
80 88 114
80 88 114
80 88 114
80 88 114
80 88 114
80 88 114
80 88 114
80 88 114
80 88 114
80 88 114
80 88 114
80 88 114
80 88 114
80 88 114
80 88 114
80 88 114
80 88 114
80 88 114
80 88 114
80 88 114
80 88 114
80 88 114
80 88 114
80 88 114
80 88 114
80 88 114
80 88 114
80 88 114
80 88 114
80 88 114
80 88 114
80 88 114
80 88 114
80 88 114
80 88 114
80 88 114
80 88 114
80 88 114
80 88 114
80 88 114
80 88 114
80 88 114
80 88 114
80 88 114
80 88 114
80 88 114
80 88 114
80 88 114
80 88 114
80 88 114
80 88 114
80 88 114
80 88 114
80 88 114
80 88 114
80 88 114
80 88 114
80 88 114
80 88 114
80 88 114
80 88 114
80 88 114
80 88 114
80 88 114
80 88 114
80 88 114
80 88 114
80 88 114
80 88 114
80 88 114
80 88 114
80 88 114
80 88 114
80 88 114
80 88 114
80 88 114
80 88 114
80 88 114
80 88 114
80 88 114
80 88 114
80 88 114
80 88 114
80 88 114
80 88 114
80 88 114
80 88 114
80 88 114
80 88 114
80 88 114
80 88 114
80 88 114
80 88 114
80 88 114
80 88 114
80 88 114
80 88 114
80 88 114
80 88 114
80 88 114
80 88 114
80 88 114
80 88 114
80 88 114
80 88 114
80 88 114
80 88 114
80 88 114
80 88 114
80 88 114
80 88 114
80 88 114
80 88 114
80 88 114
80 88 114
80 88 114
80 88 114
80 88 114
80 88 114
80 88 114
80 88 114
80 88 114
80 88 114
80 88 114
80 88 114
80 88 114
80 88 114
80 88 114
80 88 114
80 88 114
80 88 114
80 88 114
80 88 114
80 88 114
80 88 114
80 88 114
80 88 114
80 88 114
80 88 114
80 88 114
80 88 114
80 88 114
80 88 114
80 88 114
80 88 114
80 88 114
80 88 114
80 88 114
80 88 114
80 88 114
80 88 114
80 88 114
80 88 114
80 88 114
80 88 114
80 88 114
80 88 114
80 88 114
80 88 114
80 88 114
80 88 114
80 88 114
80 88 114
80 88 114
80 88 114
80 88 114
80 88 114
80 88 114
80 88 114
80 88 114
80 88 114
80 88 114
80 88 114
80 88 114
80 88 114
80 88 114
80 88 114
80 88 114
80 88 114
80 88 114
80 88 114
80 88 114
80 88 114
80 88 114
80 88 114
80 88 114
80 88 114
80 88 114
80 88 114
80 88 114
80 88 114
80 88 114
80 88 114
80 88 114
80 88 114
80 88 114
80 88 114
80 88 114
80 88 114
80 88 114
80 88 114
80 88 114
80 88 114
80 88 114
80 88 114
80 88 114
255 255 255
255 255 255
255 255 255
255 255 255
255 255 255
255 255 255
255 255 255
255 255 255
255 255 255
255 255 255
255 255 255
255 255 255
255 255 255
255 255 255
255 255 255
255 255 255
255 255 255
255 255 255
255 255 255
255 255 255
255 255 255
255 255 255
255 255 255
255 255 255
255 255 255
255 255 255
255 255 255
255 255 255
255 255 255
255 255 255
255 255 255
255 255 255
255 255 255
255 255 255
255 255 255
80 88 114
80 88 114
80 88 114
80 88 114
80 88 114
80 88 114
80 88 114
80 88 114
80 88 114
80 88 114
80 88 114
80 88 114
80 88 114
80 88 114
80 88 114
80 88 114
80 88 114
80 88 114
80 88 114
80 88 114
80 88 114
80 88 114
80 88 114
80 88 114
80 88 114
80 88 114
80 88 114
80 88 114
80 88 114
80 88 114
80 88 114
80 88 114
80 88 114
80 88 114
80 88 114
80 88 114
80 88 114
80 88 114
80 88 114
80 88 114
80 88 114
80 88 114
80 88 114
80 88 114
80 88 114
80 88 114
80 88 114
80 88 114
80 88 114
80 88 114
80 88 114
80 88 114
80 88 114
80 88 114
80 88 114
80 88 114
80 88 114
80 88 114
80 88 114
80 88 114
80 88 114
80 88 114
80 88 114
80 88 114
80 88 114
80 88 114
80 88 114
80 88 114
80 88 114
80 88 114
80 88 114
80 88 114
80 88 114
80 88 114
80 88 114
80 88 114
80 88 114
80 88 114
80 88 114
80 88 114
80 88 114
80 88 114
80 88 114
80 88 114
80 88 114
80 88 114
80 88 114
80 88 114
80 88 114
80 88 114
80 88 114
80 88 114
80 88 114
80 88 114
80 88 114
80 88 114
80 88 114
80 88 114
80 88 114
80 88 114
80 88 114
80 88 114
80 88 114
80 88 114
80 88 114
80 88 114
80 88 114
80 88 114
80 88 114
80 88 114
80 88 114
80 88 114
80 88 114
80 88 114
80 88 114
80 88 114
80 88 114
80 88 114
80 88 114
80 88 114
80 88 114
80 88 114
80 88 114
80 88 114
80 88 114
80 88 114
80 88 114
80 88 114
80 88 114
80 88 114
80 88 114
80 88 114
80 88 114
80 88 114
80 88 114
80 88 114
80 88 114
80 88 114
80 88 114
80 88 114
80 88 114
80 88 114
80 88 114
80 88 114
80 88 114
80 88 114
80 88 114
80 88 114
80 88 114
80 88 114
80 88 114
80 88 114
80 88 114
80 88 114
80 88 114
80 88 114
80 88 114
80 88 114
80 88 114
80 88 114
80 88 114
80 88 114
80 88 114
80 88 114
80 88 114
80 88 114
80 88 114
80 88 114
80 88 114
80 88 114
80 88 114
80 88 114
80 88 114
80 88 114
80 88 114
80 88 114
80 88 114
80 88 114
80 88 114
80 88 114
80 88 114
80 88 114
80 88 114
80 88 114
80 88 114
80 88 114
80 88 114
80 88 114
80 88 114
80 88 114
80 88 114
80 88 114
80 88 114
80 88 114
80 88 114
80 88 114
80 88 114
80 88 114
80 88 114
80 88 114
80 88 114
80 88 114
80 88 114
80 88 114
80 88 114
80 88 114
80 88 114
80 88 114
80 88 114
80 88 114
80 88 114
80 88 114
80 88 114
80 88 114
80 88 114
80 88 114
80 88 114
80 88 114
80 88 114
80 88 114
80 88 114
80 88 114
80 88 114
80 88 114
80 88 114
80 88 114
80 88 114
80 88 114
80 88 114
80 88 114
80 88 114
80 88 114
80 88 114
80 88 114
80 88 114
80 88 114
80 88 114
80 88 114
80 88 114
80 88 114
80 88 114
80 88 114
80 88 114
80 88 114
80 88 114
80 88 114
80 88 114
80 88 114
80 88 114
80 88 114
80 88 114
80 88 114
80 88 114
80 88 114
80 88 114
80 88 114
80 88 114
80 88 114
80 88 114
80 88 114
80 88 114
80 88 114
80 88 114
80 88 114
80 88 114
80 88 114
80 88 114
80 88 114
80 88 114
80 88 114
80 88 114
80 88 114
80 88 114
80 88 114
80 88 114
80 88 114
80 88 114
80 88 114
80 88 114
80 88 114
80 88 114
80 88 114
80 88 114
80 88 114
80 88 114
80 88 114
80 88 114
80 88 114
80 88 114
80 88 114
80 88 114
80 88 114
80 88 114
80 88 114
80 88 114
80 88 114
80 88 114
80 88 114
80 88 114
80 88 114
80 88 114
80 88 114
80 88 114
80 88 114
80 88 114
80 88 114
80 88 114
80 88 114
80 88 114
80 88 114
80 88 114
80 88 114
80 88 114
80 88 114
80 88 114
80 88 114
80 88 114
80 88 114
80 88 114
80 88 114
80 88 114
80 88 114
80 88 114
80 88 114
80 88 114
80 88 114
80 88 114
80 88 114
80 88 114
80 88 114
80 88 114
80 88 114
80 88 114
80 88 114
80 88 114
80 88 114
80 88 114
80 88 114
80 88 114
80 88 114
80 88 114
80 88 114
80 88 114
80 88 114
80 88 114
80 88 114
80 88 114
80 88 114
80 88 114
80 88 114
80 88 114
80 88 114
80 88 114
80 88 114
80 88 114
80 88 114
80 88 114
80 88 114
80 88 114
80 88 114
80 88 114
80 88 114
80 88 114
80 88 114
80 88 114
255 255 255
255 255 255
255 255 255
255 255 255
255 255 255
255 255 255
255 255 255
255 255 255
255 255 255
255 255 255
255 255 255
255 255 255
255 255 255
255 255 255
255 255 255
255 255 255
255 255 255
255 255 255
255 255 255
255 255 255
255 255 255
255 255 255
255 255 255
255 255 255
255 255 255
255 255 255
255 255 255
255 255 255
255 255 255
255 255 255
255 255 255
255 255 255
255 255 255
255 255 255
255 255 255
166 166 159
80 88 114
80 88 114
80 88 114
80 88 114
80 88 114
80 88 114
80 88 114
80 88 114
80 88 114
80 88 114
80 88 114
80 88 114
80 88 114
80 88 114
80 88 114
80 88 114
80 88 114
80 88 114
80 88 114
80 88 114
80 88 114
80 88 114
80 88 114
80 88 114
80 88 114
80 88 114
80 88 114
80 88 114
80 88 114
80 88 114
80 88 114
80 88 114
80 88 114
80 88 114
80 88 114
80 88 114
80 88 114
80 88 114
80 88 114
80 88 114
80 88 114
80 88 114
80 88 114
80 88 114
80 88 114
80 88 114
80 88 114
80 88 114
80 88 114
80 88 114
80 88 114
80 88 114
80 88 114
80 88 114
80 88 114
80 88 114
80 88 114
80 88 114
80 88 114
80 88 114
80 88 114
80 88 114
80 88 114
80 88 114
80 88 114
80 88 114
80 88 114
80 88 114
80 88 114
80 88 114
80 88 114
80 88 114
80 88 114
80 88 114
80 88 114
80 88 114
80 88 114
80 88 114
80 88 114
80 88 114
80 88 114
80 88 114
80 88 114
80 88 114
80 88 114
80 88 114
80 88 114
80 88 114
80 88 114
80 88 114
80 88 114
80 88 114
80 88 114
80 88 114
80 88 114
80 88 114
80 88 114
80 88 114
80 88 114
80 88 114
80 88 114
80 88 114
80 88 114
80 88 114
80 88 114
80 88 114
80 88 114
80 88 114
80 88 114
80 88 114
80 88 114
80 88 114
80 88 114
80 88 114
80 88 114
80 88 114
80 88 114
80 88 114
80 88 114
80 88 114
80 88 114
80 88 114
80 88 114
80 88 114
80 88 114
80 88 114
80 88 114
80 88 114
80 88 114
80 88 114
80 88 114
80 88 114
80 88 114
80 88 114
80 88 114
80 88 114
80 88 114
80 88 114
80 88 114
80 88 114
80 88 114
80 88 114
80 88 114
80 88 114
80 88 114
80 88 114
80 88 114
80 88 114
80 88 114
80 88 114
80 88 114
80 88 114
80 88 114
80 88 114
80 88 114
80 88 114
80 88 114
80 88 114
80 88 114
80 88 114
80 88 114
80 88 114
80 88 114
80 88 114
80 88 114
80 88 114
80 88 114
80 88 114
80 88 114
80 88 114
80 88 114
80 88 114
80 88 114
80 88 114
80 88 114
80 88 114
80 88 114
80 88 114
80 88 114
80 88 114
80 88 114
80 88 114
80 88 114
80 88 114
80 88 114
80 88 114
80 88 114
80 88 114
80 88 114
80 88 114
80 88 114
80 88 114
80 88 114
80 88 114
80 88 114
80 88 114
80 88 114
80 88 114
80 88 114
80 88 114
80 88 114
80 88 114
80 88 114
80 88 114
80 88 114
80 88 114
80 88 114
80 88 114
80 88 114
80 88 114
80 88 114
80 88 114
80 88 114
80 88 114
80 88 114
80 88 114
80 88 114
80 88 114
80 88 114
80 88 114
80 88 114
80 88 114
80 88 114
80 88 114
80 88 114
80 88 114
80 88 114
80 88 114
80 88 114
80 88 114
80 88 114
80 88 114
80 88 114
80 88 114
80 88 114
80 88 114
80 88 114
80 88 114
80 88 114
80 88 114
80 88 114
80 88 114
80 88 114
80 88 114
80 88 114
80 88 114
80 88 114
80 88 114
80 88 114
80 88 114
80 88 114
80 88 114
80 88 114
80 88 114
80 88 114
80 88 114
80 88 114
80 88 114
80 88 114
80 88 114
80 88 114
80 88 114
80 88 114
80 88 114
80 88 114
80 88 114
80 88 114
80 88 114
80 88 114
80 88 114
80 88 114
80 88 114
80 88 114
80 88 114
80 88 114
80 88 114
80 88 114
80 88 114
80 88 114
80 88 114
80 88 114
80 88 114
80 88 114
80 88 114
80 88 114
80 88 114
80 88 114
80 88 114
80 88 114
80 88 114
80 88 114
80 88 114
80 88 114
80 88 114
80 88 114
80 88 114
80 88 114
80 88 114
80 88 114
80 88 114
80 88 114
80 88 114
80 88 114
80 88 114
80 88 114
80 88 114
80 88 114
80 88 114
80 88 114
80 88 114
80 88 114
80 88 114
80 88 114
80 88 114
80 88 114
80 88 114
80 88 114
80 88 114
80 88 114
80 88 114
80 88 114
80 88 114
80 88 114
80 88 114
80 88 114
80 88 114
80 88 114
80 88 114
80 88 114
80 88 114
80 88 114
80 88 114
80 88 114
80 88 114
80 88 114
80 88 114
80 88 114
80 88 114
80 88 114
80 88 114
80 88 114
80 88 114
80 88 114
80 88 114
80 88 114
80 88 114
80 88 114
80 88 114
80 88 114
80 88 114
80 88 114
80 88 114
80 88 114
80 88 114
80 88 114
80 88 114
80 88 114
80 88 114
80 88 114
80 88 114
80 88 114
80 88 114
80 88 114
80 88 114
255 255 255
255 255 255
255 255 255
255 255 255
255 255 255
255 255 255
255 255 255
255 255 255
255 255 255
255 255 255
255 255 255
255 255 255
255 255 255
255 255 255
255 255 255
255 255 255
255 255 255
255 255 255
255 255 255
255 255 255
255 255 255
255 255 255
255 255 255
255 255 255
255 255 255
255 255 255
255 255 255
255 255 255
255 255 255
255 255 255
255 255 255
255 255 255
255 255 255
255 255 255
255 255 255
193 192 176
80 88 114
80 88 114
80 88 114
80 88 114
80 88 114
80 88 114
80 88 114
80 88 114
80 88 114
80 88 114
80 88 114
80 88 114
80 88 114
80 88 114
80 88 114
80 88 114
80 88 114
80 88 114
80 88 114
80 88 114
80 88 114
80 88 114
80 88 114
80 88 114
80 88 114
80 88 114
80 88 114
80 88 114
80 88 114
80 88 114
80 88 114
80 88 114
80 88 114
80 88 114
80 88 114
80 88 114
80 88 114
80 88 114
80 88 114
80 88 114
80 88 114
80 88 114
80 88 114
80 88 114
80 88 114
80 88 114
80 88 114
80 88 114
80 88 114
80 88 114
80 88 114
80 88 114
80 88 114
80 88 114
80 88 114
80 88 114
80 88 114
80 88 114
80 88 114
80 88 114
80 88 114
80 88 114
80 88 114
80 88 114
80 88 114
80 88 114
80 88 114
80 88 114
80 88 114
80 88 114
80 88 114
80 88 114
80 88 114
80 88 114
80 88 114
80 88 114
80 88 114
80 88 114
80 88 114
80 88 114
80 88 114
80 88 114
80 88 114
80 88 114
80 88 114
80 88 114
80 88 114
80 88 114
80 88 114
80 88 114
80 88 114
80 88 114
80 88 114
80 88 114
80 88 114
80 88 114
80 88 114
80 88 114
80 88 114
80 88 114
80 88 114
80 88 114
80 88 114
80 88 114
80 88 114
80 88 114
80 88 114
80 88 114
80 88 114
80 88 114
80 88 114
80 88 114
80 88 114
80 88 114
80 88 114
80 88 114
80 88 114
80 88 114
80 88 114
80 88 114
80 88 114
80 88 114
80 88 114
80 88 114
80 88 114
80 88 114
80 88 114
80 88 114
80 88 114
80 88 114
80 88 114
80 88 114
80 88 114
80 88 114
80 88 114
80 88 114
80 88 114
80 88 114
80 88 114
80 88 114
80 88 114
80 88 114
80 88 114
80 88 114
80 88 114
80 88 114
80 88 114
80 88 114
80 88 114
80 88 114
80 88 114
80 88 114
80 88 114
80 88 114
80 88 114
80 88 114
80 88 114
80 88 114
80 88 114
80 88 114
80 88 114
80 88 114
80 88 114
80 88 114
80 88 114
80 88 114
80 88 114
80 88 114
80 88 114
80 88 114
80 88 114
80 88 114
80 88 114
80 88 114
80 88 114
80 88 114
80 88 114
80 88 114
80 88 114
80 88 114
80 88 114
80 88 114
80 88 114
80 88 114
80 88 114
80 88 114
80 88 114
80 88 114
80 88 114
80 88 114
80 88 114
80 88 114
80 88 114
80 88 114
80 88 114
80 88 114
80 88 114
80 88 114
80 88 114
80 88 114
80 88 114
80 88 114
80 88 114
80 88 114
80 88 114
80 88 114
80 88 114
80 88 114
80 88 114
80 88 114
80 88 114
80 88 114
80 88 114
80 88 114
80 88 114
80 88 114
80 88 114
80 88 114
80 88 114
80 88 114
80 88 114
80 88 114
80 88 114
80 88 114
80 88 114
80 88 114
80 88 114
80 88 114
80 88 114
80 88 114
80 88 114
80 88 114
80 88 114
80 88 114
80 88 114
80 88 114
80 88 114
80 88 114
80 88 114
80 88 114
80 88 114
80 88 114
80 88 114
80 88 114
80 88 114
80 88 114
80 88 114
80 88 114
80 88 114
80 88 114
80 88 114
80 88 114
80 88 114
80 88 114
80 88 114
80 88 114
80 88 114
80 88 114
80 88 114
80 88 114
80 88 114
80 88 114
80 88 114
80 88 114
80 88 114
80 88 114
80 88 114
80 88 114
80 88 114
80 88 114
80 88 114
80 88 114
80 88 114
80 88 114
80 88 114
80 88 114
80 88 114
80 88 114
80 88 114
80 88 114
80 88 114
80 88 114
80 88 114
80 88 114
80 88 114
80 88 114
80 88 114
80 88 114
80 88 114
80 88 114
80 88 114
80 88 114
80 88 114
80 88 114
80 88 114
80 88 114
80 88 114
80 88 114
80 88 114
80 88 114
80 88 114
80 88 114
80 88 114
80 88 114
80 88 114
80 88 114
80 88 114
80 88 114
80 88 114
80 88 114
80 88 114
80 88 114
80 88 114
80 88 114
80 88 114
80 88 114
80 88 114
80 88 114
80 88 114
80 88 114
80 88 114
80 88 114
80 88 114
80 88 114
80 88 114
80 88 114
80 88 114
80 88 114
80 88 114
80 88 114
80 88 114
80 88 114
80 88 114
80 88 114
80 88 114
80 88 114
80 88 114
80 88 114
80 88 114
80 88 114
80 88 114
80 88 114
80 88 114
80 88 114
80 88 114
80 88 114
80 88 114
80 88 114
80 88 114
80 88 114
80 88 114
80 88 114
80 88 114
80 88 114
80 88 114
80 88 114
80 88 114
80 88 114
80 88 114
80 88 114
80 88 114
80 88 114
80 88 114
80 88 114
255 255 255
255 255 255
255 255 255
255 255 255
255 255 255
255 255 255
255 255 255
255 255 255
255 255 255
255 255 255
255 255 255
255 255 255
255 255 255
255 255 255
255 255 255
255 255 255
255 255 255
255 255 255
255 255 255
255 255 255
255 255 255
255 255 255
255 255 255
255 255 255
255 255 255
255 255 255
255 255 255
255 255 255
255 255 255
255 255 255
255 255 255
255 255 255
255 255 255
255 255 255
255 255 255
121 124 133
80 88 114
80 88 114
80 88 114
80 88 114
80 88 114
80 88 114
80 88 114
80 88 114
80 88 114
80 88 114
80 88 114
80 88 114
80 88 114
80 88 114
80 88 114
80 88 114
80 88 114
80 88 114
80 88 114
80 88 114
80 88 114
80 88 114
80 88 114
80 88 114
80 88 114
80 88 114
80 88 114
80 88 114
80 88 114
80 88 114
80 88 114
80 88 114
80 88 114
80 88 114
80 88 114
80 88 114
80 88 114
80 88 114
80 88 114
80 88 114
80 88 114
80 88 114
80 88 114
80 88 114
80 88 114
80 88 114
80 88 114
80 88 114
80 88 114
80 88 114
80 88 114
80 88 114
80 88 114
80 88 114
80 88 114
80 88 114
80 88 114
80 88 114
80 88 114
80 88 114
80 88 114
80 88 114
80 88 114
80 88 114
80 88 114
80 88 114
80 88 114
80 88 114
80 88 114
80 88 114
80 88 114
80 88 114
80 88 114
80 88 114
80 88 114
80 88 114
80 88 114
80 88 114
80 88 114
80 88 114
80 88 114
80 88 114
80 88 114
80 88 114
80 88 114
80 88 114
80 88 114
80 88 114
80 88 114
80 88 114
80 88 114
80 88 114
80 88 114
80 88 114
80 88 114
80 88 114
80 88 114
80 88 114
80 88 114
80 88 114
80 88 114
80 88 114
80 88 114
80 88 114
80 88 114
80 88 114
80 88 114
80 88 114
80 88 114
80 88 114
80 88 114
80 88 114
80 88 114
80 88 114
80 88 114
80 88 114
80 88 114
80 88 114
80 88 114
80 88 114
80 88 114
80 88 114
80 88 114
80 88 114
80 88 114
80 88 114
80 88 114
80 88 114
80 88 114
80 88 114
80 88 114
80 88 114
80 88 114
80 88 114
80 88 114
80 88 114
80 88 114
80 88 114
80 88 114
80 88 114
80 88 114
80 88 114
80 88 114
80 88 114
80 88 114
80 88 114
80 88 114
80 88 114
80 88 114
80 88 114
80 88 114
80 88 114
80 88 114
80 88 114
80 88 114
80 88 114
80 88 114
80 88 114
80 88 114
80 88 114
80 88 114
80 88 114
80 88 114
80 88 114
80 88 114
80 88 114
80 88 114
80 88 114
80 88 114
80 88 114
80 88 114
80 88 114
80 88 114
80 88 114
80 88 114
80 88 114
80 88 114
80 88 114
80 88 114
80 88 114
80 88 114
80 88 114
80 88 114
80 88 114
80 88 114
80 88 114
80 88 114
80 88 114
80 88 114
80 88 114
80 88 114
80 88 114
80 88 114
80 88 114
80 88 114
80 88 114
80 88 114
80 88 114
80 88 114
80 88 114
80 88 114
80 88 114
80 88 114
80 88 114
80 88 114
80 88 114
80 88 114
80 88 114
80 88 114
80 88 114
80 88 114
80 88 114
80 88 114
80 88 114
80 88 114
80 88 114
80 88 114
80 88 114
80 88 114
80 88 114
80 88 114
80 88 114
80 88 114
80 88 114
80 88 114
80 88 114
80 88 114
80 88 114
80 88 114
80 88 114
80 88 114
80 88 114
80 88 114
80 88 114
80 88 114
80 88 114
80 88 114
80 88 114
80 88 114
80 88 114
80 88 114
80 88 114
80 88 114
80 88 114
80 88 114
80 88 114
80 88 114
80 88 114
80 88 114
80 88 114
80 88 114
80 88 114
80 88 114
80 88 114
80 88 114
80 88 114
80 88 114
80 88 114
80 88 114
80 88 114
80 88 114
80 88 114
80 88 114
80 88 114
80 88 114
80 88 114
80 88 114
80 88 114
80 88 114
80 88 114
80 88 114
80 88 114
80 88 114
80 88 114
80 88 114
80 88 114
80 88 114
80 88 114
80 88 114
80 88 114
80 88 114
80 88 114
80 88 114
80 88 114
80 88 114
80 88 114
80 88 114
80 88 114
80 88 114
80 88 114
80 88 114
80 88 114
80 88 114
80 88 114
80 88 114
80 88 114
80 88 114
80 88 114
80 88 114
80 88 114
80 88 114
80 88 114
80 88 114
80 88 114
80 88 114
80 88 114
80 88 114
80 88 114
80 88 114
80 88 114
80 88 114
80 88 114
80 88 114
80 88 114
80 88 114
80 88 114
80 88 114
80 88 114
80 88 114
80 88 114
80 88 114
80 88 114
80 88 114
80 88 114
80 88 114
80 88 114
80 88 114
80 88 114
80 88 114
80 88 114
80 88 114
80 88 114
80 88 114
80 88 114
80 88 114
80 88 114
80 88 114
80 88 114
80 88 114
80 88 114
80 88 114
80 88 114
80 88 114
80 88 114
80 88 114
80 88 114
80 88 114
80 88 114
80 88 114
80 88 114
80 88 114
80 88 114
80 88 114
80 88 114
80 88 114
80 88 114
80 88 114
80 88 114
80 88 114
80 88 114
80 88 114
80 88 114
80 88 114
80 88 114
255 255 255
255 255 255
255 255 255
255 255 255
255 255 255
255 255 255
255 255 255
255 255 255
255 255 255
255 255 255
255 255 255
255 255 255
255 255 255
255 255 255
255 255 255
255 255 255
255 255 255
255 255 255
255 255 255
255 255 255
255 255 255
255 255 255
255 255 255
255 255 255
255 255 255
255 255 255
255 255 255
255 255 255
255 255 255
255 255 255
255 255 255
255 255 255
255 255 255
255 255 255
255 255 255
80 88 114
80 88 114
80 88 114
80 88 114
80 88 114
80 88 114
80 88 114
80 88 114
80 88 114
80 88 114
80 88 114
80 88 114
80 88 114
80 88 114
80 88 114
80 88 114
80 88 114
80 88 114
80 88 114
80 88 114
80 88 114
80 88 114
80 88 114
80 88 114
80 88 114
80 88 114
80 88 114
80 88 114
80 88 114
80 88 114
80 88 114
80 88 114
80 88 114
80 88 114
80 88 114
80 88 114
80 88 114
80 88 114
80 88 114
80 88 114
80 88 114
80 88 114
80 88 114
80 88 114
80 88 114
80 88 114
80 88 114
80 88 114
80 88 114
80 88 114
80 88 114
80 88 114
80 88 114
80 88 114
80 88 114
80 88 114
80 88 114
80 88 114
80 88 114
80 88 114
80 88 114
80 88 114
80 88 114
80 88 114
80 88 114
80 88 114
80 88 114
80 88 114
80 88 114
80 88 114
80 88 114
80 88 114
80 88 114
80 88 114
80 88 114
80 88 114
80 88 114
80 88 114
80 88 114
80 88 114
80 88 114
80 88 114
80 88 114
80 88 114
80 88 114
80 88 114
80 88 114
80 88 114
80 88 114
80 88 114
80 88 114
80 88 114
80 88 114
80 88 114
80 88 114
80 88 114
80 88 114
80 88 114
80 88 114
80 88 114
80 88 114
80 88 114
80 88 114
80 88 114
80 88 114
80 88 114
80 88 114
80 88 114
80 88 114
80 88 114
80 88 114
80 88 114
80 88 114
80 88 114
80 88 114
80 88 114
80 88 114
80 88 114
80 88 114
80 88 114
80 88 114
80 88 114
80 88 114
80 88 114
80 88 114
80 88 114
80 88 114
80 88 114
80 88 114
80 88 114
80 88 114
80 88 114
80 88 114
80 88 114
80 88 114
80 88 114
80 88 114
80 88 114
80 88 114
80 88 114
80 88 114
80 88 114
80 88 114
80 88 114
80 88 114
80 88 114
80 88 114
80 88 114
80 88 114
80 88 114
80 88 114
80 88 114
80 88 114
80 88 114
80 88 114
80 88 114
80 88 114
80 88 114
80 88 114
80 88 114
80 88 114
80 88 114
80 88 114
80 88 114
80 88 114
80 88 114
80 88 114
80 88 114
80 88 114
80 88 114
80 88 114
80 88 114
80 88 114
80 88 114
80 88 114
80 88 114
80 88 114
80 88 114
80 88 114
80 88 114
80 88 114
80 88 114
80 88 114
80 88 114
80 88 114
80 88 114
80 88 114
80 88 114
80 88 114
80 88 114
80 88 114
80 88 114
80 88 114
80 88 114
80 88 114
80 88 114
80 88 114
80 88 114
80 88 114
80 88 114
80 88 114
80 88 114
80 88 114
80 88 114
80 88 114
80 88 114
80 88 114
80 88 114
80 88 114
80 88 114
80 88 114
80 88 114
80 88 114
80 88 114
80 88 114
80 88 114
80 88 114
80 88 114
80 88 114
80 88 114
80 88 114
80 88 114
80 88 114
80 88 114
80 88 114
80 88 114
80 88 114
80 88 114
80 88 114
80 88 114
80 88 114
80 88 114
80 88 114
80 88 114
80 88 114
80 88 114
80 88 114
80 88 114
80 88 114
80 88 114
80 88 114
80 88 114
80 88 114
80 88 114
80 88 114
80 88 114
80 88 114
80 88 114
80 88 114
80 88 114
80 88 114
80 88 114
80 88 114
80 88 114
80 88 114
80 88 114
80 88 114
80 88 114
80 88 114
80 88 114
80 88 114
80 88 114
80 88 114
80 88 114
80 88 114
80 88 114
80 88 114
80 88 114
80 88 114
80 88 114
80 88 114
80 88 114
80 88 114
80 88 114
80 88 114
80 88 114
80 88 114
80 88 114
80 88 114
80 88 114
80 88 114
80 88 114
80 88 114
80 88 114
80 88 114
80 88 114
80 88 114
80 88 114
80 88 114
80 88 114
80 88 114
80 88 114
80 88 114
80 88 114
80 88 114
80 88 114
80 88 114
80 88 114
80 88 114
80 88 114
80 88 114
80 88 114
80 88 114
80 88 114
80 88 114
80 88 114
80 88 114
80 88 114
80 88 114
80 88 114
80 88 114
80 88 114
80 88 114
80 88 114
80 88 114
80 88 114
80 88 114
80 88 114
80 88 114
80 88 114
80 88 114
80 88 114
80 88 114
80 88 114
80 88 114
80 88 114
80 88 114
80 88 114
80 88 114
80 88 114
80 88 114
80 88 114
80 88 114
80 88 114
80 88 114
80 88 114
80 88 114
80 88 114
80 88 114
80 88 114
80 88 114
80 88 114
80 88 114
80 88 114
80 88 114
80 88 114
80 88 114
80 88 114
80 88 114
80 88 114
80 88 114
80 88 114
80 88 114
80 88 114
80 88 114
80 88 114
80 88 114
80 88 114
80 88 114
80 88 114
80 88 114
80 88 114
80 88 114
80 88 114
80 88 114
193 192 176
255 255 255
255 255 255
255 255 255
255 255 255
255 255 255
255 255 255
255 255 255
255 255 255
255 255 255
255 255 255
255 255 255
255 255 255
255 255 255
255 255 255
255 255 255
255 255 255
255 255 255
255 255 255
255 255 255
255 255 255
255 255 255
255 255 255
255 255 255
255 255 255
255 255 255
255 255 255
255 255 255
255 255 255
255 255 255
255 255 255
255 255 255
255 255 255
255 255 255
255 255 255
80 88 114
80 88 114
80 88 114
80 88 114
80 88 114
80 88 114
80 88 114
80 88 114
80 88 114
80 88 114
80 88 114
80 88 114
80 88 114
80 88 114
80 88 114
80 88 114
80 88 114
80 88 114
80 88 114
80 88 114
80 88 114
80 88 114
80 88 114
80 88 114
80 88 114
80 88 114
80 88 114
80 88 114
80 88 114
80 88 114
80 88 114
80 88 114
80 88 114
80 88 114
80 88 114
80 88 114
80 88 114
80 88 114
80 88 114
80 88 114
80 88 114
80 88 114
80 88 114
80 88 114
80 88 114
80 88 114
80 88 114
80 88 114
80 88 114
80 88 114
80 88 114
80 88 114
80 88 114
80 88 114
80 88 114
80 88 114
80 88 114
80 88 114
80 88 114
80 88 114
80 88 114
80 88 114
80 88 114
80 88 114
80 88 114
80 88 114
80 88 114
80 88 114
80 88 114
80 88 114
80 88 114
80 88 114
80 88 114
80 88 114
80 88 114
80 88 114
80 88 114
80 88 114
80 88 114
80 88 114
80 88 114
80 88 114
80 88 114
80 88 114
80 88 114
80 88 114
80 88 114
80 88 114
80 88 114
80 88 114
80 88 114
80 88 114
80 88 114
80 88 114
80 88 114
80 88 114
80 88 114
80 88 114
80 88 114
80 88 114
80 88 114
80 88 114
80 88 114
80 88 114
80 88 114
80 88 114
80 88 114
80 88 114
80 88 114
80 88 114
80 88 114
80 88 114
80 88 114
80 88 114
80 88 114
80 88 114
80 88 114
80 88 114
80 88 114
80 88 114
80 88 114
80 88 114
80 88 114
80 88 114
80 88 114
80 88 114
80 88 114
80 88 114
80 88 114
80 88 114
80 88 114
80 88 114
80 88 114
80 88 114
80 88 114
80 88 114
80 88 114
80 88 114
80 88 114
80 88 114
80 88 114
80 88 114
80 88 114
80 88 114
80 88 114
80 88 114
80 88 114
80 88 114
80 88 114
80 88 114
80 88 114
80 88 114
80 88 114
80 88 114
80 88 114
80 88 114
80 88 114
80 88 114
80 88 114
80 88 114
80 88 114
80 88 114
80 88 114
80 88 114
80 88 114
80 88 114
80 88 114
80 88 114
80 88 114
80 88 114
80 88 114
80 88 114
80 88 114
80 88 114
80 88 114
80 88 114
80 88 114
80 88 114
80 88 114
80 88 114
80 88 114
80 88 114
80 88 114
80 88 114
80 88 114
80 88 114
80 88 114
80 88 114
80 88 114
80 88 114
80 88 114
80 88 114
80 88 114
80 88 114
80 88 114
80 88 114
80 88 114
80 88 114
80 88 114
80 88 114
80 88 114
80 88 114
80 88 114
80 88 114
80 88 114
80 88 114
80 88 114
80 88 114
80 88 114
80 88 114
80 88 114
80 88 114
80 88 114
80 88 114
80 88 114
80 88 114
80 88 114
80 88 114
80 88 114
80 88 114
80 88 114
80 88 114
80 88 114
80 88 114
80 88 114
80 88 114
80 88 114
80 88 114
80 88 114
80 88 114
80 88 114
80 88 114
80 88 114
80 88 114
80 88 114
80 88 114
80 88 114
80 88 114
80 88 114
80 88 114
80 88 114
80 88 114
80 88 114
80 88 114
80 88 114
80 88 114
80 88 114
80 88 114
80 88 114
80 88 114
80 88 114
80 88 114
80 88 114
80 88 114
80 88 114
80 88 114
80 88 114
80 88 114
80 88 114
80 88 114
80 88 114
80 88 114
80 88 114
80 88 114
80 88 114
80 88 114
80 88 114
80 88 114
80 88 114
80 88 114
80 88 114
80 88 114
80 88 114
80 88 114
80 88 114
80 88 114
80 88 114
80 88 114
80 88 114
80 88 114
80 88 114
80 88 114
80 88 114
80 88 114
80 88 114
80 88 114
80 88 114
80 88 114
80 88 114
80 88 114
80 88 114
80 88 114
80 88 114
80 88 114
80 88 114
80 88 114
80 88 114
80 88 114
80 88 114
80 88 114
80 88 114
80 88 114
80 88 114
80 88 114
80 88 114
80 88 114
80 88 114
80 88 114
80 88 114
80 88 114
80 88 114
80 88 114
80 88 114
80 88 114
80 88 114
80 88 114
80 88 114
80 88 114
80 88 114
80 88 114
80 88 114
80 88 114
80 88 114
80 88 114
80 88 114
80 88 114
80 88 114
80 88 114
80 88 114
80 88 114
80 88 114
80 88 114
80 88 114
80 88 114
80 88 114
80 88 114
80 88 114
80 88 114
80 88 114
80 88 114
80 88 114
80 88 114
80 88 114
80 88 114
80 88 114
80 88 114
80 88 114
80 88 114
80 88 114
80 88 114
80 88 114
80 88 114
80 88 114
80 88 114
80 88 114
80 88 114
80 88 114
80 88 114
80 88 114
80 88 114
80 88 114
80 88 114
80 88 114
80 88 114
80 88 114
80 88 114
255 255 255
255 255 255
255 255 255
255 255 255
255 255 255
255 255 255
255 255 255
255 255 255
255 255 255
255 255 255
255 255 255
255 255 255
255 255 255
255 255 255
255 255 255
255 255 255
255 255 255
255 255 255
255 255 255
255 255 255
255 255 255
255 255 255
255 255 255
255 255 255
255 255 255
255 255 255
255 255 255
255 255 255
255 255 255
255 255 255
255 255 255
255 255 255
255 255 255
255 255 255
80 88 114
80 88 114
80 88 114
80 88 114
80 88 114
80 88 114
80 88 114
80 88 114
80 88 114
80 88 114
80 88 114
80 88 114
80 88 114
80 88 114
80 88 114
80 88 114
80 88 114
80 88 114
80 88 114
80 88 114
80 88 114
80 88 114
80 88 114
80 88 114
80 88 114
80 88 114
80 88 114
80 88 114
80 88 114
80 88 114
80 88 114
80 88 114
80 88 114
80 88 114
80 88 114
80 88 114
80 88 114
80 88 114
80 88 114
80 88 114
80 88 114
80 88 114
80 88 114
80 88 114
80 88 114
80 88 114
80 88 114
80 88 114
80 88 114
80 88 114
80 88 114
80 88 114
80 88 114
80 88 114
80 88 114
80 88 114
80 88 114
80 88 114
80 88 114
80 88 114
80 88 114
80 88 114
80 88 114
80 88 114
80 88 114
80 88 114
80 88 114
80 88 114
80 88 114
80 88 114
80 88 114
80 88 114
80 88 114
80 88 114
80 88 114
80 88 114
80 88 114
80 88 114
80 88 114
80 88 114
80 88 114
80 88 114
80 88 114
80 88 114
80 88 114
80 88 114
80 88 114
80 88 114
80 88 114
80 88 114
80 88 114
80 88 114
80 88 114
80 88 114
80 88 114
80 88 114
80 88 114
80 88 114
80 88 114
80 88 114
80 88 114
80 88 114
80 88 114
80 88 114
80 88 114
80 88 114
80 88 114
80 88 114
80 88 114
80 88 114
80 88 114
80 88 114
80 88 114
80 88 114
80 88 114
80 88 114
80 88 114
80 88 114
80 88 114
80 88 114
80 88 114
80 88 114
80 88 114
80 88 114
80 88 114
80 88 114
80 88 114
80 88 114
80 88 114
80 88 114
80 88 114
80 88 114
80 88 114
80 88 114
80 88 114
80 88 114
80 88 114
80 88 114
80 88 114
80 88 114
80 88 114
80 88 114
80 88 114
80 88 114
80 88 114
80 88 114
80 88 114
80 88 114
80 88 114
80 88 114
80 88 114
80 88 114
80 88 114
80 88 114
80 88 114
80 88 114
80 88 114
80 88 114
80 88 114
80 88 114
80 88 114
80 88 114
80 88 114
80 88 114
80 88 114
80 88 114
80 88 114
80 88 114
80 88 114
80 88 114
80 88 114
80 88 114
80 88 114
80 88 114
80 88 114
80 88 114
80 88 114
80 88 114
80 88 114
80 88 114
80 88 114
80 88 114
80 88 114
80 88 114
80 88 114
80 88 114
80 88 114
80 88 114
80 88 114
80 88 114
80 88 114
80 88 114
80 88 114
80 88 114
80 88 114
80 88 114
80 88 114
80 88 114
80 88 114
80 88 114
80 88 114
80 88 114
80 88 114
80 88 114
80 88 114
80 88 114
80 88 114
80 88 114
80 88 114
80 88 114
80 88 114
80 88 114
80 88 114
80 88 114
80 88 114
80 88 114
80 88 114
80 88 114
80 88 114
80 88 114
80 88 114
80 88 114
80 88 114
80 88 114
80 88 114
80 88 114
80 88 114
80 88 114
80 88 114
80 88 114
80 88 114
80 88 114
80 88 114
80 88 114
80 88 114
80 88 114
80 88 114
80 88 114
80 88 114
80 88 114
80 88 114
80 88 114
80 88 114
80 88 114
80 88 114
80 88 114
80 88 114
80 88 114
80 88 114
80 88 114
80 88 114
80 88 114
80 88 114
80 88 114
80 88 114
80 88 114
80 88 114
80 88 114
80 88 114
80 88 114
80 88 114
80 88 114
80 88 114
80 88 114
80 88 114
80 88 114
80 88 114
80 88 114
80 88 114
80 88 114
80 88 114
80 88 114
80 88 114
80 88 114
80 88 114
80 88 114
80 88 114
80 88 114
80 88 114
80 88 114
80 88 114
80 88 114
80 88 114
80 88 114
80 88 114
80 88 114
80 88 114
80 88 114
80 88 114
80 88 114
80 88 114
80 88 114
80 88 114
80 88 114
80 88 114
80 88 114
80 88 114
80 88 114
80 88 114
80 88 114
80 88 114
80 88 114
80 88 114
80 88 114
80 88 114
80 88 114
80 88 114
80 88 114
80 88 114
80 88 114
80 88 114
80 88 114
80 88 114
80 88 114
80 88 114
80 88 114
80 88 114
80 88 114
80 88 114
80 88 114
80 88 114
80 88 114
80 88 114
80 88 114
80 88 114
80 88 114
80 88 114
80 88 114
80 88 114
80 88 114
80 88 114
80 88 114
80 88 114
80 88 114
80 88 114
80 88 114
80 88 114
80 88 114
80 88 114
80 88 114
80 88 114
80 88 114
80 88 114
80 88 114
80 88 114
80 88 114
80 88 114
80 88 114
80 88 114
80 88 114
80 88 114
80 88 114
80 88 114
80 88 114
80 88 114
80 88 114
80 88 114
80 88 114
80 88 114
80 88 114
80 88 114
80 88 114
80 88 114
80 88 114
80 88 114
80 88 114
255 255 255
255 255 255
255 255 255
255 255 255
255 255 255
255 255 255
255 255 255
255 255 255
255 255 255
255 255 255
255 255 255
255 255 255
255 255 255
255 255 255
255 255 255
255 255 255
255 255 255
255 255 255
255 255 255
255 255 255
255 255 255
255 255 255
255 255 255
255 255 255
255 255 255
255 255 255
255 255 255
255 255 255
255 255 255
255 255 255
255 255 255
255 255 255
255 255 255
255 255 255
80 88 114
80 88 114
80 88 114
80 88 114
80 88 114
80 88 114
80 88 114
80 88 114
80 88 114
80 88 114
80 88 114
80 88 114
80 88 114
80 88 114
80 88 114
80 88 114
80 88 114
80 88 114
80 88 114
80 88 114
80 88 114
80 88 114
80 88 114
80 88 114
80 88 114
80 88 114
80 88 114
80 88 114
80 88 114
80 88 114
80 88 114
80 88 114
80 88 114
80 88 114
80 88 114
80 88 114
80 88 114
80 88 114
80 88 114
80 88 114
80 88 114
80 88 114
80 88 114
80 88 114
80 88 114
80 88 114
80 88 114
80 88 114
80 88 114
80 88 114
80 88 114
80 88 114
80 88 114
80 88 114
80 88 114
80 88 114
80 88 114
80 88 114
80 88 114
80 88 114
80 88 114
80 88 114
80 88 114
80 88 114
80 88 114
80 88 114
80 88 114
80 88 114
80 88 114
80 88 114
80 88 114
80 88 114
80 88 114
80 88 114
80 88 114
80 88 114
80 88 114
80 88 114
80 88 114
80 88 114
80 88 114
80 88 114
80 88 114
80 88 114
80 88 114
80 88 114
80 88 114
80 88 114
80 88 114
80 88 114
80 88 114
80 88 114
80 88 114
80 88 114
80 88 114
80 88 114
80 88 114
80 88 114
80 88 114
80 88 114
80 88 114
80 88 114
80 88 114
80 88 114
80 88 114
80 88 114
80 88 114
80 88 114
80 88 114
80 88 114
80 88 114
80 88 114
80 88 114
80 88 114
80 88 114
80 88 114
80 88 114
80 88 114
80 88 114
80 88 114
80 88 114
80 88 114
80 88 114
80 88 114
80 88 114
80 88 114
80 88 114
80 88 114
80 88 114
80 88 114
80 88 114
80 88 114
80 88 114
80 88 114
80 88 114
80 88 114
80 88 114
80 88 114
80 88 114
80 88 114
80 88 114
80 88 114
80 88 114
80 88 114
80 88 114
80 88 114
80 88 114
80 88 114
80 88 114
80 88 114
80 88 114
80 88 114
80 88 114
80 88 114
80 88 114
80 88 114
80 88 114
80 88 114
80 88 114
80 88 114
80 88 114
80 88 114
80 88 114
80 88 114
80 88 114
80 88 114
80 88 114
80 88 114
80 88 114
80 88 114
80 88 114
80 88 114
80 88 114
80 88 114
80 88 114
80 88 114
80 88 114
80 88 114
80 88 114
80 88 114
80 88 114
80 88 114
80 88 114
80 88 114
80 88 114
80 88 114
80 88 114
80 88 114
80 88 114
80 88 114
80 88 114
80 88 114
80 88 114
80 88 114
80 88 114
80 88 114
80 88 114
80 88 114
80 88 114
80 88 114
80 88 114
80 88 114
80 88 114
80 88 114
80 88 114
80 88 114
80 88 114
80 88 114
80 88 114
80 88 114
80 88 114
80 88 114
80 88 114
80 88 114
80 88 114
80 88 114
80 88 114
80 88 114
80 88 114
80 88 114
80 88 114
80 88 114
80 88 114
80 88 114
80 88 114
80 88 114
80 88 114
80 88 114
80 88 114
80 88 114
80 88 114
80 88 114
80 88 114
80 88 114
80 88 114
80 88 114
80 88 114
80 88 114
80 88 114
80 88 114
80 88 114
80 88 114
80 88 114
80 88 114
80 88 114
80 88 114
80 88 114
80 88 114
80 88 114
80 88 114
80 88 114
80 88 114
80 88 114
80 88 114
80 88 114
80 88 114
80 88 114
80 88 114
80 88 114
80 88 114
80 88 114
80 88 114
80 88 114
80 88 114
80 88 114
80 88 114
80 88 114
80 88 114
80 88 114
80 88 114
80 88 114
80 88 114
80 88 114
80 88 114
80 88 114
80 88 114
80 88 114
80 88 114
80 88 114
80 88 114
80 88 114
80 88 114
80 88 114
80 88 114
80 88 114
80 88 114
80 88 114
80 88 114
80 88 114
80 88 114
80 88 114
80 88 114
80 88 114
80 88 114
80 88 114
80 88 114
80 88 114
80 88 114
80 88 114
80 88 114
80 88 114
80 88 114
80 88 114
80 88 114
80 88 114
80 88 114
80 88 114
80 88 114
80 88 114
80 88 114
80 88 114
80 88 114
80 88 114
80 88 114
80 88 114
80 88 114
80 88 114
80 88 114
80 88 114
80 88 114
80 88 114
80 88 114
80 88 114
80 88 114
80 88 114
80 88 114
80 88 114
80 88 114
80 88 114
80 88 114
80 88 114
80 88 114
80 88 114
80 88 114
80 88 114
80 88 114
80 88 114
80 88 114
80 88 114
80 88 114
80 88 114
80 88 114
80 88 114
80 88 114
80 88 114
80 88 114
80 88 114
80 88 114
80 88 114
80 88 114
80 88 114
80 88 114
80 88 114
80 88 114
80 88 114
80 88 114
80 88 114
80 88 114
80 88 114
80 88 114
80 88 114
80 88 114
80 88 114
80 88 114
80 88 114
80 88 114
255 255 255
255 255 255
255 255 255
255 255 255
255 255 255
255 255 255
255 255 255
255 255 255
255 255 255
255 255 255
255 255 255
255 255 255
255 255 255
255 255 255
255 255 255
255 255 255
255 255 255
255 255 255
255 255 255
255 255 255
255 255 255
255 255 255
255 255 255
255 255 255
255 255 255
255 255 255
255 255 255
255 255 255
255 255 255
255 255 255
255 255 255
255 255 255
255 255 255
90 96 118
80 88 114
80 88 114
80 88 114
80 88 114
80 88 114
80 88 114
80 88 114
80 88 114
80 88 114
80 88 114
80 88 114
80 88 114
80 88 114
80 88 114
80 88 114
80 88 114
80 88 114
80 88 114
80 88 114
80 88 114
80 88 114
80 88 114
80 88 114
80 88 114
80 88 114
80 88 114
80 88 114
80 88 114
80 88 114
80 88 114
80 88 114
80 88 114
80 88 114
80 88 114
80 88 114
80 88 114
80 88 114
80 88 114
80 88 114
80 88 114
80 88 114
80 88 114
80 88 114
80 88 114
80 88 114
80 88 114
80 88 114
80 88 114
80 88 114
80 88 114
80 88 114
80 88 114
80 88 114
80 88 114
80 88 114
80 88 114
80 88 114
80 88 114
80 88 114
80 88 114
80 88 114
80 88 114
80 88 114
80 88 114
80 88 114
80 88 114
80 88 114
80 88 114
80 88 114
80 88 114
80 88 114
80 88 114
80 88 114
80 88 114
80 88 114
80 88 114
80 88 114
80 88 114
80 88 114
80 88 114
80 88 114
80 88 114
80 88 114
80 88 114
80 88 114
80 88 114
80 88 114
80 88 114
80 88 114
80 88 114
80 88 114
80 88 114
80 88 114
80 88 114
80 88 114
80 88 114
80 88 114
80 88 114
80 88 114
80 88 114
80 88 114
80 88 114
80 88 114
80 88 114
80 88 114
80 88 114
80 88 114
80 88 114
80 88 114
80 88 114
80 88 114
80 88 114
80 88 114
80 88 114
80 88 114
80 88 114
80 88 114
80 88 114
80 88 114
80 88 114
80 88 114
80 88 114
80 88 114
80 88 114
80 88 114
80 88 114
80 88 114
80 88 114
80 88 114
80 88 114
80 88 114
80 88 114
80 88 114
80 88 114
80 88 114
80 88 114
80 88 114
80 88 114
80 88 114
80 88 114
80 88 114
80 88 114
80 88 114
80 88 114
80 88 114
80 88 114
80 88 114
80 88 114
80 88 114
80 88 114
80 88 114
80 88 114
80 88 114
80 88 114
80 88 114
80 88 114
80 88 114
80 88 114
80 88 114
80 88 114
80 88 114
80 88 114
80 88 114
80 88 114
80 88 114
80 88 114
80 88 114
80 88 114
80 88 114
80 88 114
80 88 114
80 88 114
80 88 114
80 88 114
80 88 114
80 88 114
80 88 114
80 88 114
80 88 114
80 88 114
80 88 114
80 88 114
80 88 114
80 88 114
80 88 114
80 88 114
80 88 114
80 88 114
80 88 114
80 88 114
80 88 114
80 88 114
80 88 114
80 88 114
80 88 114
80 88 114
80 88 114
80 88 114
80 88 114
80 88 114
80 88 114
80 88 114
80 88 114
80 88 114
80 88 114
80 88 114
80 88 114
80 88 114
80 88 114
80 88 114
80 88 114
80 88 114
80 88 114
80 88 114
80 88 114
80 88 114
80 88 114
80 88 114
80 88 114
80 88 114
80 88 114
80 88 114
80 88 114
80 88 114
80 88 114
80 88 114
80 88 114
80 88 114
80 88 114
80 88 114
80 88 114
80 88 114
80 88 114
80 88 114
80 88 114
80 88 114
80 88 114
80 88 114
80 88 114
80 88 114
80 88 114
80 88 114
80 88 114
80 88 114
80 88 114
80 88 114
80 88 114
80 88 114
80 88 114
80 88 114
80 88 114
80 88 114
80 88 114
80 88 114
80 88 114
80 88 114
80 88 114
80 88 114
80 88 114
80 88 114
80 88 114
80 88 114
80 88 114
80 88 114
80 88 114
80 88 114
80 88 114
80 88 114
80 88 114
80 88 114
80 88 114
80 88 114
80 88 114
80 88 114
80 88 114
80 88 114
80 88 114
80 88 114
80 88 114
80 88 114
80 88 114
80 88 114
80 88 114
80 88 114
80 88 114
80 88 114
80 88 114
80 88 114
80 88 114
80 88 114
80 88 114
80 88 114
80 88 114
80 88 114
80 88 114
80 88 114
80 88 114
80 88 114
80 88 114
80 88 114
80 88 114
80 88 114
80 88 114
80 88 114
80 88 114
80 88 114
80 88 114
80 88 114
80 88 114
80 88 114
80 88 114
80 88 114
80 88 114
80 88 114
80 88 114
80 88 114
80 88 114
80 88 114
80 88 114
80 88 114
80 88 114
80 88 114
80 88 114
80 88 114
80 88 114
80 88 114
80 88 114
80 88 114
80 88 114
80 88 114
80 88 114
80 88 114
80 88 114
80 88 114
80 88 114
80 88 114
80 88 114
80 88 114
80 88 114
80 88 114
80 88 114
80 88 114
80 88 114
80 88 114
80 88 114
80 88 114
80 88 114
80 88 114
80 88 114
80 88 114
80 88 114
80 88 114
80 88 114
80 88 114
80 88 114
80 88 114
80 88 114
80 88 114
80 88 114
80 88 114
80 88 114
80 88 114
80 88 114
80 88 114
80 88 114
80 88 114
80 88 114
255 255 255
255 255 255
255 255 255
255 255 255
255 255 255
255 255 255
255 255 255
255 255 255
255 255 255
255 255 255
255 255 255
255 255 255
255 255 255
255 255 255
255 255 255
255 255 255
255 255 255
255 255 255
255 255 255
255 255 255
255 255 255
255 255 255
255 255 255
255 255 255
255 255 255
255 255 255
255 255 255
255 255 255
255 255 255
255 255 255
255 255 255
255 255 255
80 88 114
80 88 114
80 88 114
80 88 114
80 88 114
80 88 114
80 88 114
80 88 114
80 88 114
80 88 114
80 88 114
80 88 114
80 88 114
80 88 114
80 88 114
80 88 114
80 88 114
80 88 114
80 88 114
80 88 114
80 88 114
80 88 114
80 88 114
80 88 114
80 88 114
80 88 114
80 88 114
80 88 114
80 88 114
80 88 114
80 88 114
80 88 114
80 88 114
80 88 114
80 88 114
80 88 114
80 88 114
80 88 114
80 88 114
80 88 114
80 88 114
80 88 114
80 88 114
80 88 114
80 88 114
80 88 114
80 88 114
80 88 114
80 88 114
80 88 114
80 88 114
80 88 114
80 88 114
80 88 114
80 88 114
80 88 114
80 88 114
80 88 114
80 88 114
80 88 114
80 88 114
80 88 114
80 88 114
80 88 114
80 88 114
80 88 114
80 88 114
80 88 114
80 88 114
80 88 114
80 88 114
80 88 114
80 88 114
80 88 114
80 88 114
80 88 114
80 88 114
80 88 114
80 88 114
80 88 114
80 88 114
80 88 114
80 88 114
80 88 114
80 88 114
80 88 114
80 88 114
80 88 114
80 88 114
80 88 114
80 88 114
80 88 114
80 88 114
80 88 114
80 88 114
80 88 114
80 88 114
80 88 114
80 88 114
80 88 114
80 88 114
80 88 114
80 88 114
80 88 114
80 88 114
80 88 114
80 88 114
80 88 114
80 88 114
80 88 114
80 88 114
80 88 114
80 88 114
80 88 114
80 88 114
80 88 114
80 88 114
80 88 114
80 88 114
80 88 114
80 88 114
80 88 114
80 88 114
80 88 114
80 88 114
80 88 114
80 88 114
80 88 114
80 88 114
80 88 114
80 88 114
80 88 114
80 88 114
80 88 114
80 88 114
80 88 114
80 88 114
80 88 114
80 88 114
80 88 114
80 88 114
80 88 114
80 88 114
80 88 114
80 88 114
80 88 114
80 88 114
80 88 114
80 88 114
80 88 114
80 88 114
80 88 114
80 88 114
80 88 114
80 88 114
80 88 114
80 88 114
80 88 114
80 88 114
80 88 114
80 88 114
80 88 114
80 88 114
80 88 114
80 88 114
80 88 114
80 88 114
80 88 114
80 88 114
80 88 114
80 88 114
80 88 114
80 88 114
80 88 114
80 88 114
80 88 114
80 88 114
80 88 114
80 88 114
80 88 114
80 88 114
80 88 114
80 88 114
80 88 114
80 88 114
80 88 114
80 88 114
80 88 114
80 88 114
80 88 114
80 88 114
80 88 114
80 88 114
80 88 114
80 88 114
80 88 114
80 88 114
80 88 114
80 88 114
80 88 114
80 88 114
80 88 114
80 88 114
80 88 114
80 88 114
80 88 114
80 88 114
80 88 114
80 88 114
80 88 114
80 88 114
80 88 114
80 88 114
80 88 114
80 88 114
80 88 114
80 88 114
80 88 114
80 88 114
80 88 114
80 88 114
80 88 114
80 88 114
80 88 114
80 88 114
80 88 114
80 88 114
80 88 114
80 88 114
80 88 114
80 88 114
80 88 114
80 88 114
80 88 114
80 88 114
80 88 114
80 88 114
80 88 114
80 88 114
80 88 114
80 88 114
80 88 114
80 88 114
80 88 114
80 88 114
80 88 114
80 88 114
80 88 114
80 88 114
80 88 114
80 88 114
80 88 114
80 88 114
80 88 114
80 88 114
80 88 114
80 88 114
80 88 114
80 88 114
80 88 114
80 88 114
80 88 114
80 88 114
80 88 114
80 88 114
80 88 114
80 88 114
80 88 114
80 88 114
80 88 114
80 88 114
80 88 114
80 88 114
80 88 114
80 88 114
80 88 114
80 88 114
80 88 114
80 88 114
80 88 114
80 88 114
80 88 114
80 88 114
80 88 114
80 88 114
80 88 114
80 88 114
80 88 114
80 88 114
80 88 114
80 88 114
80 88 114
80 88 114
80 88 114
80 88 114
80 88 114
80 88 114
80 88 114
80 88 114
80 88 114
80 88 114
80 88 114
80 88 114
80 88 114
80 88 114
80 88 114
80 88 114
80 88 114
80 88 114
80 88 114
80 88 114
80 88 114
80 88 114
80 88 114
80 88 114
80 88 114
80 88 114
80 88 114
80 88 114
80 88 114
80 88 114
80 88 114
80 88 114
80 88 114
80 88 114
80 88 114
80 88 114
80 88 114
80 88 114
80 88 114
80 88 114
80 88 114
80 88 114
80 88 114
80 88 114
80 88 114
80 88 114
80 88 114
80 88 114
80 88 114
80 88 114
80 88 114
80 88 114
80 88 114
80 88 114
80 88 114
80 88 114
80 88 114
80 88 114
80 88 114
80 88 114
80 88 114
80 88 114
80 88 114
80 88 114
80 88 114
80 88 114
80 88 114
80 88 114
80 88 114
80 88 114
80 88 114
80 88 114
80 88 114
80 88 114
80 88 114
80 88 114
80 88 114
255 255 255
255 255 255
255 255 255
255 255 255
255 255 255
255 255 255
255 255 255
255 255 255
255 255 255
255 255 255
255 255 255
255 255 255
255 255 255
255 255 255
255 255 255
255 255 255
255 255 255
255 255 255
255 255 255
255 255 255
255 255 255
255 255 255
255 255 255
255 255 255
255 255 255
255 255 255
255 255 255
255 255 255
255 255 255
255 255 255
255 255 255
150 152 150
80 88 114
86 93 115
100 102 109
71 76 94
79 87 111
80 88 114
80 88 114
80 88 114
80 88 114
80 88 114
80 88 114
80 88 114
80 88 114
80 88 114
80 88 114
80 88 114
80 88 114
80 88 114
80 88 114
80 88 114
80 88 114
80 88 114
80 88 114
80 88 114
80 88 114
80 88 114
80 88 114
80 88 114
80 88 114
80 88 114
80 88 114
80 88 114
80 88 114
80 88 114
80 88 114
80 88 114
80 88 114
80 88 114
80 88 114
80 88 114
80 88 114
80 88 114
80 88 114
80 88 114
80 88 114
80 88 114
80 88 114
80 88 114
80 88 114
80 88 114
80 88 114
80 88 114
80 88 114
80 88 114
80 88 114
80 88 114
80 88 114
80 88 114
80 88 114
80 88 114
80 88 114
80 88 114
80 88 114
80 88 114
80 88 114
80 88 114
80 88 114
80 88 114
80 88 114
80 88 114
80 88 114
80 88 114
80 88 114
80 88 114
80 88 114
80 88 114
80 88 114
80 88 114
80 88 114
80 88 114
80 88 114
80 88 114
80 88 114
80 88 114
80 88 114
80 88 114
80 88 114
80 88 114
80 88 114
80 88 114
80 88 114
80 88 114
80 88 114
80 88 114
80 88 114
80 88 114
80 88 114
80 88 114
80 88 114
80 88 114
80 88 114
80 88 114
80 88 114
80 88 114
80 88 114
80 88 114
80 88 114
80 88 114
80 88 114
80 88 114
80 88 114
80 88 114
80 88 114
80 88 114
80 88 114
80 88 114
80 88 114
80 88 114
80 88 114
80 88 114
80 88 114
80 88 114
80 88 114
80 88 114
80 88 114
80 88 114
80 88 114
80 88 114
80 88 114
80 88 114
80 88 114
80 88 114
80 88 114
80 88 114
80 88 114
80 88 114
80 88 114
80 88 114
80 88 114
80 88 114
80 88 114
80 88 114
80 88 114
80 88 114
80 88 114
80 88 114
80 88 114
80 88 114
80 88 114
80 88 114
80 88 114
80 88 114
80 88 114
80 88 114
80 88 114
80 88 114
80 88 114
80 88 114
80 88 114
80 88 114
80 88 114
80 88 114
80 88 114
80 88 114
80 88 114
80 88 114
80 88 114
80 88 114
80 88 114
80 88 114
80 88 114
80 88 114
80 88 114
80 88 114
80 88 114
80 88 114
80 88 114
80 88 114
80 88 114
80 88 114
80 88 114
80 88 114
80 88 114
80 88 114
80 88 114
80 88 114
80 88 114
80 88 114
80 88 114
80 88 114
80 88 114
80 88 114
80 88 114
80 88 114
80 88 114
80 88 114
80 88 114
80 88 114
80 88 114
80 88 114
80 88 114
80 88 114
80 88 114
80 88 114
80 88 114
80 88 114
80 88 114
80 88 114
80 88 114
80 88 114
80 88 114
80 88 114
80 88 114
80 88 114
80 88 114
80 88 114
80 88 114
80 88 114
80 88 114
80 88 114
80 88 114
80 88 114
80 88 114
80 88 114
80 88 114
80 88 114
80 88 114
80 88 114
80 88 114
80 88 114
80 88 114
80 88 114
80 88 114
80 88 114
80 88 114
80 88 114
80 88 114
80 88 114
80 88 114
80 88 114
80 88 114
80 88 114
80 88 114
80 88 114
80 88 114
80 88 114
80 88 114
80 88 114
80 88 114
80 88 114
80 88 114
80 88 114
80 88 114
80 88 114
80 88 114
80 88 114
80 88 114
80 88 114
80 88 114
80 88 114
80 88 114
80 88 114
80 88 114
80 88 114
80 88 114
80 88 114
80 88 114
80 88 114
80 88 114
80 88 114
80 88 114
80 88 114
80 88 114
80 88 114
80 88 114
80 88 114
80 88 114
80 88 114
80 88 114
80 88 114
80 88 114
80 88 114
80 88 114
80 88 114
80 88 114
80 88 114
80 88 114
80 88 114
80 88 114
80 88 114
80 88 114
80 88 114
80 88 114
80 88 114
80 88 114
80 88 114
80 88 114
80 88 114
80 88 114
80 88 114
80 88 114
80 88 114
80 88 114
80 88 114
80 88 114
80 88 114
80 88 114
80 88 114
80 88 114
80 88 114
80 88 114
80 88 114
80 88 114
80 88 114
80 88 114
80 88 114
80 88 114
80 88 114
80 88 114
80 88 114
80 88 114
80 88 114
80 88 114
80 88 114
80 88 114
80 88 114
80 88 114
80 88 114
80 88 114
80 88 114
80 88 114
80 88 114
80 88 114
80 88 114
80 88 114
80 88 114
80 88 114
80 88 114
80 88 114
80 88 114
80 88 114
80 88 114
80 88 114
80 88 114
80 88 114
80 88 114
80 88 114
80 88 114
80 88 114
80 88 114
80 88 114
80 88 114
80 88 114
80 88 114
80 88 114
80 88 114
80 88 114
80 88 114
80 88 114
80 88 114
80 88 114
80 88 114
80 88 114
80 88 114
80 88 114
80 88 114
80 88 114
80 88 114
80 88 114
255 255 255
255 255 255
255 255 255
255 255 255
255 255 255
255 255 255
255 255 255
255 255 255
255 255 255
255 255 255
255 255 255
255 255 255
255 255 255
255 255 255
255 255 255
255 255 255
255 255 255
255 255 255
255 255 255
255 255 255
255 255 255
255 255 255
255 255 255
255 255 255
255 255 255
255 255 255
255 255 255
255 255 255
255 255 255
255 255 255
80 88 114
80 88 114
95 100 115
72 75 84
66 70 84
73 79 100
80 88 114
80 88 114
80 88 114
80 88 114
80 88 114
80 88 114
80 88 114
80 88 114
80 88 114
80 88 114
80 88 114
80 88 114
80 88 114
80 88 114
80 88 114
80 88 114
80 88 114
80 88 114
80 88 114
80 88 114
80 88 114
80 88 114
80 88 114
80 88 114
80 88 114
80 88 114
80 88 114
80 88 114
80 88 114
80 88 114
80 88 114
80 88 114
80 88 114
80 88 114
80 88 114
80 88 114
80 88 114
80 88 114
80 88 114
80 88 114
80 88 114
80 88 114
80 88 114
80 88 114
80 88 114
80 88 114
80 88 114
80 88 114
80 88 114
80 88 114
80 88 114
80 88 114
80 88 114
80 88 114
80 88 114
80 88 114
80 88 114
80 88 114
80 88 114
80 88 114
80 88 114
80 88 114
80 88 114
80 88 114
80 88 114
80 88 114
80 88 114
80 88 114
80 88 114
80 88 114
80 88 114
80 88 114
80 88 114
80 88 114
80 88 114
80 88 114
80 88 114
80 88 114
80 88 114
80 88 114
80 88 114
80 88 114
80 88 114
80 88 114
80 88 114
80 88 114
80 88 114
80 88 114
80 88 114
80 88 114
80 88 114
80 88 114
80 88 114
80 88 114
80 88 114
80 88 114
80 88 114
80 88 114
80 88 114
80 88 114
80 88 114
80 88 114
80 88 114
80 88 114
80 88 114
80 88 114
80 88 114
80 88 114
80 88 114
80 88 114
80 88 114
80 88 114
80 88 114
80 88 114
80 88 114
80 88 114
80 88 114
80 88 114
80 88 114
80 88 114
80 88 114
80 88 114
80 88 114
80 88 114
80 88 114
80 88 114
80 88 114
80 88 114
80 88 114
80 88 114
80 88 114
80 88 114
80 88 114
80 88 114
80 88 114
80 88 114
80 88 114
80 88 114
80 88 114
80 88 114
80 88 114
80 88 114
80 88 114
80 88 114
80 88 114
80 88 114
80 88 114
80 88 114
80 88 114
80 88 114
80 88 114
80 88 114
80 88 114
80 88 114
80 88 114
80 88 114
80 88 114
80 88 114
80 88 114
80 88 114
80 88 114
80 88 114
80 88 114
80 88 114
80 88 114
80 88 114
80 88 114
80 88 114
80 88 114
80 88 114
80 88 114
80 88 114
80 88 114
80 88 114
80 88 114
80 88 114
80 88 114
80 88 114
80 88 114
80 88 114
80 88 114
80 88 114
80 88 114
80 88 114
80 88 114
80 88 114
80 88 114
80 88 114
80 88 114
80 88 114
80 88 114
80 88 114
80 88 114
80 88 114
80 88 114
80 88 114
80 88 114
80 88 114
80 88 114
80 88 114
80 88 114
80 88 114
80 88 114
80 88 114
80 88 114
80 88 114
80 88 114
80 88 114
80 88 114
80 88 114
80 88 114
80 88 114
80 88 114
80 88 114
80 88 114
80 88 114
80 88 114
80 88 114
80 88 114
80 88 114
80 88 114
80 88 114
80 88 114
80 88 114
80 88 114
80 88 114
80 88 114
80 88 114
80 88 114
80 88 114
80 88 114
80 88 114
80 88 114
80 88 114
80 88 114
80 88 114
80 88 114
80 88 114
80 88 114
80 88 114
80 88 114
80 88 114
80 88 114
80 88 114
80 88 114
80 88 114
80 88 114
80 88 114
80 88 114
80 88 114
80 88 114
80 88 114
80 88 114
80 88 114
80 88 114
80 88 114
80 88 114
80 88 114
80 88 114
80 88 114
80 88 114
80 88 114
80 88 114
80 88 114
80 88 114
80 88 114
80 88 114
80 88 114
80 88 114
80 88 114
80 88 114
80 88 114
80 88 114
80 88 114
80 88 114
80 88 114
80 88 114
80 88 114
80 88 114
80 88 114
80 88 114
80 88 114
80 88 114
80 88 114
80 88 114
80 88 114
80 88 114
80 88 114
80 88 114
80 88 114
80 88 114
80 88 114
80 88 114
80 88 114
80 88 114
80 88 114
80 88 114
80 88 114
80 88 114
80 88 114
80 88 114
80 88 114
80 88 114
80 88 114
80 88 114
80 88 114
80 88 114
80 88 114
80 88 114
80 88 114
80 88 114
80 88 114
80 88 114
80 88 114
80 88 114
80 88 114
80 88 114
80 88 114
80 88 114
80 88 114
80 88 114
80 88 114
80 88 114
80 88 114
80 88 114
80 88 114
80 88 114
80 88 114
80 88 114
80 88 114
80 88 114
80 88 114
80 88 114
80 88 114
80 88 114
80 88 114
80 88 114
80 88 114
80 88 114
80 88 114
80 88 114
80 88 114
80 88 114
80 88 114
80 88 114
80 88 114
80 88 114
80 88 114
80 88 114
80 88 114
80 88 114
80 88 114
80 88 114
80 88 114
80 88 114
80 88 114
80 88 114
80 88 114
80 88 114
80 88 114
80 88 114
80 88 114
80 88 114
80 88 114
166 166 159
255 255 255
255 255 255
255 255 255
255 255 255
255 255 255
255 255 255
255 255 255
255 255 255
255 255 255
255 255 255
255 255 255
255 255 255
255 255 255
255 255 255
255 255 255
255 255 255
255 255 255
255 255 255
255 255 255
255 255 255
255 255 255
255 255 255
255 255 255
255 255 255
255 255 255
255 255 255
255 255 255
255 255 255
80 88 114
80 88 114
80 88 114
86 93 114
68 73 88
63 66 81
75 82 106
80 88 114
80 88 114
80 88 114
80 88 114
80 88 114
80 88 114
80 88 114
80 88 114
80 88 114
80 88 114
80 88 114
80 88 114
80 88 114
80 88 114
80 88 114
80 88 114
80 88 114
80 88 114
80 88 114
80 88 114
80 88 114
80 88 114
80 88 114
80 88 114
80 88 114
80 88 114
80 88 114
80 88 114
80 88 114
80 88 114
80 88 114
80 88 114
80 88 114
80 88 114
80 88 114
80 88 114
80 88 114
80 88 114
80 88 114
80 88 114
80 88 114
80 88 114
80 88 114
80 88 114
80 88 114
80 88 114
80 88 114
80 88 114
80 88 114
80 88 114
80 88 114
80 88 114
80 88 114
80 88 114
80 88 114
80 88 114
80 88 114
80 88 114
80 88 114
80 88 114
80 88 114
80 88 114
80 88 114
80 88 114
80 88 114
80 88 114
80 88 114
80 88 114
80 88 114
80 88 114
80 88 114
80 88 114
80 88 114
80 88 114
80 88 114
80 88 114
80 88 114
80 88 114
80 88 114
80 88 114
80 88 114
80 88 114
80 88 114
80 88 114
80 88 114
80 88 114
80 88 114
80 88 114
80 88 114
80 88 114
80 88 114
80 88 114
80 88 114
80 88 114
80 88 114
80 88 114
80 88 114
80 88 114
80 88 114
80 88 114
80 88 114
80 88 114
80 88 114
80 88 114
80 88 114
80 88 114
80 88 114
80 88 114
80 88 114
80 88 114
80 88 114
80 88 114
80 88 114
80 88 114
80 88 114
80 88 114
80 88 114
80 88 114
80 88 114
80 88 114
80 88 114
80 88 114
80 88 114
80 88 114
80 88 114
80 88 114
80 88 114
80 88 114
80 88 114
80 88 114
80 88 114
80 88 114
80 88 114
80 88 114
80 88 114
80 88 114
80 88 114
80 88 114
80 88 114
80 88 114
80 88 114
80 88 114
80 88 114
80 88 114
80 88 114
80 88 114
80 88 114
80 88 114
80 88 114
80 88 114
80 88 114
80 88 114
80 88 114
80 88 114
80 88 114
80 88 114
80 88 114
80 88 114
80 88 114
80 88 114
80 88 114
80 88 114
80 88 114
80 88 114
80 88 114
80 88 114
80 88 114
80 88 114
80 88 114
80 88 114
80 88 114
80 88 114
80 88 114
80 88 114
80 88 114
80 88 114
80 88 114
80 88 114
80 88 114
80 88 114
80 88 114
80 88 114
80 88 114
80 88 114
80 88 114
80 88 114
80 88 114
80 88 114
80 88 114
80 88 114
80 88 114
80 88 114
80 88 114
80 88 114
80 88 114
80 88 114
80 88 114
80 88 114
80 88 114
80 88 114
80 88 114
80 88 114
80 88 114
80 88 114
80 88 114
80 88 114
80 88 114
80 88 114
80 88 114
80 88 114
80 88 114
80 88 114
80 88 114
80 88 114
80 88 114
80 88 114
80 88 114
80 88 114
80 88 114
80 88 114
80 88 114
80 88 114
80 88 114
80 88 114
80 88 114
80 88 114
80 88 114
80 88 114
80 88 114
80 88 114
80 88 114
80 88 114
80 88 114
80 88 114
80 88 114
80 88 114
80 88 114
80 88 114
80 88 114
80 88 114
80 88 114
80 88 114
80 88 114
80 88 114
80 88 114
80 88 114
80 88 114
80 88 114
80 88 114
80 88 114
80 88 114
80 88 114
80 88 114
80 88 114
80 88 114
80 88 114
80 88 114
80 88 114
80 88 114
80 88 114
80 88 114
80 88 114
80 88 114
80 88 114
80 88 114
80 88 114
80 88 114
80 88 114
80 88 114
80 88 114
80 88 114
80 88 114
80 88 114
80 88 114
80 88 114
80 88 114
80 88 114
80 88 114
80 88 114
80 88 114
80 88 114
80 88 114
80 88 114
80 88 114
80 88 114
80 88 114
80 88 114
80 88 114
80 88 114
80 88 114
80 88 114
80 88 114
80 88 114
80 88 114
80 88 114
80 88 114
80 88 114
80 88 114
80 88 114
80 88 114
80 88 114
80 88 114
80 88 114
80 88 114
80 88 114
80 88 114
80 88 114
80 88 114
80 88 114
80 88 114
80 88 114
80 88 114
80 88 114
80 88 114
80 88 114
80 88 114
80 88 114
80 88 114
80 88 114
80 88 114
80 88 114
80 88 114
80 88 114
80 88 114
80 88 114
80 88 114
80 88 114
80 88 114
80 88 114
80 88 114
80 88 114
80 88 114
80 88 114
80 88 114
80 88 114
80 88 114
80 88 114
80 88 114
80 88 114
80 88 114
80 88 114
80 88 114
80 88 114
80 88 114
80 88 114
80 88 114
80 88 114
80 88 114
80 88 114
80 88 114
80 88 114
80 88 114
80 88 114
80 88 114
80 88 114
80 88 114
80 88 114
80 88 114
80 88 114
80 88 114
80 88 114
80 88 114
80 88 114
80 88 114
80 88 114
255 255 236
255 255 255
255 255 255
255 255 255
255 255 255
255 255 255
255 255 255
255 255 255
255 255 255
255 255 255
255 255 255
255 255 255
255 255 255
255 255 255
255 255 255
255 255 255
255 255 255
255 255 255
255 255 255
255 255 255
255 255 255
255 255 255
255 255 255
255 255 255
255 255 255
255 255 255
255 255 255
150 152 150
80 88 114
80 88 114
80 88 114
80 88 114
80 87 113
79 87 112
80 88 114
80 88 114
80 88 114
80 88 114
80 88 114
80 88 114
80 88 114
81 88 114
96 99 113
86 90 104
82 87 106
81 88 113
80 88 114
80 88 114
80 88 114
80 88 114
80 88 114
80 88 114
80 88 114
80 88 114
80 88 114
80 88 114
80 88 114
80 88 114
80 88 114
80 88 114
80 88 114
80 88 114
80 88 114
80 88 114
80 88 114
80 88 114
80 88 114
80 88 114
80 88 114
80 88 114
80 88 114
80 88 114
80 88 114
80 88 114
80 88 114
80 88 114
80 88 114
80 88 114
80 88 114
80 88 114
80 88 114
80 88 114
80 88 114
80 88 114
80 88 114
80 88 114
80 88 114
80 88 114
80 88 114
80 88 114
80 88 114
80 88 114
80 88 114
80 88 114
80 88 114
80 88 114
80 88 114
80 88 114
80 88 114
80 88 114
80 88 114
80 88 114
80 88 114
80 88 114
80 88 114
80 88 114
80 88 114
80 88 114
80 88 114
80 88 114
80 88 114
80 88 114
80 88 114
80 88 114
80 88 114
80 88 114
80 88 114
80 88 114
80 88 114
80 88 114
80 88 114
80 88 114
80 88 114
80 88 114
80 88 114
80 88 114
80 88 114
80 88 114
80 88 114
80 88 114
80 88 114
80 88 114
80 88 114
80 88 114
80 88 114
80 88 114
80 88 114
80 88 114
80 88 114
80 88 114
80 88 114
80 88 114
80 88 114
80 88 114
80 88 114
80 88 114
80 88 114
80 88 114
80 88 114
80 88 114
80 88 114
80 88 114
80 88 114
80 88 114
80 88 114
80 88 114
80 88 114
80 88 114
80 88 114
80 88 114
80 88 114
80 88 114
80 88 114
80 88 114
80 88 114
80 88 114
80 88 114
80 88 114
80 88 114
80 88 114
80 88 114
80 88 114
80 88 114
80 88 114
80 88 114
80 88 114
80 88 114
80 88 114
80 88 114
80 88 114
80 88 114
80 88 114
80 88 114
80 88 114
80 88 114
80 88 114
80 88 114
80 88 114
80 88 114
80 88 114
80 88 114
80 88 114
80 88 114
80 88 114
80 88 114
80 88 114
80 88 114
80 88 114
80 88 114
80 88 114
80 88 114
80 88 114
80 88 114
80 88 114
80 88 114
80 88 114
80 88 114
80 88 114
80 88 114
80 88 114
80 88 114
80 88 114
80 88 114
80 88 114
80 88 114
80 88 114
80 88 114
80 88 114
80 88 114
80 88 114
80 88 114
80 88 114
80 88 114
80 88 114
80 88 114
80 88 114
80 88 114
80 88 114
80 88 114
80 88 114
80 88 114
80 88 114
80 88 114
80 88 114
80 88 114
80 88 114
80 88 114
80 88 114
80 88 114
80 88 114
80 88 114
80 88 114
80 88 114
80 88 114
80 88 114
80 88 114
80 88 114
80 88 114
80 88 114
80 88 114
80 88 114
80 88 114
80 88 114
80 88 114
80 88 114
80 88 114
80 88 114
80 88 114
80 88 114
80 88 114
80 88 114
80 88 114
80 88 114
80 88 114
80 88 114
80 88 114
80 88 114
80 88 114
80 88 114
80 88 114
80 88 114
80 88 114
80 88 114
80 88 114
80 88 114
80 88 114
80 88 114
80 88 114
80 88 114
80 88 114
80 88 114
80 88 114
80 88 114
80 88 114
80 88 114
80 88 114
80 88 114
80 88 114
80 88 114
80 88 114
80 88 114
80 88 114
80 88 114
80 88 114
80 88 114
80 88 114
80 88 114
80 88 114
80 88 114
80 88 114
80 88 114
80 88 114
80 88 114
80 88 114
80 88 114
80 88 114
80 88 114
80 88 114
80 88 114
80 88 114
80 88 114
80 88 114
80 88 114
80 88 114
80 88 114
80 88 114
80 88 114
80 88 114
80 88 114
80 88 114
80 88 114
80 88 114
80 88 114
80 88 114
80 88 114
80 88 114
80 88 114
80 88 114
80 88 114
80 88 114
80 88 114
80 88 114
80 88 114
80 88 114
80 88 114
80 88 114
80 88 114
80 88 114
80 88 114
80 88 114
80 88 114
80 88 114
80 88 114
80 88 114
80 88 114
80 88 114
80 88 114
80 88 114
80 88 114
80 88 114
80 88 114
80 88 114
80 88 114
80 88 114
80 88 114
80 88 114
80 88 114
80 88 114
80 88 114
80 88 114
80 88 114
80 88 114
80 88 114
80 88 114
80 88 114
80 88 114
80 88 114
80 88 114
80 88 114
80 88 114
80 88 114
80 88 114
80 88 114
80 88 114
80 88 114
80 88 114
80 88 114
80 88 114
80 88 114
80 88 114
80 88 114
80 88 114
80 88 114
80 88 114
80 88 114
80 88 114
80 88 114
80 88 114
80 88 114
80 88 114
80 88 114
80 88 114
80 88 114
80 88 114
80 88 114
80 88 114
80 88 114
80 88 114
80 88 114
80 88 114
80 88 114
255 255 255
255 255 255
255 255 255
255 255 255
255 255 255
255 255 255
255 255 255
255 255 255
255 255 255
255 255 255
255 255 255
255 255 255
255 255 255
255 255 255
255 255 255
255 255 255
255 255 255
255 255 255
255 255 255
255 255 255
255 255 255
255 255 255
255 255 255
255 255 255
255 255 255
189 188 173
80 88 114
80 88 114
80 88 114
80 88 114
80 88 114
80 88 114
80 88 114
80 88 114
80 88 114
80 88 114
80 88 114
80 88 114
80 88 114
82 89 114
122 119 114
98 96 96
79 82 91
74 77 86
78 82 93
79 86 110
80 88 114
80 88 114
80 88 114
80 88 114
80 88 114
80 88 114
80 88 114
80 88 114
80 88 114
80 88 114
80 88 114
80 88 114
80 88 114
80 88 114
80 88 114
80 88 114
80 88 114
80 88 114
80 88 114
80 88 114
80 88 114
80 88 114
80 88 114
80 88 114
80 88 114
80 88 114
80 88 114
80 88 114
80 88 114
80 88 114
80 88 114
80 88 114
80 88 114
80 88 114
80 88 114
80 88 114
80 88 114
80 88 114
80 88 114
80 88 114
80 88 114
80 88 114
80 88 114
80 88 114
80 88 114
80 88 114
80 88 114
80 88 114
80 88 114
80 88 114
80 88 114
80 88 114
80 88 114
80 88 114
80 88 114
80 88 114
80 88 114
80 88 114
80 88 114
80 88 114
80 88 114
80 88 114
80 88 114
80 88 114
80 88 114
80 88 114
80 88 114
80 88 114
80 88 114
80 88 114
80 88 114
80 88 114
80 88 114
80 88 114
80 88 114
80 88 114
80 88 114
80 88 114
80 88 114
80 88 114
80 88 114
80 88 114
80 88 114
80 88 114
80 88 114
80 88 114
80 88 114
80 88 114
80 88 114
80 88 114
80 88 114
80 88 114
80 88 114
80 88 114
80 88 114
80 88 114
80 88 114
80 88 114
80 88 114
80 88 114
80 88 114
80 88 114
80 88 114
80 88 114
80 88 114
80 88 114
80 88 114
80 88 114
80 88 114
80 88 114
80 88 114
80 88 114
80 88 114
80 88 114
80 88 114
80 88 114
80 88 114
80 88 114
80 88 114
80 88 114
80 88 114
80 88 114
80 88 114
80 88 114
80 88 114
80 88 114
80 88 114
80 88 114
80 88 114
80 88 114
80 88 114
80 88 114
80 88 114
80 88 114
80 88 114
80 88 114
80 88 114
80 88 114
80 88 114
80 88 114
80 88 114
80 88 114
80 88 114
80 88 114
80 88 114
80 88 114
80 88 114
80 88 114
80 88 114
80 88 114
80 88 114
80 88 114
80 88 114
80 88 114
80 88 114
80 88 114
80 88 114
80 88 114
80 88 114
80 88 114
80 88 114
80 88 114
80 88 114
80 88 114
80 88 114
80 88 114
80 88 114
80 88 114
80 88 114
80 88 114
80 88 114
80 88 114
80 88 114
80 88 114
80 88 114
80 88 114
80 88 114
80 88 114
80 88 114
80 88 114
80 88 114
80 88 114
80 88 114
80 88 114
80 88 114
80 88 114
80 88 114
80 88 114
80 88 114
80 88 114
80 88 114
80 88 114
80 88 114
80 88 114
80 88 114
80 88 114
80 88 114
80 88 114
80 88 114
80 88 114
80 88 114
80 88 114
80 88 114
80 88 114
80 88 114
80 88 114
80 88 114
80 88 114
80 88 114
80 88 114
80 88 114
80 88 114
80 88 114
80 88 114
80 88 114
80 88 114
80 88 114
80 88 114
80 88 114
80 88 114
80 88 114
80 88 114
80 88 114
80 88 114
80 88 114
80 88 114
80 88 114
80 88 114
80 88 114
80 88 114
80 88 114
80 88 114
80 88 114
80 88 114
80 88 114
80 88 114
80 88 114
80 88 114
80 88 114
80 88 114
80 88 114
80 88 114
80 88 114
80 88 114
80 88 114
80 88 114
80 88 114
80 88 114
80 88 114
80 88 114
80 88 114
80 88 114
80 88 114
80 88 114
80 88 114
80 88 114
80 88 114
80 88 114
80 88 114
80 88 114
80 88 114
80 88 114
80 88 114
80 88 114
80 88 114
80 88 114
80 88 114
80 88 114
80 88 114
80 88 114
80 88 114
80 88 114
80 88 114
80 88 114
80 88 114
80 88 114
80 88 114
80 88 114
80 88 114
80 88 114
80 88 114
80 88 114
80 88 114
80 88 114
80 88 114
80 88 114
80 88 114
80 88 114
80 88 114
80 88 114
80 88 114
80 88 114
80 88 114
80 88 114
80 88 114
80 88 114
80 88 114
80 88 114
80 88 114
80 88 114
80 88 114
80 88 114
80 88 114
80 88 114
80 88 114
80 88 114
80 88 114
80 88 114
80 88 114
80 88 114
80 88 114
80 88 114
80 88 114
80 88 114
80 88 114
80 88 114
80 88 114
80 88 114
80 88 114
80 88 114
80 88 114
80 88 114
80 88 114
80 88 114
80 88 114
80 88 114
80 88 114
80 88 114
80 88 114
80 88 114
80 88 114
80 88 114
80 88 114
80 88 114
80 88 114
80 88 114
80 88 114
80 88 114
80 88 114
80 88 114
80 88 114
80 88 114
80 88 114
80 88 114
80 88 114
80 88 114
80 88 114
80 88 114
80 88 114
80 88 114
80 88 114
80 88 114
80 88 114
80 88 114
80 88 114
255 255 228
255 255 255
255 255 255
255 255 255
255 255 255
255 255 255
255 255 255
255 255 255
255 255 255
255 255 255
255 255 255
255 255 255
255 255 255
255 255 255
255 255 255
255 255 255
255 255 255
255 255 255
255 255 255
255 255 255
255 255 255
255 255 255
255 255 255
150 152 150
80 88 114
80 88 114
80 88 114
80 88 114
80 88 114
80 88 114
80 88 114
80 88 114
80 88 114
80 88 114
80 88 114
80 88 114
80 88 114
80 88 114
119 118 119
100 98 95
77 79 88
72 75 84
77 80 91
76 79 90
78 82 96
80 88 114
80 88 114
80 88 114
80 88 114
80 88 114
80 88 114
80 88 114
80 88 114
80 88 114
80 88 114
80 88 114
80 88 114
80 88 114
80 88 114
80 88 114
80 88 114
80 88 114
80 88 114
80 88 114
80 88 114
80 88 114
80 88 114
80 88 114
80 88 114
80 88 114
80 88 114
80 88 114
80 88 114
80 88 114
80 88 114
80 88 114
80 88 114
80 88 114
80 88 114
80 88 114
80 88 114
80 88 114
80 88 114
80 88 114
80 88 114
80 88 114
80 88 114
80 88 114
80 88 114
80 88 114
80 88 114
80 88 114
80 88 114
80 88 114
80 88 114
80 88 114
80 88 114
80 88 114
80 88 114
80 88 114
80 88 114
80 88 114
80 88 114
80 88 114
80 88 114
80 88 114
80 88 114
80 88 114
80 88 114
80 88 114
80 88 114
80 88 114
80 88 114
80 88 114
80 88 114
80 88 114
80 88 114
80 88 114
80 88 114
80 88 114
80 88 114
80 88 114
80 88 114
80 88 114
80 88 114
80 88 114
80 88 114
80 88 114
80 88 114
80 88 114
80 88 114
80 88 114
80 88 114
80 88 114
80 88 114
80 88 114
80 88 114
80 88 114
80 88 114
80 88 114
80 88 114
80 88 114
80 88 114
80 88 114
80 88 114
80 88 114
80 88 114
80 88 114
80 88 114
80 88 114
80 88 114
80 88 114
80 88 114
80 88 114
80 88 114
80 88 114
80 88 114
80 88 114
80 88 114
80 88 114
80 88 114
80 88 114
80 88 114
80 88 114
80 88 114
80 88 114
80 88 114
80 88 114
80 88 114
80 88 114
80 88 114
80 88 114
80 88 114
80 88 114
80 88 114
80 88 114
80 88 114
80 88 114
80 88 114
80 88 114
80 88 114
80 88 114
80 88 114
80 88 114
80 88 114
80 88 114
80 88 114
80 88 114
80 88 114
80 88 114
80 88 114
80 88 114
80 88 114
80 88 114
80 88 114
80 88 114
80 88 114
80 88 114
80 88 114
80 88 114
80 88 114
80 88 114
80 88 114
80 88 114
80 88 114
80 88 114
80 88 114
80 88 114
80 88 114
80 88 114
80 88 114
80 88 114
80 88 114
80 88 114
80 88 114
80 88 114
80 88 114
80 88 114
80 88 114
80 88 114
80 88 114
80 88 114
80 88 114
80 88 114
80 88 114
80 88 114
80 88 114
80 88 114
80 88 114
80 88 114
80 88 114
80 88 114
80 88 114
80 88 114
80 88 114
80 88 114
80 88 114
80 88 114
80 88 114
80 88 114
80 88 114
80 88 114
80 88 114
80 88 114
80 88 114
80 88 114
80 88 114
80 88 114
80 88 114
80 88 114
80 88 114
80 88 114
80 88 114
80 88 114
80 88 114
80 88 114
80 88 114
80 88 114
80 88 114
80 88 114
80 88 114
80 88 114
80 88 114
80 88 114
80 88 114
80 88 114
80 88 114
80 88 114
80 88 114
80 88 114
80 88 114
80 88 114
80 88 114
80 88 114
80 88 114
80 88 114
80 88 114
80 88 114
80 88 114
80 88 114
80 88 114
80 88 114
80 88 114
80 88 114
80 88 114
80 88 114
80 88 114
80 88 114
80 88 114
80 88 114
80 88 114
80 88 114
80 88 114
80 88 114
80 88 114
80 88 114
80 88 114
80 88 114
80 88 114
80 88 114
80 88 114
80 88 114
80 88 114
80 88 114
80 88 114
80 88 114
80 88 114
80 88 114
80 88 114
80 88 114
80 88 114
80 88 114
80 88 114
80 88 114
80 88 114
80 88 114
80 88 114
80 88 114
80 88 114
80 88 114
80 88 114
80 88 114
80 88 114
80 88 114
80 88 114
80 88 114
80 88 114
80 88 114
80 88 114
80 88 114
80 88 114
80 88 114
80 88 114
80 88 114
80 88 114
80 88 114
80 88 114
80 88 114
80 88 114
80 88 114
80 88 114
80 88 114
80 88 114
80 88 114
80 88 114
80 88 114
80 88 114
80 88 114
80 88 114
80 88 114
80 88 114
80 88 114
80 88 114
80 88 114
80 88 114
80 88 114
80 88 114
80 88 114
80 88 114
80 88 114
80 88 114
80 88 114
80 88 114
80 88 114
80 88 114
80 88 114
80 88 114
80 88 114
80 88 114
80 88 114
80 88 114
80 88 114
80 88 114
80 88 114
80 88 114
80 88 114
80 88 114
80 88 114
80 88 114
80 88 114
80 88 114
80 88 114
80 88 114
80 88 114
80 88 114
80 88 114
80 88 114
80 88 114
80 88 114
80 88 114
80 88 114
80 88 114
80 88 114
80 88 114
80 88 114
80 88 114
80 88 114
80 88 114
80 88 114
80 88 114
80 88 114
127 130 137
255 255 255
255 255 255
255 255 255
255 255 255
255 255 255
255 255 255
255 255 255
255 255 255
255 255 255
255 255 255
255 255 255
255 255 255
255 255 255
255 255 255
255 255 255
255 255 255
255 255 255
255 255 255
255 255 255
255 255 255
80 88 114
80 88 114
80 88 114
80 88 114
80 88 114
80 88 114
80 88 114
80 88 114
80 88 114
80 88 114
80 88 114
80 88 114
80 88 114
80 88 114
80 88 114
80 88 114
119 117 113
82 83 89
75 78 87
77 80 90
79 82 92
79 82 93
75 78 87
80 88 113
80 88 114
80 88 114
80 88 114
80 88 114
80 88 114
80 88 114
80 88 114
80 88 114
80 88 114
80 88 114
80 88 114
80 88 114
80 88 114
80 88 114
80 88 114
80 88 114
80 88 114
80 88 114
80 88 114
80 88 114
80 88 114
80 88 114
80 88 114
80 88 114
80 88 114
80 88 114
80 88 114
80 88 114
80 88 114
80 88 114
80 88 114
80 88 114
80 88 114
80 88 114
80 88 114
80 88 114
80 88 114
80 88 114
80 88 114
80 88 114
80 88 114
80 88 114
80 88 114
80 88 114
80 88 114
80 88 114
80 88 114
80 88 114
80 88 114
80 88 114
80 88 114
80 88 114
80 88 114
80 88 114
80 88 114
80 88 114
80 88 114
80 88 114
80 88 114
80 88 114
80 88 114
80 88 114
80 88 114
80 88 114
80 88 114
80 88 114
80 88 114
80 88 114
80 88 114
80 88 114
80 88 114
80 88 114
80 88 114
80 88 114
80 88 114
80 88 114
80 88 114
80 88 114
80 88 114
80 88 114
80 88 114
80 88 114
80 88 114
80 88 114
80 88 114
80 88 114
80 88 114
80 88 114
80 88 114
80 88 114
80 88 114
80 88 114
80 88 114
80 88 114
80 88 114
80 88 114
80 88 114
80 88 114
80 88 114
80 88 114
80 88 114
80 88 114
80 88 114
80 88 114
80 88 114
80 88 114
80 88 114
80 88 114
80 88 114
80 88 114
80 88 114
80 88 114
80 88 114
80 88 114
80 88 114
80 88 114
80 88 114
80 88 114
80 88 114
80 88 114
80 88 114
80 88 114
80 88 114
80 88 114
80 88 114
80 88 114
80 88 114
80 88 114
80 88 114
80 88 114
80 88 114
80 88 114
80 88 114
80 88 114
80 88 114
80 88 114
80 88 114
80 88 114
80 88 114
80 88 114
80 88 114
80 88 114
80 88 114
80 88 114
80 88 114
80 88 114
80 88 114
80 88 114
80 88 114
80 88 114
80 88 114
80 88 114
80 88 114
80 88 114
80 88 114
80 88 114
80 88 114
80 88 114
80 88 114
80 88 114
80 88 114
80 88 114
80 88 114
80 88 114
80 88 114
80 88 114
80 88 114
80 88 114
80 88 114
80 88 114
80 88 114
80 88 114
80 88 114
80 88 114
80 88 114
80 88 114
80 88 114
80 88 114
80 88 114
80 88 114
80 88 114
80 88 114
80 88 114
80 88 114
80 88 114
80 88 114
80 88 114
80 88 114
80 88 114
80 88 114
80 88 114
80 88 114
80 88 114
80 88 114
80 88 114
80 88 114
80 88 114
80 88 114
80 88 114
80 88 114
80 88 114
80 88 114
80 88 114
80 88 114
80 88 114
80 88 114
80 88 114
80 88 114
80 88 114
80 88 114
80 88 114
80 88 114
80 88 114
80 88 114
80 88 114
80 88 114
80 88 114
80 88 114
80 88 114
80 88 114
80 88 114
80 88 114
80 88 114
80 88 114
80 88 114
80 88 114
80 88 114
80 88 114
80 88 114
80 88 114
80 88 114
80 88 114
80 88 114
80 88 114
80 88 114
80 88 114
80 88 114
80 88 114
80 88 114
80 88 114
80 88 114
80 88 114
80 88 114
80 88 114
80 88 114
80 88 114
80 88 114
80 88 114
80 88 114
80 88 114
80 88 114
80 88 114
80 88 114
80 88 114
80 88 114
80 88 114
80 88 114
80 88 114
80 88 114
80 88 114
80 88 114
80 88 114
80 88 114
80 88 114
80 88 114
80 88 114
80 88 114
80 88 114
80 88 114
80 88 114
80 88 114
80 88 114
80 88 114
80 88 114
80 88 114
80 88 114
80 88 114
80 88 114
80 88 114
80 88 114
80 88 114
80 88 114
80 88 114
80 88 114
80 88 114
80 88 114
80 88 114
80 88 114
80 88 114
80 88 114
80 88 114
80 88 114
80 88 114
80 88 114
80 88 114
80 88 114
80 88 114
80 88 114
80 88 114
80 88 114
80 88 114
80 88 114
80 88 114
80 88 114
80 88 114
80 88 114
80 88 114
80 88 114
80 88 114
80 88 114
80 88 114
80 88 114
80 88 114
80 88 114
80 88 114
80 88 114
80 88 114
80 88 114
80 88 114
80 88 114
80 88 114
80 88 114
80 88 114
80 88 114
80 88 114
80 88 114
80 88 114
80 88 114
80 88 114
80 88 114
80 88 114
80 88 114
80 88 114
80 88 114
80 88 114
80 88 114
80 88 114
80 88 114
80 88 114
80 88 114
80 88 114
80 88 114
80 88 114
80 88 114
80 88 114
80 88 114
80 88 114
80 88 114
80 88 114
80 88 114
80 88 114
80 88 114
80 88 114
80 88 114
80 88 114
80 88 114
80 88 114
255 255 244
255 255 255
255 255 255
255 255 255
255 255 255
255 255 255
255 255 255
255 255 255
255 255 255
255 255 255
255 255 255
255 255 255
255 255 255
255 255 255
255 255 255
255 255 255
255 255 255
213 211 189
80 88 114
80 88 114
80 88 114
80 88 114
80 88 114
80 88 114
80 88 114
80 88 114
80 88 114
80 88 114
80 88 114
80 88 114
80 88 114
80 88 114
80 88 114
80 88 114
80 88 114
110 108 108
77 79 88
75 77 87
76 79 88
75 78 89
79 82 93
77 80 91
81 88 113
80 88 114
80 88 114
80 88 114
80 88 114
80 88 114
80 88 114
80 88 114
80 88 114
80 88 114
80 88 114
80 88 114
80 88 114
80 88 114
80 88 114
80 88 114
80 88 114
80 88 114
80 88 114
80 88 114
80 88 114
80 88 114
80 88 114
80 88 114
80 88 114
80 88 114
80 88 114
80 88 114
80 88 114
80 88 114
80 88 114
80 88 114
80 88 114
80 88 114
80 88 114
80 88 114
80 88 114
80 88 114
80 88 114
80 88 114
80 88 114
80 88 114
80 88 114
80 88 114
80 88 114
80 88 114
80 88 114
80 88 114
80 88 114
80 88 114
80 88 114
80 88 114
80 88 114
80 88 114
80 88 114
80 88 114
80 88 114
80 88 114
80 88 114
80 88 114
80 88 114
80 88 114
80 88 114
80 88 114
80 88 114
80 88 114
80 88 114
80 88 114
80 88 114
80 88 114
80 88 114
80 88 114
80 88 114
80 88 114
80 88 114
80 88 114
80 88 114
80 88 114
80 88 114
80 88 114
80 88 114
80 88 114
80 88 114
80 88 114
80 88 114
80 88 114
80 88 114
80 88 114
80 88 114
80 88 114
80 88 114
80 88 114
80 88 114
80 88 114
80 88 114
80 88 114
80 88 114
80 88 114
80 88 114
80 88 114
80 88 114
80 88 114
80 88 114
80 88 114
80 88 114
80 88 114
80 88 114
80 88 114
80 88 114
80 88 114
80 88 114
80 88 114
80 88 114
80 88 114
80 88 114
80 88 114
80 88 114
80 88 114
80 88 114
80 88 114
80 88 114
80 88 114
80 88 114
80 88 114
80 88 114
80 88 114
80 88 114
80 88 114
80 88 114
80 88 114
80 88 114
80 88 114
80 88 114
80 88 114
80 88 114
80 88 114
80 88 114
80 88 114
80 88 114
80 88 114
80 88 114
80 88 114
80 88 114
80 88 114
80 88 114
80 88 114
80 88 114
80 88 114
80 88 114
80 88 114
80 88 114
80 88 114
80 88 114
80 88 114
80 88 114
80 88 114
80 88 114
80 88 114
80 88 114
80 88 114
80 88 114
80 88 114
80 88 114
80 88 114
80 88 114
80 88 114
80 88 114
80 88 114
80 88 114
80 88 114
80 88 114
80 88 114
80 88 114
80 88 114
80 88 114
80 88 114
80 88 114
80 88 114
80 88 114
80 88 114
80 88 114
80 88 114
80 88 114
80 88 114
80 88 114
80 88 114
80 88 114
80 88 114
80 88 114
80 88 114
80 88 114
80 88 114
80 88 114
80 88 114
80 88 114
80 88 114
80 88 114
80 88 114
80 88 114
80 88 114
80 88 114
80 88 114
80 88 114
80 88 114
80 88 114
80 88 114
80 88 114
80 88 114
80 88 114
80 88 114
80 88 114
80 88 114
80 88 114
80 88 114
80 88 114
80 88 114
80 88 114
80 88 114
80 88 114
80 88 114
80 88 114
80 88 114
80 88 114
80 88 114
80 88 114
80 88 114
80 88 114
80 88 114
80 88 114
80 88 114
80 88 114
80 88 114
80 88 114
80 88 114
80 88 114
80 88 114
80 88 114
80 88 114
80 88 114
80 88 114
80 88 114
80 88 114
80 88 114
80 88 114
80 88 114
80 88 114
80 88 114
80 88 114
80 88 114
80 88 114
80 88 114
80 88 114
80 88 114
80 88 114
80 88 114
80 88 114
80 88 114
80 88 114
80 88 114
80 88 114
80 88 114
80 88 114
80 88 114
80 88 114
80 88 114
80 88 114
80 88 114
80 88 114
80 88 114
80 88 114
80 88 114
80 88 114
80 88 114
80 88 114
80 88 114
80 88 114
80 88 114
80 88 114
80 88 114
80 88 114
80 88 114
80 88 114
80 88 114
80 88 114
80 88 114
80 88 114
80 88 114
80 88 114
80 88 114
80 88 114
80 88 114
80 88 114
80 88 114
80 88 114
80 88 114
80 88 114
80 88 114
80 88 114
80 88 114
80 88 114
80 88 114
80 88 114
80 88 114
80 88 114
80 88 114
80 88 114
80 88 114
80 88 114
80 88 114
80 88 114
80 88 114
80 88 114
80 88 114
80 88 114
80 88 114
80 88 114
80 88 114
80 88 114
80 88 114
80 88 114
80 88 114
80 88 114
80 88 114
80 88 114
80 88 114
80 88 114
80 88 114
80 88 114
80 88 114
80 88 114
80 88 114
80 88 114
80 88 114
80 88 114
80 88 114
80 88 114
80 88 114
80 88 114
80 88 114
80 88 114
80 88 114
80 88 114
80 88 114
80 88 114
80 88 114
80 88 114
80 88 114
80 88 114
80 88 114
80 88 114
80 88 114
80 88 114
80 88 114
80 88 114
80 88 114
80 88 114
80 88 114
80 88 114
80 88 114
80 88 114
231 228 201
255 255 255
255 255 255
255 255 255
255 255 255
255 255 255
255 255 255
255 255 255
255 255 255
255 255 255
255 255 255
255 255 255
255 255 255
156 157 153
80 88 114
80 88 114
80 88 114
80 88 114
80 88 114
80 88 114
80 88 114
80 88 114
80 88 114
80 88 114
80 88 114
80 88 114
80 88 114
80 88 114
80 88 114
80 88 114
80 88 114
80 88 114
80 88 114
97 100 112
81 82 88
78 81 90
77 80 90
76 79 90
75 78 89
79 84 101
80 88 114
80 88 114
80 88 114
80 88 114
80 88 114
80 88 114
78 88 116
71 82 118
68 79 115
77 85 113
80 88 114
80 88 114
80 88 114
80 88 114
80 88 114
80 88 114
80 88 114
80 88 114
80 88 114
80 88 114
80 88 114
80 88 114
80 88 114
80 88 114
80 88 114
80 88 114
80 88 114
80 88 114
80 88 114
80 88 114
80 88 114
80 88 114
80 88 114
80 88 114
80 88 114
80 88 114
80 88 114
80 88 114
80 88 114
80 88 114
80 88 114
80 88 114
80 88 114
80 88 114
80 88 114
80 88 114
80 88 114
80 88 114
80 88 114
80 88 114
80 88 114
80 88 114
80 88 114
80 88 114
80 88 114
80 88 114
80 88 114
80 88 114
80 88 114
80 88 114
80 88 114
80 88 114
80 88 114
80 88 114
80 88 114
80 88 114
80 88 114
80 88 114
80 88 114
80 88 114
80 88 114
80 88 114
80 88 114
80 88 114
80 88 114
80 88 114
80 88 114
80 88 114
80 88 114
80 88 114
80 88 114
80 88 114
80 88 114
80 88 114
80 88 114
80 88 114
80 88 114
80 88 114
80 88 114
80 88 114
80 88 114
80 88 114
80 88 114
80 88 114
80 88 114
80 88 114
80 88 114
80 88 114
80 88 114
80 88 114
80 88 114
80 88 114
80 88 114
80 88 114
80 88 114
80 88 114
80 88 114
80 88 114
80 88 114
80 88 114
80 88 114
80 88 114
80 88 114
80 88 114
80 88 114
80 88 114
80 88 114
80 88 114
80 88 114
80 88 114
80 88 114
80 88 114
80 88 114
80 88 114
80 88 114
80 88 114
80 88 114
80 88 114
80 88 114
80 88 114
80 88 114
80 88 114
80 88 114
80 88 114
80 88 114
80 88 114
80 88 114
80 88 114
80 88 114
80 88 114
80 88 114
80 88 114
80 88 114
80 88 114
80 88 114
80 88 114
80 88 114
80 88 114
80 88 114
80 88 114
80 88 114
80 88 114
80 88 114
80 88 114
80 88 114
80 88 114
80 88 114
80 88 114
80 88 114
80 88 114
80 88 114
80 88 114
80 88 114
80 88 114
80 88 114
80 88 114
80 88 114
80 88 114
80 88 114
80 88 114
80 88 114
80 88 114
80 88 114
80 88 114
80 88 114
80 88 114
80 88 114
80 88 114
80 88 114
80 88 114
80 88 114
80 88 114
80 88 114
80 88 114
80 88 114
80 88 114
80 88 114
80 88 114
80 88 114
80 88 114
80 88 114
80 88 114
80 88 114
80 88 114
80 88 114
80 88 114
80 88 114
80 88 114
80 88 114
80 88 114
80 88 114
80 88 114
80 88 114
80 88 114
80 88 114
80 88 114
80 88 114
80 88 114
80 88 114
80 88 114
80 88 114
80 88 114
80 88 114
80 88 114
80 88 114
80 88 114
80 88 114
80 88 114
80 88 114
80 88 114
80 88 114
80 88 114
80 88 114
80 88 114
80 88 114
80 88 114
80 88 114
80 88 114
80 88 114
80 88 114
80 88 114
80 88 114
80 88 114
80 88 114
80 88 114
80 88 114
80 88 114
80 88 114
80 88 114
80 88 114
80 88 114
80 88 114
80 88 114
80 88 114
80 88 114
80 88 114
80 88 114
80 88 114
80 88 114
80 88 114
80 88 114
80 88 114
80 88 114
80 88 114
80 88 114
80 88 114
80 88 114
80 88 114
80 88 114
80 88 114
80 88 114
80 88 114
80 88 114
80 88 114
80 88 114
80 88 114
80 88 114
80 88 114
80 88 114
80 88 114
80 88 114
80 88 114
80 88 114
80 88 114
80 88 114
80 88 114
80 88 114
80 88 114
80 88 114
80 88 114
80 88 114
80 88 114
80 88 114
80 88 114
80 88 114
80 88 114
80 88 114
80 88 114
80 88 114
80 88 114
80 88 114
80 88 114
80 88 114
80 88 114
80 88 114
80 88 114
80 88 114
80 88 114
80 88 114
80 88 114
80 88 114
80 88 114
80 88 114
80 88 114
80 88 114
80 88 114
80 88 114
80 88 114
80 88 114
80 88 114
80 88 114
80 88 114
80 88 114
80 88 114
80 88 114
80 88 114
80 88 114
80 88 114
80 88 114
80 88 114
80 88 114
80 88 114
80 88 114
80 88 114
80 88 114
80 88 114
80 88 114
80 88 114
80 88 114
80 88 114
80 88 114
80 88 114
80 88 114
80 88 114
80 88 114
80 88 114
80 88 114
80 88 114
80 88 114
80 88 114
80 88 114
80 88 114
80 88 114
80 88 114
80 88 114
80 88 114
80 88 114
80 88 114
80 88 114
80 88 114
80 88 114
80 88 114
80 88 114
80 88 114
80 88 114
80 88 114
80 88 114
80 88 114
80 88 114
80 88 114
80 88 114
80 88 114
80 88 114
90 96 118
255 255 230
255 255 255
255 255 255
255 255 255
255 255 255
231 228 201
80 88 114
80 88 114
80 88 114
80 88 114
80 88 114
80 88 114
80 88 114
80 88 114
80 88 114
80 88 114
80 88 114
80 88 114
80 88 114
80 88 114
80 88 114
80 88 114
80 88 114
80 88 114
80 88 114
80 88 114
80 88 114
80 88 114
80 88 114
80 88 114
83 87 102
79 81 91
79 82 92
77 80 91
76 79 94
79 87 111
80 88 114
80 88 114
80 88 114
80 88 114
80 88 114
70 84 125
44 65 121
36 56 113
35 54 110
39 59 118
64 76 117
80 88 114
80 88 114
80 88 114
80 88 114
80 88 114
80 88 114
80 88 114
80 88 114
80 88 114
80 88 114
80 88 114
80 88 114
80 88 114
80 88 114
80 88 114
80 88 114
80 88 114
80 88 114
80 88 114
80 88 114
80 88 114
80 88 114
80 88 114
80 88 114
80 88 114
80 88 114
80 88 114
80 88 114
80 88 114
80 88 114
80 88 114
80 88 114
80 88 114
80 88 114
80 88 114
80 88 114
80 88 114
80 88 114
80 88 114
80 88 114
80 88 114
80 88 114
80 88 114
80 88 114
80 88 114
80 88 114
80 88 114
80 88 114
80 88 114
80 88 114
80 88 114
80 88 114
80 88 114
80 88 114
80 88 114
80 88 114
80 88 114
80 88 114
80 88 114
80 88 114
80 88 114
80 88 114
80 88 114
80 88 114
80 88 114
80 88 114
80 88 114
80 88 114
80 88 114
80 88 114
80 88 114
80 88 114
80 88 114
80 88 114
80 88 114
80 88 114
80 88 114
80 88 114
80 88 114
80 88 114
80 88 114
80 88 114
80 88 114
80 88 114
80 88 114
80 88 114
80 88 114
80 88 114
80 88 114
80 88 114
80 88 114
80 88 114
80 88 114
80 88 114
80 88 114
80 88 114
80 88 114
80 88 114
80 88 114
80 88 114
80 88 114
80 88 114
80 88 114
80 88 114
80 88 114
80 88 114
80 88 114
80 88 114
80 88 114
80 88 114
80 88 114
80 88 114
80 88 114
80 88 114
80 88 114
80 88 114
80 88 114
80 88 114
80 88 114
80 88 114
80 88 114
80 88 114
80 88 114
80 88 114
80 88 114
80 88 114
80 88 114
80 88 114
80 88 114
80 88 114
80 88 114
80 88 114
80 88 114
80 88 114
80 88 114
80 88 114
80 88 114
80 88 114
80 88 114
80 88 114
80 88 114
80 88 114
80 88 114
80 88 114
80 88 114
80 88 114
80 88 114
80 88 114
80 88 114
80 88 114
80 88 114
80 88 114
80 88 114
80 88 114
80 88 114
80 88 114
80 88 114
80 88 114
80 88 114
80 88 114
80 88 114
80 88 114
80 88 114
80 88 114
80 88 114
80 88 114
80 88 114
80 88 114
80 88 114
80 88 114
80 88 114
80 88 114
80 88 114
80 88 114
80 88 114
80 88 114
80 88 114
80 88 114
80 88 114
80 88 114
80 88 114
80 88 114
80 88 114
80 88 114
80 88 114
80 88 114
80 88 114
80 88 114
80 88 114
80 88 114
80 88 114
80 88 114
80 88 114
80 88 114
80 88 114
80 88 114
80 88 114
80 88 114
80 88 114
80 88 114
80 88 114
80 88 114
80 88 114
80 88 114
80 88 114
80 88 114
80 88 114
80 88 114
80 88 114
80 88 114
80 88 114
80 88 114
80 88 114
80 88 114
80 88 114
80 88 114
80 88 114
80 88 114
80 88 114
80 88 114
80 88 114
80 88 114
80 88 114
80 88 114
80 88 114
80 88 114
80 88 114
80 88 114
80 88 114
80 88 114
80 88 114
80 88 114
80 88 114
80 88 114
80 88 114
80 88 114
80 88 114
80 88 114
80 88 114
80 88 114
80 88 114
80 88 114
80 88 114
80 88 114
80 88 114
80 88 114
80 88 114
80 88 114
80 88 114
80 88 114
80 88 114
80 88 114
80 88 114
80 88 114
80 88 114
80 88 114
80 88 114
80 88 114
80 88 114
80 88 114
80 88 114
80 88 114
80 88 114
80 88 114
80 88 114
80 88 114
80 88 114
80 88 114
80 88 114
80 88 114
80 88 114
80 88 114
80 88 114
80 88 114
80 88 114
80 88 114
80 88 114
80 88 114
80 88 114
80 88 114
80 88 114
80 88 114
80 88 114
80 88 114
80 88 114
80 88 114
80 88 114
80 88 114
80 88 114
80 88 114
80 88 114
80 88 114
80 88 114
80 88 114
80 88 114
80 88 114
80 88 114
80 88 114
80 88 114
80 88 114
80 88 114
80 88 114
80 88 114
80 88 114
80 88 114
80 88 114
80 88 114
80 88 114
80 88 114
80 88 114
80 88 114
80 88 114
80 88 114
80 88 114
80 88 114
80 88 114
80 88 114
80 88 114
80 88 114
80 88 114
80 88 114
80 88 114
80 88 114
80 88 114
80 88 114
80 88 114
80 88 114
80 88 114
80 88 114
80 88 114
80 88 114
80 88 114
80 88 114
80 88 114
80 88 114
80 88 114
80 88 114
80 88 114
80 88 114
80 88 114
80 88 114
80 88 114
80 88 114
80 88 114
80 88 114
80 88 114
80 88 114
80 88 114
80 88 114
80 88 114
80 88 114
80 88 114
80 88 114
80 88 114
80 88 114
80 88 114
80 88 114
80 88 114
80 88 114
80 88 114
80 88 114
80 88 114
80 88 114
80 88 114
80 88 114
80 88 114
80 88 114
80 88 114
80 88 114
80 88 114
80 88 114
80 88 114
80 88 114
80 88 114
80 88 114
80 88 114
80 88 114
80 88 114
80 88 114
80 88 114
80 88 114
80 88 114
80 88 114
80 88 114
80 87 112
77 84 106
80 87 110
80 88 114
80 88 114
80 88 114
80 88 114
80 88 114
80 88 114
74 87 122
46 68 123
36 55 113
34 53 108
35 54 111
35 54 110
36 55 112
69 79 113
80 88 114
80 88 114
80 88 114
80 88 114
80 88 114
80 88 114
80 88 114
80 88 114
80 88 114
80 88 114
80 88 114
80 88 114
80 88 114
80 88 114
80 88 114
80 88 114
80 88 114
80 88 114
80 88 114
80 88 114
80 88 114
80 88 114
80 88 114
80 88 114
80 88 114
80 88 114
80 88 114
80 88 114
80 88 114
80 88 114
80 88 114
80 88 114
80 88 114
80 88 114
80 88 114
80 88 114
80 88 114
80 88 114
80 88 114
80 88 114
80 88 114
80 88 114
80 88 114
80 88 114
80 88 114
80 88 114
80 88 114
80 88 114
80 88 114
80 88 114
80 88 114
80 88 114
80 88 114
80 88 114
80 88 114
80 88 114
80 88 114
80 88 114
80 88 114
80 88 114
80 88 114
80 88 114
80 88 114
80 88 114
80 88 114
80 88 114
80 88 114
80 88 114
80 88 114
80 88 114
80 88 114
80 88 114
80 88 114
80 88 114
80 88 114
80 88 114
80 88 114
80 88 114
80 88 114
80 88 114
80 88 114
80 88 114
80 88 114
80 88 114
80 88 114
80 88 114
80 88 114
80 88 114
80 88 114
80 88 114
80 88 114
80 88 114
80 88 114
80 88 114
80 88 114
80 88 114
80 88 114
80 88 114
80 88 114
80 88 114
80 88 114
80 88 114
80 88 114
80 88 114
80 88 114
80 88 114
80 88 114
80 88 114
80 88 114
80 88 114
80 88 114
80 88 114
80 88 114
80 88 114
80 88 114
80 88 114
80 88 114
80 88 114
80 88 114
80 88 114
80 88 114
80 88 114
80 88 114
80 88 114
80 88 114
80 88 114
80 88 114
80 88 114
80 88 114
80 88 114
80 88 114
80 88 114
80 88 114
80 88 114
80 88 114
80 88 114
80 88 114
80 88 114
80 88 114
80 88 114
80 88 114
80 88 114
80 88 114
80 88 114
80 88 114
80 88 114
80 88 114
80 88 114
80 88 114
80 88 114
80 88 114
80 88 114
80 88 114
80 88 114
80 88 114
80 88 114
80 88 114
80 88 114
80 88 114
80 88 114
80 88 114
80 88 114
80 88 114
80 88 114
80 88 114
80 88 114
80 88 114
80 88 114
80 88 114
80 88 114
80 88 114
80 88 114
80 88 114
80 88 114
80 88 114
80 88 114
80 88 114
80 88 114
80 88 114
80 88 114
80 88 114
80 88 114
80 88 114
80 88 114
80 88 114
80 88 114
80 88 114
80 88 114
80 88 114
80 88 114
80 88 114
80 88 114
80 88 114
80 88 114
80 88 114
80 88 114
80 88 114
80 88 114
80 88 114
80 88 114
80 88 114
80 88 114
80 88 114
80 88 114
80 88 114
80 88 114
80 88 114
80 88 114
80 88 114
80 88 114
80 88 114
80 88 114
80 88 114
80 88 114
80 88 114
80 88 114
80 88 114
80 88 114
80 88 114
80 88 114
80 88 114
80 88 114
80 88 114
80 88 114
80 88 114
80 88 114
80 88 114
80 88 114
80 88 114
80 88 114
80 88 114
80 88 114
80 88 114
80 88 114
80 88 114
80 88 114
80 88 114
80 88 114
80 88 114
80 88 114
80 88 114
80 88 114
80 88 114
80 88 114
80 88 114
80 88 114
80 88 114
80 88 114
80 88 114
80 88 114
80 88 114
80 88 114
80 88 114
80 88 114
80 88 114
80 88 114
80 88 114
80 88 114
80 88 114
80 88 114
80 88 114
80 88 114
80 88 114
80 88 114
80 88 114
80 88 114
80 88 114
80 88 114
80 88 114
80 88 114
80 88 114
80 88 114
80 88 114
80 88 114
80 88 114
80 88 114
80 88 114
80 88 114
80 88 114
80 88 114
80 88 114
80 88 114
80 88 114
80 88 114
80 88 114
80 88 114
80 88 114
80 88 114
80 88 114
80 88 114
80 88 114
80 88 114
80 88 114
80 88 114
80 88 114
80 88 114
80 88 114
80 88 114
80 88 114
80 88 114
80 88 114
80 88 114
80 88 114
80 88 114
80 88 114
80 88 114
80 88 114
80 88 114
80 88 114
80 88 114
80 88 114
80 88 114
80 88 114
80 88 114
80 88 114
80 88 114
80 88 114
80 88 114
80 88 114
80 88 114
80 88 114
80 88 114
80 88 114
80 88 114
80 88 114
80 88 114
80 88 114
80 88 114
80 88 114
80 88 114
80 88 114
80 88 114
80 88 114
80 88 114
80 88 114
80 88 114
80 88 114
80 88 114
80 88 114
80 88 114
80 88 114
80 88 114
80 88 114
80 88 114
80 88 114
80 88 114
80 88 114
80 88 114
80 88 114
80 88 114
80 88 114
80 88 114
80 88 114
80 88 114
80 88 114
80 88 114
80 88 114
80 88 114
80 88 114
80 88 114
80 88 114
80 88 114
80 88 114
80 88 114
80 88 114
80 88 114
80 88 114
80 88 114
80 88 114
80 88 114
80 88 114
80 88 114
80 88 114
80 88 114
80 88 114
80 88 114
80 88 114
80 88 114
80 88 114
80 88 114
80 88 114
80 88 114
80 88 114
80 88 114
80 88 114
80 88 114
80 88 114
80 88 114
80 88 114
80 88 114
80 88 114
80 88 114
60 80 130
39 60 121
35 54 111
37 58 119
36 55 112
37 57 117
35 54 112
51 66 116
80 88 114
80 88 114
80 88 114
80 88 114
80 88 114
80 88 114
80 88 114
80 88 114
80 88 114
80 88 114
80 88 114
80 88 114
80 88 114
80 88 114
80 88 114
80 88 114
80 88 114
80 88 114
80 88 114
80 88 114
80 88 114
80 88 114
80 88 114
80 88 114
80 88 114
80 88 114
80 88 114
80 88 114
80 88 114
80 88 114
80 88 114
80 88 114
80 88 114
80 88 114
80 88 114
80 88 114
80 88 114
80 88 114
80 88 114
80 88 114
80 88 114
80 88 114
80 88 114
80 88 114
80 88 114
80 88 114
80 88 114
80 88 114
80 88 114
80 88 114
80 88 114
80 88 114
80 88 114
80 88 114
80 88 114
80 88 114
80 88 114
80 88 114
80 88 114
80 88 114
80 88 114
80 88 114
80 88 114
80 88 114
80 88 114
80 88 114
80 88 114
80 88 114
80 88 114
80 88 114
80 88 114
80 88 114
80 88 114
80 88 114
80 88 114
80 88 114
80 88 114
80 88 114
80 88 114
80 88 114
80 88 114
80 88 114
80 88 114
80 88 114
80 88 114
80 88 114
80 88 114
80 88 114
80 88 114
80 88 114
80 88 114
80 88 114
80 88 114
80 88 114
80 88 114
80 88 114
80 88 114
80 88 114
80 88 114
80 88 114
80 88 114
80 88 114
80 88 114
80 88 114
80 88 114
80 88 114
80 88 114
80 88 114
80 88 114
80 88 114
80 88 114
80 88 114
80 88 114
80 88 114
80 88 114
80 88 114
80 88 114
80 88 114
80 88 114
80 88 114
80 88 114
80 88 114
80 88 114
80 88 114
80 88 114
80 88 114
80 88 114
80 88 114
80 88 114
80 88 114
80 88 114
80 88 114
80 88 114
80 88 114
80 88 114
80 88 114
80 88 114
80 88 114
80 88 114
80 88 114
80 88 114
80 88 114
80 88 114
80 88 114
80 88 114
80 88 114
80 88 114
80 88 114
80 88 114
80 88 114
80 88 114
80 88 114
80 88 114
80 88 114
80 88 114
80 88 114
80 88 114
80 88 114
80 88 114
80 88 114
80 88 114
80 88 114
80 88 114
80 88 114
80 88 114
80 88 114
80 88 114
80 88 114
80 88 114
80 88 114
80 88 114
80 88 114
80 88 114
80 88 114
80 88 114
80 88 114
80 88 114
80 88 114
80 88 114
80 88 114
80 88 114
80 88 114
80 88 114
80 88 114
80 88 114
80 88 114
80 88 114
80 88 114
80 88 114
80 88 114
80 88 114
80 88 114
80 88 114
80 88 114
80 88 114
80 88 114
80 88 114
80 88 114
80 88 114
80 88 114
80 88 114
80 88 114
80 88 114
80 88 114
80 88 114
80 88 114
80 88 114
80 88 114
80 88 114
80 88 114
80 88 114
80 88 114
80 88 114
80 88 114
80 88 114
80 88 114
80 88 114
80 88 114
80 88 114
80 88 114
80 88 114
80 88 114
80 88 114
80 88 114
80 88 114
80 88 114
80 88 114
80 88 114
80 88 114
80 88 114
80 88 114
80 88 114
80 88 114
80 88 114
80 88 114
80 88 114
80 88 114
80 88 114
80 88 114
80 88 114
80 88 114
80 88 114
80 88 114
80 88 114
80 88 114
80 88 114
80 88 114
80 88 114
80 88 114
80 88 114
80 88 114
80 88 114
80 88 114
80 88 114
80 88 114
80 88 114
80 88 114
80 88 114
80 88 114
80 88 114
80 88 114
80 88 114
80 88 114
80 88 114
80 88 114
80 88 114
80 88 114
80 88 114
80 88 114
80 88 114
80 88 114
80 88 114
80 88 114
80 88 114
80 88 114
80 88 114
80 88 114
80 88 114
80 88 114
80 88 114
80 88 114
80 88 114
80 88 114
80 88 114
80 88 114
80 88 114
80 88 114
80 88 114
80 88 114
80 88 114
80 88 114
80 88 114
80 88 114
80 88 114
80 88 114
80 88 114
80 88 114
80 88 114
80 88 114
80 88 114
80 88 114
80 88 114
80 88 114
80 88 114
80 88 114
80 88 114
80 88 114
80 88 114
80 88 114
80 88 114
80 88 114
80 88 114
80 88 114
80 88 114
80 88 114
80 88 114
80 88 114
80 88 114
80 88 114
80 88 114
80 88 114
80 88 114
80 88 114
80 88 114
80 88 114
80 88 114
80 88 114
80 88 114
80 88 114
80 88 114
80 88 114
80 88 114
80 88 114
80 88 114
80 88 114
80 88 114
80 88 114
80 88 114
80 88 114
80 88 114
80 88 114
80 88 114
80 88 114
80 88 114
80 88 114
80 88 114
80 88 114
80 88 114
80 88 114
80 88 114
80 88 114
80 88 114
80 88 114
80 88 114
80 88 114
80 88 114
80 88 114
80 88 114
80 88 114
80 88 114
80 88 114
80 88 114
80 88 114
80 88 114
80 88 114
80 88 114
80 88 114
80 88 114
80 88 114
80 88 114
80 88 114
80 88 114
80 88 114
80 88 114
80 88 114
80 88 114
80 88 114
80 88 114
80 88 114
80 88 114
80 88 114
80 88 114
80 88 114
80 88 114
80 88 114
80 88 114
80 88 114
80 88 114
80 88 114
80 88 114
80 88 114
80 88 114
54 74 125
35 54 109
36 55 113
36 57 116
34 53 108
35 55 111
36 56 114
44 61 114
80 88 114
80 88 114
80 88 114
80 88 114
80 88 114
80 88 114
80 88 114
80 88 114
80 88 114
80 88 114
80 88 114
80 88 114
80 88 114
80 88 114
80 88 114
80 88 114
80 88 114
80 88 114
80 88 114
80 88 114
80 88 114
80 88 114
80 88 114
80 88 114
80 88 114
80 88 114
80 88 114
80 88 114
80 88 114
80 88 114
80 88 114
80 88 114
80 88 114
80 88 114
80 88 114
80 88 114
80 88 114
80 88 114
80 88 114
80 88 114
80 88 114
80 88 114
80 88 114
80 88 114
80 88 114
80 88 114
80 88 114
80 88 114
80 88 114
80 88 114
80 88 114
80 88 114
80 88 114
80 88 114
80 88 114
80 88 114
80 88 114
80 88 114
80 88 114
80 88 114
80 88 114
80 88 114
80 88 114
80 88 114
80 88 114
80 88 114
80 88 114
80 88 114
80 88 114
80 88 114
80 88 114
80 88 114
80 88 114
80 88 114
80 88 114
80 88 114
80 88 114
80 88 114
80 88 114
80 88 114
80 88 114
80 88 114
80 88 114
80 88 114
80 88 114
80 88 114
80 88 114
80 88 114
80 88 114
80 88 114
80 88 114
80 88 114
80 88 114
80 88 114
80 88 114
80 88 114
80 88 114
80 88 114
80 88 114
80 88 114
80 88 114
80 88 114
80 88 114
80 88 114
80 88 114
80 88 114
80 88 114
80 88 114
80 88 114
80 88 114
80 88 114
80 88 114
80 88 114
80 88 114
80 88 114
80 88 114
80 88 114
80 88 114
80 88 114
80 88 114
80 88 114
80 88 114
80 88 114
80 88 114
80 88 114
80 88 114
80 88 114
80 88 114
80 88 114
80 88 114
80 88 114
80 88 114
80 88 114
80 88 114
80 88 114
80 88 114
80 88 114
80 88 114
80 88 114
80 88 114
80 88 114
80 88 114
80 88 114
80 88 114
80 88 114
80 88 114
80 88 114
80 88 114
80 88 114
80 88 114
80 88 114
80 88 114
80 88 114
80 88 114
80 88 114
80 88 114
80 88 114
80 88 114
80 88 114
80 88 114
80 88 114
80 88 114
80 88 114
80 88 114
80 88 114
80 88 114
80 88 114
80 88 114
80 88 114
80 88 114
80 88 114
80 88 114
80 88 114
80 88 114
80 88 114
80 88 114
80 88 114
80 88 114
80 88 114
80 88 114
80 88 114
80 88 114
80 88 114
80 88 114
80 88 114
80 88 114
80 88 114
80 88 114
80 88 114
80 88 114
80 88 114
80 88 114
80 88 114
80 88 114
80 88 114
80 88 114
80 88 114
80 88 114
80 88 114
80 88 114
80 88 114
80 88 114
80 88 114
80 88 114
80 88 114
80 88 114
80 88 114
80 88 114
80 88 114
80 88 114
80 88 114
80 88 114
80 88 114
80 88 114
80 88 114
80 88 114
80 88 114
80 88 114
80 88 114
80 88 114
80 88 114
80 88 114
80 88 114
80 88 114
80 88 114
80 88 114
80 88 114
80 88 114
80 88 114
80 88 114
80 88 114
80 88 114
80 88 114
80 88 114
80 88 114
80 88 114
80 88 114
80 88 114
80 88 114
80 88 114
80 88 114
80 88 114
80 88 114
80 88 114
80 88 114
80 88 114
80 88 114
80 88 114
80 88 114
80 88 114
80 88 114
80 88 114
80 88 114
80 88 114
80 88 114
80 88 114
80 88 114
80 88 114
80 88 114
80 88 114
80 88 114
80 88 114
80 88 114
80 88 114
80 88 114
80 88 114
80 88 114
80 88 114
80 88 114
80 88 114
80 88 114
80 88 114
80 88 114
80 88 114
80 88 114
80 88 114
80 88 114
80 88 114
80 88 114
80 88 114
80 88 114
80 88 114
80 88 114
80 88 114
80 88 114
80 88 114
80 88 114
80 88 114
80 88 114
80 88 114
80 88 114
80 88 114
80 88 114
80 88 114
80 88 114
80 88 114
80 88 114
80 88 114
80 88 114
80 88 114
80 88 114
80 88 114
80 88 114
80 88 114
80 88 114
80 88 114
80 88 114
80 88 114
80 88 114
80 88 114
80 88 114
80 88 114
80 88 114
80 88 114
80 88 114
80 88 114
80 88 114
80 88 114
80 88 114
80 88 114
80 88 114
80 88 114
80 88 114
80 88 114
80 88 114
80 88 114
80 88 114
80 88 114
80 88 114
80 88 114
80 88 114
80 88 114
80 88 114
80 88 114
80 88 114
80 88 114
80 88 114
80 88 114
80 88 114
80 88 114
80 88 114
80 88 114
80 88 114
80 88 114
80 88 114
80 88 114
80 88 114
80 88 114
80 88 114
80 88 114
80 88 114
80 88 114
80 88 114
80 88 114
80 88 114
80 88 114
80 88 114
80 88 114
80 88 114
80 88 114
80 88 114
80 88 114
80 88 114
80 88 114
80 88 114
80 88 114
80 88 114
80 88 114
80 88 114
80 88 114
80 88 114
80 88 114
80 88 114
80 88 114
80 88 114
80 88 114
80 88 114
80 88 114
80 88 114
80 88 114
80 88 114
80 88 114
80 88 114
80 88 114
80 88 114
80 88 114
80 88 114
80 88 114
80 88 114
80 88 114
80 88 114
80 88 114
57 74 121
36 56 114
36 56 115
36 55 112
34 52 106
37 57 115
36 56 114
50 65 115
80 88 114
80 88 114
80 88 114
80 88 114
80 88 114
80 88 114
80 88 114
80 88 114
80 88 114
80 88 114
80 88 114
80 88 114
80 88 114
80 88 114
80 88 114
80 88 114
80 88 114
80 88 114
80 88 114
80 88 114
80 88 114
80 88 114
80 88 114
80 88 114
80 88 114
80 88 114
80 88 114
80 88 114
80 88 114
80 88 114
80 88 114
80 88 114
80 88 114
80 88 114
80 88 114
80 88 114
80 88 114
80 88 114
80 88 114
80 88 114
80 88 114
80 88 114
80 88 114
80 88 114
80 88 114
80 88 114
80 88 114
80 88 114
80 88 114
80 88 114
80 88 114
80 88 114
80 88 114
80 88 114
80 88 114
80 88 114
80 88 114
80 88 114
80 88 114
80 88 114
80 88 114
80 88 114
80 88 114
80 88 114
80 88 114
80 88 114
80 88 114
80 88 114
80 88 114
80 88 114
80 88 114
80 88 114
80 88 114
80 88 114
80 88 114
80 88 114
80 88 114
80 88 114
80 88 114
80 88 114
80 88 114
80 88 114
80 88 114
80 88 114
80 88 114
80 88 114
80 88 114
80 88 114
80 88 114
80 88 114
80 88 114
80 88 114
80 88 114
80 88 114
80 88 114
80 88 114
80 88 114
80 88 114
80 88 114
80 88 114
80 88 114
80 88 114
80 88 114
80 88 114
80 88 114
80 88 114
80 88 114
80 88 114
80 88 114
80 88 114
80 88 114
80 88 114
80 88 114
80 88 114
80 88 114
80 88 114
80 88 114
80 88 114
80 88 114
80 88 114
80 88 114
80 88 114
80 88 114
80 88 114
80 88 114
80 88 114
80 88 114
80 88 114
80 88 114
80 88 114
80 88 114
80 88 114
80 88 114
80 88 114
80 88 114
80 88 114
80 88 114
80 88 114
80 88 114
80 88 114
80 88 114
80 88 114
80 88 114
80 88 114
80 88 114
80 88 114
80 88 114
80 88 114
80 88 114
80 88 114
80 88 114
80 88 114
80 88 114
80 88 114
80 88 114
80 88 114
80 88 114
80 88 114
80 88 114
80 88 114
80 88 114
80 88 114
80 88 114
80 88 114
80 88 114
80 88 114
80 88 114
80 88 114
80 88 114
80 88 114
80 88 114
80 88 114
80 88 114
80 88 114
80 88 114
80 88 114
80 88 114
80 88 114
80 88 114
80 88 114
80 88 114
80 88 114
80 88 114
80 88 114
80 88 114
80 88 114
80 88 114
80 88 114
80 88 114
80 88 114
80 88 114
80 88 114
80 88 114
80 88 114
80 88 114
80 88 114
80 88 114
80 88 114
80 88 114
80 88 114
80 88 114
80 88 114
80 88 114
80 88 114
80 88 114
80 88 114
80 88 114
80 88 114
80 88 114
80 88 114
80 88 114
80 88 114
80 88 114
80 88 114
80 88 114
80 88 114
80 88 114
80 88 114
80 88 114
80 88 114
80 88 114
80 88 114
80 88 114
80 88 114
80 88 114
80 88 114
80 88 114
80 88 114
80 88 114
80 88 114
80 88 114
80 88 114
80 88 114
80 88 114
80 88 114
80 88 114
80 88 114
80 88 114
80 88 114
80 88 114
80 88 114
80 88 114
80 88 114
80 88 114
80 88 114
80 88 114
80 88 114
80 88 114
80 88 114
80 88 114
80 88 114
80 88 114
80 88 114
80 88 114
80 88 114
80 88 114
80 88 114
80 88 114
80 88 114
80 88 114
80 88 114
80 88 114
80 88 114
80 88 114
80 88 114
80 88 114
80 88 114
80 88 114
80 88 114
80 88 114
80 88 114
80 88 114
80 88 114
80 88 114
80 88 114
80 88 114
80 88 114
80 88 114
80 88 114
80 88 114
80 88 114
80 88 114
80 88 114
80 88 114
80 88 114
80 88 114
80 88 114
80 88 114
80 88 114
80 88 114
80 88 114
80 88 114
80 88 114
80 88 114
80 88 114
80 88 114
80 88 114
80 88 114
80 88 114
80 88 114
80 88 114
80 88 114
80 88 114
80 88 114
80 88 114
80 88 114
80 88 114
80 88 114
80 88 114
80 88 114
80 88 114
80 88 114
80 88 114
80 88 114
80 88 114
80 88 114
80 88 114
80 88 114
80 88 114
80 88 114
80 88 114
80 88 114
80 88 114
80 88 114
80 88 114
80 88 114
80 88 114
80 88 114
80 88 114
80 88 114
80 88 114
80 88 114
80 88 114
80 88 114
80 88 114
80 88 114
80 88 114
80 88 114
80 88 114
80 88 114
80 88 114
80 88 114
80 88 114
80 88 114
80 88 114
80 88 114
80 88 114
80 88 114
80 88 114
80 88 114
80 88 114
80 88 114
80 88 114
80 88 114
80 88 114
80 88 114
80 88 114
80 88 114
80 88 114
80 88 114
80 88 114
80 88 114
80 88 114
80 88 114
80 88 114
80 88 114
80 88 114
80 88 114
80 88 114
80 88 114
80 88 114
80 88 114
80 88 114
80 88 114
80 88 114
80 88 114
80 88 114
80 88 114
80 88 114
80 88 114
80 88 114
80 88 114
80 88 114
80 88 114
80 88 114
80 88 114
80 88 114
80 88 114
80 88 114
80 88 114
80 88 114
80 88 114
70 81 116
37 58 117
36 56 115
36 57 116
35 54 111
36 55 112
36 54 110
69 79 114
80 88 114
80 88 114
80 88 114
80 88 114
80 88 114
80 88 114
80 88 114
80 88 114
80 88 114
80 88 114
80 88 114
80 88 114
80 88 114
80 88 114
80 88 114
80 88 114
80 88 114
80 88 114
80 88 114
80 88 114
80 88 114
80 88 114
80 88 114
80 88 114
80 88 114
80 88 114
80 88 114
80 88 114
80 88 114
80 88 114
80 88 114
80 88 114
80 88 114
80 88 114
80 88 114
80 88 114
80 88 114
80 88 114
80 88 114
80 88 114
80 88 114
80 88 114
80 88 114
80 88 114
80 88 114
80 88 114
80 88 114
80 88 114
80 88 114
80 88 114
80 88 114
80 88 114
80 88 114
80 88 114
80 88 114
80 88 114
80 88 114
80 88 114
80 88 114
80 88 114
80 88 114
80 88 114
80 88 114
80 88 114
80 88 114
80 88 114
80 88 114
80 88 114
80 88 114
80 88 114
80 88 114
80 88 114
80 88 114
80 88 114
80 88 114
80 88 114
80 88 114
80 88 114
80 88 114
80 88 114
80 88 114
80 88 114
80 88 114
80 88 114
80 88 114
80 88 114
80 88 114
80 88 114
80 88 114
80 88 114
80 88 114
80 88 114
80 88 114
80 88 114
80 88 114
80 88 114
80 88 114
80 88 114
80 88 114
80 88 114
80 88 114
80 88 114
80 88 114
80 88 114
80 88 114
80 88 114
80 88 114
80 88 114
80 88 114
80 88 114
80 88 114
80 88 114
80 88 114
80 88 114
80 88 114
80 88 114
80 88 114
80 88 114
80 88 114
80 88 114
80 88 114
80 88 114
80 88 114
80 88 114
80 88 114
80 88 114
80 88 114
80 88 114
80 88 114
80 88 114
80 88 114
80 88 114
80 88 114
80 88 114
80 88 114
80 88 114
80 88 114
80 88 114
80 88 114
80 88 114
80 88 114
80 88 114
80 88 114
80 88 114
80 88 114
80 88 114
80 88 114
80 88 114
80 88 114
80 88 114
80 88 114
80 88 114
80 88 114
80 88 114
80 88 114
80 88 114
80 88 114
80 88 114
80 88 114
80 88 114
80 88 114
80 88 114
80 88 114
80 88 114
80 88 114
80 88 114
80 88 114
80 88 114
80 88 114
80 88 114
80 88 114
80 88 114
80 88 114
80 88 114
80 88 114
80 88 114
80 88 114
80 88 114
80 88 114
80 88 114
80 88 114
80 88 114
80 88 114
80 88 114
80 88 114
80 88 114
80 88 114
80 88 114
80 88 114
80 88 114
80 88 114
80 88 114
80 88 114
80 88 114
80 88 114
80 88 114
80 88 114
80 88 114
80 88 114
80 88 114
80 88 114
80 88 114
80 88 114
80 88 114
80 88 114
80 88 114
80 88 114
80 88 114
80 88 114
80 88 114
80 88 114
80 88 114
80 88 114
80 88 114
80 88 114
80 88 114
80 88 114
80 88 114
80 88 114
80 88 114
80 88 114
80 88 114
80 88 114
80 88 114
80 88 114
80 88 114
80 88 114
80 88 114
80 88 114
80 88 114
80 88 114
80 88 114
80 88 114
80 88 114
80 88 114
80 88 114
80 88 114
80 88 114
80 88 114
80 88 114
80 88 114
80 88 114
80 88 114
80 88 114
80 88 114
80 88 114
80 88 114
80 88 114
80 88 114
80 88 114
80 88 114
80 88 114
80 88 114
80 88 114
80 88 114
80 88 114
80 88 114
80 88 114
80 88 114
80 88 114
80 88 114
80 88 114
80 88 114
80 88 114
80 88 114
80 88 114
80 88 114
80 88 114
80 88 114
80 88 114
80 88 114
80 88 114
80 88 114
80 88 114
80 88 114
80 88 114
80 88 114
80 88 114
80 88 114
80 88 114
80 88 114
80 88 114
80 88 114
80 88 114
80 88 114
80 88 114
80 88 114
80 88 114
80 88 114
80 88 114
80 88 114
80 88 114
80 88 114
80 88 114
80 88 114
80 88 114
80 88 114
80 88 114
80 88 114
80 88 114
80 88 114
80 88 114
80 88 114
80 88 114
80 88 114
80 88 114
80 88 114
80 88 114
80 88 114
80 88 114
80 88 114
80 88 114
80 88 114
80 88 114
80 88 114
80 88 114
80 88 114
80 88 114
80 88 114
80 88 114
80 88 114
80 88 114
80 88 114
80 88 114
80 88 114
80 88 114
80 88 114
80 88 114
80 88 114
80 88 114
80 88 114
80 88 114
80 88 114
80 88 114
80 88 114
80 88 114
80 88 114
80 88 114
80 88 114
80 88 114
80 88 114
80 88 114
80 88 114
80 88 114
80 88 114
80 88 114
80 88 114
80 88 114
80 88 114
80 88 114
80 88 114
80 88 114
80 88 114
80 88 114
80 88 114
80 88 114
80 88 114
80 88 114
80 88 114
80 88 114
80 88 114
80 88 114
80 88 114
80 88 114
80 88 114
80 88 114
80 88 114
80 88 114
80 88 114
80 88 114
80 88 114
80 88 114
80 88 114
80 88 114
80 88 114
80 88 114
80 88 114
80 88 114
80 88 114
80 88 114
80 88 114
80 88 114
80 88 114
80 88 114
80 88 114
80 88 114
80 88 114
80 88 114
80 88 114
80 88 114
80 88 114
80 88 114
80 88 114
64 75 114
39 59 119
34 53 110
35 55 112
39 57 113
63 74 112
80 88 114
80 88 114
80 88 114
80 88 114
80 88 114
80 88 114
80 88 114
80 88 114
80 88 114
80 88 114
80 88 114
80 88 114
80 88 114
80 88 114
80 88 114
80 88 114
80 88 114
80 88 114
80 88 114
80 88 114
80 88 114
80 88 114
80 88 114
80 88 114
80 88 114
80 88 114
80 88 114
80 88 114
80 88 114
80 88 114
80 88 114
80 88 114
80 88 114
80 88 114
80 88 114
80 88 114
80 88 114
80 88 114
80 88 114
80 88 114
80 88 114
80 88 114
80 88 114
80 88 114
80 88 114
80 88 114
80 88 114
80 88 114
80 88 114
80 88 114
80 88 114
80 88 114
80 88 114
80 88 114
80 88 114
80 88 114
80 88 114
80 88 114
80 88 114
80 88 114
80 88 114
80 88 114
80 88 114
80 88 114
80 88 114
80 88 114
80 88 114
80 88 114
80 88 114
80 88 114
80 88 114
80 88 114
80 88 114
80 88 114
80 88 114
80 88 114
80 88 114
80 88 114
80 88 114
80 88 114
80 88 114
80 88 114
80 88 114
80 88 114
80 88 114
80 88 114
80 88 114
80 88 114
80 88 114
80 88 114
80 88 114
80 88 114
80 88 114
80 88 114
80 88 114
80 88 114
80 88 114
80 88 114
80 88 114
80 88 114
80 88 114
80 88 114
80 88 114
80 88 114
80 88 114
80 88 114
80 88 114
80 88 114
80 88 114
80 88 114
80 88 114
80 88 114
80 88 114
80 88 114
80 88 114
80 88 114
80 88 114
80 88 114
80 88 114
80 88 114
80 88 114
80 88 114
80 88 114
80 88 114
80 88 114
80 88 114
80 88 114
80 88 114
80 88 114
80 88 114
80 88 114
80 88 114
80 88 114
80 88 114
80 88 114
80 88 114
80 88 114
80 88 114
80 88 114
80 88 114
80 88 114
80 88 114
80 88 114
80 88 114
80 88 114
80 88 114
80 88 114
80 88 114
80 88 114
80 88 114
80 88 114
80 88 114
80 88 114
80 88 114
80 88 114
80 88 114
80 88 114
80 88 114
80 88 114
80 88 114
80 88 114
80 88 114
80 88 114
80 88 114
80 88 114
80 88 114
80 88 114
80 88 114
80 88 114
80 88 114
80 88 114
80 88 114
80 88 114
80 88 114
80 88 114
80 88 114
80 88 114
80 88 114
80 88 114
80 88 114
80 88 114
80 88 114
80 88 114
80 88 114
80 88 114
80 88 114
80 88 114
80 88 114
80 88 114
80 88 114
80 88 114
80 88 114
80 88 114
80 88 114
80 88 114
80 88 114
80 88 114
80 88 114
80 88 114
80 88 114
80 88 114
80 88 114
80 88 114
80 88 114
80 88 114
80 88 114
80 88 114
80 88 114
80 88 114
80 88 114
80 88 114
80 88 114
80 88 114
80 88 114
80 88 114
80 88 114
80 88 114
80 88 114
80 88 114
80 88 114
80 88 114
80 88 114
80 88 114
80 88 114
80 88 114
80 88 114
80 88 114
80 88 114
80 88 114
80 88 114
80 88 114
80 88 114
80 88 114
80 88 114
80 88 114
80 88 114
80 88 114
80 88 114
80 88 114
80 88 114
80 88 114
80 88 114
80 88 114
80 88 114
80 88 114
80 88 114
80 88 114
80 88 114
80 88 114
80 88 114
80 88 114
80 88 114
80 88 114
80 88 114
80 88 114
80 88 114
80 88 114
80 88 114
80 88 114
80 88 114
80 88 114
80 88 114
80 88 114
80 88 114
80 88 114
80 88 114
80 88 114
80 88 114
80 88 114
80 88 114
80 88 114
80 88 114
80 88 114
80 88 114
80 88 114
80 88 114
80 88 114
80 88 114
80 88 114
80 88 114
80 88 114
80 88 114
80 88 114
80 88 114
80 88 114
80 88 114
80 88 114
80 88 114
80 88 114
80 88 114
80 88 114
80 88 114
80 88 114
80 88 114
80 88 114
80 88 114
80 88 114
80 88 114
80 88 114
80 88 114
80 88 114
80 88 114
80 88 114
80 88 114
80 88 114
80 88 114
80 88 114
80 88 114
80 88 114
80 88 114
80 88 114
80 88 114
80 88 114
80 88 114
80 88 114
80 88 114
80 88 114
80 88 114
80 88 114
80 88 114
80 88 114
80 88 114
80 88 114
80 88 114
80 88 114
80 88 114
80 88 114
80 88 114
80 88 114
80 88 114
80 88 114
80 88 114
80 88 114
80 88 114
80 88 114
80 88 114
80 88 114
80 88 114
80 88 114
80 88 114
80 88 114
80 88 114
80 88 114
80 88 114
80 88 114
80 88 114
80 88 114
80 88 114
80 88 114
80 88 114
80 88 114
80 88 114
80 88 114
80 88 114
80 88 114
80 88 114
80 88 114
80 88 114
80 88 114
80 88 114
80 88 114
80 88 114
80 88 114
80 88 114
80 88 114
80 88 114
80 88 114
80 88 114
80 88 114
80 88 114
80 88 114
80 88 114
80 88 114
80 88 114
80 88 114
80 88 114
80 88 114
80 88 114
80 88 114
80 88 114
80 88 114
80 88 114
80 88 114
80 88 114
80 88 114
80 88 114
80 88 114
80 88 114
80 88 114
80 88 114
80 88 114
80 88 114
80 88 114
80 88 114
80 88 114
77 86 115
68 78 113
68 78 114
77 85 114
80 88 114
80 88 114
80 88 114
80 88 114
80 88 114
80 88 114
80 88 114
80 88 114
80 79 100
79 60 67
74 55 63
76 72 90
80 88 114
80 88 114
80 88 114
80 88 114
80 88 114
80 88 114
80 88 114
80 88 114
80 88 114
80 88 114
80 88 114
80 88 114
80 88 114
80 88 114
80 88 114
80 88 114
80 88 114
80 88 114
80 88 114
80 88 114
80 88 114
80 88 114
80 88 114
80 88 114
80 88 114
80 88 114
80 88 114
80 88 114
80 88 114
80 88 114
80 88 114
80 88 114
80 88 114
80 88 114
80 88 114
80 88 114
80 88 114
80 88 114
80 88 114
80 88 114
80 88 114
80 88 114
80 88 114
80 88 114
80 88 114
80 88 114
80 88 114
80 88 114
80 88 114
80 88 114
80 88 114
80 88 114
80 88 114
80 88 114
80 88 114
80 88 114
80 88 114
80 88 114
80 88 114
80 88 114
80 88 114
80 88 114
80 88 114
80 88 114
80 88 114
80 88 114
80 88 114
80 88 114
80 88 114
80 88 114
80 88 114
80 88 114
80 88 114
80 88 114
80 88 114
80 88 114
80 88 114
80 88 114
80 88 114
80 88 114
80 88 114
80 88 114
80 88 114
80 88 114
80 88 114
80 88 114
80 88 114
80 88 114
80 88 114
80 88 114
80 88 114
80 88 114
80 88 114
80 88 114
80 88 114
80 88 114
80 88 114
80 88 114
80 88 114
80 88 114
80 88 114
80 88 114
80 88 114
80 88 114
80 88 114
80 88 114
80 88 114
80 88 114
80 88 114
80 88 114
80 88 114
80 88 114
80 88 114
80 88 114
80 88 114
80 88 114
80 88 114
80 88 114
80 88 114
80 88 114
80 88 114
80 88 114
80 88 114
80 88 114
80 88 114
80 88 114
80 88 114
80 88 114
80 88 114
80 88 114
80 88 114
80 88 114
80 88 114
80 88 114
80 88 114
80 88 114
80 88 114
80 88 114
80 88 114
80 88 114
80 88 114
80 88 114
80 88 114
80 88 114
80 88 114
80 88 114
80 88 114
80 88 114
80 88 114
80 88 114
80 88 114
80 88 114
80 88 114
80 88 114
80 88 114
80 88 114
80 88 114
80 88 114
80 88 114
80 88 114
80 88 114
80 88 114
80 88 114
80 88 114
80 88 114
80 88 114
80 88 114
80 88 114
80 88 114
80 88 114
80 88 114
80 88 114
80 88 114
80 88 114
80 88 114
80 88 114
80 88 114
80 88 114
80 88 114
80 88 114
80 88 114
80 88 114
80 88 114
80 88 114
80 88 114
80 88 114
80 88 114
80 88 114
80 88 114
80 88 114
80 88 114
80 88 114
80 88 114
80 88 114
80 88 114
80 88 114
80 88 114
80 88 114
80 88 114
80 88 114
80 88 114
80 88 114
80 88 114
80 88 114
80 88 114
80 88 114
80 88 114
80 88 114
80 88 114
80 88 114
80 88 114
80 88 114
80 88 114
80 88 114
80 88 114
80 88 114
80 88 114
80 88 114
80 88 114
80 88 114
80 88 114
80 88 114
80 88 114
80 88 114
80 88 114
80 88 114
80 88 114
80 88 114
80 88 114
80 88 114
80 88 114
80 88 114
80 88 114
80 88 114
80 88 114
80 88 114
80 88 114
80 88 114
80 88 114
80 88 114
80 88 114
80 88 114
80 88 114
80 88 114
80 88 114
80 88 114
80 88 114
80 88 114
80 88 114
80 88 114
80 88 114
80 88 114
80 88 114
80 88 114
80 88 114
80 88 114
80 88 114
80 88 114
80 88 114
80 88 114
80 88 114
80 88 114
80 88 114
80 88 114
80 88 114
80 88 114
80 88 114
80 88 114
80 88 114
80 88 114
80 88 114
80 88 114
80 88 114
80 88 114
80 88 114
80 88 114
80 88 114
80 88 114
80 88 114
80 88 114
80 88 114
80 88 114
80 88 114
80 88 114
80 88 114
80 88 114
80 88 114
80 88 114
80 88 114
80 88 114
80 88 114
80 88 114
80 88 114
80 88 114
80 88 114
80 88 114
80 88 114
80 88 114
80 88 114
80 88 114
80 88 114
80 88 114
80 88 114
80 88 114
80 88 114
80 88 114
80 88 114
80 88 114
80 88 114
80 88 114
80 88 114
80 88 114
80 88 114
80 88 114
80 88 114
80 88 114
80 88 114
80 88 114
80 88 114
80 88 114
80 88 114
80 88 114
80 88 114
80 88 114
80 88 114
80 88 114
80 88 114
80 88 114
80 88 114
80 88 114
80 88 114
80 88 114
80 88 114
80 88 114
80 88 114
80 88 114
80 88 114
80 88 114
80 88 114
80 88 114
80 88 114
80 88 114
80 88 114
80 88 114
80 88 114
80 88 114
80 88 114
80 88 114
80 88 114
80 88 114
80 88 114
80 88 114
80 88 114
80 88 114
80 88 114
80 88 114
80 88 114
80 88 114
80 88 114
80 88 114
80 88 114
80 88 114
80 88 114
80 88 114
80 88 114
80 88 114
80 88 114
80 88 114
80 88 114
80 88 114
80 88 114
80 88 114
80 88 114
80 88 114
80 88 114
80 88 114
80 88 114
80 88 114
80 88 114
80 88 114
80 88 114
80 88 114
80 88 114
80 88 114
80 88 114
80 88 114
80 88 114
80 88 114
80 88 114
80 88 114
80 88 114
80 88 114
80 88 114
80 88 114
80 88 114
82 86 109
80 54 56
73 49 51
72 48 51
73 48 51
80 79 100
80 88 114
80 88 114
80 88 114
80 88 114
80 88 114
80 88 114
80 88 114
80 88 114
80 88 114
80 88 114
80 88 114
80 88 114
80 88 114
80 88 114
80 88 114
80 88 114
80 88 114
80 88 114
80 88 114
80 88 114
80 88 114
80 88 114
80 88 114
80 88 114
80 88 114
80 88 114
80 88 114
80 88 114
80 88 114
80 88 114
80 88 114
80 88 114
80 88 114
80 88 114
80 88 114
80 88 114
80 88 114
80 88 114
80 88 114
80 88 114
80 88 114
80 88 114
80 88 114
80 88 114
80 88 114
80 88 114
80 88 114
80 88 114
80 88 114
80 88 114
80 88 114
80 88 114
80 88 114
80 88 114
80 88 114
80 88 114
80 88 114
80 88 114
80 88 114
80 88 114
80 88 114
80 88 114
80 88 114
80 88 114
80 88 114
80 88 114
80 88 114
80 88 114
80 88 114
80 88 114
80 88 114
80 88 114
80 88 114
80 88 114
80 88 114
80 88 114
80 88 114
80 88 114
80 88 114
80 88 114
80 88 114
80 88 114
80 88 114
80 88 114
80 88 114
80 88 114
80 88 114
80 88 114
80 88 114
80 88 114
80 88 114
80 88 114
80 88 114
80 88 114
80 88 114
80 88 114
80 88 114
80 88 114
80 88 114
80 88 114
80 88 114
80 88 114
80 88 114
80 88 114
80 88 114
80 88 114
80 88 114
80 88 114
80 88 114
80 88 114
80 88 114
80 88 114
80 88 114
80 88 114
80 88 114
80 88 114
80 88 114
80 88 114
80 88 114
80 88 114
80 88 114
80 88 114
80 88 114
80 88 114
80 88 114
80 88 114
80 88 114
80 88 114
80 88 114
80 88 114
80 88 114
80 88 114
80 88 114
80 88 114
80 88 114
80 88 114
80 88 114
80 88 114
80 88 114
80 88 114
80 88 114
80 88 114
80 88 114
80 88 114
80 88 114
80 88 114
80 88 114
80 88 114
80 88 114
80 88 114
80 88 114
80 88 114
80 88 114
80 88 114
80 88 114
80 88 114
80 88 114
80 88 114
80 88 114
80 88 114
80 88 114
80 88 114
80 88 114
80 88 114
80 88 114
80 88 114
80 88 114
80 88 114
80 88 114
80 88 114
80 88 114
80 88 114
80 88 114
80 88 114
80 88 114
80 88 114
80 88 114
80 88 114
80 88 114
80 88 114
80 88 114
80 88 114
80 88 114
80 88 114
80 88 114
80 88 114
80 88 114
80 88 114
80 88 114
80 88 114
80 88 114
80 88 114
80 88 114
80 88 114
80 88 114
80 88 114
80 88 114
80 88 114
80 88 114
80 88 114
80 88 114
80 88 114
80 88 114
80 88 114
80 88 114
80 88 114
80 88 114
80 88 114
80 88 114
80 88 114
80 88 114
80 88 114
80 88 114
80 88 114
80 88 114
80 88 114
80 88 114
80 88 114
80 88 114
80 88 114
80 88 114
80 88 114
80 88 114
80 88 114
80 88 114
80 88 114
80 88 114
80 88 114
80 88 114
80 88 114
80 88 114
80 88 114
80 88 114
80 88 114
80 88 114
80 88 114
80 88 114
80 88 114
80 88 114
80 88 114
80 88 114
80 88 114
80 88 114
80 88 114
80 88 114
80 88 114
80 88 114
80 88 114
80 88 114
80 88 114
80 88 114
80 88 114
80 88 114
80 88 114
80 88 114
80 88 114
80 88 114
80 88 114
80 88 114
80 88 114
80 88 114
80 88 114
80 88 114
80 88 114
80 88 114
80 88 114
80 88 114
80 88 114
80 88 114
80 88 114
80 88 114
80 88 114
80 88 114
80 88 114
80 88 114
80 88 114
80 88 114
80 88 114
80 88 114
80 88 114
80 88 114
80 88 114
80 88 114
80 88 114
80 88 114
80 88 114
80 88 114
80 88 114
80 88 114
80 88 114
80 88 114
80 88 114
80 88 114
80 88 114
80 88 114
80 88 114
80 88 114
80 88 114
80 88 114
80 88 114
80 88 114
80 88 114
80 88 114
80 88 114
80 88 114
80 88 114
80 88 114
80 88 114
80 88 114
80 88 114
80 88 114
80 88 114
80 88 114
80 88 114
80 88 114
80 88 114
80 88 114
80 88 114
80 88 114
80 88 114
80 88 114
80 88 114
80 88 114
80 88 114
80 88 114
80 88 114
80 88 114
80 88 114
80 88 114
80 88 114
80 88 114
80 88 114
80 88 114
80 88 114
80 88 114
80 88 114
80 88 114
80 88 114
80 88 114
80 88 114
80 88 114
80 88 114
80 88 114
80 88 114
80 88 114
80 88 114
80 88 114
80 88 114
80 88 114
80 88 114
80 88 114
80 88 114
80 88 114
80 88 114
80 88 114
80 88 114
80 88 114
80 88 114
80 88 114
80 88 114
80 88 114
80 88 114
80 88 114
80 88 114
80 88 114
80 88 114
80 88 114
80 88 114
80 88 114
80 88 114
80 88 114
80 88 114
80 88 114
80 88 114
80 88 114
80 88 114
80 88 114
80 88 114
80 88 114
80 88 114
80 88 114
80 88 114
80 88 114
80 88 114
80 88 114
80 88 114
80 88 114
80 88 114
80 88 114
80 88 114
80 88 114
80 88 114
80 88 114
80 88 114
82 80 100
73 49 50
72 48 51
73 48 51
72 48 51
80 72 88
80 88 114
80 88 114
80 88 114
80 88 114
80 88 114
80 88 114
80 88 114
80 88 114
80 88 114
80 88 114
80 88 114
80 88 114
80 88 114
80 88 114
80 88 114
80 88 114
80 88 114
80 88 114
80 88 114
80 88 114
80 88 114
80 88 114
80 88 114
80 88 114
80 88 114
80 88 114
80 88 114
80 88 114
80 88 114
80 88 114
80 88 114
80 88 114
80 88 114
80 88 114
80 88 114
80 88 114
80 88 114
80 88 114
80 88 114
80 88 114
80 88 114
80 88 114
80 88 114
80 88 114
80 88 114
80 88 114
80 88 114
80 88 114
80 88 114
80 88 114
80 88 114
80 88 114
80 88 114
80 88 114
80 88 114
80 88 114
80 88 114
80 88 114
80 88 114
80 88 114
80 88 114
80 88 114
80 88 114
80 88 114
80 88 114
80 88 114
80 88 114
80 88 114
80 88 114
80 88 114
80 88 114
80 88 114
80 88 114
80 88 114
80 88 114
80 88 114
80 88 114
80 88 114
80 88 114
80 88 114
80 88 114
80 88 114
80 88 114
80 88 114
80 88 114
80 88 114
80 88 114
80 88 114
80 88 114
80 88 114
80 88 114
80 88 114
80 88 114
80 88 114
80 88 114
80 88 114
80 88 114
80 88 114
80 88 114
80 88 114
80 88 114
80 88 114
80 88 114
80 88 114
80 88 114
80 88 114
80 88 114
80 88 114
80 88 114
80 88 114
80 88 114
80 88 114
80 88 114
80 88 114
80 88 114
80 88 114
80 88 114
80 88 114
80 88 114
80 88 114
80 88 114
80 88 114
80 88 114
80 88 114
80 88 114
80 88 114
80 88 114
80 88 114
80 88 114
80 88 114
80 88 114
80 88 114
80 88 114
80 88 114
80 88 114
80 88 114
80 88 114
80 88 114
80 88 114
80 88 114
80 88 114
80 88 114
80 88 114
80 88 114
80 88 114
80 88 114
80 88 114
80 88 114
80 88 114
80 88 114
80 88 114
80 88 114
80 88 114
80 88 114
80 88 114
80 88 114
80 88 114
80 88 114
80 88 114
80 88 114
80 88 114
80 88 114
80 88 114
80 88 114
80 88 114
80 88 114
80 88 114
80 88 114
80 88 114
80 88 114
80 88 114
80 88 114
80 88 114
80 88 114
80 88 114
80 88 114
80 88 114
80 88 114
80 88 114
80 88 114
80 88 114
80 88 114
80 88 114
80 88 114
80 88 114
80 88 114
80 88 114
80 88 114
80 88 114
80 88 114
80 88 114
80 88 114
80 88 114
80 88 114
80 88 114
80 88 114
80 88 114
80 88 114
80 88 114
80 88 114
80 88 114
80 88 114
80 88 114
80 88 114
80 88 114
80 88 114
80 88 114
80 88 114
80 88 114
80 88 114
80 88 114
80 88 114
80 88 114
80 88 114
80 88 114
80 88 114
80 88 114
80 88 114
80 88 114
80 88 114
80 88 114
80 88 114
80 88 114
80 88 114
80 88 114
80 88 114
80 88 114
80 88 114
80 88 114
80 88 114
80 88 114
80 88 114
80 88 114
80 88 114
80 88 114
80 88 114
80 88 114
80 88 114
80 88 114
80 88 114
80 88 114
80 88 114
80 88 114
80 88 114
80 88 114
80 88 114
80 88 114
80 88 114
80 88 114
80 88 114
80 88 114
80 88 114
80 88 114
80 88 114
80 88 114
80 88 114
80 88 114
80 88 114
80 88 114
80 88 114
80 88 114
80 88 114
80 88 114
80 88 114
80 88 114
80 88 114
80 88 114
80 88 114
80 88 114
80 88 114
80 88 114
80 88 114
80 88 114
80 88 114
80 88 114
80 88 114
80 88 114
80 88 114
80 88 114
80 88 114
80 88 114
80 88 114
80 88 114
80 88 114
80 88 114
80 88 114
80 88 114
80 88 114
80 88 114
80 88 114
80 88 114
80 88 114
80 88 114
80 88 114
80 88 114
80 88 114
80 88 114
80 88 114
80 88 114
80 88 114
80 88 114
80 88 114
80 88 114
80 88 114
80 88 114
80 88 114
80 88 114
80 88 114
80 88 114
80 88 114
80 88 114
80 88 114
80 88 114
80 88 114
80 88 114
80 88 114
80 88 114
80 88 114
80 88 114
80 88 114
80 88 114
80 88 114
80 88 114
80 88 114
80 88 114
80 88 114
80 88 114
80 88 114
80 88 114
80 88 114
80 88 114
80 88 114
80 88 114
80 88 114
80 88 114
80 88 114
80 88 114
80 88 114
80 88 114
80 88 114
80 88 114
80 88 114
80 88 114
80 88 114
80 88 114
80 88 114
80 88 114
80 88 114
80 88 114
80 88 114
80 88 114
80 88 114
80 88 114
80 88 114
80 88 114
80 88 114
80 88 114
80 88 114
80 88 114
80 88 114
80 88 114
80 88 114
80 88 114
80 88 114
80 88 114
80 88 114
80 88 114
80 88 114
80 88 114
80 88 114
80 88 114
80 88 114
80 88 114
80 88 114
80 88 114
80 88 114
80 88 114
80 88 114
80 88 114
80 88 114
80 88 114
80 88 114
80 88 114
80 88 114
80 88 114
80 88 114
80 88 114
80 88 114
80 88 114
80 88 114
80 88 114
80 88 114
80 88 114
80 88 114
81 86 109
74 51 54
76 50 52
73 49 51
74 49 52
78 78 99
80 88 114
80 88 114
80 88 114
80 88 114
80 88 114
80 88 114
80 88 114
80 88 114
80 88 114
80 88 114
80 88 114
80 88 114
80 88 114
80 88 114
80 88 114
80 88 114
80 88 114
80 88 114
80 88 114
80 88 114
80 88 114
80 88 114
80 88 114
80 88 114
80 88 114
80 88 114
80 88 114
80 88 114
80 88 114
80 88 114
80 88 114
80 88 114
80 88 114
80 88 114
80 88 114
80 88 114
80 88 114
80 88 114
80 88 114
80 88 114
80 88 114
80 88 114
80 88 114
80 88 114
80 88 114
80 88 114
80 88 114
80 88 114
80 88 114
80 88 114
80 88 114
80 88 114
80 88 114
80 88 114
80 88 114
80 88 114
80 88 114
80 88 114
80 88 114
80 88 114
80 88 114
80 88 114
80 88 114
80 88 114
80 88 114
80 88 114
80 88 114
80 88 114
80 88 114
80 88 114
80 88 114
80 88 114
80 88 114
80 88 114
80 88 114
80 88 114
80 88 114
80 88 114
80 88 114
80 88 114
80 88 114
80 88 114
80 88 114
80 88 114
80 88 114
80 88 114
80 88 114
80 88 114
80 88 114
80 88 114
80 88 114
80 88 114
80 88 114
80 88 114
80 88 114
80 88 114
80 88 114
80 88 114
80 88 114
80 88 114
80 88 114
80 88 114
80 88 114
80 88 114
80 88 114
80 88 114
80 88 114
80 88 114
80 88 114
80 88 114
80 88 114
80 88 114
80 88 114
80 88 114
80 88 114
80 88 114
80 88 114
80 88 114
80 88 114
80 88 114
80 88 114
80 88 114
80 88 114
80 88 114
80 88 114
80 88 114
80 88 114
80 88 114
80 88 114
80 88 114
80 88 114
80 88 114
80 88 114
80 88 114
80 88 114
80 88 114
80 88 114
80 88 114
80 88 114
80 88 114
80 88 114
80 88 114
80 88 114
80 88 114
80 88 114
80 88 114
80 88 114
80 88 114
80 88 114
80 88 114
80 88 114
80 88 114
80 88 114
80 88 114
80 88 114
80 88 114
80 88 114
80 88 114
80 88 114
80 88 114
80 88 114
80 88 114
80 88 114
80 88 114
80 88 114
80 88 114
80 88 114
80 88 114
80 88 114
80 88 114
80 88 114
80 88 114
80 88 114
80 88 114
80 88 114
80 88 114
80 88 114
80 88 114
80 88 114
80 88 114
80 88 114
80 88 114
80 88 114
80 88 114
80 88 114
80 88 114
80 88 114
80 88 114
80 88 114
80 88 114
80 88 114
80 88 114
80 88 114
80 88 114
80 88 114
80 88 114
80 88 114
80 88 114
80 88 114
80 88 114
80 88 114
80 88 114
80 88 114
80 88 114
80 88 114
80 88 114
80 88 114
80 88 114
80 88 114
80 88 114
80 88 114
80 88 114
80 88 114
80 88 114
80 88 114
80 88 114
80 88 114
80 88 114
80 88 114
80 88 114
80 88 114
80 88 114
80 88 114
80 88 114
80 88 114
80 88 114
80 88 114
80 88 114
80 88 114
80 88 114
80 88 114
80 88 114
80 88 114
80 88 114
80 88 114
80 88 114
80 88 114
80 88 114
80 88 114
80 88 114
80 88 114
80 88 114
80 88 114
80 88 114
80 88 114
80 88 114
80 88 114
80 88 114
80 88 114
80 88 114
80 88 114
80 88 114
80 88 114
80 88 114
80 88 114
80 88 114
80 88 114
80 88 114
80 88 114
80 88 114
80 88 114
80 88 114
80 88 114
80 88 114
80 88 114
80 88 114
80 88 114
80 88 114
80 88 114
80 88 114
80 88 114
80 88 114
80 88 114
80 88 114
80 88 114
80 88 114
80 88 114
80 88 114
80 88 114
80 88 114
80 88 114
80 88 114
80 88 114
80 88 114
80 88 114
80 88 114
80 88 114
80 88 114
80 88 114
80 88 114
80 88 114
80 88 114
80 88 114
80 88 114
80 88 114
80 88 114
80 88 114
80 88 114
80 88 114
80 88 114
80 88 114
80 88 114
80 88 114
80 88 114
80 88 114
80 88 114
80 88 114
80 88 114
80 88 114
80 88 114
80 88 114
80 88 114
80 88 114
80 88 114
80 88 114
80 88 114
80 88 114
80 88 114
80 88 114
80 88 114
80 88 114
80 88 114
80 88 114
80 88 114
80 88 114
80 88 114
80 88 114
80 88 114
80 88 114
80 88 114
80 88 114
80 88 114
80 88 114
80 88 114
80 88 114
80 88 114
80 88 114
80 88 114
80 88 114
80 88 114
80 88 114
80 88 114
80 88 114
80 88 114
80 88 114
80 88 114
80 88 114
80 88 114
80 88 114
80 88 114
80 88 114
80 88 114
80 88 114
80 88 114
80 88 114
80 88 114
80 88 114
80 88 114
80 88 114
80 88 114
80 88 114
80 88 114
80 88 114
80 88 114
80 88 114
80 88 114
80 88 114
80 88 114
80 88 114
80 88 114
80 88 114
80 88 114
80 88 114
80 88 114
80 88 114
80 88 114
80 88 114
80 88 114
80 88 114
80 88 114
80 88 114
80 88 114
80 88 114
80 88 114
80 88 114
80 88 114
80 88 114
80 88 114
80 88 114
80 88 114
80 88 114
80 88 114
80 88 114
80 88 114
80 88 114
79 79 100
75 58 67
73 55 63
77 73 91
80 88 114
80 88 114
80 88 114
80 88 114
80 88 114
80 88 114
80 88 114
80 88 114
80 88 114
80 88 114
80 88 114
80 88 114
80 88 114
80 88 114
80 88 114
80 88 114
80 88 114
80 88 114
80 88 114
80 88 114
80 88 114
80 88 114
80 88 114
80 88 114
80 88 114
80 88 114
80 88 114
80 88 114
80 88 114
80 88 114
80 88 114
80 88 114
80 88 114
80 88 114
80 88 114
80 88 114
80 88 114
80 88 114
80 88 114
80 88 114
80 88 114
80 88 114
80 88 114
80 88 114
80 88 114
80 88 114
80 88 114
80 88 114
80 88 114
80 88 114
80 88 114
80 88 114
80 88 114
80 88 114
80 88 114
80 88 114
80 88 114
80 88 114
80 88 114
80 88 114
80 88 114
80 88 114
80 88 114
80 88 114
80 88 114
80 88 114
80 88 114
80 88 114
80 88 114
80 88 114
80 88 114
80 88 114
80 88 114
80 88 114
80 88 114
80 88 114
80 88 114
80 88 114
80 88 114
80 88 114
80 88 114
80 88 114
80 88 114
80 88 114
80 88 114
80 88 114
80 88 114
80 88 114
80 88 114
80 88 114
80 88 114
80 88 114
80 88 114
80 88 114
80 88 114
80 88 114
80 88 114
80 88 114
80 88 114
80 88 114
80 88 114
80 88 114
80 88 114
80 88 114
80 88 114
80 88 114
80 88 114
80 88 114
80 88 114
80 88 114
80 88 114
80 88 114
80 88 114
80 88 114
80 88 114
80 88 114
80 88 114
80 88 114
80 88 114
80 88 114
80 88 114
80 88 114
80 88 114
80 88 114
80 88 114
80 88 114
80 88 114
80 88 114
80 88 114
80 88 114
80 88 114
80 88 114
80 88 114
80 88 114
80 88 114
80 88 114
80 88 114
80 88 114
80 88 114
80 88 114
80 88 114
80 88 114
80 88 114
80 88 114
80 88 114
80 88 114
80 88 114
80 88 114
80 88 114
80 88 114
80 88 114
80 88 114
80 88 114
80 88 114
80 88 114
80 88 114
80 88 114
80 88 114
80 88 114
80 88 114
80 88 114
80 88 114
80 88 114
80 88 114
80 88 114
80 88 114
80 88 114
80 88 114
80 88 114
80 88 114
80 88 114
80 88 114
80 88 114
80 88 114
80 88 114
80 88 114
80 88 114
80 88 114
80 88 114
80 88 114
80 88 114
80 88 114
80 88 114
80 88 114
80 88 114
80 88 114
80 88 114
80 88 114
80 88 114
80 88 114
80 88 114
80 88 114
80 88 114
80 88 114
80 88 114
80 88 114
80 88 114
80 88 114
80 88 114
80 88 114
80 88 114
80 88 114
80 88 114
80 88 114
80 88 114
80 88 114
80 88 114
80 88 114
80 88 114
80 88 114
80 88 114
80 88 114
80 88 114
80 88 114
80 88 114
80 88 114
80 88 114
80 88 114
80 88 114
80 88 114
80 88 114
80 88 114
80 88 114
80 88 114
80 88 114
80 88 114
80 88 114
80 88 114
80 88 114
80 88 114
80 88 114
80 88 114
80 88 114
80 88 114
80 88 114
80 88 114
80 88 114
80 88 114
80 88 114
80 88 114
80 88 114
80 88 114
80 88 114
80 88 114
80 88 114
80 88 114
80 88 114
80 88 114
80 88 114
80 88 114
80 88 114
80 88 114
80 88 114
80 88 114
80 88 114
80 88 114
80 88 114
80 88 114
80 88 114
80 88 114
80 88 114
80 88 114
80 88 114
80 88 114
80 88 114
80 88 114
80 88 114
80 88 114
80 88 114
80 88 114
80 88 114
80 88 114
80 88 114
80 88 114
80 88 114
80 88 114
80 88 114
80 88 114
80 88 114
80 88 114
80 88 114
80 88 114
80 88 114
80 88 114
80 88 114
80 88 114
80 88 114
80 88 114
80 88 114
80 88 114
80 88 114
80 88 114
80 88 114
80 88 114
80 88 114
80 88 114
80 88 114
80 88 114
80 88 114
80 88 114
80 88 114
80 88 114
80 88 114
80 88 114
80 88 114
80 88 114
80 88 114
80 88 114
80 88 114
80 88 114
80 88 114
80 88 114
80 88 114
80 88 114
80 88 114
80 88 114
80 88 114
80 88 114
80 88 114
80 88 114
80 88 114
80 88 114
80 88 114
80 88 114
80 88 114
80 88 114
80 88 114
80 88 114
80 88 114
80 88 114
80 88 114
80 88 114
80 88 114
80 88 114
80 88 114
80 88 114
80 88 114
80 88 114
80 88 114
80 88 114
80 88 114
80 88 114
80 88 114
80 88 114
80 88 114
80 88 114
80 88 114
80 88 114
80 88 114
80 88 114
80 88 114
80 88 114
80 88 114
80 88 114
80 88 114
80 88 114
80 88 114
80 88 114
80 88 114
80 88 114
80 88 114
80 88 114
80 88 114
80 88 114
80 88 114
80 88 114
80 88 114
80 88 114
80 88 114
80 88 114
80 88 114
80 88 114
80 88 114
80 88 114
80 88 114
80 88 114
80 88 114
80 88 114
80 88 114
80 88 114
80 88 114
80 88 114
80 88 114
80 88 114
80 88 114
80 88 114
80 88 114
80 88 114
80 88 114
80 88 114
80 88 114
80 88 114
80 88 114
80 88 114
80 88 114
80 88 114
80 88 114
80 88 114
80 88 114
80 88 114
80 88 114
80 88 114
80 88 114
80 88 114
80 88 114
80 88 114
80 88 114
80 88 114
80 88 114
80 88 114
80 88 114
80 88 114
80 88 114
80 88 114
80 88 114
80 88 114
80 88 114
80 88 114
80 88 114
80 88 114
80 88 114
80 88 114
80 88 114
80 88 114
80 88 114
80 88 114
80 88 114
80 88 114
80 88 114
80 88 114
80 88 114
80 88 114
80 88 114
80 88 114
80 88 114
80 88 114
80 88 114
80 88 114
80 88 114
80 88 114
80 88 114
80 88 114
80 88 114
80 88 114
80 88 114
80 88 114
80 88 114
80 88 114
80 88 114
80 88 114
80 88 114
80 88 114
80 88 114
80 88 114
80 88 114
80 88 114
80 88 114
80 88 114
80 88 114
80 88 114
80 88 114
80 88 114
80 88 114
80 88 114
80 88 114
80 88 114
80 88 114
80 88 114
80 88 114
80 88 114
80 88 114
80 88 114
80 88 114
80 88 114
80 88 114
80 88 114
80 88 114
80 88 114
80 88 114
80 88 114
80 88 114
80 88 114
80 88 114
80 88 114
80 88 114
80 88 114
80 88 114
80 88 114
80 88 114
80 88 114
80 88 114
80 88 114
80 88 114
80 88 114
80 88 114
80 88 114
80 88 114
80 88 114
80 88 114
80 88 114
80 88 114
80 88 114
80 88 114
80 88 114
80 88 114
80 88 114
80 88 114
80 88 114
80 88 114
80 88 114
80 88 114
80 88 114
80 88 114
80 88 114
80 88 114
80 88 114
80 88 114
80 88 114
80 88 114
80 88 114
80 88 114
80 88 114
80 88 114
80 88 114
80 88 114
80 88 114
80 88 114
80 88 114
80 88 114
80 88 114
80 88 114
80 88 114
80 88 114
80 88 114
80 88 114
80 88 114
80 88 114
80 88 114
80 88 114
80 88 114
80 88 114
80 88 114
80 88 114
80 88 114
80 88 114
80 88 114
80 88 114
80 88 114
80 88 114
80 88 114
80 88 114
80 88 114
80 88 114
80 88 114
80 88 114
80 88 114
80 88 114
80 88 114
80 88 114
80 88 114
80 88 114
80 88 114
80 88 114
80 88 114
80 88 114
80 88 114
80 88 114
80 88 114
80 88 114
80 88 114
80 88 114
80 88 114
80 88 114
80 88 114
80 88 114
80 88 114
80 88 114
80 88 114
80 88 114
80 88 114
80 88 114
80 88 114
80 88 114
80 88 114
80 88 114
80 88 114
80 88 114
80 88 114
80 88 114
80 88 114
80 88 114
80 88 114
80 88 114
80 88 114
80 88 114
80 88 114
80 88 114
80 88 114
80 88 114
80 88 114
80 88 114
80 88 114
80 88 114
80 88 114
80 88 114
80 88 114
80 88 114
80 88 114
80 88 114
80 88 114
80 88 114
80 88 114
80 88 114
80 88 114
80 88 114
80 88 114
80 88 114
80 88 114
80 88 114
80 88 114
80 88 114
80 88 114
80 88 114
80 88 114
80 88 114
80 88 114
80 88 114
80 88 114
80 88 114
80 88 114
80 88 114
80 88 114
80 88 114
80 88 114
80 88 114
80 88 114
80 88 114
80 88 114
80 88 114
80 88 114
80 88 114
80 88 114
80 88 114
80 88 114
80 88 114
80 88 114
80 88 114
80 88 114
80 88 114
80 88 114
80 88 114
80 88 114
80 88 114
80 88 114
80 88 114
80 88 114
80 88 114
80 88 114
80 88 114
80 88 114
80 88 114
80 88 114
80 88 114
80 88 114
80 88 114
80 88 114
80 88 114
80 88 114
80 88 114
80 88 114
80 88 114
80 88 114
80 88 114
80 88 114
80 88 114
80 88 114
80 88 114
80 88 114
80 88 114
80 88 114
80 88 114
80 88 114
80 88 114
80 88 114
80 88 114
80 88 114
80 88 114
80 88 114
80 88 114
80 88 114
80 88 114
80 88 114
80 88 114
80 88 114
80 88 114
80 88 114
80 88 114
80 88 114
80 88 114
80 88 114
80 88 114
80 88 114
80 88 114
80 88 114
80 88 114
80 88 114
80 88 114
80 88 114
80 88 114
80 88 114
80 88 114
80 88 114
80 88 114
80 88 114
80 88 114
80 88 114
80 88 114
80 88 114
80 88 114
80 88 114
80 88 114
80 88 114
80 88 114
80 88 114
80 88 114
80 88 114
80 88 114
80 88 114
80 88 114
80 88 114
80 88 114
80 88 114
80 88 114
80 88 114
80 88 114
80 88 114
80 88 114
80 88 114
80 88 114
80 88 114
80 88 114
80 88 114
80 88 114
80 88 114
80 88 114
80 88 114
80 88 114
80 88 114
80 88 114
80 88 114
80 88 114
80 88 114
80 88 114
80 88 114
80 88 114
80 88 114
80 88 114
80 88 114
80 88 114
80 88 114
80 88 114
80 88 114
80 88 114
80 88 114
80 88 114
80 88 114
80 88 114
80 88 114
80 88 114
80 88 114
80 88 114
80 88 114
80 88 114
80 88 114
80 88 114
80 88 114
80 88 114
80 88 114
80 88 114
80 88 114
80 88 114
80 88 114
80 88 114
80 88 114
80 88 114
80 88 114
80 88 114
80 88 114
80 88 114
80 88 114
80 88 114
80 88 114
80 88 114
80 88 114
80 88 114
80 88 114
80 88 114
80 88 114
80 88 114
80 88 114
80 88 114
80 88 114
80 88 114
80 88 114
80 88 114
80 88 114
80 88 114
80 88 114
80 88 114
80 88 114
80 88 114
80 88 114
80 88 114
80 88 114
80 88 114
80 88 114
80 88 114
80 88 114
80 88 114
80 88 114
80 88 114
80 88 114
80 88 114
80 88 114
80 88 114
80 88 114
80 88 114
80 88 114
80 88 114
80 88 114
80 88 114
80 88 114
80 88 114
80 88 114
80 88 114
80 88 114
80 88 114
80 88 114
80 88 114
80 88 114
80 88 114
80 88 114
80 88 114
80 88 114
80 88 114
80 88 114
80 88 114
80 88 114
80 88 114
80 88 114
80 88 114
80 88 114
80 88 114
80 88 114
80 88 114
80 88 114
80 88 114
80 88 114
80 88 114
80 88 114
80 88 114
80 88 114
80 88 114
80 88 114
80 88 114
80 88 114
80 88 114
80 88 114
80 88 114
80 88 114
80 88 114
80 88 114
80 88 114
80 88 114
80 88 114
80 88 114
80 88 114
80 88 114
80 88 114
80 88 114
80 88 114
80 88 114
80 88 114
80 88 114
80 88 114
80 88 114
80 88 114
80 88 114
80 88 114
80 88 114
80 88 114
80 88 114
80 88 114
80 88 114
80 88 114
80 88 114
80 88 114
80 88 114
80 88 114
80 88 114
80 88 114
80 88 114
80 88 114
80 88 114
80 88 114
80 88 114
80 88 114
80 88 114
80 88 114
80 88 114
80 88 114
80 88 114
80 88 114
80 88 114
80 88 114
80 88 114
80 88 114
80 88 114
80 88 114
80 88 114
80 88 114
80 88 114
80 88 114
80 88 114
80 88 114
80 88 114
80 88 114
80 88 114
80 88 114
80 88 114
80 88 114
80 88 114
80 88 114
80 88 114
80 88 114
80 88 114
80 88 114
80 88 114
80 88 114
80 88 114
80 88 114
80 88 114
80 88 114
80 88 114
80 88 114
80 88 114
80 88 114
80 88 114
80 88 114
80 88 114
80 88 114
80 88 114
80 88 114
80 88 114
80 88 114
80 88 114
80 88 114
80 88 114
80 88 114
80 88 114
80 88 114
80 88 114
80 88 114
80 88 114
80 88 114
80 88 114
80 88 114
80 88 114
80 88 114
80 88 114
80 88 114
80 88 114
80 88 114
80 88 114
80 88 114
80 88 114
80 88 114
80 88 114
80 88 114
80 88 114
80 88 114
80 88 114
80 88 114
80 88 114
80 88 114
80 88 114
80 88 114
80 88 114
80 88 114
80 88 114
80 88 114
80 88 114
80 88 114
80 88 114
80 88 114
80 88 114
80 88 114
80 88 114
80 88 114
80 88 114
80 88 114
80 88 114
80 88 114
80 88 114
80 88 114
80 88 114
80 88 114
80 88 114
80 88 114
80 88 114
80 88 114
80 88 114
80 88 114
80 88 114
80 88 114
80 88 114
80 88 114
80 88 114
80 88 114
80 88 114
80 88 114
80 88 114
80 88 114
80 88 114
80 88 114
80 88 114
80 88 114
80 88 114
80 88 114
80 88 114
80 88 114
80 88 114
80 88 114
80 88 114
80 88 114
80 88 114
80 88 114
80 88 114
80 88 114
80 88 114
80 88 114
80 88 114
80 88 114
80 88 114
80 88 114
80 88 114
80 88 114
80 88 114
80 88 114
80 88 114
80 88 114
80 88 114
80 88 114
80 88 114
80 88 114
80 88 114
80 88 114
80 88 114
80 88 114
80 88 114
80 88 114
80 88 114
80 88 114
80 88 114
80 88 114
80 88 114
80 88 114
80 88 114
80 88 114
80 88 114
80 88 114
80 88 114
80 88 114
80 88 114
80 88 114
80 88 114
80 88 114
80 88 114
80 88 114
80 88 114
80 88 114
80 88 114
80 88 114
80 88 114
80 88 114
80 88 114
80 88 114
80 88 114
80 88 114
80 88 114
80 88 114
80 88 114
80 88 114
80 88 114
80 88 114
80 88 114
80 88 114
80 88 114
80 88 114
80 88 114
80 88 114
80 88 114
80 88 114
80 88 114
80 88 114
80 88 114
80 88 114
80 88 114
80 88 114
80 88 114
80 88 114
80 88 114
80 88 114
80 88 114
80 88 114
80 88 114
80 88 114
80 88 114
80 88 114
80 88 114
80 88 114
80 88 114
80 88 114
80 88 114
80 88 114
80 88 114
80 88 114
80 88 114
80 88 114
80 88 114
80 88 114
80 88 114
80 88 114
80 88 114
80 88 114
80 88 114
80 88 114
80 88 114
80 88 114
80 88 114
80 88 114
80 88 114
80 88 114
80 88 114
80 88 114
80 88 114
80 88 114
80 88 114
80 88 114
80 88 114
80 88 114
80 88 114
80 88 114
80 88 114
80 88 114
80 88 114
80 88 114
80 88 114
80 88 114
80 88 114
80 88 114
80 88 114
80 88 114
80 88 114
80 88 114
80 88 114
80 88 114
80 88 114
80 88 114
80 88 114
80 88 114
80 88 114
80 88 114
80 88 114
80 88 114
80 88 114
80 88 114
80 88 114
80 88 114
80 88 114
80 88 114
80 88 114
80 88 114
80 88 114
80 88 114
80 88 114
80 88 114
80 88 114
80 88 114
80 88 114
80 88 114
80 88 114
80 88 114
80 88 114
80 88 114
80 88 114
80 88 114
80 88 114
80 88 114
80 88 114
80 88 114
80 88 114
80 88 114
80 88 114
80 88 114
80 88 114
80 88 114
80 88 114
80 88 114
80 88 114
80 88 114
80 88 114
80 88 114
80 88 114
80 88 114
80 88 114
80 88 114
80 88 114
80 88 114
80 88 114
80 88 114
80 88 114
80 88 114
80 88 114
80 88 114
80 88 114
80 88 114
80 88 114
80 88 114
80 88 114
80 88 114
80 88 114
80 88 114
80 88 114
80 88 114
80 88 114
80 88 114
80 88 114
80 88 114
80 88 114
80 88 114
80 88 114
80 88 114
80 88 114
80 88 114
80 88 114
80 88 114
80 88 114
80 88 114
80 88 114
80 88 114
80 88 114
80 88 114
80 88 114
80 88 114
80 88 114
80 88 114
80 88 114
80 88 114
80 88 114
80 88 114
80 88 114
80 88 114
80 88 114
80 88 114
80 88 114
80 88 114
80 88 114
80 88 114
80 88 114
80 88 114
80 88 114
80 88 114
80 88 114
80 88 114
80 88 114
80 88 114
80 88 114
80 88 114
80 88 114
80 88 114
80 88 114
80 88 114
80 88 114
80 88 114
80 88 114
80 88 114
80 88 114
80 88 114
80 88 114
80 88 114
80 88 114
80 88 114
80 88 114
80 88 114
80 88 114
80 88 114
80 88 114
80 88 114
80 88 114
80 88 114
80 88 114
80 88 114
80 88 114
80 88 114
80 88 114
80 88 114
80 88 114
80 88 114
80 88 114
80 88 114
80 88 114
80 88 114
80 88 114
80 88 114
80 88 114
80 88 114
80 88 114
80 88 114
80 88 114
80 88 114
80 88 114
80 88 114
80 88 114
80 88 114
80 88 114
80 88 114
80 88 114
80 88 114
80 88 114
80 88 114
80 88 114
80 88 114
80 88 114
80 88 114
80 88 114
80 88 114
80 88 114
80 88 114
80 88 114
80 88 114
80 88 114
80 88 114
80 88 114
80 88 114
80 88 114
80 88 114
80 88 114
80 88 114
80 88 114
80 88 114
80 88 114
80 88 114
80 88 114
80 88 114
80 88 114
80 88 114
80 88 114
80 88 114
80 88 114
80 88 114
80 88 114
80 88 114
80 88 114
80 88 114
80 88 114
80 88 114
80 88 114
80 88 114
80 88 114
80 88 114
80 88 114
80 88 114
80 88 114
80 88 114
80 88 114
80 88 114
80 88 114
80 88 114
80 88 114
80 88 114
80 88 114
80 88 114
80 88 114
80 88 114
80 88 114
80 88 114
80 88 114
80 88 114
80 88 114
80 88 114
80 88 114
80 88 114
80 88 114
80 88 114
80 88 114
80 88 114
80 88 114
80 88 114
80 88 114
80 88 114
80 88 114
80 88 114
80 88 114
80 88 114
80 88 114
80 88 114
80 88 114
80 88 114
80 88 114
80 88 114
80 88 114
80 88 114
80 88 114
80 88 114
80 88 114
80 88 114
80 88 114
80 88 114
80 88 114
80 88 114
80 88 114
80 88 114
80 88 114
80 88 114
80 88 114
80 88 114
80 88 114
80 88 114
80 88 114
80 88 114
80 88 114
80 88 114
80 88 114
80 88 114
80 88 114
80 88 114
80 88 114
80 88 114
80 88 114
80 88 114
80 88 114
80 88 114
80 88 114
80 88 114
80 88 114
80 88 114
80 88 114
80 88 114
80 88 114
80 88 114
80 88 114
80 88 114
80 88 114
80 88 114
80 88 114
80 88 114
80 88 114
80 88 114
80 88 114
80 88 114
80 88 114
80 88 114
80 88 114
80 88 114
80 88 114
80 88 114
80 88 114
80 88 114
80 88 114
80 88 114
80 88 114
80 88 114
80 88 114
80 88 114
80 88 114
80 88 114
80 88 114
80 88 114
80 88 114
80 88 114
80 88 114
80 88 114
80 88 114
80 88 114
80 88 114
80 88 114
80 88 114
80 88 114
80 88 114
80 88 114
80 88 114
80 88 114
80 88 114
80 88 114
80 88 114
80 88 114
80 88 114
80 88 114
80 88 114
80 88 114
80 88 114
80 88 114
80 88 114
80 88 114
80 88 114
80 88 114
80 88 114
80 88 114
80 88 114
80 88 114
80 88 114
80 88 114
80 88 114
80 88 114
80 88 114
80 88 114
80 88 114
80 88 114
80 88 114
80 88 114
80 88 114
80 88 114
80 88 114
80 88 114
80 88 114
80 88 114
80 88 114
80 88 114
80 88 114
80 88 114
80 88 114
80 88 114
80 88 114
80 88 114
80 88 114
80 88 114
80 88 114
80 88 114
80 88 114
80 88 114
80 88 114
80 88 114
80 88 114
80 88 114
80 88 114
80 88 114
80 88 114
80 88 114
80 88 114
80 88 114
80 88 114
80 88 114
80 88 114
80 88 114
80 88 114
80 88 114
80 88 114
80 88 114
80 88 114
80 88 114
80 88 114
80 88 114
80 88 114
80 88 114
80 88 114
80 88 114
80 88 114
80 88 114
80 88 114
80 88 114
80 88 114
80 88 114
80 88 114
80 88 114
80 88 114
80 88 114
80 88 114
80 88 114
80 88 114
80 88 114
80 88 114
80 88 114
80 88 114
80 88 114
80 88 114
80 88 114
80 88 114
80 88 114
80 88 114
80 88 114
80 88 114
80 88 114
80 88 114
80 88 114
80 88 114
80 88 114
80 88 114
80 88 114
80 88 114
80 88 114
80 88 114
80 88 114
80 88 114
80 88 114
80 88 114
80 88 114
80 88 114
80 88 114
80 88 114
80 88 114
80 88 114
80 88 114
80 88 114
80 88 114
80 88 114
80 88 114
80 88 114
80 88 114
80 88 114
80 88 114
80 88 114
80 88 114
80 88 114
80 88 114
80 88 114
80 88 114
80 88 114
80 88 114
80 88 114
80 88 114
80 88 114
80 88 114
80 88 114
80 88 114
80 88 114
80 88 114
80 88 114
80 88 114
80 88 114
80 88 114
80 88 114
80 88 114
80 88 114
80 88 114
80 88 114
80 88 114
80 88 114
80 88 114
80 88 114
80 88 114
80 88 114
80 88 114
80 88 114
80 88 114
80 88 114
80 88 114
80 88 114
80 88 114
80 88 114
80 88 114
80 88 114
80 88 114
80 88 114
80 88 114
80 88 114
80 88 114
80 88 114
80 88 114
80 88 114
80 88 114
80 88 114
80 88 114
80 88 114
80 88 114
80 88 114
80 88 114
80 88 114
80 88 114
80 88 114
80 88 114
80 88 114
80 88 114
80 88 114
80 88 114
80 88 114
80 88 114
80 88 114
80 88 114
80 88 114
80 88 114
80 88 114
80 88 114
80 88 114
80 88 114
80 88 114
80 88 114
80 88 114
80 88 114
80 88 114
80 88 114
80 88 114
80 88 114
80 88 114
80 88 114
80 88 114
80 88 114
80 88 114
80 88 114
80 88 114
80 88 114
80 88 114
80 88 114
80 88 114
80 88 114
80 88 114
80 88 114
80 88 114
80 88 114
80 88 114
80 88 114
80 88 114
80 88 114
80 88 114
80 88 114
80 88 114
80 88 114
80 88 114
80 88 114
80 88 114
80 88 114
80 88 114
80 88 114
80 88 114
80 88 114
80 88 114
80 88 114
80 88 114
80 88 114
80 88 114
80 88 114
80 88 114
80 88 114
80 88 114
80 88 114
80 88 114
80 88 114
80 88 114
80 88 114
80 88 114
80 88 114
80 88 114
80 88 114
80 88 114
80 88 114
80 88 114
80 88 114
80 88 114
80 88 114
80 88 114
80 88 114
80 88 114
80 88 114
80 88 114
80 88 114
80 88 114
80 88 114
80 88 114
80 88 114
80 88 114
80 88 114
80 88 114
80 88 114
80 88 114
80 88 114
80 88 114
80 88 114
80 88 114
80 88 114
80 88 114
80 88 114
80 88 114
80 88 114
80 88 114
80 88 114
80 88 114
80 88 114
80 88 114
80 88 114
80 88 114
80 88 114
80 88 114
80 88 114
80 88 114
80 88 114
80 88 114
80 88 114
80 88 114
80 88 114
80 88 114
80 88 114
80 88 114
80 88 114
80 88 114
80 88 114
80 88 114
80 88 114
80 88 114
80 88 114
80 88 114
80 88 114
80 88 114
80 88 114
80 88 114
80 88 114
80 88 114
80 88 114
80 88 114
80 88 114
80 88 114
80 88 114
80 88 114
80 88 114
80 88 114
80 88 114
80 88 114
80 88 114
80 88 114
80 88 114
80 88 114
80 88 114
80 88 114
80 88 114
80 88 114
80 88 114
80 88 114
80 88 114
80 88 114
80 88 114
80 88 114
80 88 114
80 88 114
80 88 114
80 88 114
80 88 114
80 88 114
80 88 114
80 88 114
80 88 114
80 88 114
80 88 114
80 88 114
80 88 114
80 88 114
80 88 114
80 88 114
80 88 114
80 88 114
80 88 114
80 88 114
80 88 114
80 88 114
80 88 114
80 88 114
80 88 114
80 88 114
80 88 114
80 88 114
80 88 114
80 88 114
80 88 114
80 88 114
80 88 114
80 88 114
80 88 114
80 88 114
80 88 114
80 88 114
80 88 114
80 88 114
80 88 114
80 88 114
80 88 114
80 88 114
80 88 114
80 88 114
80 88 114
80 88 114
80 88 114
80 88 114
80 88 114
80 88 114
80 88 114
80 88 114
80 88 114
80 88 114
80 88 114
80 88 114
80 88 114
80 88 114
80 88 114
80 88 114
80 88 114
80 88 114
80 88 114
80 88 114
80 88 114
80 88 114
80 88 114
80 88 114
80 88 114
80 88 114
80 88 114
80 88 114
80 88 114
80 88 114
80 88 114
80 88 114
80 88 114
80 88 114
80 88 114
80 88 114
80 88 114
80 88 114
80 88 114
80 88 114
80 88 114
80 88 114
80 88 114
80 88 114
80 88 114
80 88 114
80 88 114
80 88 114
80 88 114
80 88 114
80 88 114
80 88 114
80 88 114
80 88 114
80 88 114
80 88 114
80 88 114
80 88 114
80 88 114
80 88 114
80 88 114
80 88 114
80 88 114
80 88 114
80 88 114
80 88 114
80 88 114
80 88 114
80 88 114
80 88 114
80 88 114
80 88 114
80 88 114
80 88 114
80 88 114
80 88 114
80 88 114
80 88 114
80 88 114
80 88 114
80 88 114
80 88 114
80 88 114
80 88 114
80 88 114
80 88 114
80 88 114
80 88 114
80 88 114
80 88 114
80 88 114
80 88 114
80 88 114
80 88 114
80 88 114
80 88 114
80 88 114
80 88 114
80 88 114
80 88 114
80 88 114
80 88 114
80 88 114
80 88 114
80 88 114
80 88 114
80 88 114
80 88 114
80 88 114
80 88 114
80 88 114
80 88 114
80 88 114
80 88 114
80 88 114
80 88 114
80 88 114
80 88 114
80 88 114
80 88 114
80 88 114
80 88 114
80 88 114
80 88 114
80 88 114
80 88 114
80 88 114
80 88 114
80 88 114
80 88 114
80 88 114
80 88 114
80 88 114
80 88 114
80 88 114
80 88 114
80 88 114
80 88 114
80 88 114
80 88 114
80 88 114
80 88 114
80 88 114
80 88 114
80 88 114
80 88 114
80 88 114
80 88 114
80 88 114
80 88 114
80 88 114
80 88 114
80 88 114
80 88 114
80 88 114
80 88 114
80 88 114
80 88 114
80 88 114
80 88 114
80 88 114
80 88 114
80 88 114
80 88 114
80 88 114
80 88 114
80 88 114
80 88 114
80 88 114
80 88 114
80 88 114
80 88 114
80 88 114
80 88 114
80 88 114
80 88 114
80 88 114
80 88 114
80 88 114
80 88 114
80 88 114
80 88 114
80 88 114
80 88 114
80 88 114
80 88 114
80 88 114
80 88 114
80 88 114
80 88 114
80 88 114
80 88 114
80 88 114
80 88 114
80 88 114
80 88 114
80 88 114
80 88 114
80 88 114
80 88 114
80 88 114
80 88 114
80 88 114
80 88 114
80 88 114
80 88 114
80 88 114
80 88 114
80 88 114
80 88 114
80 88 114
80 88 114
80 88 114
80 88 114
80 88 114
80 88 114
80 88 114
80 88 114
80 88 114
80 88 114
80 88 114
80 88 114
80 88 114
80 88 114
80 88 114
80 88 114
80 88 114
80 88 114
80 88 114
80 88 114
80 88 114
80 88 114
80 88 114
80 88 114
80 88 114
80 88 114
80 88 114
80 88 114
80 88 114
80 88 114
80 88 114
80 88 114
80 88 114
80 88 114
80 88 114
80 88 114
80 88 114
80 88 114
80 88 114
80 88 114
80 88 114
80 88 114
80 88 114
80 88 114
80 88 114
80 88 114
80 88 114
80 88 114
80 88 114
80 88 114
80 88 114
80 88 114
80 88 114
80 88 114
80 88 114
80 88 114
80 88 114
80 88 114
80 88 114
80 88 114
80 88 114
80 88 114
80 88 114
80 88 114
80 88 114
80 88 114
80 88 114
80 88 114
80 88 114
80 88 114
80 88 114
80 88 114
80 88 114
80 88 114
80 88 114
80 88 114
80 88 114
80 88 114
80 88 114
80 88 114
80 88 114
80 88 114
80 88 114
80 88 114
80 88 114
80 88 114
80 88 114
80 88 114
80 88 114
80 88 114
80 88 114
80 88 114
80 88 114
80 88 114
80 88 114
80 88 114
80 88 114
80 88 114
80 88 114
80 88 114
80 88 114
80 88 114
80 88 114
80 88 114
80 88 114
80 88 114
80 88 114
80 88 114
80 88 114
80 88 114
80 88 114
80 88 114
80 88 114
80 88 114
80 88 114
80 88 114
80 88 114
80 88 114
80 88 114
80 88 114
80 88 114
80 88 114
80 88 114
80 88 114
80 88 114
80 88 114
80 88 114
80 88 114
80 88 114
80 88 114
80 88 114
80 88 114
80 88 114
80 88 114
80 88 114
80 88 114
80 88 114
80 88 114
80 88 114
80 88 114
80 88 114
80 88 114
80 88 114
80 88 114
80 88 114
80 88 114
80 88 114
80 88 114
80 88 114
80 88 114
80 88 114
80 88 114
80 88 114
80 88 114
80 88 114
80 88 114
80 88 114
80 88 114
80 88 114
80 88 114
80 88 114
80 88 114
80 88 114
80 88 114
80 88 114
80 88 114
80 88 114
80 88 114
80 88 114
80 88 114
80 88 114
80 88 114
80 88 114
80 88 114
80 88 114
80 88 114
80 88 114
80 88 114
80 88 114
80 88 114
80 88 114
80 88 114
80 88 114
80 88 114
80 88 114
80 88 114
80 88 114
80 88 114
80 88 114
80 88 114
80 88 114
80 88 114
80 88 114
80 88 114
80 88 114
80 88 114
80 88 114
80 88 114
80 88 114
80 88 114
80 88 114
80 88 114
80 88 114
80 88 114
80 88 114
80 88 114
80 88 114
80 88 114
80 88 114
80 88 114
80 88 114
80 88 114
80 88 114
80 88 114
80 88 114
80 88 114
80 88 114
80 88 114
80 88 114
80 88 114
80 88 114
80 88 114
80 88 114
80 88 114
80 88 114
80 88 114
80 88 114
80 88 114
80 88 114
80 88 114
80 88 114
80 88 114
80 88 114
80 88 114
80 88 114
80 88 114
80 88 114
80 88 114
80 88 114
80 88 114
80 88 114
80 88 114
80 88 114
80 88 114
80 88 114
80 88 114
80 88 114
80 88 114
80 88 114
80 88 114
80 88 114
80 88 114
80 88 114
80 88 114
80 88 114
80 88 114
80 88 114
80 88 114
80 88 114
80 88 114
80 88 114
80 88 114
80 88 114
80 88 114
80 88 114
80 88 114
80 88 114
80 88 114
80 88 114
80 88 114
80 88 114
80 88 114
80 88 114
80 88 114
80 88 114
80 88 114
80 88 114
80 88 114
80 88 114
80 88 114
80 88 114
80 88 114
80 88 114
80 88 114
80 88 114
80 88 114
80 88 114
80 88 114
80 88 114
80 88 114
80 88 114
80 88 114
80 88 114
80 88 114
80 88 114
80 88 114
80 88 114
80 88 114
80 88 114
80 88 114
80 88 114
80 88 114
80 88 114
80 88 114
80 88 114
80 88 114
80 88 114
80 88 114
80 88 114
80 88 114
80 88 114
80 88 114
80 88 114
80 88 114
80 88 114
80 88 114
80 88 114
80 88 114
80 88 114
80 88 114
80 88 114
80 88 114
80 88 114
80 88 114
80 88 114
80 88 114
80 88 114
80 88 114
80 88 114
80 88 114
80 88 114
80 88 114
80 88 114
80 88 114
80 88 114
80 88 114
80 88 114
80 88 114
80 88 114
80 88 114
80 88 114
80 88 114
80 88 114
80 88 114
80 88 114
80 88 114
80 88 114
80 88 114
80 88 114
80 88 114
80 88 114
80 88 114
80 88 114
80 88 114
80 88 114
80 88 114
80 88 114
80 88 114
80 88 114
80 88 114
80 88 114
80 88 114
80 88 114
80 88 114
80 88 114
80 88 114
80 88 114
80 88 114
80 88 114
80 88 114
80 88 114
80 88 114
80 88 114
80 88 114
80 88 114
80 88 114
80 88 114
80 88 114
80 88 114
80 88 114
80 88 114
80 88 114
80 88 114
80 88 114
80 88 114
80 88 114
80 88 114
80 88 114
80 88 114
80 88 114
80 88 114
80 88 114
80 88 114
80 88 114
80 88 114
80 88 114
80 88 114
80 88 114
80 88 114
80 88 114
80 88 114
80 88 114
80 88 114
80 88 114
80 88 114
80 88 114
80 88 114
80 88 114
80 88 114
80 88 114
80 88 114
80 88 114
80 88 114
80 88 114
80 88 114
80 88 114
80 88 114
80 88 114
80 88 114
80 88 114
80 88 114
80 88 114
80 88 114
80 88 114
80 88 114
80 88 114
80 88 114
80 88 114
80 88 114
80 88 114
80 88 114
80 88 114
80 88 114
80 88 114
80 88 114
80 88 114
80 88 114
80 88 114
80 88 114
80 88 114
80 88 114
80 88 114
80 88 114
80 88 114
80 88 114
80 88 114
80 88 114
80 88 114
80 88 114
80 88 114
80 88 114
80 88 114
80 88 114
80 88 114
80 88 114
80 88 114
80 88 114
80 88 114
80 88 114
80 88 114
80 88 114
80 88 114
80 88 114
80 88 114
80 88 114
80 88 114
80 88 114
80 88 114
80 88 114
80 88 114
80 88 114
80 88 114
80 88 114
80 88 114
80 88 114
80 88 114
80 88 114
80 88 114
80 88 114
80 88 114
80 88 114
80 88 114
80 88 114
80 88 114
80 88 114
80 88 114
80 88 114
80 88 114
80 88 114
80 88 114
80 88 114
80 88 114
80 88 114
80 88 114
80 88 114
80 88 114
80 88 114
80 88 114
80 88 114
80 88 114
80 88 114
80 88 114
80 88 114
80 88 114
80 88 114
80 88 114
80 88 114
80 88 114
80 88 114
80 88 114
80 88 114
80 88 114
80 88 114
80 88 114
80 88 114
80 88 114
80 88 114
80 88 114
80 88 114
80 88 114
80 88 114
80 88 114
80 88 114
80 88 114
80 88 114
80 88 114
80 88 114
80 88 114
80 88 114
80 88 114
80 88 114
80 88 114
80 88 114
80 88 114
80 88 114
80 88 114
80 88 114
80 88 114
80 88 114
80 88 114
80 88 114
80 88 114
80 88 114
80 88 114
80 88 114
80 88 114
80 88 114
80 88 114
80 88 114
80 88 114
80 88 114
80 88 114
80 88 114
80 88 114
80 88 114
80 88 114
80 88 114
80 88 114
80 88 114
80 88 114
80 88 114
80 88 114
80 88 114
80 88 114
80 88 114
80 88 114
80 88 114
80 88 114
80 88 114
80 88 114
80 88 114
80 88 114
80 88 114
80 88 114
80 88 114
80 88 114
80 88 114
80 88 114
80 88 114
80 88 114
80 88 114
80 88 114
80 88 114
80 88 114
80 88 114
80 88 114
80 88 114
80 88 114
80 88 114
80 88 114
80 88 114
80 88 114
80 88 114
80 88 114
80 88 114
80 88 114
80 88 114
80 88 114
80 88 114
80 88 114
80 88 114
80 88 114
80 88 114
80 88 114
80 88 114
80 88 114
80 88 114
80 88 114
80 88 114
80 88 114
80 88 114
80 88 114
80 88 114
80 88 114
80 88 114
80 88 114
80 88 114
80 88 114
80 88 114
80 88 114
80 88 114
80 88 114
80 88 114
80 88 114
80 88 114
80 88 114
80 88 114
80 88 114
80 88 114
80 88 114
80 88 114
80 88 114
80 88 114
80 88 114
80 88 114
80 88 114
80 88 114
80 88 114
80 88 114
80 88 114
80 88 114
80 88 114
80 88 114
80 88 114
80 88 114
80 88 114
80 88 114
80 88 114
80 88 114
80 88 114
80 88 114
80 88 114
80 88 114
80 88 114
80 88 114
80 88 114
80 88 114
80 88 114
80 88 114
80 88 114
80 88 114
80 88 114
80 88 114
80 88 114
80 88 114
80 88 114
80 88 114
80 88 114
80 88 114
80 88 114
80 88 114
80 88 114
80 88 114
80 88 114
80 88 114
80 88 114
80 88 114
80 88 114
80 88 114
80 88 114
80 88 114
80 88 114
80 88 114
80 88 114
80 88 114
80 88 114
80 88 114
80 88 114
80 88 114
80 88 114
80 88 114
80 88 114
80 88 114
80 88 114
80 88 114
80 88 114
80 88 114
80 88 114
80 88 114
80 88 114
80 88 114
80 88 114
80 88 114
80 88 114
80 88 114
80 88 114
80 88 114
80 88 114
80 88 114
80 88 114
80 88 114
80 88 114
80 88 114
80 88 114
80 88 114
80 88 114
80 88 114
80 88 114
80 88 114
80 88 114
80 88 114
80 88 114
80 88 114
80 88 114
80 88 114
80 88 114
80 88 114
80 88 114
80 88 114
80 88 114
80 88 114
80 88 114
80 88 114
80 88 114
80 88 114
80 88 114
80 88 114
80 88 114
80 88 114
80 88 114
80 88 114
80 88 114
80 88 114
80 88 114
80 88 114
80 88 114
80 88 114
80 88 114
80 88 114
80 88 114
80 88 114
80 88 114
80 88 114
80 88 114
80 88 114
80 88 114
80 88 114
80 88 114
80 88 114
80 88 114
80 88 114
80 88 114
80 88 114
80 88 114
80 88 114
80 88 114
80 88 114
80 88 114
80 88 114
80 88 114
80 88 114
80 88 114
80 88 114
80 88 114
80 88 114
80 88 114
80 88 114
80 88 114
80 88 114
80 88 114
80 88 114
80 88 114
80 88 114
80 88 114
80 88 114
80 88 114
80 88 114
80 88 114
80 88 114
80 88 114
80 88 114
80 88 114
80 88 114
80 88 114
80 88 114
80 88 114
80 88 114
80 88 114
80 88 114
80 88 114
80 88 114
80 88 114
80 88 114
80 88 114
80 88 114
80 88 114
80 88 114
80 88 114
80 88 114
80 88 114
80 88 114
80 88 114
80 88 114
80 88 114
80 88 114
80 88 114
80 88 114
80 88 114
80 88 114
80 88 114
80 88 114
80 88 114
80 88 114
80 88 114
80 88 114
80 88 114
80 88 114
80 88 114
80 88 114
80 88 114
80 88 114
80 88 114
80 88 114
80 88 114
80 88 114
80 88 114
80 88 114
80 88 114
80 88 114
80 88 114
80 88 114
80 88 114
80 88 114
80 88 114
80 88 114
80 88 114
80 88 114
80 88 114
80 88 114
80 88 114
80 88 114
80 88 114
80 88 114
80 88 114
80 88 114
80 88 114
80 88 114
80 88 114
80 88 114
80 88 114
80 88 114
80 88 114
80 88 114
80 88 114
80 88 114
80 88 114
80 88 114
80 88 114
80 88 114
80 88 114
80 88 114
80 88 114
80 88 114
80 88 114
80 88 114
80 88 114
80 88 114
80 88 114
80 88 114
80 88 114
80 88 114
80 88 114
80 88 114
80 88 114
80 88 114
80 88 114
80 88 114
80 88 114
80 88 114
80 88 114
80 88 114
80 88 114
80 88 114
80 88 114
80 88 114
80 88 114
80 88 114
80 88 114
80 88 114
80 88 114
80 88 114
80 88 114
80 88 114
80 88 114
80 88 114
80 88 114
80 88 114
80 88 114
80 88 114
80 88 114
80 88 114
80 88 114
80 88 114
80 88 114
80 88 114
80 88 114
80 88 114
80 88 114
80 88 114
80 88 114
80 88 114
80 88 114
80 88 114
80 88 114
80 88 114
80 88 114
80 88 114
80 88 114
80 88 114
80 88 114
80 88 114
80 88 114
80 88 114
80 88 114
80 88 114
80 88 114
80 88 114
80 88 114
80 88 114
80 88 114
80 88 114
80 88 114
80 88 114
80 88 114
80 88 114
80 88 114
80 88 114
80 88 114
80 88 114
80 88 114
80 88 114
80 88 114
80 88 114
80 88 114
80 88 114
80 88 114
80 88 114
80 88 114
80 88 114
80 88 114
80 88 114
80 88 114
80 88 114
80 88 114
80 88 114
80 88 114
80 88 114
80 88 114
80 88 114
80 88 114
80 88 114
80 88 114
80 88 114
80 88 114
80 88 114
80 88 114
80 88 114
80 88 114
80 88 114
80 88 114
80 88 114
80 88 114
80 88 114
80 88 114
80 88 114
80 88 114
80 88 114
80 88 114
80 88 114
80 88 114
80 88 114
80 88 114
80 88 114
80 88 114
80 88 114
80 88 114
80 88 114
80 88 114
80 88 114
80 88 114
80 88 114
80 88 114
80 88 114
80 88 114
80 88 114
80 88 114
80 88 114
80 88 114
80 88 114
80 88 114
80 88 114
80 88 114
80 88 114
80 88 114
80 88 114
80 88 114
80 88 114
80 88 114
80 88 114
80 88 114
80 88 114
80 88 114
80 88 114
80 88 114
80 88 114
80 88 114
80 88 114
80 88 114
80 88 114
80 88 114
80 88 114
80 88 114
80 88 114
80 88 114
80 88 114
80 88 114
80 88 114
80 88 114
80 88 114
80 88 114
80 88 114
80 88 114
80 88 114
80 88 114
80 88 114
80 88 114
80 88 114
80 88 114
80 88 114
80 88 114
80 88 114
80 88 114
80 88 114
80 88 114
80 88 114
80 88 114
80 88 114
80 88 114
80 88 114
80 88 114
80 88 114
80 88 114
80 88 114
80 88 114
80 88 114
80 88 114
80 88 114
80 88 114
80 88 114
80 88 114
80 88 114
80 88 114
80 88 114
80 88 114
80 88 114
80 88 114
80 88 114
80 88 114
80 88 114
80 88 114
80 88 114
80 88 114
80 88 114
80 88 114
80 88 114
80 88 114
80 88 114
80 88 114
80 88 114
80 88 114
80 88 114
80 88 114
80 88 114
80 88 114
80 88 114
80 88 114
80 88 114
80 88 114
80 88 114
80 88 114
80 88 114
80 88 114
80 88 114
80 88 114
80 88 114
80 88 114
80 88 114
80 88 114
80 88 114
80 88 114
80 88 114
80 88 114
80 88 114
80 88 114
80 88 114
80 88 114
80 88 114
80 88 114
80 88 114
80 88 114
80 88 114
80 88 114
80 88 114
80 88 114
80 88 114
80 88 114
80 88 114
80 88 114
80 88 114
80 88 114
80 88 114
80 88 114
80 88 114
80 88 114
80 88 114
80 88 114
80 88 114
80 88 114
80 88 114
81 88 113
85 86 101
84 80 86
84 77 76
84 76 71
81 73 69
79 72 72
79 76 81
79 80 94
79 85 109
80 88 114
80 88 114
80 88 114
80 88 114
80 88 114
80 88 114
80 88 114
80 88 114
80 88 114
80 88 114
80 88 114
80 88 114
80 88 114
80 88 114
80 88 114
80 88 114
80 88 114
80 88 114
80 88 114
80 88 114
80 88 114
80 88 114
80 88 114
80 88 114
80 88 114
80 88 114
80 88 114
80 88 114
80 88 114
80 88 114
80 88 114
80 88 114
80 88 114
80 88 114
80 88 114
80 88 114
80 88 114
80 88 114
80 88 114
80 88 114
80 88 114
80 88 114
80 88 114
80 88 114
80 88 114
80 88 114
80 88 114
80 88 114
80 88 114
80 88 114
80 88 114
80 88 114
80 88 114
80 88 114
80 88 114
80 88 114
80 88 114
80 88 114
80 88 114
80 88 114
80 88 114
80 88 114
80 88 114
80 88 114
80 88 114
80 88 114
80 88 114
80 88 114
80 88 114
80 88 114
80 88 114
80 88 114
80 88 114
80 88 114
80 88 114
80 88 114
80 88 114
80 88 114
80 88 114
80 88 114
80 88 114
80 88 114
80 88 114
80 88 114
80 88 114
80 88 114
80 88 114
80 88 114
80 88 114
80 88 114
80 88 114
80 88 114
80 88 114
80 88 114
80 88 114
80 88 114
80 88 114
80 88 114
80 88 114
80 88 114
80 88 114
80 88 114
80 88 114
80 88 114
80 88 114
80 88 114
80 88 114
80 88 114
80 88 114
80 88 114
80 88 114
80 88 114
80 88 114
80 88 114
80 88 114
80 88 114
80 88 114
80 88 114
80 88 114
80 88 114
80 88 114
80 88 114
80 88 114
80 88 114
80 88 114
80 88 114
80 88 114
80 88 114
80 88 114
80 88 114
80 88 114
80 88 114
80 88 114
80 88 114
80 88 114
80 88 114
80 88 114
80 88 114
80 88 114
80 88 114
80 88 114
80 88 114
80 88 114
80 88 114
80 88 114
80 88 114
80 88 114
80 88 114
80 88 114
80 88 114
80 88 114
80 88 114
80 88 114
80 88 114
80 88 114
80 88 114
80 88 114
80 88 114
80 88 114
80 88 114
80 88 114
80 88 114
80 88 114
80 88 114
80 88 114
80 88 114
80 88 114
80 88 114
80 88 114
80 88 114
80 88 114
80 88 114
80 88 114
80 88 114
80 88 114
80 88 114
80 88 114
80 88 114
80 88 114
80 88 114
80 88 114
80 88 114
80 88 114
80 88 114
80 88 114
80 88 114
80 88 114
80 88 114
80 88 114
80 88 114
80 88 114
80 88 114
80 88 114
80 88 114
80 88 114
80 88 114
80 88 114
80 88 114
80 88 114
80 88 114
80 88 114
80 88 114
80 88 114
80 88 114
80 88 114
80 88 114
80 88 114
80 88 114
80 88 114
80 88 114
80 88 114
80 88 114
80 88 114
80 88 114
80 88 114
80 88 114
80 88 114
80 88 114
80 88 114
80 88 114
80 88 114
80 88 114
80 88 114
80 88 114
80 88 114
80 88 114
80 88 114
80 88 114
80 88 114
80 88 114
80 88 114
80 88 114
80 88 114
80 88 114
80 88 114
80 88 114
80 88 114
80 88 114
80 88 114
80 88 114
80 88 114
80 88 114
80 88 114
80 88 114
80 88 114
80 88 114
80 88 114
80 88 114
80 88 114
80 88 114
80 88 114
80 88 114
80 88 114
80 88 114
80 88 114
80 88 114
80 88 114
80 88 114
80 88 114
80 88 114
80 88 114
80 88 114
80 88 114
80 88 114
80 88 114
80 88 114
80 88 114
80 88 114
80 88 114
80 88 114
80 88 114
80 88 114
80 88 114
80 88 114
80 88 114
80 88 114
80 88 114
80 88 114
80 88 114
80 88 114
80 88 114
80 88 114
80 88 114
80 88 114
80 88 114
80 88 114
80 88 114
80 88 114
80 88 114
80 88 114
80 88 114
80 88 114
80 88 114
80 88 114
80 88 114
80 88 114
80 88 114
80 88 114
80 88 114
80 88 114
80 88 114
80 88 114
80 88 114
80 88 114
80 88 114
80 88 114
80 88 114
80 88 114
80 88 114
80 88 114
80 88 114
80 88 114
80 88 114
80 88 114
80 88 114
80 88 114
80 88 114
80 88 114
80 88 114
80 88 114
80 88 114
80 88 114
80 88 114
80 88 114
80 88 114
80 88 114
80 88 114
80 88 114
80 88 114
80 88 114
80 88 114
80 88 114
80 88 114
80 88 114
80 88 114
80 88 114
80 88 114
80 88 114
80 88 114
80 88 114
80 88 114
80 88 114
80 88 114
80 88 114
80 88 114
80 88 114
80 88 114
80 88 114
80 88 114
80 88 114
80 88 114
80 88 114
80 88 114
80 88 114
80 88 114
80 88 114
80 88 114
80 88 114
80 88 114
80 88 114
80 88 114
80 88 114
80 88 114
80 88 114
80 88 114
80 88 114
80 88 114
80 88 114
80 88 114
80 88 114
80 88 114
80 88 114
80 88 114
80 88 114
80 88 114
80 88 114
80 88 114
80 88 114
80 88 114
80 88 114
80 88 114
80 88 114
80 88 114
80 88 114
80 88 114
80 88 114
80 88 114
80 88 114
81 88 114
87 85 96
91 81 73
86 75 65
83 73 64
79 70 63
80 71 65
76 68 62
75 67 61
74 66 60
77 69 63
77 69 64
77 75 83
80 86 109
80 88 114
80 88 114
80 88 114
80 88 114
80 88 114
80 88 114
80 88 114
80 88 114
80 88 114
80 88 114
80 88 114
80 88 114
80 88 114
80 88 114
80 88 114
80 88 114
80 88 114
80 88 114
80 88 114
80 88 114
80 88 114
80 88 114
80 88 114
80 88 114
80 88 114
80 88 114
80 88 114
80 88 114
80 88 114
80 88 114
80 88 114
80 88 114
80 88 114
80 88 114
80 88 114
80 88 114
80 88 114
80 88 114
80 88 114
80 88 114
80 88 114
80 88 114
80 88 114
80 88 114
80 88 114
80 88 114
80 88 114
80 88 114
80 88 114
80 88 114
80 88 114
80 88 114
80 88 114
80 88 114
80 88 114
80 88 114
80 88 114
80 88 114
80 88 114
80 88 114
80 88 114
80 88 114
80 88 114
80 88 114
80 88 114
80 88 114
80 88 114
80 88 114
80 88 114
80 88 114
80 88 114
80 88 114
80 88 114
80 88 114
80 88 114
80 88 114
80 88 114
80 88 114
80 88 114
80 88 114
80 88 114
80 88 114
80 88 114
80 88 114
80 88 114
80 88 114
80 88 114
80 88 114
80 88 114
80 88 114
80 88 114
80 88 114
80 88 114
80 88 114
80 88 114
80 88 114
80 88 114
80 88 114
80 88 114
80 88 114
80 88 114
80 88 114
80 88 114
80 88 114
80 88 114
80 88 114
80 88 114
80 88 114
80 88 114
80 88 114
80 88 114
80 88 114
80 88 114
80 88 114
80 88 114
80 88 114
80 88 114
80 88 114
80 88 114
80 88 114
80 88 114
80 88 114
80 88 114
80 88 114
80 88 114
80 88 114
80 88 114
80 88 114
80 88 114
80 88 114
80 88 114
80 88 114
80 88 114
80 88 114
80 88 114
80 88 114
80 88 114
80 88 114
80 88 114
80 88 114
80 88 114
80 88 114
80 88 114
80 88 114
80 88 114
80 88 114
80 88 114
80 88 114
80 88 114
80 88 114
80 88 114
80 88 114
80 88 114
80 88 114
80 88 114
80 88 114
80 88 114
80 88 114
80 88 114
80 88 114
80 88 114
80 88 114
80 88 114
80 88 114
80 88 114
80 88 114
80 88 114
80 88 114
80 88 114
80 88 114
80 88 114
80 88 114
80 88 114
80 88 114
80 88 114
80 88 114
80 88 114
80 88 114
80 88 114
80 88 114
80 88 114
80 88 114
80 88 114
80 88 114
80 88 114
80 88 114
80 88 114
80 88 114
80 88 114
80 88 114
80 88 114
80 88 114
80 88 114
80 88 114
80 88 114
80 88 114
80 88 114
80 88 114
80 88 114
80 88 114
80 88 114
80 88 114
80 88 114
80 88 114
80 88 114
80 88 114
80 88 114
80 88 114
80 88 114
80 88 114
80 88 114
80 88 114
80 88 114
80 88 114
80 88 114
80 88 114
80 88 114
80 88 114
80 88 114
80 88 114
80 88 114
80 88 114
80 88 114
80 88 114
80 88 114
80 88 114
80 88 114
80 88 114
80 88 114
80 88 114
80 88 114
80 88 114
80 88 114
80 88 114
80 88 114
80 88 114
80 88 114
80 88 114
80 88 114
80 88 114
80 88 114
80 88 114
80 88 114
80 88 114
80 88 114
80 88 114
80 88 114
80 88 114
80 88 114
80 88 114
80 88 114
80 88 114
80 88 114
80 88 114
80 88 114
80 88 114
80 88 114
80 88 114
80 88 114
80 88 114
80 88 114
80 88 114
80 88 114
80 88 114
80 88 114
80 88 114
80 88 114
80 88 114
80 88 114
80 88 114
80 88 114
80 88 114
80 88 114
80 88 114
80 88 114
80 88 114
80 88 114
80 88 114
80 88 114
80 88 114
80 88 114
80 88 114
80 88 114
80 88 114
80 88 114
80 88 114
80 88 114
80 88 114
80 88 114
80 88 114
80 88 114
80 88 114
80 88 114
80 88 114
80 88 114
80 88 114
80 88 114
80 88 114
80 88 114
80 88 114
80 88 114
80 88 114
80 88 114
80 88 114
80 88 114
80 88 114
80 88 114
80 88 114
80 88 114
80 88 114
80 88 114
80 88 114
80 88 114
80 88 114
80 88 114
80 88 114
80 88 114
80 88 114
80 88 114
80 88 114
80 88 114
80 88 114
80 88 114
80 88 114
80 88 114
80 88 114
80 88 114
80 88 114
80 88 114
80 88 114
80 88 114
80 88 114
80 88 114
80 88 114
80 88 114
80 88 114
80 88 114
80 88 114
80 88 114
80 88 114
80 88 114
80 88 114
80 88 114
80 88 114
80 88 114
80 88 114
80 88 114
80 88 114
80 88 114
80 88 114
80 88 114
80 88 114
80 88 114
80 88 114
80 88 114
80 88 114
80 88 114
80 88 114
80 88 114
80 88 114
80 88 114
80 88 114
80 88 114
80 88 114
80 88 114
80 88 114
80 88 114
80 88 114
80 88 114
80 88 114
80 88 114
80 88 114
80 88 114
80 88 114
80 88 114
80 88 114
80 88 114
80 88 114
80 88 114
80 88 114
80 88 114
80 88 114
80 88 114
80 88 114
80 88 114
82 88 111
93 84 82
90 78 65
83 73 62
79 70 62
73 65 59
78 69 63
77 69 63
75 67 61
75 67 61
76 68 62
75 67 61
76 68 62
82 73 66
77 70 67
80 82 100
80 88 114
80 88 114
80 88 114
80 88 114
80 88 114
80 88 114
80 88 114
80 88 114
80 88 114
80 88 114
80 88 114
80 88 114
80 88 114
80 88 114
80 88 114
80 88 114
80 88 114
80 88 114
80 88 114
80 88 114
80 88 114
80 88 114
80 88 114
80 88 114
80 88 114
80 88 114
80 88 114
80 88 114
80 88 114
80 88 114
80 88 114
80 88 114
80 88 114
80 88 114
80 88 114
80 88 114
80 88 114
80 88 114
80 88 114
80 88 114
80 88 114
80 88 114
80 88 114
80 88 114
80 88 114
80 88 114
80 88 114
80 88 114
80 88 114
80 88 114
80 88 114
80 88 114
80 88 114
80 88 114
80 88 114
80 88 114
80 88 114
80 88 114
80 88 114
80 88 114
80 88 114
80 88 114
80 88 114
80 88 114
80 88 114
80 88 114
80 88 114
80 88 114
80 88 114
80 88 114
80 88 114
80 88 114
80 88 114
80 88 114
80 88 114
80 88 114
80 88 114
80 88 114
80 88 114
80 88 114
80 88 114
80 88 114
80 88 114
80 88 114
80 88 114
80 88 114
80 88 114
80 88 114
80 88 114
80 88 114
80 88 114
80 88 114
80 88 114
80 88 114
80 88 114
80 88 114
80 88 114
80 88 114
80 88 114
80 88 114
80 88 114
80 88 114
80 88 114
80 88 114
80 88 114
80 88 114
80 88 114
80 88 114
80 88 114
80 88 114
80 88 114
80 88 114
80 88 114
80 88 114
80 88 114
80 88 114
80 88 114
80 88 114
80 88 114
80 88 114
80 88 114
80 88 114
80 88 114
80 88 114
80 88 114
80 88 114
80 88 114
80 88 114
80 88 114
80 88 114
80 88 114
80 88 114
80 88 114
80 88 114
80 88 114
80 88 114
80 88 114
80 88 114
80 88 114
80 88 114
80 88 114
80 88 114
80 88 114
80 88 114
80 88 114
80 88 114
80 88 114
80 88 114
80 88 114
80 88 114
80 88 114
80 88 114
80 88 114
80 88 114
80 88 114
80 88 114
80 88 114
80 88 114
80 88 114
80 88 114
80 88 114
80 88 114
80 88 114
80 88 114
80 88 114
80 88 114
80 88 114
80 88 114
80 88 114
80 88 114
80 88 114
80 88 114
80 88 114
80 88 114
80 88 114
80 88 114
80 88 114
80 88 114
80 88 114
80 88 114
80 88 114
80 88 114
80 88 114
80 88 114
80 88 114
80 88 114
80 88 114
80 88 114
80 88 114
80 88 114
80 88 114
80 88 114
80 88 114
80 88 114
80 88 114
80 88 114
80 88 114
80 88 114
80 88 114
80 88 114
80 88 114
80 88 114
80 88 114
80 88 114
80 88 114
80 88 114
80 88 114
80 88 114
80 88 114
80 88 114
80 88 114
80 88 114
80 88 114
80 88 114
80 88 114
80 88 114
80 88 114
80 88 114
80 88 114
80 88 114
80 88 114
80 88 114
80 88 114
80 88 114
80 88 114
80 88 114
80 88 114
80 88 114
80 88 114
80 88 114
80 88 114
80 88 114
80 88 114
80 88 114
80 88 114
80 88 114
80 88 114
80 88 114
80 88 114
80 88 114
80 88 114
80 88 114
80 88 114
80 88 114
80 88 114
80 88 114
80 88 114
80 88 114
80 88 114
80 88 114
80 88 114
80 88 114
80 88 114
80 88 114
80 88 114
80 88 114
80 88 114
80 88 114
80 88 114
80 88 114
80 88 114
80 88 114
80 88 114
80 88 114
80 88 114
80 88 114
80 88 114
80 88 114
80 88 114
80 88 114
80 88 114
80 88 114
80 88 114
80 88 114
80 88 114
80 88 114
80 88 114
80 88 114
80 88 114
80 88 114
80 88 114
80 88 114
80 88 114
80 88 114
80 88 114
80 88 114
80 88 114
80 88 114
80 88 114
80 88 114
80 88 114
80 88 114
80 88 114
80 88 114
80 88 114
80 88 114
80 88 114
80 88 114
80 88 114
80 88 114
80 88 114
80 88 114
80 88 114
80 88 114
80 88 114
80 88 114
80 88 114
80 88 114
80 88 114
80 88 114
80 88 114
80 88 114
80 88 114
80 88 114
80 88 114
80 88 114
80 88 114
80 88 114
80 88 114
80 88 114
80 88 114
80 88 114
80 88 114
80 88 114
80 88 114
80 88 114
80 88 114
80 88 114
80 88 114
80 88 114
80 88 114
80 88 114
80 88 114
80 88 114
80 88 114
80 88 114
80 88 114
80 88 114
80 88 114
80 88 114
80 88 114
80 88 114
80 88 114
80 88 114
80 88 114
80 88 114
80 88 114
80 88 114
80 88 114
80 88 114
80 88 114
80 88 114
80 88 114
80 88 114
80 88 114
80 88 114
80 88 114
80 88 114
80 88 114
80 88 114
80 88 114
80 88 114
80 88 114
80 88 114
80 88 114
80 88 114
80 88 114
80 88 114
80 88 114
80 88 114
80 88 114
80 88 114
80 88 114
80 88 114
80 88 114
80 88 114
80 88 114
80 88 114
80 88 114
80 88 114
80 88 114
80 88 114
80 88 114
83 88 111
95 84 77
90 78 65
85 74 64
80 71 63
78 69 63
76 68 62
76 68 62
75 67 61
73 65 59
79 70 64
74 66 60
77 69 63
79 70 64
76 68 62
77 69 63
73 66 60
79 81 96
80 88 114
80 88 114
80 88 114
80 88 114
80 88 114
80 88 114
80 88 114
80 88 114
80 88 114
80 88 114
80 88 114
80 88 114
80 88 114
80 88 114
80 88 114
80 88 114
80 88 114
80 88 114
80 88 114
80 88 114
80 88 114
80 88 114
80 88 114
80 88 114
80 88 114
80 88 114
80 88 114
80 88 114
80 88 114
80 88 114
80 88 114
80 88 114
80 88 114
80 88 114
80 88 114
80 88 114
80 88 114
80 88 114
80 88 114
80 88 114
80 88 114
80 88 114
80 88 114
80 88 114
80 88 114
80 88 114
80 88 114
80 88 114
80 88 114
80 88 114
80 88 114
80 88 114
80 88 114
80 88 114
80 88 114
80 88 114
80 88 114
80 88 114
80 88 114
80 88 114
80 88 114
80 88 114
80 88 114
80 88 114
80 88 114
80 88 114
80 88 114
80 88 114
80 88 114
80 88 114
80 88 114
80 88 114
80 88 114
80 88 114
80 88 114
80 88 114
80 88 114
80 88 114
80 88 114
80 88 114
80 88 114
80 88 114
80 88 114
80 88 114
80 88 114
80 88 114
80 88 114
80 88 114
80 88 114
80 88 114
80 88 114
80 88 114
80 88 114
80 88 114
80 88 114
80 88 114
80 88 114
80 88 114
80 88 114
80 88 114
80 88 114
80 88 114
80 88 114
80 88 114
80 88 114
80 88 114
80 88 114
80 88 114
80 88 114
80 88 114
80 88 114
80 88 114
80 88 114
80 88 114
80 88 114
80 88 114
80 88 114
80 88 114
80 88 114
80 88 114
80 88 114
80 88 114
80 88 114
80 88 114
80 88 114
80 88 114
80 88 114
80 88 114
80 88 114
80 88 114
80 88 114
80 88 114
80 88 114
80 88 114
80 88 114
80 88 114
80 88 114
80 88 114
80 88 114
80 88 114
80 88 114
80 88 114
80 88 114
80 88 114
80 88 114
80 88 114
80 88 114
80 88 114
80 88 114
80 88 114
80 88 114
80 88 114
80 88 114
80 88 114
80 88 114
80 88 114
80 88 114
80 88 114
80 88 114
80 88 114
80 88 114
80 88 114
80 88 114
80 88 114
80 88 114
80 88 114
80 88 114
80 88 114
80 88 114
80 88 114
80 88 114
80 88 114
80 88 114
80 88 114
80 88 114
80 88 114
80 88 114
80 88 114
80 88 114
80 88 114
80 88 114
80 88 114
80 88 114
80 88 114
80 88 114
80 88 114
80 88 114
80 88 114
80 88 114
80 88 114
80 88 114
80 88 114
80 88 114
80 88 114
80 88 114
80 88 114
80 88 114
80 88 114
80 88 114
80 88 114
80 88 114
80 88 114
80 88 114
80 88 114
80 88 114
80 88 114
80 88 114
80 88 114
80 88 114
80 88 114
80 88 114
80 88 114
80 88 114
80 88 114
80 88 114
80 88 114
80 88 114
80 88 114
80 88 114
80 88 114
80 88 114
80 88 114
80 88 114
80 88 114
80 88 114
80 88 114
80 88 114
80 88 114
80 88 114
80 88 114
80 88 114
80 88 114
80 88 114
80 88 114
80 88 114
80 88 114
80 88 114
80 88 114
80 88 114
80 88 114
80 88 114
80 88 114
80 88 114
80 88 114
80 88 114
80 88 114
80 88 114
80 88 114
80 88 114
80 88 114
80 88 114
80 88 114
80 88 114
80 88 114
80 88 114
80 88 114
80 88 114
80 88 114
80 88 114
80 88 114
80 88 114
80 88 114
80 88 114
80 88 114
80 88 114
80 88 114
80 88 114
80 88 114
80 88 114
80 88 114
80 88 114
80 88 114
80 88 114
80 88 114
80 88 114
80 88 114
80 88 114
80 88 114
80 88 114
80 88 114
80 88 114
80 88 114
80 88 114
80 88 114
80 88 114
80 88 114
80 88 114
80 88 114
80 88 114
80 88 114
80 88 114
80 88 114
80 88 114
80 88 114
80 88 114
80 88 114
80 88 114
80 88 114
80 88 114
80 88 114
80 88 114
80 88 114
80 88 114
80 88 114
80 88 114
80 88 114
80 88 114
80 88 114
80 88 114
80 88 114
80 88 114
80 88 114
80 88 114
80 88 114
80 88 114
80 88 114
80 88 114
80 88 114
80 88 114
80 88 114
80 88 114
80 88 114
80 88 114
80 88 114
80 88 114
80 88 114
80 88 114
80 88 114
80 88 114
80 88 114
80 88 114
80 88 114
80 88 114
80 88 114
80 88 114
80 88 114
80 88 114
80 88 114
80 88 114
80 88 114
80 88 114
80 88 114
80 88 114
80 88 114
80 88 114
80 88 114
80 88 114
80 88 114
80 88 114
80 88 114
80 88 114
80 88 114
80 88 114
80 88 114
80 88 114
80 88 114
80 88 114
80 88 114
80 88 114
80 88 114
80 88 114
80 88 114
80 88 114
80 88 114
80 88 114
80 88 114
80 88 114
80 88 114
80 88 114
80 88 114
80 88 114
80 88 114
80 88 114
80 88 114
80 88 114
80 88 114
80 88 114
80 88 114
80 88 114
80 88 114
80 88 114
81 88 113
94 85 81
93 80 66
85 74 64
81 71 63
77 69 62
76 68 62
79 71 65
77 69 63
76 68 62
73 65 59
77 69 63
74 66 60
80 71 65
79 70 64
77 69 63
77 69 63
79 70 64
78 69 64
80 83 102
80 88 114
80 88 114
80 88 114
80 88 114
80 88 114
80 88 114
80 88 114
80 88 114
80 88 114
80 88 114
80 88 114
80 88 114
80 88 114
80 88 114
80 88 114
80 88 114
80 88 114
80 88 114
80 88 114
80 88 114
80 88 114
80 88 114
80 88 114
80 88 114
80 88 114
80 88 114
80 88 114
80 88 114
80 88 114
80 88 114
80 88 114
80 88 114
80 88 114
80 88 114
80 88 114
80 88 114
80 88 114
80 88 114
80 88 114
80 88 114
80 88 114
80 88 114
80 88 114
80 88 114
80 88 114
80 88 114
80 88 114
80 88 114
80 88 114
80 88 114
80 88 114
80 88 114
80 88 114
80 88 114
80 88 114
80 88 114
80 88 114
80 88 114
80 88 114
80 88 114
80 88 114
80 88 114
80 88 114
80 88 114
80 88 114
80 88 114
80 88 114
80 88 114
80 88 114
80 88 114
80 88 114
80 88 114
80 88 114
80 88 114
80 88 114
80 88 114
80 88 114
80 88 114
80 88 114
80 88 114
80 88 114
80 88 114
80 88 114
80 88 114
80 88 114
80 88 114
80 88 114
80 88 114
80 88 114
80 88 114
80 88 114
80 88 114
80 88 114
80 88 114
80 88 114
80 88 114
80 88 114
80 88 114
80 88 114
80 88 114
80 88 114
80 88 114
80 88 114
80 88 114
80 88 114
80 88 114
80 88 114
80 88 114
80 88 114
80 88 114
80 88 114
80 88 114
80 88 114
80 88 114
80 88 114
80 88 114
80 88 114
80 88 114
80 88 114
80 88 114
80 88 114
80 88 114
80 88 114
80 88 114
80 88 114
80 88 114
80 88 114
80 88 114
80 88 114
80 88 114
80 88 114
80 88 114
80 88 114
80 88 114
80 88 114
80 88 114
80 88 114
80 88 114
80 88 114
80 88 114
80 88 114
80 88 114
80 88 114
80 88 114
80 88 114
80 88 114
80 88 114
80 88 114
80 88 114
80 88 114
80 88 114
80 88 114
80 88 114
80 88 114
80 88 114
80 88 114
80 88 114
80 88 114
80 88 114
80 88 114
80 88 114
80 88 114
80 88 114
80 88 114
80 88 114
80 88 114
80 88 114
80 88 114
80 88 114
80 88 114
80 88 114
80 88 114
80 88 114
80 88 114
80 88 114
80 88 114
80 88 114
80 88 114
80 88 114
80 88 114
80 88 114
80 88 114
80 88 114
80 88 114
80 88 114
80 88 114
80 88 114
80 88 114
80 88 114
80 88 114
80 88 114
80 88 114
80 88 114
80 88 114
80 88 114
80 88 114
80 88 114
80 88 114
80 88 114
80 88 114
80 88 114
80 88 114
80 88 114
80 88 114
80 88 114
80 88 114
80 88 114
80 88 114
80 88 114
80 88 114
80 88 114
80 88 114
80 88 114
80 88 114
80 88 114
80 88 114
80 88 114
80 88 114
80 88 114
80 88 114
80 88 114
80 88 114
80 88 114
80 88 114
80 88 114
80 88 114
80 88 114
80 88 114
80 88 114
80 88 114
80 88 114
80 88 114
80 88 114
80 88 114
80 88 114
80 88 114
80 88 114
80 88 114
80 88 114
80 88 114
80 88 114
80 88 114
80 88 114
80 88 114
80 88 114
80 88 114
80 88 114
80 88 114
80 88 114
80 88 114
80 88 114
80 88 114
80 88 114
80 88 114
80 88 114
80 88 114
80 88 114
80 88 114
80 88 114
80 88 114
80 88 114
80 88 114
80 88 114
80 88 114
80 88 114
80 88 114
80 88 114
80 88 114
80 88 114
80 88 114
80 88 114
80 88 114
80 88 114
80 88 114
80 88 114
80 88 114
80 88 114
80 88 114
80 88 114
80 88 114
80 88 114
80 88 114
80 88 114
80 88 114
80 88 114
80 88 114
80 88 114
80 88 114
80 88 114
80 88 114
80 88 114
80 88 114
80 88 114
80 88 114
80 88 114
80 88 114
80 88 114
80 88 114
80 88 114
80 88 114
80 88 114
80 88 114
80 88 114
80 88 114
80 88 114
80 88 114
80 88 114
80 88 114
80 88 114
80 88 114
80 88 114
80 88 114
80 88 114
80 88 114
80 88 114
80 88 114
80 88 114
80 88 114
80 88 114
80 88 114
80 88 114
80 88 114
80 88 114
80 88 114
80 88 114
80 88 114
80 88 114
80 88 114
80 88 114
80 88 114
80 88 114
80 88 114
80 88 114
80 88 114
80 88 114
80 88 114
80 88 114
80 88 114
80 88 114
80 88 114
80 88 114
80 88 114
80 88 114
80 88 114
80 88 114
80 88 114
80 88 114
80 88 114
80 88 114
80 88 114
80 88 114
80 88 114
80 88 114
80 88 114
80 88 114
80 88 114
80 88 114
80 88 114
80 88 114
80 88 114
80 88 114
80 88 114
80 88 114
80 88 114
80 88 114
80 88 114
80 88 114
80 88 114
80 88 114
80 88 114
80 88 114
80 88 114
80 88 114
80 88 114
80 88 114
80 88 114
80 88 114
80 88 114
80 88 114
80 88 114
91 87 95
93 79 64
88 76 65
84 74 65
80 71 64
77 68 62
76 68 62
77 69 63
76 68 62
76 68 62
74 66 61
75 67 61
74 66 60
71 64 58
77 69 63
79 70 64
73 66 60
78 70 64
79 71 64
76 70 68
80 87 111
80 88 114
80 88 114
80 88 114
80 88 114
80 88 114
80 88 114
80 88 114
80 88 114
80 88 114
80 88 114
80 88 114
80 88 114
80 88 114
80 88 114
80 88 114
80 88 114
80 88 114
80 88 114
80 88 114
80 88 114
80 88 114
80 88 114
80 88 114
80 88 114
80 88 114
80 88 114
80 88 114
80 88 114
80 88 114
80 88 114
80 88 114
80 88 114
80 88 114
80 88 114
80 88 114
80 88 114
80 88 114
80 88 114
80 88 114
80 88 114
80 88 114
80 88 114
80 88 114
80 88 114
80 88 114
80 88 114
80 88 114
80 88 114
80 88 114
80 88 114
80 88 114
80 88 114
80 88 114
80 88 114
80 88 114
80 88 114
80 88 114
80 88 114
80 88 114
80 88 114
80 88 114
80 88 114
80 88 114
80 88 114
80 88 114
80 88 114
80 88 114
80 88 114
80 88 114
80 88 114
80 88 114
80 88 114
80 88 114
80 88 114
80 88 114
80 88 114
80 88 114
80 88 114
80 88 114
80 88 114
80 88 114
80 88 114
80 88 114
80 88 114
80 88 114
80 88 114
80 88 114
80 88 114
80 88 114
80 88 114
80 88 114
80 88 114
80 88 114
80 88 114
80 88 114
80 88 114
80 88 114
80 88 114
80 88 114
80 88 114
80 88 114
80 88 114
80 88 114
80 88 114
80 88 114
80 88 114
80 88 114
80 88 114
80 88 114
80 88 114
80 88 114
80 88 114
80 88 114
80 88 114
80 88 114
80 88 114
80 88 114
80 88 114
80 88 114
80 88 114
80 88 114
80 88 114
80 88 114
80 88 114
80 88 114
80 88 114
80 88 114
80 88 114
80 88 114
80 88 114
80 88 114
80 88 114
80 88 114
80 88 114
80 88 114
80 88 114
80 88 114
80 88 114
80 88 114
80 88 114
80 88 114
80 88 114
80 88 114
80 88 114
80 88 114
80 88 114
80 88 114
80 88 114
80 88 114
80 88 114
80 88 114
80 88 114
80 88 114
80 88 114
80 88 114
80 88 114
80 88 114
80 88 114
80 88 114
80 88 114
80 88 114
80 88 114
80 88 114
80 88 114
80 88 114
80 88 114
80 88 114
80 88 114
80 88 114
80 88 114
80 88 114
80 88 114
80 88 114
80 88 114
80 88 114
80 88 114
80 88 114
80 88 114
80 88 114
80 88 114
80 88 114
80 88 114
80 88 114
80 88 114
80 88 114
80 88 114
80 88 114
80 88 114
80 88 114
80 88 114
80 88 114
80 88 114
80 88 114
80 88 114
80 88 114
80 88 114
80 88 114
80 88 114
80 88 114
80 88 114
80 88 114
80 88 114
80 88 114
80 88 114
80 88 114
80 88 114
80 88 114
80 88 114
80 88 114
80 88 114
80 88 114
80 88 114
80 88 114
80 88 114
80 88 114
80 88 114
80 88 114
80 88 114
80 88 114
80 88 114
80 88 114
80 88 114
80 88 114
80 88 114
80 88 114
80 88 114
80 88 114
80 88 114
80 88 114
80 88 114
80 88 114
80 88 114
80 88 114
80 88 114
80 88 114
80 88 114
80 88 114
80 88 114
80 88 114
80 88 114
80 88 114
80 88 114
80 88 114
80 88 114
80 88 114
80 88 114
80 88 114
80 88 114
80 88 114
80 88 114
80 88 114
80 88 114
80 88 114
80 88 114
80 88 114
80 88 114
80 88 114
80 88 114
80 88 114
80 88 114
80 88 114
80 88 114
80 88 114
80 88 114
80 88 114
80 88 114
80 88 114
80 88 114
80 88 114
80 88 114
80 88 114
80 88 114
80 88 114
80 88 114
80 88 114
80 88 114
80 88 114
80 88 114
80 88 114
80 88 114
80 88 114
80 88 114
80 88 114
80 88 114
80 88 114
80 88 114
80 88 114
80 88 114
80 88 114
80 88 114
80 88 114
80 88 114
80 88 114
80 88 114
80 88 114
80 88 114
80 88 114
80 88 114
80 88 114
80 88 114
80 88 114
80 88 114
80 88 114
80 88 114
80 88 114
80 88 114
80 88 114
80 88 114
80 88 114
80 88 114
80 88 114
80 88 114
80 88 114
80 88 114
80 88 114
80 88 114
80 88 114
80 88 114
80 88 114
80 88 114
80 88 114
80 88 114
80 88 114
80 88 114
80 88 114
80 88 114
80 88 114
80 88 114
80 88 114
80 88 114
80 88 114
80 88 114
80 88 114
80 88 114
80 88 114
80 88 114
80 88 114
80 88 114
80 88 114
80 88 114
80 88 114
80 88 114
80 88 114
80 88 114
80 88 114
80 88 114
80 88 114
80 88 114
80 88 114
80 88 114
80 88 114
80 88 114
80 88 114
80 88 114
80 88 114
80 88 114
80 88 114
80 88 114
80 88 114
80 88 114
80 88 114
80 88 114
80 88 114
80 88 114
80 88 114
80 88 114
80 88 114
80 88 114
80 88 114
80 88 114
80 88 114
80 88 114
80 88 114
80 88 114
80 88 114
80 88 114
80 88 114
80 88 114
82 88 112
96 83 70
90 78 65
85 74 64
78 69 61
76 67 61
76 68 62
75 67 61
80 72 66
75 67 61
77 68 62
76 68 62
77 68 62
79 71 65
75 67 61
76 68 62
76 68 62
75 67 61
77 69 63
79 71 65
79 71 64
77 77 89
80 88 114
80 88 114
80 88 114
80 88 114
80 88 114
80 88 114
80 88 114
80 88 114
80 88 114
80 88 114
80 88 114
80 88 114
80 88 114
80 88 114
80 88 114
80 88 114
80 88 114
80 88 114
80 88 114
80 88 114
80 88 114
80 88 114
80 88 114
80 88 114
80 88 114
80 88 114
80 88 114
80 88 114
80 88 114
80 88 114
80 88 114
80 88 114
80 88 114
80 88 114
80 88 114
80 88 114
80 88 114
80 88 114
80 88 114
80 88 114
80 88 114
80 88 114
80 88 114
80 88 114
80 88 114
80 88 114
80 88 114
80 88 114
80 88 114
80 88 114
80 88 114
80 88 114
80 88 114
80 88 114
80 88 114
80 88 114
80 88 114
80 88 114
80 88 114
80 88 114
80 88 114
80 88 114
80 88 114
80 88 114
80 88 114
80 88 114
80 88 114
80 88 114
80 88 114
80 88 114
80 88 114
80 88 114
80 88 114
80 88 114
80 88 114
80 88 114
80 88 114
80 88 114
80 88 114
80 88 114
80 88 114
80 88 114
80 88 114
80 88 114
80 88 114
80 88 114
80 88 114
80 88 114
80 88 114
80 88 114
80 88 114
80 88 114
80 88 114
80 88 114
80 88 114
80 88 114
80 88 114
80 88 114
80 88 114
80 88 114
80 88 114
80 88 114
80 88 114
80 88 114
80 88 114
80 88 114
80 88 114
80 88 114
80 88 114
80 88 114
80 88 114
80 88 114
80 88 114
80 88 114
80 88 114
80 88 114
80 88 114
80 88 114
80 88 114
80 88 114
80 88 114
80 88 114
80 88 114
80 88 114
80 88 114
80 88 114
80 88 114
80 88 114
80 88 114
80 88 114
80 88 114
80 88 114
80 88 114
80 88 114
80 88 114
80 88 114
80 88 114
80 88 114
80 88 114
80 88 114
80 88 114
80 88 114
80 88 114
80 88 114
80 88 114
80 88 114
80 88 114
80 88 114
80 88 114
80 88 114
80 88 114
80 88 114
80 88 114
80 88 114
80 88 114
80 88 114
80 88 114
80 88 114
80 88 114
80 88 114
80 88 114
80 88 114
80 88 114
80 88 114
80 88 114
80 88 114
80 88 114
80 88 114
80 88 114
80 88 114
80 88 114
80 88 114
80 88 114
80 88 114
80 88 114
80 88 114
80 88 114
80 88 114
80 88 114
80 88 114
80 88 114
80 88 114
80 88 114
80 88 114
80 88 114
80 88 114
80 88 114
80 88 114
80 88 114
80 88 114
80 88 114
80 88 114
80 88 114
80 88 114
80 88 114
80 88 114
80 88 114
80 88 114
80 88 114
80 88 114
80 88 114
80 88 114
80 88 114
80 88 114
80 88 114
80 88 114
80 88 114
80 88 114
80 88 114
80 88 114
80 88 114
80 88 114
80 88 114
80 88 114
80 88 114
80 88 114
80 88 114
80 88 114
80 88 114
80 88 114
80 88 114
80 88 114
80 88 114
80 88 114
80 88 114
80 88 114
80 88 114
80 88 114
80 88 114
80 88 114
80 88 114
80 88 114
80 88 114
80 88 114
80 88 114
80 88 114
80 88 114
80 88 114
80 88 114
80 88 114
80 88 114
80 88 114
80 88 114
80 88 114
80 88 114
80 88 114
80 88 114
80 88 114
80 88 114
80 88 114
80 88 114
80 88 114
80 88 114
80 88 114
80 88 114
80 88 114
80 88 114
80 88 114
80 88 114
80 88 114
80 88 114
80 88 114
80 88 114
80 88 114
80 88 114
80 88 114
80 88 114
80 88 114
80 88 114
80 88 114
80 88 114
80 88 114
80 88 114
80 88 114
80 88 114
80 88 114
80 88 114
80 88 114
80 88 114
80 88 114
80 88 114
80 88 114
80 88 114
80 88 114
80 88 114
80 88 114
80 88 114
80 88 114
80 88 114
80 88 114
80 88 114
80 88 114
80 88 114
80 88 114
80 88 114
80 88 114
80 88 114
80 88 114
80 88 114
80 88 114
80 88 114
80 88 114
80 88 114
80 88 114
80 88 114
80 88 114
80 88 114
80 88 114
80 88 114
80 88 114
80 88 114
80 88 114
80 88 114
80 88 114
80 88 114
80 88 114
80 88 114
80 88 114
80 88 114
80 88 114
80 88 114
80 88 114
80 88 114
80 88 114
80 88 114
80 88 114
80 88 114
80 88 114
80 88 114
80 88 114
80 88 114
80 88 114
80 88 114
80 88 114
80 88 114
80 88 114
80 88 114
80 88 114
80 88 114
80 88 114
80 88 114
80 88 114
80 88 114
80 88 114
80 88 114
80 88 114
80 88 114
80 88 114
80 88 114
80 88 114
80 88 114
80 88 114
80 88 114
80 88 114
80 88 114
80 88 114
80 88 114
80 88 114
80 88 114
80 88 114
80 88 114
80 88 114
80 88 114
80 88 114
80 88 114
80 88 114
80 88 114
80 88 114
80 88 114
80 88 114
80 88 114
80 88 114
80 88 114
80 88 114
80 88 114
80 88 114
80 88 114
80 88 114
89 87 97
97 84 71
87 75 64
82 72 64
77 68 62
73 65 60
77 69 63
77 69 63
79 70 64
76 68 62
77 69 63
75 67 61
77 69 63
79 70 64
75 67 61
77 68 62
79 71 65
79 70 64
73 65 59
76 68 61
76 68 62
74 67 64
81 88 113
80 88 114
80 88 114
80 88 114
80 88 114
80 88 114
80 88 114
80 88 114
80 88 114
80 88 114
80 88 114
80 88 114
80 88 114
80 88 114
80 88 114
80 88 114
80 88 114
80 88 114
80 88 114
80 88 114
80 88 114
80 88 114
80 88 114
80 88 114
80 88 114
80 88 114
80 88 114
80 88 114
80 88 114
80 88 114
80 88 114
80 88 114
80 88 114
80 88 114
80 88 114
80 88 114
80 88 114
80 88 114
80 88 114
80 88 114
80 88 114
80 88 114
80 88 114
80 88 114
80 88 114
80 88 114
80 88 114
80 88 114
80 88 114
80 88 114
80 88 114
80 88 114
80 88 114
80 88 114
80 88 114
80 88 114
80 88 114
80 88 114
80 88 114
80 88 114
80 88 114
80 88 114
80 88 114
80 88 114
80 88 114
80 88 114
80 88 114
80 88 114
80 88 114
80 88 114
80 88 114
80 88 114
80 88 114
80 88 114
80 88 114
80 88 114
80 88 114
80 88 114
80 88 114
80 88 114
80 88 114
80 88 114
80 88 114
80 88 114
80 88 114
80 88 114
80 88 114
80 88 114
80 88 114
80 88 114
80 88 114
80 88 114
80 88 114
80 88 114
80 88 114
80 88 114
80 88 114
80 88 114
80 88 114
80 88 114
80 88 114
80 88 114
80 88 114
80 88 114
80 88 114
80 88 114
80 88 114
80 88 114
80 88 114
80 88 114
80 88 114
80 88 114
80 88 114
80 88 114
80 88 114
80 88 114
80 88 114
80 88 114
80 88 114
80 88 114
80 88 114
80 88 114
80 88 114
80 88 114
80 88 114
80 88 114
80 88 114
80 88 114
80 88 114
80 88 114
80 88 114
80 88 114
80 88 114
80 88 114
80 88 114
80 88 114
80 88 114
80 88 114
80 88 114
80 88 114
80 88 114
80 88 114
80 88 114
80 88 114
80 88 114
80 88 114
80 88 114
80 88 114
80 88 114
80 88 114
80 88 114
80 88 114
80 88 114
80 88 114
80 88 114
80 88 114
80 88 114
80 88 114
80 88 114
80 88 114
80 88 114
80 88 114
80 88 114
80 88 114
80 88 114
80 88 114
80 88 114
80 88 114
80 88 114
80 88 114
80 88 114
80 88 114
80 88 114
80 88 114
80 88 114
80 88 114
80 88 114
80 88 114
80 88 114
80 88 114
80 88 114
80 88 114
80 88 114
80 88 114
80 88 114
80 88 114
80 88 114
80 88 114
80 88 114
80 88 114
80 88 114
80 88 114
80 88 114
80 88 114
80 88 114
80 88 114
80 88 114
80 88 114
80 88 114
80 88 114
80 88 114
80 88 114
80 88 114
80 88 114
80 88 114
80 88 114
80 88 114
80 88 114
80 88 114
80 88 114
80 88 114
80 88 114
80 88 114
80 88 114
80 88 114
80 88 114
80 88 114
80 88 114
80 88 114
80 88 114
80 88 114
80 88 114
80 88 114
80 88 114
80 88 114
80 88 114
80 88 114
80 88 114
80 88 114
80 88 114
80 88 114
80 88 114
80 88 114
80 88 114
80 88 114
80 88 114
80 88 114
80 88 114
80 88 114
80 88 114
80 88 114
80 88 114
80 88 114
80 88 114
80 88 114
80 88 114
80 88 114
80 88 114
80 88 114
80 88 114
80 88 114
80 88 114
80 88 114
80 88 114
80 88 114
80 88 114
80 88 114
80 88 114
80 88 114
80 88 114
80 88 114
80 88 114
80 88 114
80 88 114
80 88 114
80 88 114
80 88 114
80 88 114
80 88 114
80 88 114
80 88 114
80 88 114
80 88 114
80 88 114
80 88 114
80 88 114
80 88 114
80 88 114
80 88 114
80 88 114
80 88 114
80 88 114
80 88 114
80 88 114
80 88 114
80 88 114
80 88 114
80 88 114
80 88 114
80 88 114
80 88 114
80 88 114
80 88 114
80 88 114
80 88 114
80 88 114
80 88 114
80 88 114
80 88 114
80 88 114
80 88 114
80 88 114
80 88 114
80 88 114
80 88 114
80 88 114
80 88 114
80 88 114
80 88 114
80 88 114
80 88 114
80 88 114
80 88 114
80 88 114
80 88 114
80 88 114
80 88 114
80 88 114
80 88 114
80 88 114
80 88 114
80 88 114
80 88 114
80 88 114
80 88 114
80 88 114
80 88 114
80 88 114
80 88 114
80 88 114
80 88 114
80 88 114
80 88 114
80 88 114
80 88 114
80 88 114
80 88 114
80 88 114
80 88 114
80 88 114
80 88 114
80 88 114
80 88 114
80 88 114
80 88 114
80 88 114
80 88 114
80 88 114
80 88 114
80 88 114
80 88 114
80 88 114
80 88 114
80 88 114
80 88 114
80 88 114
80 88 114
80 88 114
80 88 114
80 88 114
80 88 114
80 88 114
80 88 114
80 88 114
80 88 114
80 88 114
80 88 114
80 88 114
80 88 114
80 88 114
80 88 114
80 88 114
80 88 114
80 88 114
80 88 114
80 88 114
80 88 114
80 88 114
94 85 81
90 78 65
86 75 65
80 71 64
76 68 62
75 67 61
75 67 61
74 66 61
78 70 63
77 68 62
75 67 61
75 67 61
73 65 59
77 69 63
77 69 63
74 66 60
76 68 62
79 70 64
76 67 61
70 62 57
78 69 63
74 66 60
78 82 100
80 88 114
80 88 114
80 88 114
80 88 114
80 88 114
80 88 114
80 88 114
80 88 114
80 88 114
80 88 114
80 88 114
80 88 114
80 88 114
80 88 114
80 88 114
80 88 114
80 88 114
80 88 114
80 88 114
80 88 114
80 88 114
80 88 114
80 88 114
80 88 114
80 88 114
80 88 114
80 88 114
80 88 114
80 88 114
80 88 114
80 88 114
80 88 114
80 88 114
80 88 114
80 88 114
80 88 114
80 88 114
80 88 114
80 88 114
80 88 114
80 88 114
80 88 114
80 88 114
80 88 114
80 88 114
80 88 114
80 88 114
80 88 114
80 88 114
80 88 114
80 88 114
80 88 114
80 88 114
80 88 114
80 88 114
80 88 114
80 88 114
80 88 114
80 88 114
80 88 114
80 88 114
80 88 114
80 88 114
80 88 114
80 88 114
80 88 114
80 88 114
80 88 114
80 88 114
80 88 114
80 88 114
80 88 114
80 88 114
80 88 114
80 88 114
80 88 114
80 88 114
80 88 114
80 88 114
80 88 114
80 88 114
80 88 114
80 88 114
80 88 114
80 88 114
80 88 114
80 88 114
80 88 114
80 88 114
80 88 114
80 88 114
80 88 114
80 88 114
80 88 114
80 88 114
80 88 114
80 88 114
80 88 114
80 88 114
80 88 114
80 88 114
80 88 114
80 88 114
80 88 114
80 88 114
80 88 114
80 88 114
80 88 114
80 88 114
80 88 114
80 88 114
80 88 114
80 88 114
80 88 114
80 88 114
80 88 114
80 88 114
80 88 114
80 88 114
80 88 114
80 88 114
80 88 114
80 88 114
80 88 114
80 88 114
80 88 114
80 88 114
80 88 114
80 88 114
80 88 114
80 88 114
80 88 114
80 88 114
80 88 114
80 88 114
80 88 114
80 88 114
80 88 114
80 88 114
80 88 114
80 88 114
80 88 114
80 88 114
80 88 114
80 88 114
80 88 114
80 88 114
80 88 114
80 88 114
80 88 114
80 88 114
80 88 114
80 88 114
80 88 114
80 88 114
80 88 114
80 88 114
80 88 114
80 88 114
80 88 114
80 88 114
80 88 114
80 88 114
80 88 114
80 88 114
80 88 114
80 88 114
80 88 114
80 88 114
80 88 114
80 88 114
80 88 114
80 88 114
80 88 114
80 88 114
80 88 114
80 88 114
80 88 114
80 88 114
80 88 114
80 88 114
80 88 114
80 88 114
80 88 114
80 88 114
80 88 114
80 88 114
80 88 114
80 88 114
80 88 114
80 88 114
80 88 114
80 88 114
80 88 114
80 88 114
80 88 114
80 88 114
80 88 114
80 88 114
80 88 114
80 88 114
80 88 114
80 88 114
80 88 114
80 88 114
80 88 114
80 88 114
80 88 114
80 88 114
80 88 114
80 88 114
80 88 114
80 88 114
80 88 114
80 88 114
80 88 114
80 88 114
80 88 114
80 88 114
80 88 114
80 88 114
80 88 114
80 88 114
80 88 114
80 88 114
80 88 114
80 88 114
80 88 114
80 88 114
80 88 114
80 88 114
80 88 114
80 88 114
80 88 114
80 88 114
80 88 114
80 88 114
80 88 114
80 88 114
80 88 114
80 88 114
80 88 114
80 88 114
80 88 114
80 88 114
80 88 114
80 88 114
80 88 114
80 88 114
80 88 114
80 88 114
80 88 114
80 88 114
80 88 114
80 88 114
80 88 114
80 88 114
80 88 114
80 88 114
80 88 114
80 88 114
80 88 114
80 88 114
80 88 114
80 88 114
80 88 114
80 88 114
80 88 114
80 88 114
80 88 114
80 88 114
80 88 114
80 88 114
80 88 114
80 88 114
80 88 114
80 88 114
80 88 114
80 88 114
80 88 114
80 88 114
80 88 114
80 88 114
80 88 114
80 88 114
80 88 114
80 88 114
80 88 114
80 88 114
80 88 114
80 88 114
80 88 114
80 88 114
80 88 114
80 88 114
80 88 114
80 88 114
80 88 114
80 88 114
80 88 114
80 88 114
80 88 114
80 88 114
80 88 114
80 88 114
80 88 114
80 88 114
80 88 114
80 88 114
80 88 114
80 88 114
80 88 114
80 88 114
80 88 114
80 88 114
80 88 114
80 88 114
80 88 114
80 88 114
80 88 114
80 88 114
80 88 114
80 88 114
80 88 114
80 88 114
80 88 114
80 88 114
80 88 114
80 88 114
80 88 114
80 88 114
80 88 114
80 88 114
80 88 114
80 88 114
80 88 114
80 88 114
80 88 114
80 88 114
80 88 114
80 88 114
80 88 114
80 88 114
80 88 114
80 88 114
80 88 114
80 88 114
80 88 114
80 88 114
80 88 114
80 88 114
80 88 114
80 88 114
80 88 114
80 88 114
80 88 114
80 88 114
80 88 114
80 88 114
80 88 114
80 88 114
80 88 114
80 88 114
80 88 114
80 88 114
80 88 114
80 88 114
80 88 114
80 88 114
80 88 114
80 88 114
80 88 114
80 88 114
80 88 114
80 88 114
80 88 114
80 88 114
98 85 72
90 78 66
85 75 66
77 68 62
77 69 63
76 68 62
77 69 63
77 69 63
76 68 62
79 70 64
75 67 61
75 67 61
80 72 65
75 67 61
81 72 65
75 67 61
76 67 61
75 67 61
78 70 64
72 64 58
76 68 62
76 68 62
79 79 91
80 88 114
80 88 114
80 88 114
80 88 114
80 88 114
80 88 114
80 88 114
80 88 114
80 88 114
80 88 114
80 88 114
80 88 114
80 88 114
80 88 114
80 88 114
80 88 114
80 88 114
80 88 114
80 88 114
80 88 114
80 88 114
80 88 114
80 88 114
80 88 114
80 88 114
80 88 114
80 88 114
80 88 114
80 88 114
80 88 114
80 88 114
80 88 114
80 88 114
80 88 114
80 88 114
80 88 114
80 88 114
80 88 114
80 88 114
80 88 114
80 88 114
80 88 114
80 88 114
80 88 114
80 88 114
80 88 114
80 88 114
80 88 114
80 88 114
80 88 114
80 88 114
80 88 114
80 88 114
80 88 114
80 88 114
80 88 114
80 88 114
80 88 114
80 88 114
80 88 114
80 88 114
80 88 114
80 88 114
80 88 114
80 88 114
80 88 114
80 88 114
80 88 114
80 88 114
80 88 114
80 88 114
80 88 114
80 88 114
80 88 114
80 88 114
80 88 114
80 88 114
80 88 114
80 88 114
80 88 114
80 88 114
80 88 114
80 88 114
80 88 114
80 88 114
80 88 114
80 88 114
80 88 114
80 88 114
80 88 114
80 88 114
80 88 114
80 88 114
80 88 114
80 88 114
80 88 114
80 88 114
80 88 114
80 88 114
80 88 114
80 88 114
80 88 114
80 88 114
80 88 114
80 88 114
80 88 114
80 88 114
80 88 114
80 88 114
80 88 114
80 88 114
80 88 114
80 88 114
80 88 114
80 88 114
80 88 114
80 88 114
80 88 114
80 88 114
80 88 114
80 88 114
80 88 114
80 88 114
80 88 114
80 88 114
80 88 114
80 88 114
80 88 114
80 88 114
80 88 114
80 88 114
80 88 114
80 88 114
80 88 114
80 88 114
80 88 114
80 88 114
80 88 114
80 88 114
80 88 114
80 88 114
80 88 114
80 88 114
80 88 114
80 88 114
80 88 114
80 88 114
80 88 114
80 88 114
80 88 114
80 88 114
80 88 114
80 88 114
80 88 114
80 88 114
80 88 114
80 88 114
80 88 114
80 88 114
80 88 114
80 88 114
80 88 114
80 88 114
80 88 114
80 88 114
80 88 114
80 88 114
80 88 114
80 88 114
80 88 114
80 88 114
80 88 114
80 88 114
80 88 114
80 88 114
80 88 114
80 88 114
80 88 114
80 88 114
80 88 114
80 88 114
80 88 114
80 88 114
80 88 114
80 88 114
80 88 114
80 88 114
80 88 114
80 88 114
80 88 114
80 88 114
80 88 114
80 88 114
80 88 114
80 88 114
80 88 114
80 88 114
80 88 114
80 88 114
80 88 114
80 88 114
80 88 114
80 88 114
80 88 114
80 88 114
80 88 114
80 88 114
80 88 114
80 88 114
80 88 114
80 88 114
80 88 114
80 88 114
80 88 114
80 88 114
80 88 114
80 88 114
80 88 114
80 88 114
80 88 114
80 88 114
80 88 114
80 88 114
80 88 114
80 88 114
80 88 114
80 88 114
80 88 114
80 88 114
80 88 114
80 88 114
80 88 114
80 88 114
80 88 114
80 88 114
80 88 114
80 88 114
80 88 114
80 88 114
80 88 114
80 88 114
80 88 114
80 88 114
80 88 114
80 88 114
80 88 114
80 88 114
80 88 114
80 88 114
80 88 114
80 88 114
80 88 114
80 88 114
80 88 114
80 88 114
80 88 114
80 88 114
80 88 114
80 88 114
80 88 114
80 88 114
80 88 114
80 88 114
80 88 114
80 88 114
80 88 114
80 88 114
80 88 114
80 88 114
80 88 114
80 88 114
80 88 114
80 88 114
80 88 114
80 88 114
80 88 114
80 88 114
80 88 114
80 88 114
80 88 114
80 88 114
80 88 114
80 88 114
80 88 114
80 88 114
80 88 114
80 88 114
80 88 114
80 88 114
80 88 114
80 88 114
80 88 114
80 88 114
80 88 114
80 88 114
80 88 114
80 88 114
80 88 114
80 88 114
80 88 114
80 88 114
80 88 114
80 88 114
80 88 114
80 88 114
80 88 114
80 88 114
80 88 114
80 88 114
80 88 114
80 88 114
80 88 114
80 88 114
80 88 114
80 88 114
80 88 114
80 88 114
80 88 114
80 88 114
80 88 114
80 88 114
80 88 114
80 88 114
80 88 114
80 88 114
80 88 114
80 88 114
80 88 114
80 88 114
80 88 114
80 88 114
80 88 114
80 88 114
80 88 114
80 88 114
80 88 114
80 88 114
80 88 114
80 88 114
80 88 114
80 88 114
80 88 114
80 88 114
80 88 114
80 88 114
80 88 114
80 88 114
80 88 114
80 88 114
80 88 114
80 88 114
80 88 114
80 88 114
80 88 114
80 88 114
80 88 114
80 88 114
80 88 114
80 88 114
80 88 114
80 88 114
80 88 114
80 88 114
80 88 114
80 88 114
80 88 114
80 88 114
80 88 114
80 88 114
80 88 114
80 88 114
80 88 114
80 88 114
80 88 114
80 88 114
80 88 114
82 88 112
96 82 68
88 77 66
79 70 62
75 67 61
73 65 60
79 70 64
76 68 62
78 70 64
75 67 61
76 67 61
73 65 59
75 67 61
73 65 59
76 68 62
76 68 62
79 71 64
74 66 60
73 65 59
74 66 60
77 68 62
78 70 63
73 65 59
78 75 84
80 88 114
80 88 114
80 88 114
80 88 114
80 88 114
80 88 114
80 88 114
80 88 114
80 88 114
80 88 114
80 88 114
80 88 114
80 88 114
80 88 114
80 88 114
80 88 114
80 88 114
80 88 114
80 88 114
80 88 114
80 88 114
80 88 114
80 88 114
80 88 114
80 88 114
80 88 114
80 88 114
80 88 114
80 88 114
80 88 114
80 88 114
80 88 114
80 88 114
80 88 114
80 88 114
80 88 114
80 88 114
80 88 114
80 88 114
80 88 114
80 88 114
80 88 114
80 88 114
80 88 114
80 88 114
80 88 114
80 88 114
80 88 114
80 88 114
80 88 114
80 88 114
80 88 114
80 88 114
80 88 114
80 88 114
80 88 114
80 88 114
80 88 114
80 88 114
80 88 114
80 88 114
80 88 114
80 88 114
80 88 114
80 88 114
80 88 114
80 88 114
80 88 114
80 88 114
80 88 114
80 88 114
80 88 114
80 88 114
80 88 114
80 88 114
80 88 114
80 88 114
80 88 114
80 88 114
80 88 114
80 88 114
80 88 114
80 88 114
80 88 114
80 88 114
80 88 114
80 88 114
80 88 114
80 88 114
80 88 114
80 88 114
80 88 114
80 88 114
80 88 114
80 88 114
80 88 114
80 88 114
80 88 114
80 88 114
80 88 114
80 88 114
80 88 114
80 88 114
80 88 114
80 88 114
80 88 114
80 88 114
80 88 114
80 88 114
80 88 114
80 88 114
80 88 114
80 88 114
80 88 114
80 88 114
80 88 114
80 88 114
80 88 114
80 88 114
80 88 114
80 88 114
80 88 114
80 88 114
80 88 114
80 88 114
80 88 114
80 88 114
80 88 114
80 88 114
80 88 114
80 88 114
80 88 114
80 88 114
80 88 114
80 88 114
80 88 114
80 88 114
80 88 114
80 88 114
80 88 114
80 88 114
80 88 114
80 88 114
80 88 114
80 88 114
80 88 114
80 88 114
80 88 114
80 88 114
80 88 114
80 88 114
80 88 114
80 88 114
80 88 114
80 88 114
80 88 114
80 88 114
80 88 114
80 88 114
80 88 114
80 88 114
80 88 114
80 88 114
80 88 114
80 88 114
80 88 114
80 88 114
80 88 114
80 88 114
80 88 114
80 88 114
80 88 114
80 88 114
80 88 114
80 88 114
80 88 114
80 88 114
80 88 114
80 88 114
80 88 114
80 88 114
80 88 114
80 88 114
80 88 114
80 88 114
80 88 114
80 88 114
80 88 114
80 88 114
80 88 114
80 88 114
80 88 114
80 88 114
80 88 114
80 88 114
80 88 114
80 88 114
80 88 114
80 88 114
80 88 114
80 88 114
80 88 114
80 88 114
80 88 114
80 88 114
80 88 114
80 88 114
80 88 114
80 88 114
80 88 114
80 88 114
80 88 114
80 88 114
80 88 114
80 88 114
80 88 114
80 88 114
80 88 114
80 88 114
80 88 114
80 88 114
80 88 114
80 88 114
80 88 114
80 88 114
80 88 114
80 88 114
80 88 114
80 88 114
80 88 114
80 88 114
80 88 114
80 88 114
80 88 114
80 88 114
80 88 114
80 88 114
80 88 114
80 88 114
80 88 114
80 88 114
80 88 114
80 88 114
80 88 114
80 88 114
80 88 114
80 88 114
80 88 114
80 88 114
80 88 114
80 88 114
80 88 114
80 88 114
80 88 114
80 88 114
80 88 114
80 88 114
80 88 114
80 88 114
80 88 114
80 88 114
80 88 114
80 88 114
80 88 114
80 88 114
80 88 114
80 88 114
80 88 114
80 88 114
80 88 114
80 88 114
80 88 114
80 88 114
80 88 114
80 88 114
80 88 114
80 88 114
80 88 114
80 88 114
80 88 114
80 88 114
80 88 114
80 88 114
80 88 114
80 88 114
80 88 114
80 88 114
80 88 114
80 88 114
80 88 114
80 88 114
80 88 114
80 88 114
80 88 114
80 88 114
80 88 114
80 88 114
80 88 114
80 88 114
80 88 114
80 88 114
80 88 114
80 88 114
80 88 114
80 88 114
80 88 114
80 88 114
80 88 114
80 88 114
80 88 114
80 88 114
80 88 114
80 88 114
80 88 114
80 88 114
80 88 114
80 88 114
80 88 114
80 88 114
80 88 114
80 88 114
80 88 114
80 88 114
80 88 114
80 88 114
80 88 114
80 88 114
80 88 114
80 88 114
80 88 114
80 88 114
80 88 114
80 88 114
80 88 114
80 88 114
80 88 114
80 88 114
80 88 114
80 88 114
80 88 114
80 88 114
80 88 114
80 88 114
80 88 114
80 88 114
80 88 114
80 88 114
80 88 114
80 88 114
80 88 114
80 88 114
80 88 114
80 88 114
80 88 114
80 88 114
80 88 114
80 88 114
80 88 114
80 88 114
80 88 114
80 88 114
80 88 114
80 88 114
80 88 114
80 88 114
80 88 114
80 88 114
80 88 114
80 88 114
80 88 114
80 88 114
80 88 114
80 88 114
80 88 114
80 88 114
80 88 114
83 88 111
93 80 65
85 74 64
78 69 61
78 69 63
75 67 61
79 70 64
76 68 62
74 66 60
79 71 64
78 70 63
79 70 64
73 66 60
75 67 61
79 70 64
75 67 61
76 68 62
76 68 62
75 67 61
75 67 61
79 71 65
75 67 61
76 68 62
78 75 81
80 88 114
80 88 114
80 88 114
80 88 114
80 88 114
80 88 114
80 88 114
80 88 114
80 88 114
80 88 114
80 88 114
80 88 114
80 88 114
80 88 114
80 88 114
80 88 114
80 88 114
80 88 114
80 88 114
80 88 114
80 88 114
80 88 114
80 88 114
80 88 114
80 88 114
80 88 114
80 88 114
80 88 114
80 88 114
80 88 114
80 88 114
80 88 114
80 88 114
80 88 114
80 88 114
80 88 114
80 88 114
80 88 114
80 88 114
80 88 114
80 88 114
80 88 114
80 88 114
80 88 114
80 88 114
80 88 114
80 88 114
80 88 114
80 88 114
80 88 114
80 88 114
80 88 114
80 88 114
80 88 114
80 88 114
80 88 114
80 88 114
80 88 114
80 88 114
80 88 114
80 88 114
80 88 114
80 88 114
80 88 114
80 88 114
80 88 114
80 88 114
80 88 114
80 88 114
80 88 114
80 88 114
80 88 114
80 88 114
80 88 114
80 88 114
80 88 114
80 88 114
80 88 114
80 88 114
80 88 114
80 88 114
80 88 114
80 88 114
80 88 114
80 88 114
80 88 114
80 88 114
80 88 114
80 88 114
80 88 114
80 88 114
80 88 114
80 88 114
80 88 114
80 88 114
80 88 114
80 88 114
80 88 114
80 88 114
80 88 114
80 88 114
80 88 114
80 88 114
80 88 114
80 88 114
80 88 114
80 88 114
80 88 114
80 88 114
80 88 114
80 88 114
80 88 114
80 88 114
80 88 114
80 88 114
80 88 114
80 88 114
80 88 114
80 88 114
80 88 114
80 88 114
80 88 114
80 88 114
80 88 114
80 88 114
80 88 114
80 88 114
80 88 114
80 88 114
80 88 114
80 88 114
80 88 114
80 88 114
80 88 114
80 88 114
80 88 114
80 88 114
80 88 114
80 88 114
80 88 114
80 88 114
80 88 114
80 88 114
80 88 114
80 88 114
80 88 114
80 88 114
80 88 114
80 88 114
80 88 114
80 88 114
80 88 114
80 88 114
80 88 114
80 88 114
80 88 114
80 88 114
80 88 114
80 88 114
80 88 114
80 88 114
80 88 114
80 88 114
80 88 114
80 88 114
80 88 114
80 88 114
80 88 114
80 88 114
80 88 114
80 88 114
80 88 114
80 88 114
80 88 114
80 88 114
80 88 114
80 88 114
80 88 114
80 88 114
80 88 114
80 88 114
80 88 114
80 88 114
80 88 114
80 88 114
80 88 114
80 88 114
80 88 114
80 88 114
80 88 114
80 88 114
80 88 114
80 88 114
80 88 114
80 88 114
80 88 114
80 88 114
80 88 114
80 88 114
80 88 114
80 88 114
80 88 114
80 88 114
80 88 114
80 88 114
80 88 114
80 88 114
80 88 114
80 88 114
80 88 114
80 88 114
80 88 114
80 88 114
80 88 114
80 88 114
80 88 114
80 88 114
80 88 114
80 88 114
80 88 114
80 88 114
80 88 114
80 88 114
80 88 114
80 88 114
80 88 114
80 88 114
80 88 114
80 88 114
80 88 114
80 88 114
80 88 114
80 88 114
80 88 114
80 88 114
80 88 114
80 88 114
80 88 114
80 88 114
80 88 114
80 88 114
80 88 114
80 88 114
80 88 114
80 88 114
80 88 114
80 88 114
80 88 114
80 88 114
80 88 114
80 88 114
80 88 114
80 88 114
80 88 114
80 88 114
80 88 114
80 88 114
80 88 114
80 88 114
80 88 114
80 88 114
80 88 114
80 88 114
80 88 114
80 88 114
80 88 114
80 88 114
80 88 114
80 88 114
80 88 114
80 88 114
80 88 114
80 88 114
80 88 114
80 88 114
80 88 114
80 88 114
80 88 114
80 88 114
80 88 114
80 88 114
80 88 114
80 88 114
80 88 114
80 88 114
80 88 114
80 88 114
80 88 114
80 88 114
80 88 114
80 88 114
80 88 114
80 88 114
80 88 114
80 88 114
80 88 114
80 88 114
80 88 114
80 88 114
80 88 114
80 88 114
80 88 114
80 88 114
80 88 114
80 88 114
80 88 114
80 88 114
80 88 114
80 88 114
80 88 114
80 88 114
80 88 114
80 88 114
80 88 114
80 88 114
80 88 114
80 88 114
80 88 114
80 88 114
80 88 114
80 88 114
80 88 114
80 88 114
80 88 114
80 88 114
80 88 114
80 88 114
80 88 114
80 88 114
80 88 114
80 88 114
80 88 114
80 88 114
80 88 114
80 88 114
80 88 114
80 88 114
80 88 114
80 88 114
80 88 114
80 88 114
80 88 114
80 88 114
80 88 114
80 88 114
80 88 114
80 88 114
80 88 114
80 88 114
80 88 114
80 88 114
80 88 114
80 88 114
80 88 114
80 88 114
80 88 114
80 88 114
80 88 114
80 88 114
80 88 114
80 88 114
80 88 114
80 88 114
80 88 114
80 88 114
80 88 114
80 88 114
80 88 114
80 88 114
80 88 114
80 88 114
80 88 114
80 88 114
80 88 114
80 88 114
80 88 114
81 88 113
95 82 69
86 75 65
80 71 64
78 69 63
75 67 61
76 68 62
76 68 62
75 67 61
78 70 64
78 70 63
78 70 64
74 66 60
73 65 59
77 69 62
75 67 61
76 68 62
78 70 64
78 70 63
77 69 63
75 67 61
78 70 64
77 69 63
75 74 82
80 88 114
80 88 114
80 88 114
80 88 114
80 88 114
80 88 114
80 88 114
80 88 114
80 88 114
80 88 114
80 88 114
80 88 114
80 88 114
80 88 114
80 88 114
80 88 114
80 88 114
80 88 114
80 88 114
80 88 114
80 88 114
80 88 114
80 88 114
80 88 114
80 88 114
80 88 114
80 88 114
80 88 114
80 88 114
80 88 114
80 88 114
80 88 114
80 88 114
80 88 114
80 88 114
80 88 114
80 88 114
80 88 114
80 88 114
80 88 114
80 88 114
80 88 114
80 88 114
80 88 114
80 88 114
80 88 114
80 88 114
80 88 114
80 88 114
80 88 114
80 88 114
80 88 114
80 88 114
80 88 114
80 88 114
80 88 114
80 88 114
80 88 114
80 88 114
80 88 114
80 88 114
80 88 114
80 88 114
80 88 114
80 88 114
80 88 114
80 88 114
80 88 114
80 88 114
80 88 114
80 88 114
80 88 114
80 88 114
80 88 114
80 88 114
80 88 114
80 88 114
80 88 114
80 88 114
80 88 114
80 88 114
80 88 114
80 88 114
80 88 114
80 88 114
80 88 114
80 88 114
80 88 114
80 88 114
80 88 114
80 88 114
80 88 114
80 88 114
80 88 114
80 88 114
80 88 114
80 88 114
80 88 114
80 88 114
80 88 114
80 88 114
80 88 114
80 88 114
80 88 114
80 88 114
80 88 114
80 88 114
80 88 114
80 88 114
80 88 114
80 88 114
80 88 114
80 88 114
80 88 114
80 88 114
80 88 114
80 88 114
80 88 114
80 88 114
80 88 114
80 88 114
80 88 114
80 88 114
80 88 114
80 88 114
80 88 114
80 88 114
80 88 114
80 88 114
80 88 114
80 88 114
80 88 114
80 88 114
80 88 114
80 88 114
80 88 114
80 88 114
80 88 114
80 88 114
80 88 114
80 88 114
80 88 114
80 88 114
80 88 114
80 88 114
80 88 114
80 88 114
80 88 114
80 88 114
80 88 114
80 88 114
80 88 114
80 88 114
80 88 114
80 88 114
80 88 114
80 88 114
80 88 114
80 88 114
80 88 114
80 88 114
80 88 114
80 88 114
80 88 114
80 88 114
80 88 114
80 88 114
80 88 114
80 88 114
80 88 114
80 88 114
80 88 114
80 88 114
80 88 114
80 88 114
80 88 114
80 88 114
80 88 114
80 88 114
80 88 114
80 88 114
80 88 114
80 88 114
80 88 114
80 88 114
80 88 114
80 88 114
80 88 114
80 88 114
80 88 114
80 88 114
80 88 114
80 88 114
80 88 114
80 88 114
80 88 114
80 88 114
80 88 114
80 88 114
80 88 114
80 88 114
80 88 114
80 88 114
80 88 114
80 88 114
80 88 114
80 88 114
80 88 114
80 88 114
80 88 114
80 88 114
80 88 114
80 88 114
80 88 114
80 88 114
80 88 114
80 88 114
80 88 114
80 88 114
80 88 114
80 88 114
80 88 114
80 88 114
80 88 114
80 88 114
80 88 114
80 88 114
80 88 114
80 88 114
80 88 114
80 88 114
80 88 114
80 88 114
80 88 114
80 88 114
80 88 114
80 88 114
80 88 114
80 88 114
80 88 114
80 88 114
80 88 114
80 88 114
80 88 114
80 88 114
80 88 114
80 88 114
80 88 114
80 88 114
80 88 114
80 88 114
80 88 114
80 88 114
80 88 114
80 88 114
80 88 114
80 88 114
80 88 114
80 88 114
80 88 114
80 88 114
80 88 114
80 88 114
80 88 114
80 88 114
80 88 114
80 88 114
80 88 114
80 88 114
80 88 114
80 88 114
80 88 114
80 88 114
80 88 114
80 88 114
80 88 114
80 88 114
80 88 114
80 88 114
80 88 114
80 88 114
80 88 114
80 88 114
80 88 114
80 88 114
80 88 114
80 88 114
80 88 114
80 88 114
80 88 114
80 88 114
80 88 114
80 88 114
80 88 114
80 88 114
80 88 114
80 88 114
80 88 114
80 88 114
80 88 114
80 88 114
80 88 114
80 88 114
80 88 114
80 88 114
80 88 114
80 88 114
80 88 114
80 88 114
80 88 114
80 88 114
80 88 114
80 88 114
80 88 114
80 88 114
80 88 114
80 88 114
80 88 114
80 88 114
80 88 114
80 88 114
80 88 114
80 88 114
80 88 114
80 88 114
80 88 114
80 88 114
80 88 114
80 88 114
80 88 114
80 88 114
80 88 114
80 88 114
80 88 114
80 88 114
80 88 114
80 88 114
80 88 114
80 88 114
80 88 114
80 88 114
80 88 114
80 88 114
80 88 114
80 88 114
80 88 114
80 88 114
80 88 114
80 88 114
80 88 114
80 88 114
80 88 114
80 88 114
80 88 114
80 88 114
80 88 114
80 88 114
80 88 114
80 88 114
80 88 114
80 88 114
80 88 114
80 88 114
80 88 114
80 88 114
80 88 114
80 88 114
80 88 114
80 88 114
80 88 114
80 88 114
80 88 114
80 88 114
80 88 114
80 88 114
80 88 114
80 88 114
93 83 75
84 74 65
78 69 62
72 65 59
75 67 61
74 66 60
75 67 61
76 68 62
78 69 63
80 72 65
82 73 66
74 66 60
73 65 59
74 66 60
75 67 61
77 69 63
79 71 65
76 67 61
77 69 63
76 68 62
75 67 61
78 69 63
78 78 91
80 88 114
80 88 114
80 88 114
80 88 114
80 88 114
80 88 114
80 88 114
80 88 114
80 88 114
80 88 114
80 88 114
80 88 114
80 88 114
80 88 114
80 88 114
80 88 114
80 88 114
80 88 114
80 88 114
80 88 114
80 88 114
80 88 114
80 88 114
80 88 114
80 88 114
80 88 114
80 88 114
80 88 114
80 88 114
80 88 114
80 88 114
80 88 114
80 88 114
80 88 114
80 88 114
80 88 114
80 88 114
80 88 114
80 88 114
80 88 114
80 88 114
80 88 114
80 88 114
80 88 114
80 88 114
80 88 114
80 88 114
80 88 114
80 88 114
80 88 114
80 88 114
80 88 114
80 88 114
80 88 114
80 88 114
80 88 114
80 88 114
80 88 114
80 88 114
80 88 114
80 88 114
80 88 114
80 88 114
80 88 114
80 88 114
80 88 114
80 88 114
80 88 114
80 88 114
80 88 114
80 88 114
80 88 114
80 88 114
80 88 114
80 88 114
80 88 114
80 88 114
80 88 114
80 88 114
80 88 114
80 88 114
80 88 114
80 88 114
80 88 114
80 88 114
80 88 114
80 88 114
80 88 114
80 88 114
80 88 114
80 88 114
80 88 114
80 88 114
80 88 114
80 88 114
80 88 114
80 88 114
80 88 114
80 88 114
80 88 114
80 88 114
80 88 114
80 88 114
80 88 114
80 88 114
80 88 114
80 88 114
80 88 114
80 88 114
80 88 114
80 88 114
80 88 114
80 88 114
80 88 114
80 88 114
80 88 114
80 88 114
80 88 114
80 88 114
80 88 114
80 88 114
80 88 114
80 88 114
80 88 114
80 88 114
80 88 114
80 88 114
80 88 114
80 88 114
80 88 114
80 88 114
80 88 114
80 88 114
80 88 114
80 88 114
80 88 114
80 88 114
80 88 114
80 88 114
80 88 114
80 88 114
80 88 114
80 88 114
80 88 114
80 88 114
80 88 114
80 88 114
80 88 114
80 88 114
80 88 114
80 88 114
80 88 114
80 88 114
80 88 114
80 88 114
80 88 114
80 88 114
80 88 114
80 88 114
80 88 114
80 88 114
80 88 114
80 88 114
80 88 114
80 88 114
80 88 114
80 88 114
80 88 114
80 88 114
80 88 114
80 88 114
80 88 114
80 88 114
80 88 114
80 88 114
80 88 114
80 88 114
80 88 114
80 88 114
80 88 114
80 88 114
80 88 114
80 88 114
80 88 114
80 88 114
80 88 114
80 88 114
80 88 114
80 88 114
80 88 114
80 88 114
80 88 114
80 88 114
80 88 114
80 88 114
80 88 114
80 88 114
80 88 114
80 88 114
80 88 114
80 88 114
80 88 114
80 88 114
80 88 114
80 88 114
80 88 114
80 88 114
80 88 114
80 88 114
80 88 114
80 88 114
80 88 114
80 88 114
80 88 114
80 88 114
80 88 114
80 88 114
80 88 114
80 88 114
80 88 114
80 88 114
80 88 114
80 88 114
80 88 114
80 88 114
80 88 114
80 88 114
80 88 114
80 88 114
80 88 114
80 88 114
80 88 114
80 88 114
80 88 114
80 88 114
80 88 114
80 88 114
80 88 114
80 88 114
80 88 114
80 88 114
80 88 114
80 88 114
80 88 114
80 88 114
80 88 114
80 88 114
80 88 114
80 88 114
80 88 114
80 88 114
80 88 114
80 88 114
80 88 114
80 88 114
80 88 114
80 88 114
80 88 114
80 88 114
80 88 114
80 88 114
80 88 114
80 88 114
80 88 114
80 88 114
80 88 114
80 88 114
80 88 114
80 88 114
80 88 114
80 88 114
80 88 114
80 88 114
80 88 114
80 88 114
80 88 114
80 88 114
80 88 114
80 88 114
80 88 114
80 88 114
80 88 114
80 88 114
80 88 114
80 88 114
80 88 114
80 88 114
80 88 114
80 88 114
80 88 114
80 88 114
80 88 114
80 88 114
80 88 114
80 88 114
80 88 114
80 88 114
80 88 114
80 88 114
80 88 114
80 88 114
80 88 114
80 88 114
80 88 114
80 88 114
80 88 114
80 88 114
80 88 114
80 88 114
80 88 114
80 88 114
80 88 114
80 88 114
80 88 114
80 88 114
80 88 114
80 88 114
80 88 114
80 88 114
80 88 114
80 88 114
80 88 114
80 88 114
80 88 114
80 88 114
80 88 114
80 88 114
80 88 114
80 88 114
80 88 114
80 88 114
80 88 114
80 88 114
80 88 114
80 88 114
80 88 114
80 88 114
80 88 114
80 88 114
80 88 114
80 88 114
80 88 114
80 88 114
80 88 114
80 88 114
80 88 114
80 88 114
80 88 114
80 88 114
80 88 114
80 88 114
80 88 114
80 88 114
80 88 114
80 88 114
80 88 114
80 88 114
80 88 114
80 88 114
80 88 114
80 88 114
80 88 114
80 88 114
80 88 114
80 88 114
80 88 114
80 88 114
80 88 114
80 88 114
80 88 114
80 88 114
80 88 114
80 88 114
80 88 114
80 88 114
80 88 114
80 88 114
88 83 87
83 73 63
78 69 63
77 69 63
77 69 63
76 68 62
78 69 63
75 67 61
78 70 64
76 68 62
77 69 63
77 69 63
77 69 62
74 66 60
78 70 63
75 67 61
74 66 60
77 69 63
77 69 63
77 68 62
77 69 63
77 69 62
79 83 102
80 88 114
80 88 114
80 88 114
80 88 114
80 88 114
80 88 114
80 88 114
80 88 114
80 88 114
80 88 114
80 88 114
80 88 114
80 88 114
80 88 114
80 88 114
80 88 114
80 88 114
80 88 114
80 88 114
80 88 114
80 88 114
80 88 114
80 88 114
80 88 114
80 88 114
80 88 114
80 88 114
80 88 114
80 88 114
80 88 114
80 88 114
80 88 114
80 88 114
80 88 114
80 88 114
80 88 114
80 88 114
80 88 114
80 88 114
80 88 114
80 88 114
80 88 114
80 88 114
80 88 114
80 88 114
80 88 114
80 88 114
80 88 114
80 88 114
80 88 114
80 88 114
80 88 114
80 88 114
80 88 114
80 88 114
80 88 114
80 88 114
80 88 114
80 88 114
80 88 114
80 88 114
80 88 114
80 88 114
80 88 114
80 88 114
80 88 114
80 88 114
80 88 114
80 88 114
80 88 114
80 88 114
80 88 114
80 88 114
80 88 114
80 88 114
80 88 114
80 88 114
80 88 114
80 88 114
80 88 114
80 88 114
80 88 114
80 88 114
80 88 114
80 88 114
80 88 114
80 88 114
80 88 114
80 88 114
80 88 114
80 88 114
80 88 114
80 88 114
80 88 114
80 88 114
80 88 114
80 88 114
80 88 114
80 88 114
80 88 114
80 88 114
80 88 114
80 88 114
80 88 114
80 88 114
80 88 114
80 88 114
80 88 114
80 88 114
80 88 114
80 88 114
80 88 114
80 88 114
80 88 114
80 88 114
80 88 114
80 88 114
80 88 114
80 88 114
80 88 114
80 88 114
80 88 114
80 88 114
80 88 114
80 88 114
80 88 114
80 88 114
80 88 114
80 88 114
80 88 114
80 88 114
80 88 114
80 88 114
80 88 114
80 88 114
80 88 114
80 88 114
80 88 114
80 88 114
80 88 114
80 88 114
80 88 114
80 88 114
80 88 114
80 88 114
80 88 114
80 88 114
80 88 114
80 88 114
80 88 114
80 88 114
80 88 114
80 88 114
80 88 114
80 88 114
80 88 114
80 88 114
80 88 114
80 88 114
80 88 114
80 88 114
80 88 114
80 88 114
80 88 114
80 88 114
80 88 114
80 88 114
80 88 114
80 88 114
80 88 114
80 88 114
80 88 114
80 88 114
80 88 114
80 88 114
80 88 114
80 88 114
80 88 114
80 88 114
80 88 114
80 88 114
80 88 114
80 88 114
80 88 114
80 88 114
80 88 114
80 88 114
80 88 114
80 88 114
80 88 114
80 88 114
80 88 114
80 88 114
80 88 114
80 88 114
80 88 114
80 88 114
80 88 114
80 88 114
80 88 114
80 88 114
80 88 114
80 88 114
80 88 114
80 88 114
80 88 114
80 88 114
80 88 114
80 88 114
80 88 114
80 88 114
80 88 114
80 88 114
80 88 114
80 88 114
80 88 114
80 88 114
80 88 114
80 88 114
80 88 114
80 88 114
80 88 114
80 88 114
80 88 114
80 88 114
80 88 114
80 88 114
80 88 114
80 88 114
80 88 114
80 88 114
80 88 114
80 88 114
80 88 114
80 88 114
80 88 114
80 88 114
80 88 114
80 88 114
80 88 114
80 88 114
80 88 114
80 88 114
80 88 114
80 88 114
80 88 114
80 88 114
80 88 114
80 88 114
80 88 114
80 88 114
80 88 114
80 88 114
80 88 114
80 88 114
80 88 114
80 88 114
80 88 114
80 88 114
80 88 114
80 88 114
80 88 114
80 88 114
80 88 114
80 88 114
80 88 114
80 88 114
80 88 114
80 88 114
80 88 114
80 88 114
80 88 114
80 88 114
80 88 114
80 88 114
80 88 114
80 88 114
80 88 114
80 88 114
80 88 114
80 88 114
80 88 114
80 88 114
80 88 114
80 88 114
80 88 114
80 88 114
80 88 114
80 88 114
80 88 114
80 88 114
80 88 114
80 88 114
80 88 114
80 88 114
80 88 114
80 88 114
80 88 114
80 88 114
80 88 114
80 88 114
80 88 114
80 88 114
80 88 114
80 88 114
80 88 114
80 88 114
80 88 114
80 88 114
80 88 114
80 88 114
80 88 114
80 88 114
80 88 114
80 88 114
80 88 114
80 88 114
80 88 114
80 88 114
80 88 114
80 88 114
80 88 114
80 88 114
80 88 114
80 88 114
80 88 114
80 88 114
80 88 114
80 88 114
80 88 114
80 88 114
80 88 114
80 88 114
80 88 114
80 88 114
80 88 114
80 88 114
80 88 114
80 88 114
80 88 114
80 88 114
80 88 114
80 88 114
80 88 114
80 88 114
80 88 114
80 88 114
80 88 114
80 88 114
80 88 114
80 88 114
80 88 114
80 88 114
80 88 114
80 88 114
80 88 114
80 88 114
80 88 114
80 88 114
80 88 114
80 88 114
80 88 114
80 88 114
80 88 114
80 88 114
80 88 114
80 88 114
80 88 114
80 88 114
80 88 114
80 88 114
80 88 114
80 88 114
80 88 114
80 88 114
80 88 114
80 88 114
83 85 102
84 73 63
77 69 62
78 70 64
81 73 66
74 66 60
76 68 62
72 65 59
74 66 60
77 69 63
76 68 62
79 70 64
77 69 63
76 68 62
77 69 63
79 71 65
75 67 61
79 70 64
76 68 62
77 69 63
79 71 64
75 69 66
81 88 113
80 88 114
80 88 114
80 88 114
80 88 114
80 88 114
80 88 114
80 88 114
80 88 114
80 88 114
80 88 114
80 88 114
80 88 114
80 88 114
80 88 114
80 88 114
80 88 114
80 88 114
80 88 114
80 88 114
80 88 114
80 88 114
80 88 114
80 88 114
80 88 114
80 88 114
80 88 114
80 88 114
80 88 114
80 88 114
80 88 114
80 88 114
80 88 114
80 88 114
80 88 114
80 88 114
80 88 114
80 88 114
80 88 114
80 88 114
80 88 114
80 88 114
80 88 114
80 88 114
80 88 114
80 88 114
80 88 114
80 88 114
80 88 114
80 88 114
80 88 114
80 88 114
80 88 114
80 88 114
80 88 114
80 88 114
80 88 114
80 88 114
80 88 114
80 88 114
80 88 114
80 88 114
80 88 114
80 88 114
80 88 114
80 88 114
80 88 114
80 88 114
80 88 114
80 88 114
80 88 114
80 88 114
80 88 114
80 88 114
80 88 114
80 88 114
80 88 114
80 88 114
80 88 114
80 88 114
80 88 114
80 88 114
80 88 114
80 88 114
80 88 114
80 88 114
80 88 114
80 88 114
80 88 114
80 88 114
80 88 114
80 88 114
80 88 114
80 88 114
80 88 114
80 88 114
80 88 114
80 88 114
80 88 114
80 88 114
80 88 114
80 88 114
80 88 114
80 88 114
80 88 114
80 88 114
80 88 114
80 88 114
80 88 114
80 88 114
80 88 114
80 88 114
80 88 114
80 88 114
80 88 114
80 88 114
80 88 114
80 88 114
80 88 114
80 88 114
80 88 114
80 88 114
80 88 114
80 88 114
80 88 114
80 88 114
80 88 114
80 88 114
80 88 114
80 88 114
80 88 114
80 88 114
80 88 114
80 88 114
80 88 114
80 88 114
80 88 114
80 88 114
80 88 114
80 88 114
80 88 114
80 88 114
80 88 114
80 88 114
80 88 114
80 88 114
80 88 114
80 88 114
80 88 114
80 88 114
80 88 114
80 88 114
80 88 114
80 88 114
80 88 114
80 88 114
80 88 114
80 88 114
80 88 114
80 88 114
80 88 114
80 88 114
80 88 114
80 88 114
80 88 114
80 88 114
80 88 114
80 88 114
80 88 114
80 88 114
80 88 114
80 88 114
80 88 114
80 88 114
80 88 114
80 88 114
80 88 114
80 88 114
80 88 114
80 88 114
80 88 114
80 88 114
80 88 114
80 88 114
80 88 114
80 88 114
80 88 114
80 88 114
80 88 114
80 88 114
80 88 114
80 88 114
80 88 114
80 88 114
80 88 114
80 88 114
80 88 114
80 88 114
80 88 114
80 88 114
80 88 114
80 88 114
80 88 114
80 88 114
80 88 114
80 88 114
80 88 114
80 88 114
80 88 114
80 88 114
80 88 114
80 88 114
80 88 114
80 88 114
80 88 114
80 88 114
80 88 114
80 88 114
80 88 114
80 88 114
80 88 114
80 88 114
80 88 114
80 88 114
80 88 114
80 88 114
80 88 114
80 88 114
80 88 114
80 88 114
80 88 114
80 88 114
80 88 114
80 88 114
80 88 114
80 88 114
80 88 114
80 88 114
80 88 114
80 88 114
80 88 114
80 88 114
80 88 114
80 88 114
80 88 114
80 88 114
80 88 114
80 88 114
80 88 114
80 88 114
80 88 114
80 88 114
80 88 114
80 88 114
80 88 114
80 88 114
80 88 114
80 88 114
80 88 114
80 88 114
80 88 114
80 88 114
80 88 114
80 88 114
80 88 114
80 88 114
80 88 114
80 88 114
80 88 114
80 88 114
80 88 114
80 88 114
80 88 114
80 88 114
80 88 114
80 88 114
80 88 114
80 88 114
80 88 114
80 88 114
80 88 114
80 88 114
80 88 114
80 88 114
80 88 114
80 88 114
80 88 114
80 88 114
80 88 114
80 88 114
80 88 114
80 88 114
80 88 114
80 88 114
80 88 114
80 88 114
80 88 114
80 88 114
80 88 114
80 88 114
80 88 114
80 88 114
80 88 114
80 88 114
80 88 114
80 88 114
80 88 114
80 88 114
80 88 114
80 88 114
80 88 114
80 88 114
80 88 114
80 88 114
80 88 114
80 88 114
80 88 114
80 88 114
80 88 114
80 88 114
80 88 114
80 88 114
80 88 114
80 88 114
80 88 114
80 88 114
80 88 114
80 88 114
80 88 114
80 88 114
80 88 114
80 88 114
80 88 114
80 88 114
80 88 114
80 88 114
80 88 114
80 88 114
80 88 114
80 88 114
80 88 114
80 88 114
80 88 114
80 88 114
80 88 114
80 88 114
80 88 114
80 88 114
80 88 114
80 88 114
80 88 114
80 88 114
80 88 114
80 88 114
80 88 114
80 88 114
80 88 114
80 88 114
80 88 114
80 88 114
80 88 114
80 88 114
80 88 114
80 88 114
80 88 114
80 88 114
80 88 114
80 88 114
80 88 114
80 88 114
80 88 114
80 88 114
80 88 114
80 88 114
80 88 114
80 88 114
80 88 114
80 88 114
81 88 114
85 77 75
79 70 63
77 69 63
76 68 62
74 66 60
79 71 65
79 70 64
75 67 61
75 67 61
78 70 63
80 72 65
78 70 63
77 69 63
74 66 60
79 70 64
74 66 60
76 68 62
78 70 63
75 67 61
77 69 63
77 77 90
80 88 114
80 88 114
80 88 114
80 88 114
80 88 114
80 88 114
80 88 114
80 88 114
80 88 114
80 88 114
80 88 114
80 88 114
80 88 114
80 88 114
80 88 114
80 88 114
80 88 114
80 88 114
80 88 114
80 88 114
80 88 114
80 88 114
80 88 114
80 88 114
80 88 114
80 88 114
80 88 114
80 88 114
80 88 114
80 88 114
80 88 114
80 88 114
80 88 114
80 88 114
80 88 114
80 88 114
80 88 114
80 88 114
80 88 114
80 88 114
80 88 114
80 88 114
80 88 114
80 88 114
80 88 114
80 88 114
80 88 114
80 88 114
80 88 114
80 88 114
80 88 114
80 88 114
80 88 114
80 88 114
80 88 114
80 88 114
80 88 114
80 88 114
80 88 114
80 88 114
80 88 114
80 88 114
80 88 114
80 88 114
80 88 114
80 88 114
80 88 114
80 88 114
80 88 114
80 88 114
80 88 114
80 88 114
80 88 114
80 88 114
80 88 114
80 88 114
80 88 114
80 88 114
80 88 114
80 88 114
80 88 114
80 88 114
80 88 114
80 88 114
80 88 114
80 88 114
80 88 114
80 88 114
80 88 114
80 88 114
80 88 114
80 88 114
80 88 114
80 88 114
80 88 114
80 88 114
80 88 114
80 88 114
80 88 114
80 88 114
80 88 114
80 88 114
80 88 114
80 88 114
80 88 114
80 88 114
80 88 114
80 88 114
80 88 114
80 88 114
80 88 114
80 88 114
80 88 114
80 88 114
80 88 114
80 88 114
80 88 114
80 88 114
80 88 114
80 88 114
80 88 114
80 88 114
80 88 114
80 88 114
80 88 114
80 88 114
80 88 114
80 88 114
80 88 114
80 88 114
80 88 114
80 88 114
80 88 114
80 88 114
80 88 114
80 88 114
80 88 114
80 88 114
80 88 114
80 88 114
80 88 114
80 88 114
80 88 114
80 88 114
80 88 114
80 88 114
80 88 114
80 88 114
80 88 114
80 88 114
80 88 114
80 88 114
80 88 114
80 88 114
80 88 114
80 88 114
80 88 114
80 88 114
80 88 114
80 88 114
80 88 114
80 88 114
80 88 114
80 88 114
80 88 114
80 88 114
80 88 114
80 88 114
80 88 114
80 88 114
80 88 114
80 88 114
80 88 114
80 88 114
80 88 114
80 88 114
80 88 114
80 88 114
80 88 114
80 88 114
80 88 114
80 88 114
80 88 114
80 88 114
80 88 114
80 88 114
80 88 114
80 88 114
80 88 114
80 88 114
80 88 114
80 88 114
80 88 114
80 88 114
80 88 114
80 88 114
80 88 114
80 88 114
80 88 114
80 88 114
80 88 114
80 88 114
80 88 114
80 88 114
80 88 114
80 88 114
80 88 114
80 88 114
80 88 114
80 88 114
80 88 114
80 88 114
80 88 114
80 88 114
80 88 114
80 88 114
80 88 114
80 88 114
80 88 114
80 88 114
80 88 114
80 88 114
80 88 114
80 88 114
80 88 114
80 88 114
80 88 114
80 88 114
80 88 114
80 88 114
80 88 114
80 88 114
80 88 114
80 88 114
80 88 114
80 88 114
80 88 114
80 88 114
80 88 114
80 88 114
80 88 114
80 88 114
80 88 114
80 88 114
80 88 114
80 88 114
80 88 114
80 88 114
80 88 114
80 88 114
80 88 114
80 88 114
80 88 114
80 88 114
80 88 114
80 88 114
80 88 114
80 88 114
80 88 114
80 88 114
80 88 114
80 88 114
80 88 114
80 88 114
80 88 114
80 88 114
80 88 114
80 88 114
80 88 114
80 88 114
80 88 114
80 88 114
80 88 114
80 88 114
80 88 114
80 88 114
80 88 114
80 88 114
80 88 114
80 88 114
80 88 114
80 88 114
80 88 114
80 88 114
80 88 114
80 88 114
80 88 114
80 88 114
80 88 114
80 88 114
80 88 114
80 88 114
80 88 114
80 88 114
80 88 114
80 88 114
80 88 114
80 88 114
80 88 114
80 88 114
80 88 114
80 88 114
80 88 114
80 88 114
80 88 114
80 88 114
80 88 114
80 88 114
80 88 114
80 88 114
80 88 114
80 88 114
80 88 114
80 88 114
80 88 114
80 88 114
80 88 114
80 88 114
80 88 114
80 88 114
80 88 114
80 88 114
80 88 114
80 88 114
80 88 114
80 88 114
80 88 114
80 88 114
80 88 114
80 88 114
80 88 114
80 88 114
80 88 114
80 88 114
80 88 114
80 88 114
80 88 114
80 88 114
80 88 114
80 88 114
80 88 114
80 88 114
80 88 114
80 88 114
80 88 114
80 88 114
80 88 114
80 88 114
80 88 114
80 88 114
80 88 114
80 88 114
80 88 114
80 88 114
80 88 114
80 88 114
80 88 114
80 88 114
80 88 114
80 88 114
80 88 114
80 88 114
80 88 114
80 88 114
80 88 114
80 88 114
80 88 114
80 88 114
80 88 114
80 88 114
80 88 114
80 88 114
80 88 114
80 88 114
80 88 114
80 88 114
80 88 114
80 88 114
80 88 114
82 85 104
80 70 63
79 71 65
76 68 62
74 66 61
77 68 62
76 68 62
78 70 64
76 68 62
76 68 62
77 69 63
74 66 61
79 70 64
79 70 64
79 71 65
77 69 63
74 66 60
74 66 60
75 67 61
78 72 71
80 87 112
80 88 114
80 88 114
80 88 114
80 88 114
80 88 114
80 88 114
80 88 114
80 88 114
80 88 114
80 88 114
80 88 114
80 88 114
80 88 114
80 88 114
80 88 114
80 88 114
80 88 114
80 88 114
80 88 114
80 88 114
80 88 114
80 88 114
80 88 114
80 88 114
80 88 114
80 88 114
80 88 114
80 88 114
80 88 114
80 88 114
80 88 114
80 88 114
80 88 114
80 88 114
80 88 114
80 88 114
80 88 114
80 88 114
80 88 114
80 88 114
80 88 114
80 88 114
80 88 114
80 88 114
80 88 114
80 88 114
80 88 114
80 88 114
80 88 114
80 88 114
80 88 114
80 88 114
80 88 114
80 88 114
80 88 114
80 88 114
80 88 114
80 88 114
80 88 114
80 88 114
80 88 114
80 88 114
80 88 114
80 88 114
80 88 114
80 88 114
80 88 114
80 88 114
80 88 114
80 88 114
80 88 114
80 88 114
80 88 114
80 88 114
80 88 114
80 88 114
80 88 114
80 88 114
80 88 114
80 88 114
80 88 114
80 88 114
80 88 114
80 88 114
80 88 114
80 88 114
80 88 114
80 88 114
80 88 114
80 88 114
80 88 114
80 88 114
80 88 114
80 88 114
80 88 114
80 88 114
80 88 114
80 88 114
80 88 114
80 88 114
80 88 114
80 88 114
80 88 114
80 88 114
80 88 114
80 88 114
80 88 114
80 88 114
80 88 114
80 88 114
80 88 114
80 88 114
80 88 114
80 88 114
80 88 114
80 88 114
80 88 114
80 88 114
80 88 114
80 88 114
80 88 114
80 88 114
80 88 114
80 88 114
80 88 114
80 88 114
80 88 114
80 88 114
80 88 114
80 88 114
80 88 114
80 88 114
80 88 114
80 88 114
80 88 114
80 88 114
80 88 114
80 88 114
80 88 114
80 88 114
80 88 114
80 88 114
80 88 114
80 88 114
80 88 114
80 88 114
80 88 114
80 88 114
80 88 114
80 88 114
80 88 114
80 88 114
80 88 114
80 88 114
80 88 114
80 88 114
80 88 114
80 88 114
80 88 114
80 88 114
80 88 114
80 88 114
80 88 114
80 88 114
80 88 114
80 88 114
80 88 114
80 88 114
80 88 114
80 88 114
80 88 114
80 88 114
80 88 114
80 88 114
80 88 114
80 88 114
80 88 114
80 88 114
80 88 114
80 88 114
80 88 114
80 88 114
80 88 114
80 88 114
80 88 114
80 88 114
80 88 114
80 88 114
80 88 114
80 88 114
80 88 114
80 88 114
80 88 114
80 88 114
80 88 114
80 88 114
80 88 114
80 88 114
80 88 114
80 88 114
80 88 114
80 88 114
80 88 114
80 88 114
80 88 114
80 88 114
80 88 114
80 88 114
80 88 114
80 88 114
80 88 114
80 88 114
80 88 114
80 88 114
80 88 114
80 88 114
80 88 114
80 88 114
80 88 114
80 88 114
80 88 114
80 88 114
80 88 114
80 88 114
80 88 114
80 88 114
80 88 114
80 88 114
80 88 114
80 88 114
80 88 114
80 88 114
80 88 114
80 88 114
80 88 114
80 88 114
80 88 114
80 88 114
80 88 114
80 88 114
80 88 114
80 88 114
80 88 114
80 88 114
80 88 114
80 88 114
80 88 114
80 88 114
80 88 114
80 88 114
80 88 114
80 88 114
80 88 114
80 88 114
80 88 114
80 88 114
80 88 114
80 88 114
80 88 114
80 88 114
80 88 114
80 88 114
80 88 114
80 88 114
80 88 114
80 88 114
80 88 114
80 88 114
80 88 114
80 88 114
80 88 114
80 88 114
80 88 114
80 88 114
80 88 114
80 88 114
80 88 114
80 88 114
80 88 114
80 88 114
80 88 114
80 88 114
80 88 114
80 88 114
80 88 114
80 88 114
80 88 114
80 88 114
80 88 114
80 88 114
80 88 114
80 88 114
80 88 114
80 88 114
80 88 114
80 88 114
80 88 114
80 88 114
80 88 114
80 88 114
80 88 114
80 88 114
80 88 114
80 88 114
80 88 114
80 88 114
80 88 114
80 88 114
80 88 114
80 88 114
80 88 114
80 88 114
80 88 114
80 88 114
80 88 114
80 88 114
80 88 114
80 88 114
80 88 114
80 88 114
80 88 114
80 88 114
80 88 114
80 88 114
80 88 114
80 88 114
80 88 114
80 88 114
80 88 114
80 88 114
80 88 114
80 88 114
80 88 114
80 88 114
80 88 114
80 88 114
80 88 114
80 88 114
80 88 114
80 88 114
80 88 114
80 88 114
80 88 114
80 88 114
80 88 114
80 88 114
80 88 114
80 88 114
80 88 114
80 88 114
80 88 114
80 88 114
80 88 114
80 88 114
80 88 114
80 88 114
80 88 114
80 88 114
80 88 114
80 88 114
80 88 114
80 88 114
80 88 114
80 88 114
80 88 114
80 88 114
80 88 114
80 88 114
80 88 114
80 88 114
80 88 114
80 88 114
80 88 114
80 88 114
80 88 114
80 88 114
80 88 114
80 88 114
80 88 114
80 88 114
82 81 92
77 68 62
74 66 60
78 70 63
76 68 62
74 66 60
79 71 65
79 71 65
72 65 59
79 71 64
77 69 63
77 69 63
79 70 64
76 67 61
78 70 64
79 70 63
75 67 61
77 69 64
79 83 103
80 88 114
80 88 114
80 88 114
80 88 114
80 88 114
80 88 114
80 88 114
80 88 114
80 88 114
80 88 114
80 88 114
80 88 114
80 88 114
80 88 114
80 88 114
80 88 114
80 88 114
80 88 114
80 88 114
80 88 114
80 88 114
80 88 114
80 88 114
80 88 114
80 88 114
80 88 114
80 88 114
80 88 114
80 88 114
80 88 114
80 88 114
80 88 114
80 88 114
80 88 114
80 88 114
80 88 114
80 88 114
80 88 114
80 88 114
80 88 114
80 88 114
80 88 114
80 88 114
80 88 114
80 88 114
80 88 114
80 88 114
80 88 114
80 88 114
80 88 114
80 88 114
80 88 114
80 88 114
80 88 114
80 88 114
80 88 114
80 88 114
80 88 114
80 88 114
80 88 114
80 88 114
80 88 114
80 88 114
80 88 114
80 88 114
80 88 114
80 88 114
80 88 114
80 88 114
80 88 114
80 88 114
80 88 114
80 88 114
80 88 114
80 88 114
80 88 114
80 88 114
80 88 114
80 88 114
80 88 114
80 88 114
80 88 114
80 88 114
80 88 114
80 88 114
80 88 114
80 88 114
80 88 114
80 88 114
80 88 114
80 88 114
80 88 114
80 88 114
80 88 114
80 88 114
80 88 114
80 88 114
80 88 114
80 88 114
80 88 114
80 88 114
80 88 114
80 88 114
80 88 114
80 88 114
80 88 114
80 88 114
80 88 114
80 88 114
80 88 114
80 88 114
80 88 114
80 88 114
80 88 114
80 88 114
80 88 114
80 88 114
80 88 114
80 88 114
80 88 114
80 88 114
80 88 114
80 88 114
80 88 114
80 88 114
80 88 114
80 88 114
80 88 114
80 88 114
80 88 114
80 88 114
80 88 114
80 88 114
80 88 114
80 88 114
80 88 114
80 88 114
80 88 114
80 88 114
80 88 114
80 88 114
80 88 114
80 88 114
80 88 114
80 88 114
80 88 114
80 88 114
80 88 114
80 88 114
80 88 114
80 88 114
80 88 114
80 88 114
80 88 114
80 88 114
80 88 114
80 88 114
80 88 114
80 88 114
80 88 114
80 88 114
80 88 114
80 88 114
80 88 114
80 88 114
80 88 114
80 88 114
80 88 114
80 88 114
80 88 114
80 88 114
80 88 114
80 88 114
80 88 114
80 88 114
80 88 114
80 88 114
80 88 114
80 88 114
80 88 114
80 88 114
80 88 114
80 88 114
80 88 114
80 88 114
80 88 114
80 88 114
80 88 114
80 88 114
80 88 114
80 88 114
80 88 114
80 88 114
80 88 114
80 88 114
80 88 114
80 88 114
80 88 114
80 88 114
80 88 114
80 88 114
80 88 114
80 88 114
80 88 114
80 88 114
80 88 114
80 88 114
80 88 114
80 88 114
80 88 114
80 88 114
80 88 114
80 88 114
80 88 114
80 88 114
80 88 114
80 88 114
80 88 114
80 88 114
80 88 114
80 88 114
80 88 114
80 88 114
80 88 114
80 88 114
80 88 114
80 88 114
80 88 114
80 88 114
80 88 114
80 88 114
80 88 114
80 88 114
80 88 114
80 88 114
80 88 114
80 88 114
80 88 114
80 88 114
80 88 114
80 88 114
80 88 114
80 88 114
80 88 114
80 88 114
80 88 114
80 88 114
80 88 114
80 88 114
80 88 114
80 88 114
80 88 114
80 88 114
80 88 114
80 88 114
80 88 114
80 88 114
80 88 114
80 88 114
80 88 114
80 88 114
80 88 114
80 88 114
80 88 114
80 88 114
80 88 114
80 88 114
80 88 114
80 88 114
80 88 114
80 88 114
80 88 114
80 88 114
80 88 114
80 88 114
80 88 114
80 88 114
80 88 114
80 88 114
80 88 114
80 88 114
80 88 114
80 88 114
80 88 114
80 88 114
80 88 114
80 88 114
80 88 114
80 88 114
80 88 114
80 88 114
80 88 114
80 88 114
80 88 114
80 88 114
80 88 114
80 88 114
80 88 114
80 88 114
80 88 114
80 88 114
80 88 114
80 88 114
80 88 114
80 88 114
80 88 114
80 88 114
80 88 114
80 88 114
80 88 114
80 88 114
80 88 114
80 88 114
80 88 114
80 88 114
80 88 114
80 88 114
80 88 114
80 88 114
80 88 114
80 88 114
80 88 114
80 88 114
80 88 114
80 88 114
80 88 114
80 88 114
80 88 114
80 88 114
80 88 114
80 88 114
80 88 114
80 88 114
80 88 114
80 88 114
80 88 114
80 88 114
80 88 114
80 88 114
80 88 114
80 88 114
80 88 114
80 88 114
80 88 114
80 88 114
80 88 114
80 88 114
80 88 114
80 88 114
80 88 114
80 88 114
80 88 114
80 88 114
80 88 114
80 88 114
80 88 114
80 88 114
80 88 114
80 88 114
80 88 114
80 88 114
80 88 114
80 88 114
80 88 114
80 88 114
80 88 114
80 88 114
80 88 114
80 88 114
80 88 114
80 88 114
80 88 114
80 88 114
80 88 114
80 88 114
80 88 114
80 88 114
80 88 114
80 88 114
80 88 114
80 88 114
80 88 114
78 77 87
78 69 63
75 67 61
77 69 63
74 66 60
78 70 64
75 67 61
78 70 64
82 73 67
78 70 64
72 64 58
72 64 58
74 66 60
74 66 60
75 67 61
77 69 64
79 82 99
80 88 114
80 88 114
80 88 114
80 88 114
80 88 114
80 88 114
80 88 114
80 88 114
80 88 114
80 88 114
80 88 114
80 88 114
80 88 114
80 88 114
80 88 114
80 88 114
80 88 114
80 88 114
80 88 114
80 88 114
80 88 114
80 88 114
80 88 114
80 88 114
80 88 114
80 88 114
80 88 114
80 88 114
80 88 114
80 88 114
80 88 114
80 88 114
80 88 114
80 88 114
80 88 114
80 88 114
80 88 114
80 88 114
80 88 114
80 88 114
80 88 114
80 88 114
80 88 114
80 88 114
80 88 114
80 88 114
80 88 114
80 88 114
80 88 114
80 88 114
80 88 114
80 88 114
80 88 114
80 88 114
80 88 114
80 88 114
80 88 114
80 88 114
80 88 114
80 88 114
80 88 114
80 88 114
80 88 114
80 88 114
80 88 114
80 88 114
80 88 114
80 88 114
80 88 114
80 88 114
80 88 114
80 88 114
80 88 114
80 88 114
80 88 114
80 88 114
80 88 114
80 88 114
80 88 114
80 88 114
80 88 114
80 88 114
80 88 114
80 88 114
80 88 114
80 88 114
80 88 114
80 88 114
80 88 114
80 88 114
80 88 114
80 88 114
80 88 114
80 88 114
80 88 114
80 88 114
80 88 114
80 88 114
80 88 114
80 88 114
80 88 114
80 88 114
80 88 114
80 88 114
80 88 114
80 88 114
80 88 114
80 88 114
80 88 114
80 88 114
80 88 114
80 88 114
80 88 114
80 88 114
80 88 114
80 88 114
80 88 114
80 88 114
80 88 114
80 88 114
80 88 114
80 88 114
80 88 114
80 88 114
80 88 114
80 88 114
80 88 114
80 88 114
80 88 114
80 88 114
80 88 114
80 88 114
80 88 114
80 88 114
80 88 114
80 88 114
80 88 114
80 88 114
80 88 114
80 88 114
80 88 114
80 88 114
80 88 114
80 88 114
80 88 114
80 88 114
80 88 114
80 88 114
80 88 114
80 88 114
80 88 114
80 88 114
80 88 114
80 88 114
80 88 114
80 88 114
80 88 114
80 88 114
80 88 114
80 88 114
80 88 114
80 88 114
80 88 114
80 88 114
80 88 114
80 88 114
80 88 114
80 88 114
80 88 114
80 88 114
80 88 114
80 88 114
80 88 114
80 88 114
80 88 114
80 88 114
80 88 114
80 88 114
80 88 114
80 88 114
80 88 114
80 88 114
80 88 114
80 88 114
80 88 114
80 88 114
80 88 114
80 88 114
80 88 114
80 88 114
80 88 114
80 88 114
80 88 114
80 88 114
80 88 114
80 88 114
80 88 114
80 88 114
80 88 114
80 88 114
80 88 114
80 88 114
80 88 114
80 88 114
80 88 114
80 88 114
80 88 114
80 88 114
80 88 114
80 88 114
80 88 114
80 88 114
80 88 114
80 88 114
80 88 114
80 88 114
80 88 114
80 88 114
80 88 114
80 88 114
80 88 114
80 88 114
80 88 114
80 88 114
80 88 114
80 88 114
80 88 114
80 88 114
80 88 114
80 88 114
80 88 114
80 88 114
80 88 114
80 88 114
80 88 114
80 88 114
80 88 114
80 88 114
80 88 114
80 88 114
80 88 114
80 88 114
80 88 114
80 88 114
80 88 114
80 88 114
80 88 114
80 88 114
80 88 114
80 88 114
80 88 114
80 88 114
80 88 114
80 88 114
80 88 114
80 88 114
80 88 114
80 88 114
80 88 114
80 88 114
80 88 114
80 88 114
80 88 114
80 88 114
80 88 114
80 88 114
80 88 114
80 88 114
80 88 114
80 88 114
80 88 114
80 88 114
80 88 114
80 88 114
80 88 114
80 88 114
80 88 114
80 88 114
80 88 114
80 88 114
80 88 114
80 88 114
80 88 114
80 88 114
80 88 114
80 88 114
80 88 114
80 88 114
80 88 114
80 88 114
80 88 114
80 88 114
80 88 114
80 88 114
80 88 114
80 88 114
80 88 114
80 88 114
80 88 114
80 88 114
80 88 114
80 88 114
80 88 114
80 88 114
80 88 114
80 88 114
80 88 114
80 88 114
80 88 114
80 88 114
80 88 114
80 88 114
80 88 114
80 88 114
80 88 114
80 88 114
80 88 114
80 88 114
80 88 114
80 88 114
80 88 114
80 88 114
80 88 114
80 88 114
80 88 114
80 88 114
80 88 114
80 88 114
80 88 114
80 88 114
80 88 114
80 88 114
80 88 114
80 88 114
80 88 114
80 88 114
80 88 114
80 88 114
80 88 114
80 88 114
80 88 114
80 88 114
80 88 114
80 88 114
80 88 114
80 88 114
80 88 114
80 88 114
80 88 114
80 88 114
80 88 114
80 88 114
80 88 114
80 88 114
80 88 114
80 88 114
80 88 114
80 88 114
80 88 114
80 88 114
80 88 114
80 88 114
80 88 114
80 88 114
80 88 114
80 88 114
80 88 114
80 88 114
80 88 114
80 88 114
80 88 114
80 88 114
80 88 114
80 88 114
80 88 114
80 88 114
80 88 114
80 88 114
80 88 114
80 88 114
80 88 114
80 88 114
80 88 114
81 88 114
77 79 95
76 68 64
77 69 63
78 70 64
74 66 61
75 67 61
76 68 62
77 69 62
78 69 63
77 69 63
75 66 60
77 68 62
74 66 60
79 72 71
79 83 103
80 88 114
80 88 114
80 88 114
80 88 114
80 88 114
80 88 114
80 88 114
80 88 114
80 88 114
80 88 114
80 88 114
80 88 114
80 88 114
80 88 114
80 88 114
80 88 114
80 88 114
80 88 114
80 88 114
80 88 114
80 88 114
80 88 114
80 88 114
80 88 114
80 88 114
80 88 114
80 88 114
80 88 114
80 88 114
80 88 114
80 88 114
80 88 114
80 88 114
80 88 114
80 88 114
80 88 114
80 88 114
80 88 114
80 88 114
80 88 114
80 88 114
80 88 114
80 88 114
80 88 114
80 88 114
80 88 114
80 88 114
80 88 114
80 88 114
80 88 114
80 88 114
80 88 114
80 88 114
80 88 114
80 88 114
80 88 114
80 88 114
80 88 114
80 88 114
80 88 114
80 88 114
80 88 114
80 88 114
80 88 114
80 88 114
80 88 114
80 88 114
80 88 114
80 88 114
80 88 114
80 88 114
80 88 114
80 88 114
80 88 114
80 88 114
80 88 114
80 88 114
80 88 114
80 88 114
80 88 114
80 88 114
80 88 114
80 88 114
80 88 114
80 88 114
80 88 114
80 88 114
80 88 114
80 88 114
80 88 114
80 88 114
80 88 114
80 88 114
80 88 114
80 88 114
80 88 114
80 88 114
80 88 114
80 88 114
80 88 114
80 88 114
80 88 114
80 88 114
80 88 114
80 88 114
80 88 114
80 88 114
80 88 114
80 88 114
80 88 114
80 88 114
80 88 114
80 88 114
80 88 114
80 88 114
80 88 114
80 88 114
80 88 114
80 88 114
80 88 114
80 88 114
80 88 114
80 88 114
80 88 114
80 88 114
80 88 114
80 88 114
80 88 114
80 88 114
80 88 114
80 88 114
80 88 114
80 88 114
80 88 114
80 88 114
80 88 114
80 88 114
80 88 114
80 88 114
80 88 114
80 88 114
80 88 114
80 88 114
80 88 114
80 88 114
80 88 114
80 88 114
80 88 114
80 88 114
80 88 114
80 88 114
80 88 114
80 88 114
80 88 114
80 88 114
80 88 114
80 88 114
80 88 114
80 88 114
80 88 114
80 88 114
80 88 114
80 88 114
80 88 114
80 88 114
80 88 114
80 88 114
80 88 114
80 88 114
80 88 114
80 88 114
80 88 114
80 88 114
80 88 114
80 88 114
80 88 114
80 88 114
80 88 114
80 88 114
80 88 114
80 88 114
80 88 114
80 88 114
80 88 114
80 88 114
80 88 114
80 88 114
80 88 114
80 88 114
80 88 114
80 88 114
80 88 114
80 88 114
80 88 114
80 88 114
80 88 114
80 88 114
80 88 114
80 88 114
80 88 114
80 88 114
80 88 114
80 88 114
80 88 114
80 88 114
80 88 114
80 88 114
80 88 114
80 88 114
80 88 114
80 88 114
80 88 114
80 88 114
80 88 114
80 88 114
80 88 114
80 88 114
80 88 114
80 88 114
80 88 114
80 88 114
80 88 114
80 88 114
80 88 114
80 88 114
80 88 114
80 88 114
80 88 114
80 88 114
80 88 114
80 88 114
80 88 114
80 88 114
80 88 114
80 88 114
80 88 114
80 88 114
80 88 114
80 88 114
80 88 114
80 88 114
80 88 114
80 88 114
80 88 114
80 88 114
80 88 114
80 88 114
80 88 114
80 88 114
80 88 114
80 88 114
80 88 114
80 88 114
80 88 114
80 88 114
80 88 114
80 88 114
80 88 114
80 88 114
80 88 114
80 88 114
80 88 114
80 88 114
80 88 114
80 88 114
80 88 114
80 88 114
80 88 114
80 88 114
80 88 114
80 88 114
80 88 114
80 88 114
80 88 114
80 88 114
80 88 114
80 88 114
80 88 114
80 88 114
80 88 114
80 88 114
80 88 114
80 88 114
80 88 114
80 88 114
80 88 114
80 88 114
80 88 114
80 88 114
80 88 114
80 88 114
80 88 114
80 88 114
80 88 114
80 88 114
80 88 114
80 88 114
80 88 114
80 88 114
80 88 114
80 88 114
80 88 114
80 88 114
80 88 114
80 88 114
80 88 114
80 88 114
80 88 114
80 88 114
80 88 114
80 88 114
80 88 114
80 88 114
80 88 114
80 88 114
80 88 114
80 88 114
80 88 114
80 88 114
80 88 114
80 88 114
80 88 114
80 88 114
80 88 114
80 88 114
80 88 114
80 88 114
80 88 114
80 88 114
80 88 114
80 88 114
80 88 114
80 88 114
80 88 114
80 88 114
80 88 114
80 88 114
80 88 114
80 88 114
80 88 114
80 88 114
80 88 114
80 88 114
80 88 114
80 88 114
80 88 114
80 88 114
80 88 114
80 88 114
80 88 114
80 88 114
80 88 114
80 88 114
80 88 114
80 88 114
80 88 114
80 88 114
80 88 114
80 88 114
80 88 114
80 88 114
80 88 114
80 88 114
80 88 114
80 88 114
80 88 114
80 88 114
80 88 114
80 88 114
80 88 114
80 88 114
80 88 114
80 88 114
80 88 114
80 88 114
80 88 114
80 88 114
80 88 114
80 88 114
80 88 114
80 88 114
80 88 114
80 88 114
80 88 114
80 88 114
80 88 114
80 86 109
78 77 86
78 71 66
79 70 64
77 69 63
77 69 63
76 68 62
79 71 64
80 71 65
73 65 60
78 71 68
80 80 92
80 87 112
80 88 114
80 88 114
80 88 114
80 88 114
80 88 114
80 88 114
80 88 114
80 88 114
80 88 114
80 88 114
80 88 114
80 88 114
80 88 114
80 88 114
80 88 114
80 88 114
80 88 114
80 88 114
80 88 114
80 88 114
80 88 114
80 88 114
80 88 114
80 88 114
80 88 114
80 88 114
80 88 114
80 88 114
80 88 114
80 88 114
80 88 114
80 88 114
80 88 114
80 88 114
80 88 114
80 88 114
80 88 114
80 88 114
80 88 114
80 88 114
80 88 114
80 88 114
80 88 114
80 88 114
80 88 114
80 88 114
80 88 114
80 88 114
80 88 114
80 88 114
80 88 114
80 88 114
80 88 114
80 88 114
80 88 114
80 88 114
80 88 114
80 88 114
80 88 114
80 88 114
80 88 114
80 88 114
80 88 114
80 88 114
80 88 114
80 88 114
80 88 114
80 88 114
80 88 114
80 88 114
80 88 114
80 88 114
80 88 114
80 88 114
80 88 114
80 88 114
80 88 114
80 88 114
80 88 114
80 88 114
80 88 114
80 88 114
80 88 114
80 88 114
80 88 114
80 88 114
80 88 114
80 88 114
80 88 114
80 88 114
80 88 114
80 88 114
80 88 114
80 88 114
80 88 114
80 88 114
80 88 114
80 88 114
80 88 114
80 88 114
80 88 114
80 88 114
80 88 114
80 88 114
80 88 114
80 88 114
80 88 114
80 88 114
80 88 114
80 88 114
80 88 114
80 88 114
80 88 114
80 88 114
80 88 114
80 88 114
80 88 114
80 88 114
80 88 114
80 88 114
80 88 114
80 88 114
80 88 114
80 88 114
80 88 114
80 88 114
80 88 114
80 88 114
80 88 114
80 88 114
80 88 114
80 88 114
80 88 114
80 88 114
80 88 114
80 88 114
80 88 114
80 88 114
80 88 114
80 88 114
80 88 114
80 88 114
80 88 114
80 88 114
80 88 114
80 88 114
80 88 114
80 88 114
80 88 114
80 88 114
80 88 114
80 88 114
80 88 114
80 88 114
80 88 114
80 88 114
80 88 114
80 88 114
80 88 114
80 88 114
80 88 114
80 88 114
80 88 114
80 88 114
80 88 114
80 88 114
80 88 114
80 88 114
80 88 114
80 88 114
80 88 114
80 88 114
80 88 114
80 88 114
80 88 114
80 88 114
80 88 114
80 88 114
80 88 114
80 88 114
80 88 114
80 88 114
80 88 114
80 88 114
80 88 114
80 88 114
80 88 114
80 88 114
80 88 114
80 88 114
80 88 114
80 88 114
80 88 114
80 88 114
80 88 114
80 88 114
80 88 114
80 88 114
80 88 114
80 88 114
80 88 114
80 88 114
80 88 114
80 88 114
80 88 114
80 88 114
80 88 114
80 88 114
80 88 114
80 88 114
80 88 114
80 88 114
80 88 114
80 88 114
80 88 114
80 88 114
80 88 114
80 88 114
80 88 114
80 88 114
80 88 114
80 88 114
80 88 114
80 88 114
80 88 114
80 88 114
80 88 114
80 88 114
80 88 114
80 88 114
80 88 114
80 88 114
80 88 114
80 88 114
80 88 114
80 88 114
80 88 114
80 88 114
80 88 114
80 88 114
80 88 114
80 88 114
80 88 114
80 88 114
80 88 114
80 88 114
80 88 114
80 88 114
80 88 114
80 88 114
80 88 114
80 88 114
80 88 114
80 88 114
80 88 114
80 88 114
80 88 114
80 88 114
80 88 114
80 88 114
80 88 114
80 88 114
80 88 114
80 88 114
80 88 114
80 88 114
80 88 114
80 88 114
80 88 114
80 88 114
80 88 114
80 88 114
80 88 114
80 88 114
80 88 114
80 88 114
80 88 114
80 88 114
80 88 114
80 88 114
80 88 114
80 88 114
80 88 114
80 88 114
80 88 114
80 88 114
80 88 114
80 88 114
80 88 114
80 88 114
80 88 114
80 88 114
80 88 114
80 88 114
80 88 114
80 88 114
80 88 114
80 88 114
80 88 114
80 88 114
80 88 114
80 88 114
80 88 114
80 88 114
80 88 114
80 88 114
80 88 114
80 88 114
80 88 114
80 88 114
80 88 114
80 88 114
80 88 114
80 88 114
80 88 114
80 88 114
80 88 114
80 88 114
80 88 114
80 88 114
80 88 114
80 88 114
80 88 114
80 88 114
80 88 114
80 88 114
80 88 114
80 88 114
80 88 114
80 88 114
80 88 114
80 88 114
80 88 114
80 88 114
80 88 114
80 88 114
80 88 114
80 88 114
80 88 114
80 88 114
80 88 114
80 88 114
80 88 114
80 88 114
80 88 114
80 88 114
80 88 114
80 88 114
80 88 114
80 88 114
80 88 114
80 88 114
80 88 114
80 88 114
80 88 114
80 88 114
80 88 114
80 88 114
80 88 114
80 88 114
80 88 114
80 88 114
80 88 114
80 88 114
80 88 114
80 88 114
80 88 114
80 88 114
80 88 114
80 88 114
80 88 114
80 88 114
80 88 114
80 88 114
80 88 114
80 88 114
80 88 114
80 88 114
80 88 114
80 88 114
80 88 114
80 88 114
80 88 114
80 88 114
80 88 114
80 88 114
80 88 114
80 88 114
80 88 114
80 87 111
78 81 98
80 79 90
77 75 82
78 75 81
78 76 83
80 79 91
79 82 101
80 88 113
80 88 114
80 88 114
80 88 114
80 88 114
80 88 114
80 88 114
80 88 114
80 88 114
80 88 114
80 88 114
80 88 114
80 88 114
80 88 114
80 88 114
80 88 114
80 88 114
80 88 114
80 88 114
80 88 114
80 88 114
80 88 114
80 88 114
80 88 114
80 88 114
80 88 114
80 88 114
80 88 114
80 88 114
80 88 114
80 88 114
80 88 114
80 88 114
80 88 114
80 88 114
80 88 114
80 88 114
80 88 114
80 88 114
80 88 114
80 88 114
80 88 114
80 88 114
80 88 114
80 88 114
80 88 114
80 88 114
80 88 114
80 88 114
80 88 114
80 88 114
80 88 114
80 88 114
80 88 114
80 88 114
80 88 114
80 88 114
80 88 114
80 88 114
80 88 114
80 88 114
80 88 114
80 88 114
80 88 114
80 88 114
80 88 114
80 88 114
80 88 114
80 88 114
80 88 114
80 88 114
80 88 114
80 88 114
80 88 114
80 88 114
80 88 114
80 88 114
80 88 114
80 88 114
80 88 114
80 88 114
80 88 114
80 88 114
80 88 114
80 88 114
80 88 114
80 88 114
80 88 114
80 88 114
80 88 114
80 88 114
80 88 114
80 88 114
80 88 114
80 88 114
80 88 114
80 88 114
80 88 114
80 88 114
80 88 114
80 88 114
80 88 114
80 88 114
80 88 114
80 88 114
80 88 114
80 88 114
80 88 114
80 88 114
80 88 114
80 88 114
80 88 114
80 88 114
80 88 114
80 88 114
80 88 114
80 88 114
80 88 114
80 88 114
80 88 114
80 88 114
80 88 114
80 88 114
80 88 114
80 88 114
80 88 114
80 88 114
80 88 114
80 88 114
80 88 114
80 88 114
80 88 114
80 88 114
80 88 114
80 88 114
80 88 114
80 88 114
80 88 114
80 88 114
80 88 114
80 88 114
80 88 114
80 88 114
80 88 114
80 88 114
80 88 114
80 88 114
80 88 114
80 88 114
80 88 114
80 88 114
80 88 114
80 88 114
80 88 114
80 88 114
80 88 114
80 88 114
80 88 114
80 88 114
80 88 114
80 88 114
80 88 114
80 88 114
80 88 114
80 88 114
80 88 114
80 88 114
80 88 114
80 88 114
80 88 114
80 88 114
80 88 114
80 88 114
80 88 114
80 88 114
80 88 114
80 88 114
80 88 114
80 88 114
80 88 114
80 88 114
80 88 114
80 88 114
80 88 114
80 88 114
80 88 114
80 88 114
80 88 114
80 88 114
80 88 114
80 88 114
80 88 114
80 88 114
80 88 114
80 88 114
80 88 114
80 88 114
80 88 114
80 88 114
80 88 114
80 88 114
80 88 114
80 88 114
80 88 114
80 88 114
80 88 114
80 88 114
80 88 114
80 88 114
80 88 114
80 88 114
80 88 114
80 88 114
80 88 114
80 88 114
80 88 114
80 88 114
80 88 114
80 88 114
80 88 114
80 88 114
80 88 114
80 88 114
80 88 114
80 88 114
80 88 114
80 88 114
80 88 114
80 88 114
80 88 114
80 88 114
80 88 114
80 88 114
80 88 114
80 88 114
80 88 114
80 88 114
80 88 114
80 88 114
80 88 114
80 88 114
80 88 114
80 88 114
80 88 114
80 88 114
80 88 114
80 88 114
80 88 114
80 88 114
80 88 114
80 88 114
80 88 114
80 88 114
80 88 114
80 88 114
80 88 114
80 88 114
80 88 114
80 88 114
80 88 114
80 88 114
80 88 114
80 88 114
80 88 114
80 88 114
80 88 114
80 88 114
80 88 114
80 88 114
80 88 114
80 88 114
80 88 114
80 88 114
80 88 114
80 88 114
80 88 114
80 88 114
80 88 114
80 88 114
80 88 114
80 88 114
80 88 114
80 88 114
80 88 114
80 88 114
80 88 114
80 88 114
80 88 114
80 88 114
80 88 114
80 88 114
80 88 114
80 88 114
80 88 114
80 88 114
80 88 114
80 88 114
80 88 114
80 88 114
80 88 114
80 88 114
80 88 114
80 88 114
80 88 114
80 88 114
80 88 114
80 88 114
80 88 114
80 88 114
80 88 114
80 88 114
80 88 114
80 88 114
80 88 114
80 88 114
80 88 114
80 88 114
80 88 114
80 88 114
80 88 114
80 88 114
80 88 114
80 88 114
80 88 114
80 88 114
80 88 114
80 88 114
80 88 114
80 88 114
80 88 114
80 88 114
80 88 114
80 88 114
80 88 114
80 88 114
80 88 114
80 88 114
80 88 114
80 88 114
80 88 114
80 88 114
80 88 114
80 88 114
80 88 114
80 88 114
80 88 114
80 88 114
80 88 114
80 88 114
80 88 114
80 88 114
80 88 114
80 88 114
80 88 114
80 88 114
80 88 114
80 88 114
80 88 114
80 88 114
80 88 114
80 88 114
80 88 114
80 88 114
80 88 114
80 88 114
80 88 114
80 88 114
80 88 114
80 88 114
80 88 114
80 88 114
80 88 114
80 88 114
80 88 114
80 88 114
80 88 114
80 88 114
80 88 114
80 88 114
80 88 114
80 88 114
80 88 114
80 88 114
80 88 114
80 88 114
80 88 114
80 88 114
80 88 114
80 88 114
80 88 114
80 88 114
80 88 114
80 88 114
80 88 114
80 88 114
80 88 114
80 88 114
80 88 114
80 88 114
80 88 114
80 88 114
80 88 114
80 88 114
80 88 114
80 88 114
80 88 114
80 88 114
80 88 114
80 88 114
80 88 114
80 88 114
80 88 114
80 88 114
80 88 114
80 88 114
80 88 114
80 88 114
80 88 114
80 88 114
80 88 114
80 88 114
80 88 114
80 88 114
80 88 114
80 88 114
80 88 114
80 88 114
80 88 114
80 88 114
80 88 114
80 88 114
80 88 114
80 88 114
80 88 114
80 88 114
80 88 114
80 88 114
80 88 114
80 88 114
80 88 114
80 88 114
80 88 114
80 88 114
80 88 114
80 88 114
80 88 114
80 88 114
80 88 114
80 88 114
80 88 114
80 88 114
80 88 114
80 88 114
80 88 114
80 88 114
80 88 114
80 88 114
80 88 114
80 88 114
80 88 114
80 88 114
80 88 114
80 88 114
80 88 114
80 88 114
80 88 114
80 88 114
80 88 114
80 88 114
80 88 114
80 88 114
80 88 114
80 88 114
80 88 114
80 88 114
80 88 114
80 88 114
80 88 114
80 88 114
80 88 114
80 88 114
80 88 114
80 88 114
80 88 114
80 88 114
80 88 114
80 88 114
80 88 114
80 88 114
80 88 114
80 88 114
80 88 114
80 88 114
80 88 114
80 88 114
80 88 114
80 88 114
80 88 114
80 88 114
80 88 114
80 88 114
80 88 114
80 88 114
80 88 114
80 88 114
80 88 114
80 88 114
80 88 114
80 88 114
80 88 114
80 88 114
80 88 114
80 88 114
80 88 114
80 88 114
80 88 114
80 88 114
80 88 114
80 88 114
80 88 114
80 88 114
80 88 114
80 88 114
80 88 114
80 88 114
80 88 114
80 88 114
80 88 114
80 88 114
80 88 114
80 88 114
80 88 114
80 88 114
80 88 114
80 88 114
80 88 114
80 88 114
80 88 114
80 88 114
80 88 114
80 88 114
80 88 114
80 88 114
80 88 114
80 88 114
80 88 114
80 88 114
80 88 114
80 88 114
80 88 114
80 88 114
80 88 114
80 88 114
80 88 114
80 88 114
80 88 114
80 88 114
80 88 114
80 88 114
80 88 114
80 88 114
80 88 114
80 88 114
80 88 114
80 88 114
80 88 114
80 88 114
80 88 114
80 88 114
80 88 114
80 88 114
80 88 114
80 88 114
80 88 114
80 88 114
80 88 114
80 88 114
80 88 114
80 88 114
80 88 114
80 88 114
80 88 114
80 88 114
80 88 114
80 88 114
80 88 114
80 88 114
80 88 114
80 88 114
80 88 114
80 88 114
80 88 114
80 88 114
80 88 114
80 88 114
80 88 114
80 88 114
80 88 114
80 88 114
80 88 114
80 88 114
80 88 114
80 88 114
80 88 114
80 88 114
80 88 114
80 88 114
80 88 114
80 88 114
80 88 114
80 88 114
80 88 114
80 88 114
80 88 114
80 88 114
80 88 114
80 88 114
80 88 114
80 88 114
80 88 114
80 88 114
80 88 114
80 88 114
80 88 114
80 88 114
80 88 114
80 88 114
80 88 114
80 88 114
80 88 114
80 88 114
80 88 114
80 88 114
80 88 114
80 88 114
80 88 114
80 88 114
80 88 114
80 88 114
80 88 114
80 88 114
80 88 114
80 88 114
80 88 114
80 88 114
80 88 114
80 88 114
80 88 114
80 88 114
80 88 114
80 88 114
80 88 114
80 88 114
80 88 114
80 88 114
80 88 114
80 88 114
80 88 114
80 88 114
80 88 114
80 88 114
80 88 114
80 88 114
80 88 114
80 88 114
80 88 114
80 88 114
80 88 114
80 88 114
80 88 114
80 88 114
80 88 114
80 88 114
80 88 114
80 88 114
80 88 114
80 88 114
80 88 114
80 88 114
80 88 114
80 88 114
80 88 114
80 88 114
80 88 114
80 88 114
80 88 114
80 88 114
80 88 114
80 88 114
80 88 114
80 88 114
80 88 114
80 88 114
80 88 114
80 88 114
80 88 114
80 88 114
80 88 114
80 88 114
80 88 114
80 88 114
80 88 114
80 88 114
80 88 114
80 88 114
80 88 114
80 88 114
80 88 114
80 88 114
80 88 114
80 88 114
80 88 114
80 88 114
80 88 114
80 88 114
80 88 114
80 88 114
80 88 114
80 88 114
80 88 114
80 88 114
80 88 114
80 88 114
80 88 114
80 88 114
80 88 114
80 88 114
80 88 114
80 88 114
80 88 114
80 88 114
80 88 114
80 88 114
80 88 114
80 88 114
80 88 114
80 88 114
80 88 114
80 88 114
80 88 114
80 88 114
80 88 114
80 88 114
80 88 114
80 88 114
80 88 114
80 88 114
80 88 114
80 88 114
80 88 114
80 88 114
80 88 114
80 88 114
80 88 114
80 88 114
80 88 114
80 88 114
80 88 114
80 88 114
80 88 114
80 88 114
80 88 114
80 88 114
80 88 114
80 88 114
80 88 114
80 88 114
80 88 114
80 88 114
80 88 114
80 88 114
80 88 114
80 88 114
80 88 114
80 88 114
80 88 114
80 88 114
80 88 114
80 88 114
80 88 114
80 88 114
80 88 114
80 88 114
80 88 114
80 88 114
80 88 114
80 88 114
80 88 114
80 88 114
80 88 114
80 88 114
80 88 114
80 88 114
80 88 114
80 88 114
80 88 114
80 88 114
80 88 114
80 88 114
80 88 114
80 88 114
80 88 114
80 88 114
80 88 114
80 88 114
80 88 114
80 88 114
80 88 114
80 88 114
80 88 114
80 88 114
80 88 114
80 88 114
80 88 114
80 88 114
80 88 114
80 88 114
80 88 114
80 88 114
80 88 114
80 88 114
80 88 114
80 88 114
80 88 114
80 88 114
80 88 114
80 88 114
80 88 114
80 88 114
80 88 114
80 88 114
80 88 114
80 88 114
80 88 114
80 88 114
80 88 114
80 88 114
80 88 114
80 88 114
80 88 114
80 88 114
80 88 114
80 88 114
80 88 114
80 88 114
80 88 114
80 88 114
80 88 114
80 88 114
80 88 114
80 88 114
80 88 114
80 88 114
80 88 114
80 88 114
80 88 114
80 88 114
80 88 114
80 88 114
80 88 114
80 88 114
80 88 114
80 88 114
80 88 114
80 88 114
80 88 114
80 88 114
80 88 114
80 88 114
80 88 114
80 88 114
80 88 114
80 88 114
80 88 114
80 88 114
80 88 114
80 88 114
80 88 114
80 88 114
80 88 114
80 88 114
80 88 114
80 88 114
80 88 114
80 88 114
80 88 114
80 88 114
80 88 114
80 88 114
80 88 114
80 88 114
80 88 114
80 88 114
80 88 114
80 88 114
80 88 114
80 88 114
80 88 114
80 88 114
80 88 114
80 88 114
80 88 114
80 88 114
80 88 114
80 88 114
80 88 114
80 88 114
80 88 114
80 88 114
80 88 114
80 88 114
80 88 114
80 88 114
80 88 114
80 88 114
80 88 114
80 88 114
80 88 114
80 88 114
80 88 114
80 88 114
80 88 114
80 88 114
80 88 114
80 88 114
80 88 114
80 88 114
80 88 114
80 88 114
80 88 114
80 88 114
80 88 114
80 88 114
80 88 114
80 88 114
80 88 114
80 88 114
80 88 114
80 88 114
80 88 114
80 88 114
80 88 114
80 88 114
80 88 114
80 88 114
80 88 114
80 88 114
80 88 114
80 88 114
80 88 114
80 88 114
80 88 114
80 88 114
80 88 114
80 88 114
80 88 114
80 88 114
80 88 114
80 88 114
80 88 114
80 88 114
80 88 114
80 88 114
80 88 114
80 88 114
80 88 114
80 88 114
80 88 114
80 88 114
80 88 114
80 88 114
80 88 114
80 88 114
80 88 114
80 88 114
80 88 114
80 88 114
80 88 114
80 88 114
80 88 114
80 88 114
80 88 114
80 88 114
80 88 114
80 88 114
80 88 114
80 88 114
80 88 114
80 88 114
80 88 114
80 88 114
80 88 114
80 88 114
80 88 114
80 88 114
80 88 114
80 88 114
80 88 114
80 88 114
80 88 114
80 88 114
80 88 114
80 88 114
80 88 114
80 88 114
80 88 114
80 88 114
80 88 114
80 88 114
80 88 114
80 88 114
80 88 114
80 88 114
80 88 114
80 88 114
80 88 114
80 88 114
80 88 114
80 88 114
80 88 114
80 88 114
80 88 114
80 88 114
80 88 114
80 88 114
80 88 114
80 88 114
80 88 114
80 88 114
80 88 114
80 88 114
80 88 114
80 88 114
80 88 114
80 88 114
80 88 114
80 88 114
80 88 114
80 88 114
80 88 114
80 88 114
80 88 114
80 88 114
80 88 114
80 88 114
80 88 114
80 88 114
80 88 114
80 88 114
80 88 114
80 88 114
80 88 114
80 88 114
80 88 114
80 88 114
80 88 114
80 88 114
80 88 114
80 88 114
80 88 114
80 88 114
80 88 114
80 88 114
80 88 114
80 88 114
80 88 114
80 88 114
80 88 114
80 88 114
80 88 114
80 88 114
80 88 114
80 88 114
80 88 114
80 88 114
80 88 114
80 88 114
80 88 114
80 88 114
80 88 114
80 88 114
80 88 114
80 88 114
80 88 114
80 88 114
80 88 114
80 88 114
80 88 114
80 88 114
80 88 114
80 88 114
80 88 114
80 88 114
80 88 114
80 88 114
80 88 114
80 88 114
80 88 114
80 88 114
80 88 114
80 88 114
80 88 114
80 88 114
80 88 114
80 88 114
80 88 114
80 88 114
80 88 114
80 88 114
80 88 114
80 88 114
80 88 114
80 88 114
80 88 114
80 88 114
80 88 114
80 88 114
80 88 114
80 88 114
80 88 114
80 88 114
80 88 114
80 88 114
80 88 114
80 88 114
80 88 114
80 88 114
80 88 114
80 88 114
80 88 114
80 88 114
80 88 114
80 88 114
80 88 114
80 88 114
80 88 114
80 88 114
80 88 114
80 88 114
80 88 114
80 88 114
80 88 114
80 88 114
80 88 114
80 88 114
80 88 114
80 88 114
80 88 114
80 88 114
80 88 114
80 88 114
80 88 114
80 88 114
80 88 114
80 88 114
80 88 114
80 88 114
80 88 114
80 88 114
80 88 114
80 88 114
80 88 114
80 88 114
80 88 114
80 88 114
80 88 114
80 88 114
80 88 114
80 88 114
80 88 114
80 88 114
80 88 114
80 88 114
80 88 114
80 88 114
80 88 114
80 88 114
80 88 114
80 88 114
80 88 114
80 88 114
80 88 114
80 88 114
80 88 114
80 88 114
80 88 114
80 88 114
80 88 114
80 88 114
80 88 114
80 88 114
80 88 114
80 88 114
80 88 114
80 88 114
80 88 114
80 88 114
80 88 114
80 88 114
80 88 114
80 88 114
80 88 114
80 88 114
80 88 114
80 88 114
80 88 114
80 88 114
80 88 114
80 88 114
80 88 114
80 88 114
80 88 114
80 88 114
80 88 114
80 88 114
80 88 114
80 88 114
80 88 114
80 88 114
80 88 114
80 88 114
80 88 114
80 88 114
80 88 114
80 88 114
80 88 114
80 88 114
80 88 114
80 88 114
80 88 114
80 88 114
80 88 114
80 88 114
80 88 114
80 88 114
80 88 114
80 88 114
80 88 114
80 88 114
80 88 114
80 88 114
80 88 114
80 88 114
80 88 114
80 88 114
80 88 114
80 88 114
80 88 114
80 88 114
80 88 114
80 88 114
80 88 114
80 88 114
80 88 114
80 88 114
80 88 114
80 88 114
80 88 114
80 88 114
80 88 114
80 88 114
80 88 114
80 88 114
80 88 114
80 88 114
80 88 114
80 88 114
80 88 114
80 88 114
80 88 114
80 88 114
80 88 114
80 88 114
80 88 114
80 88 114
80 88 114
80 88 114
80 88 114
80 88 114
80 88 114
80 88 114
80 88 114
80 88 114
80 88 114
80 88 114
80 88 114
80 88 114
80 88 114
80 88 114
80 88 114
80 88 114
80 88 114
80 88 114
80 88 114
80 88 114
80 88 114
80 88 114
80 88 114
80 88 114
80 88 114
80 88 114
80 88 114
80 88 114
80 88 114
80 88 114
80 88 114
80 88 114
80 88 114
80 88 114
80 88 114
80 88 114
80 88 114
80 88 114
80 88 114
80 88 114
80 88 114
80 88 114
80 88 114
80 88 114
80 88 114
80 88 114
80 88 114
80 88 114
80 88 114
80 88 114
80 88 114
80 88 114
80 88 114
80 88 114
80 88 114
80 88 114
80 88 114
80 88 114
80 88 114
80 88 114
80 88 114
80 88 114
80 88 114
80 88 114
80 88 114
80 88 114
80 88 114
80 88 114
80 88 114
80 88 114
80 88 114
80 88 114
80 88 114
80 88 114
80 88 114
80 88 114
80 88 114
80 88 114
80 88 114
80 88 114
80 88 114
80 88 114
80 88 114
80 88 114
80 88 114
80 88 114
80 88 114
80 88 114
80 88 114
80 88 114
80 88 114
80 88 114
80 88 114
80 88 114
80 88 114
80 88 114
80 88 114
80 88 114
80 88 114
80 88 114
80 88 114
80 88 114
80 88 114
80 88 114
80 88 114
80 88 114
80 88 114
80 88 114
80 88 114
80 88 114
80 88 114
80 88 114
80 88 114
80 88 114
80 88 114
80 88 114
80 88 114
80 88 114
80 88 114
80 88 114
80 88 114
80 88 114
80 88 114
80 88 114
80 88 114
80 88 114
80 88 114
80 88 114
80 88 114
80 88 114
80 88 114
80 88 114
80 88 114
80 88 114
80 88 114
80 88 114
80 88 114
80 88 114
80 88 114
80 88 114
80 88 114
80 88 114
80 88 114
80 88 114
80 88 114
80 88 114
80 88 114
80 88 114
80 88 114
80 88 114
80 88 114
80 88 114
80 88 114
80 88 114
80 88 114
80 88 114
80 88 114
80 88 114
80 88 114
80 88 114
80 88 114
80 88 114
80 88 114
80 88 114
80 88 114
80 88 114
80 88 114
80 88 114
80 88 114
80 88 114
80 88 114
80 88 114
80 88 114
80 88 114
80 88 114
80 88 114
80 88 114
80 88 114
80 88 114
80 88 114
80 88 114
80 88 114
80 88 114
80 88 114
80 88 114
80 88 114
80 88 114
80 88 114
80 88 114
80 88 114
80 88 114
80 88 114
80 88 114
80 88 114
80 88 114
80 88 114
80 88 114
80 88 114
80 88 114
80 88 114
80 88 114
80 88 114
80 88 114
80 88 114
80 88 114
80 88 114
80 88 114
80 88 114
80 88 114
80 88 114
80 88 114
80 88 114
80 88 114
80 88 114
80 88 114
80 88 114
80 88 114
80 88 114
80 88 114
80 88 114
80 88 114
80 88 114
80 88 114
80 88 114
80 88 114
80 88 114
80 88 114
80 88 114
80 88 114
80 88 114
80 88 114
80 88 114
80 88 114
80 88 114
80 88 114
80 88 114
80 88 114
80 88 114
80 88 114
80 88 114
80 88 114
80 88 114
80 88 114
80 88 114
80 88 114
80 88 114
80 88 114
80 88 114
80 88 114
80 88 114
80 88 114
80 88 114
80 88 114
80 88 114
80 88 114
80 88 114
80 88 114
80 88 114
80 88 114
80 88 114
80 88 114
80 88 114
80 88 114
80 88 114
80 88 114
80 88 114
80 88 114
80 88 114
80 88 114
80 88 114
80 88 114
80 88 114
80 88 114
80 88 114
80 88 114
80 88 114
80 88 114
80 88 114
80 88 114
80 88 114
80 88 114
80 88 114
80 88 114
80 88 114
80 88 114
80 88 114
80 88 114
80 88 114
80 88 114
80 88 114
80 88 114
80 88 114
80 88 114
80 88 114
80 88 114
80 88 114
80 88 114
80 88 114
80 88 114
80 88 114
80 88 114
80 88 114
80 88 114
80 88 114
80 88 114
80 88 114
80 88 114
80 88 114
80 88 114
80 88 114
80 88 114
80 88 114
80 88 114
80 88 114
80 88 114
80 88 114
80 88 114
80 88 114
80 88 114
80 88 114
80 88 114
80 88 114
80 88 114
80 88 114
80 88 114
80 88 114
80 88 114
80 88 114
80 88 114
80 88 114
80 88 114
80 88 114
80 88 114
80 88 114
80 88 114
80 88 114
80 88 114
80 88 114
80 88 114
80 88 114
80 88 114
80 88 114
80 88 114
80 88 114
80 88 114
80 88 114
80 88 114
80 88 114
80 88 114
80 88 114
80 88 114
80 88 114
80 88 114
80 88 114
80 88 114
80 88 114
80 88 114
80 88 114
80 88 114
80 88 114
80 88 114
80 88 114
80 88 114
80 88 114
80 88 114
80 88 114
80 88 114
80 88 114
80 88 114
80 88 114
80 88 114
80 88 114
80 88 114
80 88 114
80 88 114
80 88 114
80 88 114
80 88 114
80 88 114
80 88 114
80 88 114
80 88 114
80 88 114
80 88 114
80 88 114
80 88 114
80 88 114
80 88 114
80 88 114
80 88 114
80 88 114
80 88 114
80 88 114
80 88 114
80 88 114
80 88 114
80 88 114
80 88 114
80 88 114
80 88 114
80 88 114
80 88 114
80 88 114
80 88 114
80 88 114
80 88 114
80 88 114
80 88 114
80 88 114
80 88 114
80 88 114
80 88 114
80 88 114
80 88 114
80 88 114
80 88 114
80 88 114
80 88 114
80 88 114
80 88 114
80 88 114
80 88 114
80 88 114
80 88 114
80 88 114
80 88 114
80 88 114
80 88 114
80 88 114
80 88 114
80 88 114
80 88 114
80 88 114
80 88 114
80 88 114
80 88 114
80 88 114
80 88 114
80 88 114
80 88 114
80 88 114
80 88 114
80 88 114
80 88 114
80 88 114
80 88 114
80 88 114
80 88 114
80 88 114
80 88 114
80 88 114
80 88 114
80 88 114
80 88 114
80 88 114
80 88 114
80 88 114
80 88 114
80 88 114
80 88 114
80 88 114
80 88 114
80 88 114
80 88 114
80 88 114
80 88 114
80 88 114
80 88 114
80 88 114
80 88 114
80 88 114
80 88 114
80 88 114
80 88 114
80 88 114
80 88 114
80 88 114
80 88 114
80 88 114
80 88 114
80 88 114
80 88 114
80 88 114
80 88 114
80 88 114
80 88 114
80 88 114
80 88 114
80 88 114
80 88 114
80 88 114
80 88 114
80 88 114
80 88 114
80 88 114
80 88 114
80 88 114
80 88 114
80 88 114
80 88 114
80 88 114
80 88 114
80 88 114
80 88 114
80 88 114
80 88 114
80 88 114
80 88 114
80 88 114
80 88 114
80 88 114
80 88 114
80 88 114
80 88 114
80 88 114
80 88 114
80 88 114
80 88 114
80 88 114
80 88 114
80 88 114
80 88 114
80 88 114
80 88 114
80 88 114
80 88 114
80 88 114
80 88 114
80 88 114
80 88 114
80 88 114
80 88 114
80 88 114
80 88 114
80 88 114
80 88 114
80 88 114
80 88 114
80 88 114
80 88 114
80 88 114
80 88 114
80 88 114
80 88 114
80 88 114
80 88 114
80 88 114
80 88 114
80 88 114
80 88 114
80 88 114
80 88 114
80 88 114
80 88 114
80 88 114
80 88 114
80 88 114
80 88 114
80 88 114
80 88 114
80 88 114
80 88 114
80 88 114
80 88 114
80 88 114
80 88 114
80 88 114
80 88 114
80 88 114
80 88 114
80 88 114
80 88 114
80 88 114
80 88 114
80 88 114
80 88 114
80 88 114
80 88 114
80 88 114
80 88 114
80 88 114
80 88 114
80 88 114
80 88 114
80 88 114
80 88 114
80 88 114
80 88 114
80 88 114
80 88 114
80 88 114
80 88 114
80 88 114
80 88 114
80 88 114
80 88 114
80 88 114
80 88 114
80 88 114
80 88 114
80 88 114
80 88 114
80 88 114
80 88 114
80 88 114
80 88 114
80 88 114
80 88 114
80 88 114
80 88 114
80 88 114
80 88 114
80 88 114
80 88 114
80 88 114
80 88 114
80 88 114
80 88 114
80 88 114
80 88 114
80 88 114
80 88 114
80 88 114
80 88 114
80 88 114
80 88 114
80 88 114
80 88 114
80 88 114
80 88 114
80 88 114
80 88 114
80 88 114
80 88 114
80 88 114
80 88 114
80 88 114
80 88 114
80 88 114
80 88 114
80 88 114
80 88 114
80 88 114
80 88 114
80 88 114
80 88 114
80 88 114
80 88 114
80 88 114
80 88 114
80 88 114
80 88 114
80 88 114
80 88 114
80 88 114
80 88 114
80 88 114
80 88 114
80 88 114
80 88 114
80 88 114
80 88 114
80 88 114
80 88 114
80 88 114
80 88 114
80 88 114
80 88 114
80 88 114
80 88 114
80 88 114
80 88 114
80 88 114
80 88 114
80 88 114
80 88 114
80 88 114
80 88 114
80 88 114
80 88 114
80 88 114
80 88 114
80 88 114
80 88 114
80 88 114
80 88 114
80 88 114
80 88 114
80 88 114
80 88 114
80 88 114
80 88 114
80 88 114
80 88 114
80 88 114
80 88 114
80 88 114
80 88 114
80 88 114
80 88 114
80 88 114
80 88 114
80 88 114
80 88 114
80 88 114
80 88 114
80 88 114
80 88 114
80 88 114
80 88 114
80 88 114
80 88 114
80 88 114
80 88 114
80 88 114
80 88 114
80 88 114
80 88 114
80 88 114
80 88 114
80 88 114
80 88 114
80 88 114
80 88 114
80 88 114
80 88 114
80 88 114
80 88 114
80 88 114
80 88 114
80 88 114
80 88 114
80 88 114
80 88 114
80 88 114
80 88 114
80 88 114
80 88 114
80 88 114
80 88 114
80 88 114
80 88 114
80 88 114
80 88 114
80 88 114
80 88 114
80 88 114
80 88 114
80 88 114
80 88 114
80 88 114
80 88 114
80 88 114
80 88 114
80 88 114
80 88 114
80 88 114
80 88 114
80 88 114
80 88 114
80 88 114
80 88 114
80 88 114
80 88 114
80 88 114
80 88 114
80 88 114
80 88 114
80 88 114
80 88 114
80 88 114
80 88 114
81 88 110
80 86 106
78 83 102
78 84 103
80 87 108
80 87 113
80 88 114
80 88 114
80 88 114
80 88 114
80 88 114
80 88 114
80 88 114
80 88 114
80 88 114
80 88 114
80 88 114
80 88 114
80 88 114
80 88 114
80 88 114
80 88 114
80 88 114
80 88 114
80 88 114
80 88 114
80 88 114
80 88 114
80 88 114
80 88 114
80 88 114
80 88 114
80 88 114
80 88 114
80 88 114
80 88 114
80 88 114
80 88 114
80 88 114
80 88 114
80 88 114
80 88 114
80 88 114
80 88 114
80 88 114
80 88 114
80 88 114
80 88 114
80 88 114
80 88 114
80 88 114
80 88 114
80 88 114
80 88 114
80 88 114
80 88 114
80 88 114
80 88 114
80 88 114
80 88 114
80 88 114
80 88 114
80 88 114
80 88 114
80 88 114
80 88 114
80 88 114
80 88 114
80 88 114
80 88 114
80 88 114
80 88 114
80 88 114
80 88 114
80 88 114
80 88 114
80 88 114
80 88 114
80 88 114
80 88 114
80 88 114
80 88 114
80 88 114
80 88 114
80 88 114
80 88 114
80 88 114
80 88 114
80 88 114
80 88 114
80 88 114
80 88 114
80 88 114
80 88 114
80 88 114
80 88 114
80 88 114
80 88 114
80 88 114
80 88 114
80 88 114
80 88 114
80 88 114
80 88 114
80 88 114
80 88 114
80 88 114
80 88 114
80 88 114
80 88 114
80 88 114
80 88 114
80 88 114
80 88 114
80 88 114
80 88 114
80 88 114
80 88 114
80 88 114
80 88 114
80 88 114
80 88 114
80 88 114
80 88 114
80 88 114
80 88 114
80 88 114
80 88 114
80 88 114
80 88 114
80 88 114
80 88 114
80 88 114
80 88 114
80 88 114
80 88 114
80 88 114
80 88 114
80 88 114
80 88 114
80 88 114
80 88 114
80 88 114
80 88 114
80 88 114
80 88 114
80 88 114
80 88 114
80 88 114
80 88 114
80 88 114
80 88 114
80 88 114
80 88 114
80 88 114
80 88 114
80 88 114
80 88 114
80 88 114
80 88 114
80 88 114
80 88 114
80 88 114
80 88 114
80 88 114
80 88 114
80 88 114
80 88 114
80 88 114
80 88 114
80 88 114
80 88 114
80 88 114
80 88 114
80 88 114
80 88 114
80 88 114
80 88 114
80 88 114
80 88 114
80 88 114
80 88 114
80 88 114
80 88 114
80 88 114
80 88 114
80 88 114
80 88 114
80 88 114
80 88 114
80 88 114
80 88 114
80 88 114
80 88 114
80 88 114
80 88 114
80 88 114
80 88 114
80 88 114
80 88 114
80 88 114
80 88 114
80 88 114
80 88 114
80 88 114
80 88 114
80 88 114
80 88 114
80 88 114
80 88 114
80 88 114
80 88 114
80 88 114
80 88 114
80 88 114
80 88 114
80 88 114
80 88 114
80 88 114
80 88 114
80 88 114
80 88 114
80 88 114
80 88 114
80 88 114
80 88 114
80 88 114
80 88 114
80 88 114
80 88 114
80 88 114
80 88 114
80 88 114
80 88 114
80 88 114
80 88 114
80 88 114
80 88 114
80 88 114
80 88 114
80 88 114
80 88 114
80 88 114
80 88 114
80 88 114
80 88 114
80 88 114
80 88 114
80 88 114
80 88 114
80 88 114
80 88 114
80 88 114
80 88 114
80 88 114
80 88 114
80 88 114
80 88 114
80 88 114
80 88 114
80 88 114
80 88 114
80 88 114
80 88 114
80 88 114
80 88 114
80 88 114
80 88 114
80 88 114
80 88 114
80 88 114
80 88 114
80 88 114
80 88 114
80 88 114
80 88 114
80 88 114
80 88 114
80 88 114
80 88 114
80 88 114
80 88 114
80 88 114
80 88 114
80 88 114
80 88 114
80 88 114
80 88 114
80 88 114
80 88 114
80 88 114
80 88 114
80 88 114
80 88 114
80 88 114
80 88 114
80 88 114
80 88 114
80 88 114
80 88 114
80 88 114
80 88 114
80 88 114
80 88 114
80 88 114
80 88 114
80 88 114
80 88 114
80 88 114
80 88 114
80 88 114
80 88 114
80 88 114
80 88 114
80 88 114
80 88 114
80 88 114
80 88 114
80 88 114
80 88 114
80 88 114
80 88 114
80 88 114
80 88 114
80 88 114
80 88 114
80 88 114
80 88 114
80 88 114
80 88 114
80 88 114
80 88 114
80 88 114
80 88 114
80 88 114
80 88 114
80 88 114
80 88 114
80 88 114
80 88 114
80 88 114
80 88 114
80 88 114
80 88 114
80 88 114
80 88 114
80 88 114
80 88 114
80 88 114
80 88 114
80 88 114
80 88 114
80 88 114
80 88 114
80 88 114
80 88 114
80 88 114
80 88 114
80 88 114
80 88 114
80 88 114
80 88 114
80 88 114
80 88 114
80 88 114
80 88 114
80 88 114
80 88 114
80 88 114
80 88 114
80 88 114
80 88 114
80 88 114
80 88 114
80 88 114
80 88 114
80 88 114
80 88 114
80 88 114
80 88 114
80 88 114
80 88 114
80 88 114
80 88 114
80 88 114
80 88 114
80 88 114
80 88 114
80 88 114
80 88 114
80 88 114
80 88 114
80 88 114
80 88 114
80 88 114
80 88 114
80 88 114
82 89 113
78 83 99
82 85 94
78 80 87
78 81 87
80 82 89
76 79 86
78 81 88
77 79 87
78 83 96
80 86 108
80 88 114
80 88 114
80 88 114
80 88 114
80 88 114
80 88 114
80 88 114
80 88 114
80 88 114
80 88 114
80 88 114
80 88 114
80 88 114
80 88 114
80 88 114
80 88 114
80 88 114
80 88 114
80 88 114
80 88 114
80 88 114
80 88 114
80 88 114
80 88 114
80 88 114
80 88 114
80 88 114
80 88 114
80 88 114
80 88 114
80 88 114
80 88 114
80 88 114
80 88 114
80 88 114
80 88 114
80 88 114
80 88 114
80 88 114
80 88 114
80 88 114
80 88 114
80 88 114
80 88 114
80 88 114
80 88 114
80 88 114
80 88 114
80 88 114
80 88 114
80 88 114
80 88 114
80 88 114
80 88 114
80 88 114
80 88 114
80 88 114
80 88 114
80 88 114
80 88 114
80 88 114
80 88 114
80 88 114
80 88 114
80 88 114
80 88 114
80 88 114
80 88 114
80 88 114
80 88 114
80 88 114
80 88 114
80 88 114
80 88 114
80 88 114
80 88 114
80 88 114
80 88 114
80 88 114
80 88 114
80 88 114
80 88 114
80 88 114
80 88 114
80 88 114
80 88 114
80 88 114
80 88 114
80 88 114
80 88 114
80 88 114
80 88 114
80 88 114
80 88 114
80 88 114
80 88 114
80 88 114
80 88 114
80 88 114
80 88 114
80 88 114
80 88 114
80 88 114
80 88 114
80 88 114
80 88 114
80 88 114
80 88 114
80 88 114
80 88 114
80 88 114
80 88 114
80 88 114
80 88 114
80 88 114
80 88 114
80 88 114
80 88 114
80 88 114
80 88 114
80 88 114
80 88 114
80 88 114
80 88 114
80 88 114
80 88 114
80 88 114
80 88 114
80 88 114
80 88 114
80 88 114
80 88 114
80 88 114
80 88 114
80 88 114
80 88 114
80 88 114
80 88 114
80 88 114
80 88 114
80 88 114
80 88 114
80 88 114
80 88 114
80 88 114
80 88 114
80 88 114
80 88 114
80 88 114
80 88 114
80 88 114
80 88 114
80 88 114
80 88 114
80 88 114
80 88 114
80 88 114
80 88 114
80 88 114
80 88 114
80 88 114
80 88 114
80 88 114
80 88 114
80 88 114
80 88 114
80 88 114
80 88 114
80 88 114
80 88 114
80 88 114
80 88 114
80 88 114
80 88 114
80 88 114
80 88 114
80 88 114
80 88 114
80 88 114
80 88 114
80 88 114
80 88 114
80 88 114
80 88 114
80 88 114
80 88 114
80 88 114
80 88 114
80 88 114
80 88 114
80 88 114
80 88 114
80 88 114
80 88 114
80 88 114
80 88 114
80 88 114
80 88 114
80 88 114
80 88 114
80 88 114
80 88 114
80 88 114
80 88 114
80 88 114
80 88 114
80 88 114
80 88 114
80 88 114
80 88 114
80 88 114
80 88 114
80 88 114
80 88 114
80 88 114
80 88 114
80 88 114
80 88 114
80 88 114
80 88 114
80 88 114
80 88 114
80 88 114
80 88 114
80 88 114
80 88 114
80 88 114
80 88 114
80 88 114
80 88 114
80 88 114
80 88 114
80 88 114
80 88 114
80 88 114
80 88 114
80 88 114
80 88 114
80 88 114
80 88 114
80 88 114
80 88 114
80 88 114
80 88 114
80 88 114
80 88 114
80 88 114
80 88 114
80 88 114
80 88 114
80 88 114
80 88 114
80 88 114
80 88 114
80 88 114
80 88 114
80 88 114
80 88 114
80 88 114
80 88 114
80 88 114
80 88 114
80 88 114
80 88 114
80 88 114
80 88 114
80 88 114
80 88 114
80 88 114
80 88 114
80 88 114
80 88 114
80 88 114
80 88 114
80 88 114
80 88 114
80 88 114
80 88 114
80 88 114
80 88 114
80 88 114
80 88 114
80 88 114
80 88 114
80 88 114
80 88 114
80 88 114
80 88 114
80 88 114
80 88 114
80 88 114
80 88 114
80 88 114
80 88 114
80 88 114
80 88 114
80 88 114
80 88 114
80 88 114
80 88 114
80 88 114
80 88 114
80 88 114
80 88 114
80 88 114
80 88 114
80 88 114
80 88 114
80 88 114
80 88 114
80 88 114
80 88 114
80 88 114
80 88 114
80 88 114
80 88 114
80 88 114
80 88 114
80 88 114
80 88 114
80 88 114
80 88 114
80 88 114
80 88 114
80 88 114
80 88 114
80 88 114
80 88 114
80 88 114
80 88 114
80 88 114
80 88 114
80 88 114
80 88 114
80 88 114
80 88 114
80 88 114
80 88 114
80 88 114
80 88 114
80 88 114
80 88 114
80 88 114
80 88 114
80 88 114
80 88 114
80 88 114
80 88 114
80 88 114
80 88 114
80 88 114
80 88 114
80 88 114
80 88 114
80 88 114
80 88 114
80 88 114
80 88 114
80 88 114
80 88 114
80 88 114
80 88 114
80 88 114
80 88 114
80 88 114
80 88 114
80 88 114
80 88 114
80 88 114
80 88 114
80 88 114
80 88 114
80 88 114
80 88 114
80 88 114
80 88 114
80 88 114
80 88 114
80 88 114
80 88 114
80 88 114
80 88 114
80 88 114
80 88 114
80 88 114
80 88 114
80 88 114
80 88 114
79 85 103
81 84 92
81 84 91
79 81 87
80 82 89
75 78 84
81 84 91
77 79 86
79 82 89
78 81 88
79 81 88
79 81 88
77 81 94
81 88 112
80 88 114
80 88 114
80 88 114
80 88 114
80 88 114
80 88 114
80 88 114
80 88 114
80 88 114
80 88 114
80 88 114
80 88 114
80 88 114
80 88 114
80 88 114
80 88 114
80 88 114
80 88 114
80 88 114
80 88 114
80 88 114
80 88 114
80 88 114
80 88 114
80 88 114
80 88 114
80 88 114
80 88 114
80 88 114
80 88 114
80 88 114
80 88 114
80 88 114
80 88 114
80 88 114
80 88 114
80 88 114
80 88 114
80 88 114
80 88 114
80 88 114
80 88 114
80 88 114
80 88 114
80 88 114
80 88 114
80 88 114
80 88 114
80 88 114
80 88 114
80 88 114
80 88 114
80 88 114
80 88 114
80 88 114
80 88 114
80 88 114
80 88 114
80 88 114
80 88 114
80 88 114
80 88 114
80 88 114
80 88 114
80 88 114
80 88 114
80 88 114
80 88 114
80 88 114
80 88 114
80 88 114
80 88 114
80 88 114
80 88 114
80 88 114
80 88 114
80 88 114
80 88 114
80 88 114
80 88 114
80 88 114
80 88 114
80 88 114
80 88 114
80 88 114
80 88 114
80 88 114
80 88 114
80 88 114
80 88 114
80 88 114
80 88 114
80 88 114
80 88 114
80 88 114
80 88 114
80 88 114
80 88 114
80 88 114
80 88 114
80 88 114
80 88 114
80 88 114
80 88 114
80 88 114
80 88 114
80 88 114
80 88 114
80 88 114
80 88 114
80 88 114
80 88 114
80 88 114
80 88 114
80 88 114
80 88 114
80 88 114
80 88 114
80 88 114
80 88 114
80 88 114
80 88 114
80 88 114
80 88 114
80 88 114
80 88 114
80 88 114
80 88 114
80 88 114
80 88 114
80 88 114
80 88 114
80 88 114
80 88 114
80 88 114
80 88 114
80 88 114
80 88 114
80 88 114
80 88 114
80 88 114
80 88 114
80 88 114
80 88 114
80 88 114
80 88 114
80 88 114
80 88 114
80 88 114
80 88 114
80 88 114
80 88 114
80 88 114
80 88 114
80 88 114
80 88 114
80 88 114
80 88 114
80 88 114
80 88 114
80 88 114
80 88 114
80 88 114
80 88 114
80 88 114
80 88 114
80 88 114
80 88 114
80 88 114
80 88 114
80 88 114
80 88 114
80 88 114
80 88 114
80 88 114
80 88 114
80 88 114
80 88 114
80 88 114
80 88 114
80 88 114
80 88 114
80 88 114
80 88 114
80 88 114
80 88 114
80 88 114
80 88 114
80 88 114
80 88 114
80 88 114
80 88 114
80 88 114
80 88 114
80 88 114
80 88 114
80 88 114
80 88 114
80 88 114
80 88 114
80 88 114
80 88 114
80 88 114
80 88 114
80 88 114
80 88 114
80 88 114
80 88 114
80 88 114
80 88 114
80 88 114
80 88 114
80 88 114
80 88 114
80 88 114
80 88 114
80 88 114
80 88 114
80 88 114
80 88 114
80 88 114
80 88 114
80 88 114
80 88 114
80 88 114
80 88 114
80 88 114
80 88 114
80 88 114
80 88 114
80 88 114
80 88 114
80 88 114
80 88 114
80 88 114
80 88 114
80 88 114
80 88 114
80 88 114
80 88 114
80 88 114
80 88 114
80 88 114
80 88 114
80 88 114
80 88 114
80 88 114
80 88 114
80 88 114
80 88 114
80 88 114
80 88 114
80 88 114
80 88 114
80 88 114
80 88 114
80 88 114
80 88 114
80 88 114
80 88 114
80 88 114
80 88 114
80 88 114
80 88 114
80 88 114
80 88 114
80 88 114
80 88 114
80 88 114
80 88 114
80 88 114
80 88 114
80 88 114
80 88 114
80 88 114
80 88 114
80 88 114
80 88 114
80 88 114
80 88 114
80 88 114
80 88 114
80 88 114
80 88 114
80 88 114
80 88 114
80 88 114
80 88 114
80 88 114
80 88 114
80 88 114
80 88 114
80 88 114
80 88 114
80 88 114
80 88 114
80 88 114
80 88 114
80 88 114
80 88 114
80 88 114
80 88 114
80 88 114
80 88 114
80 88 114
80 88 114
80 88 114
80 88 114
80 88 114
80 88 114
80 88 114
80 88 114
80 88 114
80 88 114
80 88 114
80 88 114
80 88 114
80 88 114
80 88 114
80 88 114
80 88 114
80 88 114
80 88 114
80 88 114
80 88 114
80 88 114
80 88 114
80 88 114
80 88 114
80 88 114
80 88 114
80 88 114
80 88 114
80 88 114
80 88 114
80 88 114
80 88 114
80 88 114
80 88 114
80 88 114
80 88 114
80 88 114
80 88 114
80 88 114
80 88 114
80 88 114
80 88 114
80 88 114
80 88 114
80 88 114
80 88 114
80 88 114
80 88 114
80 88 114
80 88 114
80 88 114
80 88 114
80 88 114
80 88 114
80 88 114
80 88 114
80 88 114
80 88 114
80 88 114
80 88 114
80 88 114
80 88 114
80 88 114
80 88 114
80 88 114
80 88 114
80 88 114
80 88 114
80 88 114
80 88 114
80 88 114
80 88 114
80 88 114
80 88 114
80 88 114
80 88 114
80 88 114
80 88 114
80 88 114
80 88 114
79 84 99
75 78 84
78 81 87
80 82 89
82 84 91
74 77 83
80 83 90
78 80 87
76 79 86
80 83 90
78 81 88
79 82 89
77 79 86
78 81 88
76 80 89
79 86 109
80 88 114
80 88 114
80 88 114
80 88 114
80 88 114
80 88 114
80 88 114
80 88 114
80 88 114
80 88 114
80 88 114
80 88 114
80 88 114
80 88 114
80 88 114
80 88 114
80 88 114
80 88 114
80 88 114
80 88 114
80 88 114
80 88 114
80 88 114
80 88 114
80 88 114
80 88 114
80 88 114
80 88 114
80 88 114
80 88 114
80 88 114
80 88 114
80 88 114
80 88 114
80 88 114
80 88 114
80 88 114
80 88 114
80 88 114
80 88 114
80 88 114
80 88 114
80 88 114
80 88 114
80 88 114
80 88 114
80 88 114
80 88 114
80 88 114
80 88 114
80 88 114
80 88 114
80 88 114
80 88 114
80 88 114
80 88 114
80 88 114
80 88 114
80 88 114
80 88 114
80 88 114
80 88 114
80 88 114
80 88 114
80 88 114
80 88 114
80 88 114
80 88 114
80 88 114
80 88 114
80 88 114
80 88 114
80 88 114
80 88 114
80 88 114
80 88 114
80 88 114
80 88 114
80 88 114
80 88 114
80 88 114
80 88 114
80 88 114
80 88 114
80 88 114
80 88 114
80 88 114
80 88 114
80 88 114
80 88 114
80 88 114
80 88 114
80 88 114
80 88 114
80 88 114
80 88 114
80 88 114
80 88 114
80 88 114
80 88 114
80 88 114
80 88 114
80 88 114
80 88 114
80 88 114
80 88 114
80 88 114
80 88 114
80 88 114
80 88 114
80 88 114
80 88 114
80 88 114
80 88 114
80 88 114
80 88 114
80 88 114
80 88 114
80 88 114
80 88 114
80 88 114
80 88 114
80 88 114
80 88 114
80 88 114
80 88 114
80 88 114
80 88 114
80 88 114
80 88 114
80 88 114
80 88 114
80 88 114
80 88 114
80 88 114
80 88 114
80 88 114
80 88 114
80 88 114
80 88 114
80 88 114
80 88 114
80 88 114
80 88 114
80 88 114
80 88 114
80 88 114
80 88 114
80 88 114
80 88 114
80 88 114
80 88 114
80 88 114
80 88 114
80 88 114
80 88 114
80 88 114
80 88 114
80 88 114
80 88 114
80 88 114
80 88 114
80 88 114
80 88 114
80 88 114
80 88 114
80 88 114
80 88 114
80 88 114
80 88 114
80 88 114
80 88 114
80 88 114
80 88 114
80 88 114
80 88 114
80 88 114
80 88 114
80 88 114
80 88 114
80 88 114
80 88 114
80 88 114
80 88 114
80 88 114
80 88 114
80 88 114
80 88 114
80 88 114
80 88 114
80 88 114
80 88 114
80 88 114
80 88 114
80 88 114
80 88 114
80 88 114
80 88 114
80 88 114
80 88 114
80 88 114
80 88 114
80 88 114
80 88 114
80 88 114
80 88 114
80 88 114
80 88 114
80 88 114
80 88 114
80 88 114
80 88 114
80 88 114
80 88 114
80 88 114
80 88 114
80 88 114
80 88 114
80 88 114
80 88 114
80 88 114
80 88 114
80 88 114
80 88 114
80 88 114
80 88 114
80 88 114
80 88 114
80 88 114
80 88 114
80 88 114
80 88 114
80 88 114
80 88 114
80 88 114
80 88 114
80 88 114
80 88 114
80 88 114
80 88 114
80 88 114
80 88 114
80 88 114
80 88 114
80 88 114
80 88 114
80 88 114
80 88 114
80 88 114
80 88 114
80 88 114
80 88 114
80 88 114
80 88 114
80 88 114
80 88 114
80 88 114
80 88 114
80 88 114
80 88 114
80 88 114
80 88 114
80 88 114
80 88 114
80 88 114
80 88 114
80 88 114
80 88 114
80 88 114
80 88 114
80 88 114
80 88 114
80 88 114
80 88 114
80 88 114
80 88 114
80 88 114
80 88 114
80 88 114
80 88 114
80 88 114
80 88 114
80 88 114
80 88 114
80 88 114
80 88 114
80 88 114
80 88 114
80 88 114
80 88 114
80 88 114
80 88 114
80 88 114
80 88 114
80 88 114
80 88 114
80 88 114
80 88 114
80 88 114
80 88 114
80 88 114
80 88 114
80 88 114
80 88 114
80 88 114
80 88 114
80 88 114
80 88 114
80 88 114
80 88 114
80 88 114
80 88 114
80 88 114
80 88 114
80 88 114
80 88 114
80 88 114
80 88 114
80 88 114
80 88 114
80 88 114
80 88 114
80 88 114
80 88 114
80 88 114
80 88 114
80 88 114
80 88 114
80 88 114
80 88 114
80 88 114
80 88 114
80 88 114
80 88 114
80 88 114
80 88 114
80 88 114
80 88 114
80 88 114
80 88 114
80 88 114
80 88 114
80 88 114
80 88 114
80 88 114
80 88 114
80 88 114
80 88 114
80 88 114
80 88 114
80 88 114
80 88 114
80 88 114
80 88 114
80 88 114
80 88 114
80 88 114
80 88 114
80 88 114
80 88 114
80 88 114
80 88 114
80 88 114
80 88 114
80 88 114
80 88 114
80 88 114
80 88 114
80 88 114
80 88 114
80 88 114
80 88 114
80 88 114
80 88 114
80 88 114
80 88 114
80 88 114
80 88 114
80 88 114
80 88 114
80 88 114
80 88 114
80 88 114
79 84 101
80 82 88
76 78 85
77 79 86
81 84 91
81 84 90
78 81 88
81 84 91
79 82 89
77 80 86
80 83 90
75 78 84
79 82 89
76 79 85
77 80 87
76 79 85
78 82 90
81 88 111
80 88 114
80 88 114
80 88 114
80 88 114
80 88 114
80 88 114
80 88 114
80 88 114
80 88 114
80 88 114
80 88 114
80 88 114
80 88 114
80 88 114
80 88 114
80 88 114
80 88 114
80 88 114
80 88 114
80 88 114
80 88 114
80 88 114
80 88 114
80 88 114
80 88 114
80 88 114
80 88 114
80 88 114
80 88 114
80 88 114
80 88 114
80 88 114
80 88 114
80 88 114
80 88 114
80 88 114
80 88 114
80 88 114
80 88 114
80 88 114
80 88 114
80 88 114
80 88 114
80 88 114
80 88 114
80 88 114
80 88 114
80 88 114
80 88 114
80 88 114
80 88 114
80 88 114
80 88 114
80 88 114
80 88 114
80 88 114
80 88 114
80 88 114
80 88 114
80 88 114
80 88 114
80 88 114
80 88 114
80 88 114
80 88 114
80 88 114
80 88 114
80 88 114
80 88 114
80 88 114
80 88 114
80 88 114
80 88 114
80 88 114
80 88 114
80 88 114
80 88 114
80 88 114
80 88 114
80 88 114
80 88 114
80 88 114
80 88 114
80 88 114
80 88 114
80 88 114
80 88 114
80 88 114
80 88 114
80 88 114
80 88 114
80 88 114
80 88 114
80 88 114
80 88 114
80 88 114
80 88 114
80 88 114
80 88 114
80 88 114
80 88 114
80 88 114
80 88 114
80 88 114
80 88 114
80 88 114
80 88 114
80 88 114
80 88 114
80 88 114
80 88 114
80 88 114
80 88 114
80 88 114
80 88 114
80 88 114
80 88 114
80 88 114
80 88 114
80 88 114
80 88 114
80 88 114
80 88 114
80 88 114
80 88 114
80 88 114
80 88 114
80 88 114
80 88 114
80 88 114
80 88 114
80 88 114
80 88 114
80 88 114
80 88 114
80 88 114
80 88 114
80 88 114
80 88 114
80 88 114
80 88 114
80 88 114
80 88 114
80 88 114
80 88 114
80 88 114
80 88 114
80 88 114
80 88 114
80 88 114
80 88 114
80 88 114
80 88 114
80 88 114
80 88 114
80 88 114
80 88 114
80 88 114
80 88 114
80 88 114
80 88 114
80 88 114
80 88 114
80 88 114
80 88 114
80 88 114
80 88 114
80 88 114
80 88 114
80 88 114
80 88 114
80 88 114
80 88 114
80 88 114
80 88 114
80 88 114
80 88 114
80 88 114
80 88 114
80 88 114
80 88 114
80 88 114
80 88 114
80 88 114
80 88 114
80 88 114
80 88 114
80 88 114
80 88 114
80 88 114
80 88 114
80 88 114
80 88 114
80 88 114
80 88 114
80 88 114
80 88 114
80 88 114
80 88 114
80 88 114
80 88 114
80 88 114
80 88 114
80 88 114
80 88 114
80 88 114
80 88 114
80 88 114
80 88 114
80 88 114
80 88 114
80 88 114
80 88 114
80 88 114
80 88 114
80 88 114
80 88 114
80 88 114
80 88 114
80 88 114
80 88 114
80 88 114
80 88 114
80 88 114
80 88 114
80 88 114
80 88 114
80 88 114
80 88 114
80 88 114
80 88 114
80 88 114
80 88 114
80 88 114
80 88 114
80 88 114
80 88 114
80 88 114
80 88 114
80 88 114
80 88 114
80 88 114
80 88 114
80 88 114
80 88 114
80 88 114
80 88 114
80 88 114
80 88 114
80 88 114
80 88 114
80 88 114
80 88 114
80 88 114
80 88 114
80 88 114
80 88 114
80 88 114
80 88 114
80 88 114
80 88 114
80 88 114
80 88 114
80 88 114
80 88 114
80 88 114
80 88 114
80 88 114
80 88 114
80 88 114
80 88 114
80 88 114
80 88 114
80 88 114
80 88 114
80 88 114
80 88 114
80 88 114
80 88 114
80 88 114
80 88 114
80 88 114
80 88 114
80 88 114
80 88 114
80 88 114
80 88 114
80 88 114
80 88 114
80 88 114
80 88 114
80 88 114
80 88 114
80 88 114
80 88 114
80 88 114
80 88 114
80 88 114
80 88 114
80 88 114
80 88 114
80 88 114
80 88 114
80 88 114
80 88 114
80 88 114
80 88 114
80 88 114
80 88 114
80 88 114
80 88 114
80 88 114
80 88 114
80 88 114
80 88 114
80 88 114
80 88 114
80 88 114
80 88 114
80 88 114
80 88 114
80 88 114
80 88 114
80 88 114
80 88 114
80 88 114
80 88 114
80 88 114
80 88 114
80 88 114
80 88 114
80 88 114
80 88 114
80 88 114
80 88 114
80 88 114
80 88 114
80 88 114
80 88 114
80 88 114
80 88 114
80 88 114
80 88 114
80 88 114
80 88 114
80 88 114
80 88 114
80 88 114
80 88 114
80 88 114
80 88 114
80 88 114
80 88 114
80 88 114
80 88 114
80 88 114
80 88 114
80 88 114
80 88 114
80 88 114
80 88 114
80 88 114
80 88 114
80 88 114
80 88 114
80 88 114
80 88 114
80 88 114
80 88 114
80 88 114
80 88 114
80 88 114
80 88 114
80 88 114
80 88 114
80 88 114
80 88 114
80 88 114
80 88 114
80 88 114
80 88 114
80 87 109
80 83 90
79 82 88
79 82 88
77 80 86
82 85 92
78 80 87
79 82 89
77 80 87
79 82 89
80 82 90
80 83 91
80 83 90
74 76 83
80 83 90
79 82 89
79 82 89
77 80 87
78 82 94
81 88 114
80 88 114
80 88 114
80 88 114
80 88 114
80 88 114
80 88 114
80 88 114
80 88 114
80 88 114
80 88 114
80 88 114
80 88 114
80 88 114
80 88 114
80 88 114
80 88 114
80 88 114
80 88 114
80 88 114
80 88 114
80 88 114
80 88 114
80 88 114
80 88 114
80 88 114
80 88 114
80 88 114
80 88 114
80 88 114
80 88 114
80 88 114
80 88 114
80 88 114
80 88 114
80 88 114
80 88 114
80 88 114
80 88 114
80 88 114
80 88 114
80 88 114
80 88 114
80 88 114
80 88 114
80 88 114
80 88 114
80 88 114
80 88 114
80 88 114
80 88 114
80 88 114
80 88 114
80 88 114
80 88 114
80 88 114
80 88 114
80 88 114
80 88 114
80 88 114
80 88 114
80 88 114
80 88 114
80 88 114
80 88 114
80 88 114
80 88 114
80 88 114
80 88 114
80 88 114
80 88 114
80 88 114
80 88 114
80 88 114
80 88 114
80 88 114
80 88 114
80 88 114
80 88 114
80 88 114
80 88 114
80 88 114
80 88 114
80 88 114
80 88 114
80 88 114
80 88 114
80 88 114
80 88 114
80 88 114
80 88 114
80 88 114
80 88 114
80 88 114
80 88 114
80 88 114
80 88 114
80 88 114
80 88 114
80 88 114
80 88 114
80 88 114
80 88 114
80 88 114
80 88 114
80 88 114
80 88 114
80 88 114
80 88 114
80 88 114
80 88 114
80 88 114
80 88 114
80 88 114
80 88 114
80 88 114
80 88 114
80 88 114
80 88 114
80 88 114
80 88 114
80 88 114
80 88 114
80 88 114
80 88 114
80 88 114
80 88 114
80 88 114
80 88 114
80 88 114
80 88 114
80 88 114
80 88 114
80 88 114
80 88 114
80 88 114
80 88 114
80 88 114
80 88 114
80 88 114
80 88 114
80 88 114
80 88 114
80 88 114
80 88 114
80 88 114
80 88 114
80 88 114
80 88 114
80 88 114
80 88 114
80 88 114
80 88 114
80 88 114
80 88 114
80 88 114
80 88 114
80 88 114
80 88 114
80 88 114
80 88 114
80 88 114
80 88 114
80 88 114
80 88 114
80 88 114
80 88 114
80 88 114
80 88 114
80 88 114
80 88 114
80 88 114
80 88 114
80 88 114
80 88 114
80 88 114
80 88 114
80 88 114
80 88 114
80 88 114
80 88 114
80 88 114
80 88 114
80 88 114
80 88 114
80 88 114
80 88 114
80 88 114
80 88 114
80 88 114
80 88 114
80 88 114
80 88 114
80 88 114
80 88 114
80 88 114
80 88 114
80 88 114
80 88 114
80 88 114
80 88 114
80 88 114
80 88 114
80 88 114
80 88 114
80 88 114
80 88 114
80 88 114
80 88 114
80 88 114
80 88 114
80 88 114
80 88 114
80 88 114
80 88 114
80 88 114
80 88 114
80 88 114
80 88 114
80 88 114
80 88 114
80 88 114
80 88 114
80 88 114
80 88 114
80 88 114
80 88 114
80 88 114
80 88 114
80 88 114
80 88 114
80 88 114
80 88 114
80 88 114
80 88 114
80 88 114
80 88 114
80 88 114
80 88 114
80 88 114
80 88 114
80 88 114
80 88 114
80 88 114
80 88 114
80 88 114
80 88 114
80 88 114
80 88 114
80 88 114
80 88 114
80 88 114
80 88 114
80 88 114
80 88 114
80 88 114
80 88 114
80 88 114
80 88 114
80 88 114
80 88 114
80 88 114
80 88 114
80 88 114
80 88 114
80 88 114
80 88 114
80 88 114
80 88 114
80 88 114
80 88 114
80 88 114
80 88 114
80 88 114
80 88 114
80 88 114
80 88 114
80 88 114
80 88 114
80 88 114
80 88 114
80 88 114
80 88 114
80 88 114
80 88 114
80 88 114
80 88 114
80 88 114
80 88 114
80 88 114
80 88 114
80 88 114
80 88 114
80 88 114
80 88 114
80 88 114
80 88 114
80 88 114
80 88 114
80 88 114
80 88 114
80 88 114
80 88 114
80 88 114
80 88 114
80 88 114
80 88 114
80 88 114
80 88 114
80 88 114
80 88 114
80 88 114
80 88 114
80 88 114
80 88 114
80 88 114
80 88 114
80 88 114
80 88 114
80 88 114
80 88 114
80 88 114
80 88 114
80 88 114
80 88 114
80 88 114
80 88 114
80 88 114
80 88 114
80 88 114
80 88 114
80 88 114
80 88 114
80 88 114
80 88 114
80 88 114
80 88 114
80 88 114
80 88 114
80 88 114
80 88 114
80 88 114
80 88 114
80 88 114
80 88 114
80 88 114
80 88 114
80 88 114
80 88 114
80 88 114
80 88 114
80 88 114
80 88 114
80 88 114
80 88 114
80 88 114
80 88 114
80 88 114
80 88 114
80 88 114
80 88 114
80 88 114
80 88 114
80 88 114
80 88 114
80 88 114
80 88 114
80 88 114
80 88 114
80 88 114
80 88 114
80 88 114
80 88 114
80 88 114
80 88 114
80 88 114
80 88 114
80 88 114
80 88 114
80 88 114
80 88 114
78 82 95
78 81 88
81 84 91
78 81 87
81 83 90
75 78 84
76 79 86
77 80 87
79 81 88
77 80 87
79 82 89
76 78 85
78 81 88
80 83 90
79 82 89
77 80 87
78 81 88
77 80 87
78 81 88
80 86 105
80 88 114
80 88 114
80 88 114
80 88 114
80 88 114
80 88 114
80 88 114
80 88 114
80 88 114
80 88 114
80 88 114
80 88 114
80 88 114
80 88 114
80 88 114
80 88 114
80 88 114
80 88 114
80 88 114
80 88 114
80 88 114
80 88 114
80 88 114
80 88 114
80 88 114
80 88 114
80 88 114
80 88 114
80 88 114
80 88 114
80 88 114
80 88 114
80 88 114
80 88 114
80 88 114
80 88 114
80 88 114
80 88 114
80 88 114
80 88 114
80 88 114
80 88 114
80 88 114
80 88 114
80 88 114
80 88 114
80 88 114
80 88 114
80 88 114
80 88 114
80 88 114
80 88 114
80 88 114
80 88 114
80 88 114
80 88 114
80 88 114
80 88 114
80 88 114
80 88 114
80 88 114
80 88 114
80 88 114
80 88 114
80 88 114
80 88 114
80 88 114
80 88 114
80 88 114
80 88 114
80 88 114
80 88 114
80 88 114
80 88 114
80 88 114
80 88 114
80 88 114
80 88 114
80 88 114
80 88 114
80 88 114
80 88 114
80 88 114
80 88 114
80 88 114
80 88 114
80 88 114
80 88 114
80 88 114
80 88 114
80 88 114
80 88 114
80 88 114
80 88 114
80 88 114
80 88 114
80 88 114
80 88 114
80 88 114
80 88 114
80 88 114
80 88 114
80 88 114
80 88 114
80 88 114
80 88 114
80 88 114
80 88 114
80 88 114
80 88 114
80 88 114
80 88 114
80 88 114
80 88 114
80 88 114
80 88 114
80 88 114
80 88 114
80 88 114
80 88 114
80 88 114
80 88 114
80 88 114
80 88 114
80 88 114
80 88 114
80 88 114
80 88 114
80 88 114
80 88 114
80 88 114
80 88 114
80 88 114
80 88 114
80 88 114
80 88 114
80 88 114
80 88 114
80 88 114
80 88 114
80 88 114
80 88 114
80 88 114
80 88 114
80 88 114
80 88 114
80 88 114
80 88 114
80 88 114
80 88 114
80 88 114
80 88 114
80 88 114
80 88 114
80 88 114
80 88 114
80 88 114
80 88 114
80 88 114
80 88 114
80 88 114
80 88 114
80 88 114
80 88 114
80 88 114
80 88 114
80 88 114
80 88 114
80 88 114
80 88 114
80 88 114
80 88 114
80 88 114
80 88 114
80 88 114
80 88 114
80 88 114
80 88 114
80 88 114
80 88 114
80 88 114
80 88 114
80 88 114
80 88 114
80 88 114
80 88 114
80 88 114
80 88 114
80 88 114
80 88 114
80 88 114
80 88 114
80 88 114
80 88 114
80 88 114
80 88 114
80 88 114
80 88 114
80 88 114
80 88 114
80 88 114
80 88 114
80 88 114
80 88 114
80 88 114
80 88 114
80 88 114
80 88 114
80 88 114
80 88 114
80 88 114
80 88 114
80 88 114
80 88 114
80 88 114
80 88 114
80 88 114
80 88 114
80 88 114
80 88 114
80 88 114
80 88 114
80 88 114
80 88 114
80 88 114
80 88 114
80 88 114
80 88 114
80 88 114
80 88 114
80 88 114
80 88 114
80 88 114
80 88 114
80 88 114
80 88 114
80 88 114
80 88 114
80 88 114
80 88 114
80 88 114
80 88 114
80 88 114
80 88 114
80 88 114
80 88 114
80 88 114
80 88 114
80 88 114
80 88 114
80 88 114
80 88 114
80 88 114
80 88 114
80 88 114
80 88 114
80 88 114
80 88 114
80 88 114
80 88 114
80 88 114
80 88 114
80 88 114
80 88 114
80 88 114
80 88 114
80 88 114
80 88 114
80 88 114
80 88 114
80 88 114
80 88 114
80 88 114
80 88 114
80 88 114
80 88 114
80 88 114
80 88 114
80 88 114
80 88 114
80 88 114
80 88 114
80 88 114
80 88 114
80 88 114
80 88 114
80 88 114
80 88 114
80 88 114
80 88 114
80 88 114
80 88 114
80 88 114
80 88 114
80 88 114
80 88 114
80 88 114
80 88 114
80 88 114
80 88 114
80 88 114
80 88 114
80 88 114
80 88 114
80 88 114
80 88 114
80 88 114
80 88 114
80 88 114
80 88 114
80 88 114
80 88 114
80 88 114
80 88 114
80 88 114
80 88 114
80 88 114
80 88 114
80 88 114
80 88 114
80 88 114
80 88 114
80 88 114
80 88 114
80 88 114
80 88 114
80 88 114
80 88 114
80 88 114
80 88 114
80 88 114
80 88 114
80 88 114
80 88 114
80 88 114
80 88 114
80 88 114
80 88 114
80 88 114
80 88 114
80 88 114
80 88 114
80 88 114
80 88 114
80 88 114
80 88 114
80 88 114
80 88 114
80 88 114
80 88 114
80 88 114
80 88 114
80 88 114
80 88 114
80 88 114
80 88 114
80 88 114
80 88 114
80 88 114
80 88 114
80 88 114
80 88 114
80 88 114
80 88 114
80 88 114
80 88 114
80 88 114
80 88 114
80 88 114
80 88 114
80 88 114
80 88 114
80 88 114
80 88 114
80 88 114
80 88 114
80 88 114
80 88 114
80 88 114
81 88 112
76 79 86
77 79 86
78 81 87
79 82 88
77 80 86
77 80 86
79 81 88
81 83 91
78 81 88
79 81 88
78 81 88
77 80 87
78 81 88
78 81 88
78 81 88
81 84 91
82 85 92
81 85 92
78 81 88
76 80 90
80 88 114
80 88 114
80 88 114
80 88 114
80 88 114
80 88 114
80 88 114
80 88 114
80 88 114
80 88 114
80 88 114
80 88 114
80 88 114
80 88 114
80 88 114
80 88 114
80 88 114
80 88 114
80 88 114
80 88 114
80 88 114
80 88 114
80 88 114
80 88 114
80 88 114
80 88 114
80 88 114
80 88 114
80 88 114
80 88 114
80 88 114
80 88 114
80 88 114
80 88 114
80 88 114
80 88 114
80 88 114
80 88 114
80 88 114
80 88 114
80 88 114
80 88 114
80 88 114
80 88 114
80 88 114
80 88 114
80 88 114
80 88 114
80 88 114
80 88 114
80 88 114
80 88 114
80 88 114
80 88 114
80 88 114
80 88 114
80 88 114
80 88 114
80 88 114
80 88 114
80 88 114
80 88 114
80 88 114
80 88 114
80 88 114
80 88 114
80 88 114
80 88 114
80 88 114
80 88 114
80 88 114
80 88 114
80 88 114
80 88 114
80 88 114
80 88 114
80 88 114
80 88 114
80 88 114
80 88 114
80 88 114
80 88 114
80 88 114
80 88 114
80 88 114
80 88 114
80 88 114
80 88 114
80 88 114
80 88 114
80 88 114
80 88 114
80 88 114
80 88 114
80 88 114
80 88 114
80 88 114
80 88 114
80 88 114
80 88 114
80 88 114
80 88 114
80 88 114
80 88 114
80 88 114
80 88 114
80 88 114
80 88 114
80 88 114
80 88 114
80 88 114
80 88 114
80 88 114
80 88 114
80 88 114
80 88 114
80 88 114
80 88 114
80 88 114
80 88 114
80 88 114
80 88 114
80 88 114
80 88 114
80 88 114
80 88 114
80 88 114
80 88 114
80 88 114
80 88 114
80 88 114
80 88 114
80 88 114
80 88 114
80 88 114
80 88 114
80 88 114
80 88 114
80 88 114
80 88 114
80 88 114
80 88 114
80 88 114
80 88 114
80 88 114
80 88 114
80 88 114
80 88 114
80 88 114
80 88 114
80 88 114
80 88 114
80 88 114
80 88 114
80 88 114
80 88 114
80 88 114
80 88 114
80 88 114
80 88 114
80 88 114
80 88 114
80 88 114
80 88 114
80 88 114
80 88 114
80 88 114
80 88 114
80 88 114
80 88 114
80 88 114
80 88 114
80 88 114
80 88 114
80 88 114
80 88 114
80 88 114
80 88 114
80 88 114
80 88 114
80 88 114
80 88 114
80 88 114
80 88 114
80 88 114
80 88 114
80 88 114
80 88 114
80 88 114
80 88 114
80 88 114
80 88 114
80 88 114
80 88 114
80 88 114
80 88 114
80 88 114
80 88 114
80 88 114
80 88 114
80 88 114
80 88 114
80 88 114
80 88 114
80 88 114
80 88 114
80 88 114
80 88 114
80 88 114
80 88 114
80 88 114
80 88 114
80 88 114
80 88 114
80 88 114
80 88 114
80 88 114
80 88 114
80 88 114
80 88 114
80 88 114
80 88 114
80 88 114
80 88 114
80 88 114
80 88 114
80 88 114
80 88 114
80 88 114
80 88 114
80 88 114
80 88 114
80 88 114
80 88 114
80 88 114
80 88 114
80 88 114
80 88 114
80 88 114
80 88 114
80 88 114
80 88 114
80 88 114
80 88 114
80 88 114
80 88 114
80 88 114
80 88 114
80 88 114
80 88 114
80 88 114
80 88 114
80 88 114
80 88 114
80 88 114
80 88 114
80 88 114
80 88 114
80 88 114
80 88 114
80 88 114
80 88 114
80 88 114
80 88 114
80 88 114
80 88 114
80 88 114
80 88 114
80 88 114
80 88 114
80 88 114
80 88 114
80 88 114
80 88 114
80 88 114
80 88 114
80 88 114
80 88 114
80 88 114
80 88 114
80 88 114
80 88 114
80 88 114
80 88 114
80 88 114
80 88 114
80 88 114
80 88 114
80 88 114
80 88 114
80 88 114
80 88 114
80 88 114
80 88 114
80 88 114
80 88 114
80 88 114
80 88 114
80 88 114
80 88 114
80 88 114
80 88 114
80 88 114
80 88 114
80 88 114
80 88 114
80 88 114
80 88 114
80 88 114
80 88 114
80 88 114
80 88 114
80 88 114
80 88 114
80 88 114
80 88 114
80 88 114
80 88 114
80 88 114
80 88 114
80 88 114
80 88 114
80 88 114
80 88 114
80 88 114
80 88 114
80 88 114
80 88 114
80 88 114
80 88 114
80 88 114
80 88 114
80 88 114
80 88 114
80 88 114
80 88 114
80 88 114
80 88 114
80 88 114
80 88 114
80 88 114
80 88 114
80 88 114
80 88 114
80 88 114
80 88 114
80 88 114
80 88 114
80 88 114
80 88 114
80 88 114
80 88 114
80 88 114
80 88 114
80 88 114
80 88 114
80 88 114
80 88 114
80 88 114
80 88 114
80 88 114
80 88 114
80 88 114
80 88 114
80 88 114
80 88 114
80 88 114
80 88 114
80 88 114
80 88 114
80 88 114
80 88 114
80 88 114
80 88 114
80 88 114
80 88 114
80 88 114
80 88 114
80 88 114
78 84 102
77 80 86
77 80 86
76 78 85
79 82 89
77 79 86
80 83 90
77 80 87
79 82 89
79 82 89
77 80 87
80 83 90
76 79 85
79 82 89
78 80 87
78 81 88
77 80 87
76 79 85
81 83 91
80 83 90
77 80 87
80 87 110
80 88 114
80 88 114
80 88 114
80 88 114
80 88 114
80 88 114
80 88 114
80 88 114
80 88 114
80 88 114
80 88 114
80 88 114
80 88 114
80 88 114
80 88 114
80 88 114
80 88 114
80 88 114
80 88 114
80 88 114
80 88 114
80 88 114
80 88 114
80 88 114
80 88 114
80 88 114
80 88 114
80 88 114
80 88 114
80 88 114
80 88 114
80 88 114
80 88 114
80 88 114
80 88 114
80 88 114
80 88 114
80 88 114
80 88 114
80 88 114
80 88 114
80 88 114
80 88 114
80 88 114
80 88 114
80 88 114
80 88 114
80 88 114
80 88 114
80 88 114
80 88 114
80 88 114
80 88 114
80 88 114
80 88 114
80 88 114
80 88 114
80 88 114
80 88 114
80 88 114
80 88 114
80 88 114
80 88 114
80 88 114
80 88 114
80 88 114
80 88 114
80 88 114
80 88 114
80 88 114
80 88 114
80 88 114
80 88 114
80 88 114
80 88 114
80 88 114
80 88 114
80 88 114
80 88 114
80 88 114
80 88 114
80 88 114
80 88 114
80 88 114
80 88 114
80 88 114
80 88 114
80 88 114
80 88 114
80 88 114
80 88 114
80 88 114
80 88 114
80 88 114
80 88 114
80 88 114
80 88 114
80 88 114
80 88 114
80 88 114
80 88 114
80 88 114
80 88 114
80 88 114
80 88 114
80 88 114
80 88 114
80 88 114
80 88 114
80 88 114
80 88 114
80 88 114
80 88 114
80 88 114
80 88 114
80 88 114
80 88 114
80 88 114
80 88 114
80 88 114
80 88 114
80 88 114
80 88 114
80 88 114
80 88 114
80 88 114
80 88 114
80 88 114
80 88 114
80 88 114
80 88 114
80 88 114
80 88 114
80 88 114
80 88 114
80 88 114
80 88 114
80 88 114
80 88 114
80 88 114
80 88 114
80 88 114
80 88 114
80 88 114
80 88 114
80 88 114
80 88 114
80 88 114
80 88 114
80 88 114
80 88 114
80 88 114
80 88 114
80 88 114
80 88 114
80 88 114
80 88 114
80 88 114
80 88 114
80 88 114
80 88 114
80 88 114
80 88 114
80 88 114
80 88 114
80 88 114
80 88 114
80 88 114
80 88 114
80 88 114
80 88 114
80 88 114
80 88 114
80 88 114
80 88 114
80 88 114
80 88 114
80 88 114
80 88 114
80 88 114
80 88 114
80 88 114
80 88 114
80 88 114
80 88 114
80 88 114
80 88 114
80 88 114
80 88 114
80 88 114
80 88 114
80 88 114
80 88 114
80 88 114
80 88 114
80 88 114
80 88 114
80 88 114
80 88 114
80 88 114
80 88 114
80 88 114
80 88 114
80 88 114
80 88 114
80 88 114
80 88 114
80 88 114
80 88 114
80 88 114
80 88 114
80 88 114
80 88 114
80 88 114
80 88 114
80 88 114
80 88 114
80 88 114
80 88 114
80 88 114
80 88 114
80 88 114
80 88 114
80 88 114
80 88 114
80 88 114
80 88 114
80 88 114
80 88 114
80 88 114
80 88 114
80 88 114
80 88 114
80 88 114
80 88 114
80 88 114
80 88 114
80 88 114
80 88 114
80 88 114
80 88 114
80 88 114
80 88 114
80 88 114
80 88 114
80 88 114
80 88 114
80 88 114
80 88 114
80 88 114
80 88 114
80 88 114
80 88 114
80 88 114
80 88 114
80 88 114
80 88 114
80 88 114
80 88 114
80 88 114
80 88 114
80 88 114
80 88 114
80 88 114
80 88 114
80 88 114
80 88 114
80 88 114
80 88 114
80 88 114
80 88 114
80 88 114
80 88 114
80 88 114
80 88 114
80 88 114
80 88 114
80 88 114
80 88 114
80 88 114
80 88 114
80 88 114
80 88 114
80 88 114
80 88 114
80 88 114
80 88 114
80 88 114
80 88 114
80 88 114
80 88 114
80 88 114
80 88 114
80 88 114
80 88 114
80 88 114
80 88 114
80 88 114
80 88 114
80 88 114
80 88 114
80 88 114
80 88 114
80 88 114
80 88 114
80 88 114
80 88 114
80 88 114
80 88 114
80 88 114
80 88 114
80 88 114
80 88 114
80 88 114
80 88 114
80 88 114
80 88 114
80 88 114
80 88 114
80 88 114
80 88 114
80 88 114
80 88 114
80 88 114
80 88 114
80 88 114
80 88 114
80 88 114
80 88 114
80 88 114
80 88 114
80 88 114
80 88 114
80 88 114
80 88 114
80 88 114
80 88 114
80 88 114
80 88 114
80 88 114
80 88 114
80 88 114
80 88 114
80 88 114
80 88 114
80 88 114
80 88 114
80 88 114
80 88 114
80 88 114
80 88 114
80 88 114
80 88 114
80 88 114
80 88 114
80 88 114
80 88 114
80 88 114
80 88 114
80 88 114
80 88 114
80 88 114
80 88 114
80 88 114
80 88 114
80 88 114
80 88 114
80 88 114
80 88 114
80 88 114
80 88 114
80 88 114
80 88 114
80 88 114
80 88 114
80 88 114
80 88 114
80 88 114
83 87 103
78 81 87
77 79 85
78 81 87
81 84 90
79 82 89
82 85 92
76 79 85
79 82 89
77 80 87
77 80 87
77 80 87
77 80 86
77 80 87
81 84 91
78 81 88
75 77 84
79 82 89
75 78 85
78 80 87
79 81 88
81 87 106
80 88 114
80 88 114
80 88 114
80 88 114
80 88 114
80 88 114
80 88 114
80 88 114
80 88 114
80 88 114
80 88 114
80 88 114
80 88 114
80 88 114
80 88 114
80 88 114
80 88 114
80 88 114
80 88 114
80 88 114
80 88 114
80 88 114
80 88 114
80 88 114
80 88 114
80 88 114
80 88 114
80 88 114
80 88 114
80 88 114
80 88 114
80 88 114
80 88 114
80 88 114
80 88 114
80 88 114
80 88 114
80 88 114
80 88 114
80 88 114
80 88 114
80 88 114
80 88 114
80 88 114
80 88 114
80 88 114
80 88 114
80 88 114
80 88 114
80 88 114
80 88 114
80 88 114
80 88 114
80 88 114
80 88 114
80 88 114
80 88 114
80 88 114
80 88 114
80 88 114
80 88 114
80 88 114
80 88 114
80 88 114
80 88 114
80 88 114
80 88 114
80 88 114
80 88 114
80 88 114
80 88 114
80 88 114
80 88 114
80 88 114
80 88 114
80 88 114
80 88 114
80 88 114
80 88 114
80 88 114
80 88 114
80 88 114
80 88 114
80 88 114
80 88 114
80 88 114
80 88 114
80 88 114
80 88 114
80 88 114
80 88 114
80 88 114
80 88 114
80 88 114
80 88 114
80 88 114
80 88 114
80 88 114
80 88 114
80 88 114
80 88 114
80 88 114
80 88 114
80 88 114
80 88 114
80 88 114
80 88 114
80 88 114
80 88 114
80 88 114
80 88 114
80 88 114
80 88 114
80 88 114
80 88 114
80 88 114
80 88 114
80 88 114
80 88 114
80 88 114
80 88 114
80 88 114
80 88 114
80 88 114
80 88 114
80 88 114
80 88 114
80 88 114
80 88 114
80 88 114
80 88 114
80 88 114
80 88 114
80 88 114
80 88 114
80 88 114
80 88 114
80 88 114
80 88 114
80 88 114
80 88 114
80 88 114
80 88 114
80 88 114
80 88 114
80 88 114
80 88 114
80 88 114
80 88 114
80 88 114
80 88 114
80 88 114
80 88 114
80 88 114
80 88 114
80 88 114
80 88 114
80 88 114
80 88 114
80 88 114
80 88 114
80 88 114
80 88 114
80 88 114
80 88 114
80 88 114
80 88 114
80 88 114
80 88 114
80 88 114
80 88 114
80 88 114
80 88 114
80 88 114
80 88 114
80 88 114
80 88 114
80 88 114
80 88 114
80 88 114
80 88 114
80 88 114
80 88 114
80 88 114
80 88 114
80 88 114
80 88 114
80 88 114
80 88 114
80 88 114
80 88 114
80 88 114
80 88 114
80 88 114
80 88 114
80 88 114
80 88 114
80 88 114
80 88 114
80 88 114
80 88 114
80 88 114
80 88 114
80 88 114
80 88 114
80 88 114
80 88 114
80 88 114
80 88 114
80 88 114
80 88 114
80 88 114
80 88 114
80 88 114
80 88 114
80 88 114
80 88 114
80 88 114
80 88 114
80 88 114
80 88 114
80 88 114
80 88 114
80 88 114
80 88 114
80 88 114
80 88 114
80 88 114
80 88 114
80 88 114
80 88 114
80 88 114
80 88 114
80 88 114
80 88 114
80 88 114
80 88 114
80 88 114
80 88 114
80 88 114
80 88 114
80 88 114
80 88 114
80 88 114
80 88 114
80 88 114
80 88 114
80 88 114
80 88 114
80 88 114
80 88 114
80 88 114
80 88 114
80 88 114
80 88 114
80 88 114
80 88 114
80 88 114
80 88 114
80 88 114
80 88 114
80 88 114
80 88 114
80 88 114
80 88 114
80 88 114
80 88 114
80 88 114
80 88 114
80 88 114
80 88 114
80 88 114
80 88 114
80 88 114
80 88 114
80 88 114
80 88 114
80 88 114
80 88 114
80 88 114
80 88 114
80 88 114
80 88 114
80 88 114
80 88 114
80 88 114
80 88 114
80 88 114
80 88 114
80 88 114
80 88 114
80 88 114
80 88 114
80 88 114
80 88 114
80 88 114
80 88 114
80 88 114
80 88 114
80 88 114
80 88 114
80 88 114
80 88 114
80 88 114
80 88 114
80 88 114
80 88 114
80 88 114
80 88 114
80 88 114
80 88 114
80 88 114
80 88 114
80 88 114
80 88 114
80 88 114
80 88 114
80 88 114
80 88 114
80 88 114
80 88 114
80 88 114
80 88 114
80 88 114
80 88 114
80 88 114
80 88 114
80 88 114
80 88 114
80 88 114
80 88 114
80 88 114
80 88 114
80 88 114
80 88 114
80 88 114
80 88 114
80 88 114
80 88 114
80 88 114
80 88 114
80 88 114
80 88 114
80 88 114
80 88 114
80 88 114
80 88 114
80 88 114
80 88 114
80 88 114
80 88 114
80 88 114
80 88 114
80 88 114
80 88 114
80 88 114
80 88 114
80 88 114
80 88 114
80 88 114
80 88 114
80 88 114
80 88 114
80 88 114
80 88 114
80 88 114
80 88 114
80 88 114
80 88 114
80 88 114
80 88 114
80 88 114
80 88 114
80 88 114
80 88 114
80 88 114
80 88 114
80 88 114
78 83 97
79 82 89
80 83 89
80 83 90
77 80 87
78 81 88
75 78 85
83 86 93
77 80 87
80 83 90
77 80 86
74 76 83
76 78 85
78 81 88
77 80 86
81 84 92
77 80 86
80 83 90
81 84 91
78 81 88
78 81 88
80 86 102
80 88 114
80 88 114
80 88 114
80 88 114
80 88 114
80 88 114
80 88 114
80 88 114
80 88 114
80 88 114
80 88 114
80 88 114
80 88 114
80 88 114
80 88 114
80 88 114
80 88 114
80 88 114
80 88 114
80 88 114
80 88 114
80 88 114
80 88 114
80 88 114
80 88 114
80 88 114
80 88 114
80 88 114
80 88 114
80 88 114
80 88 114
80 88 114
80 88 114
80 88 114
80 88 114
80 88 114
80 88 114
80 88 114
80 88 114
80 88 114
80 88 114
80 88 114
80 88 114
80 88 114
80 88 114
80 88 114
80 88 114
80 88 114
80 88 114
80 88 114
80 88 114
80 88 114
80 88 114
80 88 114
80 88 114
80 88 114
80 88 114
80 88 114
80 88 114
80 88 114
80 88 114
80 88 114
80 88 114
80 88 114
80 88 114
80 88 114
80 88 114
80 88 114
80 88 114
80 88 114
80 88 114
80 88 114
80 88 114
80 88 114
80 88 114
80 88 114
80 88 114
80 88 114
80 88 114
80 88 114
80 88 114
80 88 114
80 88 114
80 88 114
80 88 114
80 88 114
80 88 114
80 88 114
80 88 114
80 88 114
80 88 114
80 88 114
80 88 114
80 88 114
80 88 114
80 88 114
80 88 114
80 88 114
80 88 114
80 88 114
80 88 114
80 88 114
80 88 114
80 88 114
80 88 114
80 88 114
80 88 114
80 88 114
80 88 114
80 88 114
80 88 114
80 88 114
80 88 114
80 88 114
80 88 114
80 88 114
80 88 114
80 88 114
80 88 114
80 88 114
80 88 114
80 88 114
80 88 114
80 88 114
80 88 114
80 88 114
80 88 114
80 88 114
80 88 114
80 88 114
80 88 114
80 88 114
80 88 114
80 88 114
80 88 114
80 88 114
80 88 114
80 88 114
80 88 114
80 88 114
80 88 114
80 88 114
80 88 114
80 88 114
80 88 114
80 88 114
80 88 114
80 88 114
80 88 114
80 88 114
80 88 114
80 88 114
80 88 114
80 88 114
80 88 114
80 88 114
80 88 114
80 88 114
80 88 114
80 88 114
80 88 114
80 88 114
80 88 114
80 88 114
80 88 114
80 88 114
80 88 114
80 88 114
80 88 114
80 88 114
80 88 114
80 88 114
80 88 114
80 88 114
80 88 114
80 88 114
80 88 114
80 88 114
80 88 114
80 88 114
80 88 114
80 88 114
80 88 114
80 88 114
80 88 114
80 88 114
80 88 114
80 88 114
80 88 114
80 88 114
80 88 114
80 88 114
80 88 114
80 88 114
80 88 114
80 88 114
80 88 114
80 88 114
80 88 114
80 88 114
80 88 114
80 88 114
80 88 114
80 88 114
80 88 114
80 88 114
80 88 114
80 88 114
80 88 114
80 88 114
80 88 114
80 88 114
80 88 114
80 88 114
80 88 114
80 88 114
80 88 114
80 88 114
80 88 114
80 88 114
80 88 114
80 88 114
80 88 114
80 88 114
80 88 114
80 88 114
80 88 114
80 88 114
80 88 114
80 88 114
80 88 114
80 88 114
80 88 114
80 88 114
80 88 114
80 88 114
80 88 114
80 88 114
80 88 114
80 88 114
80 88 114
80 88 114
80 88 114
80 88 114
80 88 114
80 88 114
80 88 114
80 88 114
80 88 114
80 88 114
80 88 114
80 88 114
80 88 114
80 88 114
80 88 114
80 88 114
80 88 114
80 88 114
80 88 114
80 88 114
80 88 114
80 88 114
80 88 114
80 88 114
80 88 114
80 88 114
80 88 114
80 88 114
80 88 114
80 88 114
80 88 114
80 88 114
80 88 114
80 88 114
80 88 114
80 88 114
80 88 114
80 88 114
80 88 114
80 88 114
80 88 114
80 88 114
80 88 114
80 88 114
80 88 114
80 88 114
80 88 114
80 88 114
80 88 114
80 88 114
80 88 114
80 88 114
80 88 114
80 88 114
80 88 114
80 88 114
80 88 114
80 88 114
80 88 114
80 88 114
80 88 114
80 88 114
80 88 114
80 88 114
80 88 114
80 88 114
80 88 114
80 88 114
80 88 114
80 88 114
80 88 114
80 88 114
80 88 114
80 88 114
80 88 114
80 88 114
80 88 114
80 88 114
80 88 114
80 88 114
80 88 114
80 88 114
80 88 114
80 88 114
80 88 114
80 88 114
80 88 114
80 88 114
80 88 114
80 88 114
80 88 114
80 88 114
80 88 114
80 88 114
80 88 114
80 88 114
80 88 114
80 88 114
80 88 114
80 88 114
80 88 114
80 88 114
80 88 114
80 88 114
80 88 114
80 88 114
80 88 114
80 88 114
80 88 114
80 88 114
80 88 114
80 88 114
80 88 114
80 88 114
80 88 114
80 88 114
80 88 114
80 88 114
80 88 114
80 88 114
80 88 114
80 88 114
80 88 114
80 88 114
80 88 114
80 88 114
80 88 114
80 88 114
80 88 114
80 88 114
80 88 114
80 88 114
80 88 114
80 88 114
80 88 114
80 88 114
80 88 114
80 88 114
80 85 100
80 83 90
80 83 89
78 80 87
80 83 90
78 80 87
78 80 87
78 81 88
77 80 88
78 82 89
82 85 92
82 85 93
79 83 90
75 78 85
76 79 86
81 85 92
77 79 86
78 81 88
80 83 90
80 83 90
77 80 87
79 84 99
80 88 114
80 88 114
80 88 114
80 88 114
80 88 114
80 88 114
80 88 114
80 88 114
80 88 114
80 88 114
80 88 114
80 88 114
80 88 114
80 88 114
80 88 114
80 88 114
80 88 114
80 88 114
80 88 114
80 88 114
80 88 114
80 88 114
80 88 114
80 88 114
80 88 114
80 88 114
80 88 114
80 88 114
80 88 114
80 88 114
80 88 114
80 88 114
80 88 114
80 88 114
80 88 114
80 88 114
80 88 114
80 88 114
80 88 114
80 88 114
80 88 114
80 88 114
80 88 114
80 88 114
80 88 114
80 88 114
80 88 114
80 88 114
80 88 114
80 88 114
80 88 114
80 88 114
80 88 114
80 88 114
80 88 114
80 88 114
80 88 114
80 88 114
80 88 114
80 88 114
80 88 114
80 88 114
80 88 114
80 88 114
80 88 114
80 88 114
80 88 114
80 88 114
80 88 114
80 88 114
80 88 114
80 88 114
80 88 114
80 88 114
80 88 114
80 88 114
80 88 114
80 88 114
80 88 114
80 88 114
80 88 114
80 88 114
80 88 114
80 88 114
80 88 114
80 88 114
80 88 114
80 88 114
80 88 114
80 88 114
80 88 114
80 88 114
80 88 114
80 88 114
80 88 114
80 88 114
80 88 114
80 88 114
80 88 114
80 88 114
80 88 114
80 88 114
80 88 114
80 88 114
80 88 114
80 88 114
80 88 114
80 88 114
80 88 114
80 88 114
80 88 114
80 88 114
80 88 114
80 88 114
80 88 114
80 88 114
80 88 114
80 88 114
80 88 114
80 88 114
80 88 114
80 88 114
80 88 114
80 88 114
80 88 114
80 88 114
80 88 114
80 88 114
80 88 114
80 88 114
80 88 114
80 88 114
80 88 114
80 88 114
80 88 114
80 88 114
80 88 114
80 88 114
80 88 114
80 88 114
80 88 114
80 88 114
80 88 114
80 88 114
80 88 114
80 88 114
80 88 114
80 88 114
80 88 114
80 88 114
80 88 114
80 88 114
80 88 114
80 88 114
80 88 114
80 88 114
80 88 114
80 88 114
80 88 114
80 88 114
80 88 114
80 88 114
80 88 114
80 88 114
80 88 114
80 88 114
80 88 114
80 88 114
80 88 114
80 88 114
80 88 114
80 88 114
80 88 114
80 88 114
80 88 114
80 88 114
80 88 114
80 88 114
80 88 114
80 88 114
80 88 114
80 88 114
80 88 114
80 88 114
80 88 114
80 88 114
80 88 114
80 88 114
80 88 114
80 88 114
80 88 114
80 88 114
80 88 114
80 88 114
80 88 114
80 88 114
80 88 114
80 88 114
80 88 114
80 88 114
80 88 114
80 88 114
80 88 114
80 88 114
80 88 114
80 88 114
80 88 114
80 88 114
80 88 114
80 88 114
80 88 114
80 88 114
80 88 114
80 88 114
80 88 114
80 88 114
80 88 114
80 88 114
80 88 114
80 88 114
80 88 114
80 88 114
80 88 114
80 88 114
80 88 114
80 88 114
80 88 114
80 88 114
80 88 114
80 88 114
80 88 114
80 88 114
80 88 114
80 88 114
80 88 114
80 88 114
80 88 114
80 88 114
80 88 114
80 88 114
80 88 114
80 88 114
80 88 114
80 88 114
80 88 114
80 88 114
80 88 114
80 88 114
80 88 114
80 88 114
80 88 114
80 88 114
80 88 114
80 88 114
80 88 114
80 88 114
80 88 114
80 88 114
80 88 114
80 88 114
80 88 114
80 88 114
80 88 114
80 88 114
80 88 114
80 88 114
80 88 114
80 88 114
80 88 114
80 88 114
80 88 114
80 88 114
80 88 114
80 88 114
80 88 114
80 88 114
80 88 114
80 88 114
80 88 114
80 88 114
80 88 114
80 88 114
80 88 114
80 88 114
80 88 114
80 88 114
80 88 114
80 88 114
80 88 114
80 88 114
80 88 114
80 88 114
80 88 114
80 88 114
80 88 114
80 88 114
80 88 114
80 88 114
80 88 114
80 88 114
80 88 114
80 88 114
80 88 114
80 88 114
80 88 114
80 88 114
80 88 114
80 88 114
80 88 114
80 88 114
80 88 114
80 88 114
80 88 114
80 88 114
80 88 114
80 88 114
80 88 114
80 88 114
80 88 114
80 88 114
80 88 114
80 88 114
80 88 114
80 88 114
80 88 114
80 88 114
80 88 114
80 88 114
80 88 114
80 88 114
80 88 114
80 88 114
80 88 114
80 88 114
80 88 114
80 88 114
80 88 114
80 88 114
80 88 114
80 88 114
80 88 114
80 88 114
80 88 114
80 88 114
80 88 114
80 88 114
80 88 114
80 88 114
80 88 114
80 88 114
80 88 114
80 88 114
80 88 114
80 88 114
80 88 114
80 88 114
80 88 114
80 88 114
80 88 114
80 88 114
80 88 114
80 88 114
80 88 114
80 88 114
80 88 114
80 88 114
80 88 114
80 88 114
80 88 114
80 88 114
80 88 114
80 88 114
80 88 114
80 88 114
80 88 114
80 88 114
80 88 114
80 88 114
80 86 104
79 81 88
75 77 83
78 80 87
82 85 92
76 79 85
78 81 88
78 81 88
77 80 86
79 82 89
80 83 90
79 82 89
77 80 87
79 83 90
80 83 91
78 80 87
80 83 90
82 86 93
78 82 89
81 84 91
81 84 91
77 83 100
80 88 114
80 88 114
80 88 114
80 88 114
80 88 114
80 88 114
80 88 114
80 88 114
80 88 114
80 88 114
80 88 114
80 88 114
80 88 114
80 88 114
80 88 114
80 88 114
80 88 114
80 88 114
80 88 114
80 88 114
80 88 114
80 88 114
80 88 114
80 88 114
80 88 114
80 88 114
80 88 114
80 88 114
80 88 114
80 88 114
80 88 114
80 88 114
80 88 114
80 88 114
80 88 114
80 88 114
80 88 114
80 88 114
80 88 114
80 88 114
80 88 114
80 88 114
80 88 114
80 88 114
80 88 114
80 88 114
80 88 114
80 88 114
80 88 114
80 88 114
80 88 114
80 88 114
80 88 114
80 88 114
80 88 114
80 88 114
80 88 114
80 88 114
80 88 114
80 88 114
80 88 114
80 88 114
80 88 114
80 88 114
80 88 114
80 88 114
80 88 114
80 88 114
80 88 114
80 88 114
80 88 114
80 88 114
80 88 114
80 88 114
80 88 114
80 88 114
80 88 114
80 88 114
80 88 114
80 88 114
80 88 114
80 88 114
80 88 114
80 88 114
80 88 114
80 88 114
80 88 114
80 88 114
80 88 114
80 88 114
80 88 114
80 88 114
80 88 114
80 88 114
80 88 114
80 88 114
80 88 114
80 88 114
80 88 114
80 88 114
80 88 114
80 88 114
80 88 114
80 88 114
80 88 114
80 88 114
80 88 114
80 88 114
80 88 114
80 88 114
80 88 114
80 88 114
80 88 114
80 88 114
80 88 114
80 88 114
80 88 114
80 88 114
80 88 114
80 88 114
80 88 114
80 88 114
80 88 114
80 88 114
80 88 114
80 88 114
80 88 114
80 88 114
80 88 114
80 88 114
80 88 114
80 88 114
80 88 114
80 88 114
80 88 114
80 88 114
80 88 114
80 88 114
80 88 114
80 88 114
80 88 114
80 88 114
80 88 114
80 88 114
80 88 114
80 88 114
80 88 114
80 88 114
80 88 114
80 88 114
80 88 114
80 88 114
80 88 114
80 88 114
80 88 114
80 88 114
80 88 114
80 88 114
80 88 114
80 88 114
80 88 114
80 88 114
80 88 114
80 88 114
80 88 114
80 88 114
80 88 114
80 88 114
80 88 114
80 88 114
80 88 114
80 88 114
80 88 114
80 88 114
80 88 114
80 88 114
80 88 114
80 88 114
80 88 114
80 88 114
80 88 114
80 88 114
80 88 114
80 88 114
80 88 114
80 88 114
80 88 114
80 88 114
80 88 114
80 88 114
80 88 114
80 88 114
80 88 114
80 88 114
80 88 114
80 88 114
80 88 114
80 88 114
80 88 114
80 88 114
80 88 114
80 88 114
80 88 114
80 88 114
80 88 114
80 88 114
80 88 114
80 88 114
80 88 114
80 88 114
80 88 114
80 88 114
80 88 114
80 88 114
80 88 114
80 88 114
80 88 114
80 88 114
80 88 114
80 88 114
80 88 114
80 88 114
80 88 114
80 88 114
80 88 114
80 88 114
80 88 114
80 88 114
80 88 114
80 88 114
80 88 114
80 88 114
80 88 114
80 88 114
80 88 114
80 88 114
80 88 114
80 88 114
80 88 114
80 88 114
80 88 114
80 88 114
80 88 114
80 88 114
80 88 114
80 88 114
80 88 114
80 88 114
80 88 114
80 88 114
80 88 114
80 88 114
80 88 114
80 88 114
80 88 114
80 88 114
80 88 114
80 88 114
80 88 114
80 88 114
80 88 114
80 88 114
80 88 114
80 88 114
80 88 114
80 88 114
80 88 114
80 88 114
80 88 114
80 88 114
80 88 114
80 88 114
80 88 114
80 88 114
80 88 114
80 88 114
80 88 114
80 88 114
80 88 114
80 88 114
80 88 114
80 88 114
80 88 114
80 88 114
80 88 114
80 88 114
80 88 114
80 88 114
80 88 114
80 88 114
80 88 114
80 88 114
80 88 114
80 88 114
80 88 114
80 88 114
80 88 114
80 88 114
80 88 114
80 88 114
80 88 114
80 88 114
80 88 114
80 88 114
80 88 114
80 88 114
80 88 114
80 88 114
80 88 114
80 88 114
80 88 114
80 88 114
80 88 114
80 88 114
80 88 114
80 88 114
80 88 114
80 88 114
80 88 114
80 88 114
80 88 114
80 88 114
80 88 114
80 88 114
80 88 114
80 88 114
80 88 114
80 88 114
80 88 114
80 88 114
80 88 114
80 88 114
80 88 114
80 88 114
80 88 114
80 88 114
80 88 114
80 88 114
80 88 114
80 88 114
80 88 114
80 88 114
80 88 114
80 88 114
80 88 114
80 88 114
80 88 114
80 88 114
80 88 114
80 88 114
80 88 114
80 88 114
80 88 114
80 88 114
80 88 114
80 88 114
80 88 114
80 88 114
80 88 114
80 88 114
80 88 114
80 88 114
80 88 114
80 88 114
80 88 114
80 88 114
80 88 114
80 88 114
80 88 114
80 88 114
80 88 114
80 88 114
80 88 114
80 88 114
80 88 114
80 88 114
80 88 114
80 88 114
78 85 107
78 81 88
77 79 86
81 84 91
80 83 90
75 77 84
83 86 93
80 83 90
76 79 86
79 82 89
77 80 87
78 81 88
81 84 91
73 76 82
79 82 89
77 80 87
76 78 85
78 82 89
80 82 90
77 80 87
80 83 90
79 85 105
80 88 114
80 88 114
80 88 114
80 88 114
80 88 114
80 88 114
80 88 114
80 88 114
80 88 114
80 88 114
80 88 114
80 88 114
80 88 114
80 88 114
80 88 114
80 88 114
80 88 114
80 88 114
80 88 114
80 88 114
80 88 114
80 88 114
80 88 114
80 88 114
80 88 114
80 88 114
80 88 114
80 88 114
80 88 114
80 88 114
80 88 114
80 88 114
80 88 114
80 88 114
80 88 114
80 88 114
80 88 114
80 88 114
80 88 114
80 88 114
80 88 114
80 88 114
80 88 114
80 88 114
80 88 114
80 88 114
80 88 114
80 88 114
80 88 114
80 88 114
80 88 114
80 88 114
80 88 114
80 88 114
80 88 114
80 88 114
80 88 114
80 88 114
80 88 114
80 88 114
80 88 114
80 88 114
80 88 114
80 88 114
80 88 114
80 88 114
80 88 114
80 88 114
80 88 114
80 88 114
80 88 114
80 88 114
80 88 114
80 88 114
80 88 114
80 88 114
80 88 114
80 88 114
80 88 114
80 88 114
80 88 114
80 88 114
80 88 114
80 88 114
80 88 114
80 88 114
80 88 114
80 88 114
80 88 114
80 88 114
80 88 114
80 88 114
80 88 114
80 88 114
80 88 114
80 88 114
80 88 114
80 88 114
80 88 114
80 88 114
80 88 114
80 88 114
80 88 114
80 88 114
80 88 114
80 88 114
80 88 114
80 88 114
80 88 114
80 88 114
80 88 114
80 88 114
80 88 114
80 88 114
80 88 114
80 88 114
80 88 114
80 88 114
80 88 114
80 88 114
80 88 114
80 88 114
80 88 114
80 88 114
80 88 114
80 88 114
80 88 114
80 88 114
80 88 114
80 88 114
80 88 114
80 88 114
80 88 114
80 88 114
80 88 114
80 88 114
80 88 114
80 88 114
80 88 114
80 88 114
80 88 114
80 88 114
80 88 114
80 88 114
80 88 114
80 88 114
80 88 114
80 88 114
80 88 114
80 88 114
80 88 114
80 88 114
80 88 114
80 88 114
80 88 114
80 88 114
80 88 114
80 88 114
80 88 114
80 88 114
80 88 114
80 88 114
80 88 114
80 88 114
80 88 114
80 88 114
80 88 114
80 88 114
80 88 114
80 88 114
80 88 114
80 88 114
80 88 114
80 88 114
80 88 114
80 88 114
80 88 114
80 88 114
80 88 114
80 88 114
80 88 114
80 88 114
80 88 114
80 88 114
80 88 114
80 88 114
80 88 114
80 88 114
80 88 114
80 88 114
80 88 114
80 88 114
80 88 114
80 88 114
80 88 114
80 88 114
80 88 114
80 88 114
80 88 114
80 88 114
80 88 114
80 88 114
80 88 114
80 88 114
80 88 114
80 88 114
80 88 114
80 88 114
80 88 114
80 88 114
80 88 114
80 88 114
80 88 114
80 88 114
80 88 114
80 88 114
80 88 114
80 88 114
80 88 114
80 88 114
80 88 114
80 88 114
80 88 114
80 88 114
80 88 114
80 88 114
80 88 114
80 88 114
80 88 114
80 88 114
80 88 114
80 88 114
80 88 114
80 88 114
80 88 114
80 88 114
80 88 114
80 88 114
80 88 114
80 88 114
80 88 114
80 88 114
80 88 114
80 88 114
80 88 114
80 88 114
80 88 114
80 88 114
80 88 114
80 88 114
80 88 114
80 88 114
80 88 114
80 88 114
80 88 114
80 88 114
80 88 114
80 88 114
80 88 114
80 88 114
80 88 114
80 88 114
80 88 114
80 88 114
80 88 114
80 88 114
80 88 114
80 88 114
80 88 114
80 88 114
80 88 114
80 88 114
80 88 114
80 88 114
80 88 114
80 88 114
80 88 114
80 88 114
80 88 114
80 88 114
80 88 114
80 88 114
80 88 114
80 88 114
80 88 114
80 88 114
80 88 114
80 88 114
80 88 114
80 88 114
80 88 114
80 88 114
80 88 114
80 88 114
80 88 114
80 88 114
80 88 114
80 88 114
80 88 114
80 88 114
80 88 114
80 88 114
80 88 114
80 88 114
80 88 114
80 88 114
80 88 114
80 88 114
80 88 114
80 88 114
80 88 114
80 88 114
80 88 114
80 88 114
80 88 114
80 88 114
80 88 114
80 88 114
80 88 114
80 88 114
80 88 114
80 88 114
80 88 114
80 88 114
80 88 114
80 88 114
80 88 114
80 88 114
80 88 114
80 88 114
80 88 114
80 88 114
80 88 114
80 88 114
80 88 114
80 88 114
80 88 114
80 88 114
80 88 114
80 88 114
80 88 114
80 88 114
80 88 114
80 88 114
80 88 114
80 88 114
80 88 114
80 88 114
80 88 114
80 88 114
80 88 114
80 88 114
80 88 114
80 88 114
80 88 114
80 88 114
80 88 114
80 88 114
80 88 114
80 88 114
80 88 114
80 88 114
80 88 114
80 88 114
80 88 114
80 88 114
80 88 114
80 88 114
80 88 114
80 88 114
80 88 114
80 88 114
80 88 114
80 88 114
80 88 114
80 88 114
80 88 114
80 88 114
80 88 114
79 82 91
79 82 89
82 85 92
81 84 91
81 84 91
78 80 87
80 83 90
78 80 87
77 80 87
75 77 84
80 83 90
77 80 87
78 81 88
79 83 90
77 80 86
77 80 87
79 83 90
75 78 85
74 77 84
80 83 90
80 87 112
80 88 114
80 88 114
80 88 114
80 88 114
80 88 114
80 88 114
80 88 114
80 88 114
80 88 114
80 88 114
80 88 114
80 88 114
80 88 114
80 88 114
80 88 114
80 88 114
80 88 114
80 88 114
80 88 114
80 88 114
80 88 114
80 88 114
80 88 114
80 88 114
80 88 114
80 88 114
80 88 114
80 88 114
80 88 114
80 88 114
80 88 114
80 88 114
80 88 114
80 88 114
80 88 114
80 88 114
80 88 114
80 88 114
80 88 114
80 88 114
80 88 114
80 88 114
80 88 114
80 88 114
80 88 114
80 88 114
80 88 114
80 88 114
80 88 114
80 88 114
80 88 114
80 88 114
80 88 114
80 88 114
80 88 114
80 88 114
80 88 114
80 88 114
80 88 114
80 88 114
80 88 114
80 88 114
80 88 114
80 88 114
80 88 114
80 88 114
80 88 114
80 88 114
80 88 114
80 88 114
80 88 114
80 88 114
80 88 114
80 88 114
80 88 114
80 88 114
80 88 114
80 88 114
80 88 114
80 88 114
80 88 114
80 88 114
80 88 114
80 88 114
80 88 114
80 88 114
80 88 114
80 88 114
80 88 114
80 88 114
80 88 114
80 88 114
80 88 114
80 88 114
80 88 114
80 88 114
80 88 114
80 88 114
80 88 114
80 88 114
80 88 114
80 88 114
80 88 114
80 88 114
80 88 114
80 88 114
80 88 114
80 88 114
80 88 114
80 88 114
80 88 114
80 88 114
80 88 114
80 88 114
80 88 114
80 88 114
80 88 114
80 88 114
80 88 114
80 88 114
80 88 114
80 88 114
80 88 114
80 88 114
80 88 114
80 88 114
80 88 114
80 88 114
80 88 114
80 88 114
80 88 114
80 88 114
80 88 114
80 88 114
80 88 114
80 88 114
80 88 114
80 88 114
80 88 114
80 88 114
80 88 114
80 88 114
80 88 114
80 88 114
80 88 114
80 88 114
80 88 114
80 88 114
80 88 114
80 88 114
80 88 114
80 88 114
80 88 114
80 88 114
80 88 114
80 88 114
80 88 114
80 88 114
80 88 114
80 88 114
80 88 114
80 88 114
80 88 114
80 88 114
80 88 114
80 88 114
80 88 114
80 88 114
80 88 114
80 88 114
80 88 114
80 88 114
80 88 114
80 88 114
80 88 114
80 88 114
80 88 114
80 88 114
80 88 114
80 88 114
80 88 114
80 88 114
80 88 114
80 88 114
80 88 114
80 88 114
80 88 114
80 88 114
80 88 114
80 88 114
80 88 114
80 88 114
80 88 114
80 88 114
80 88 114
80 88 114
80 88 114
80 88 114
80 88 114
80 88 114
80 88 114
80 88 114
80 88 114
80 88 114
80 88 114
80 88 114
80 88 114
80 88 114
80 88 114
80 88 114
80 88 114
80 88 114
80 88 114
80 88 114
80 88 114
80 88 114
80 88 114
80 88 114
80 88 114
80 88 114
80 88 114
80 88 114
80 88 114
80 88 114
80 88 114
80 88 114
80 88 114
80 88 114
80 88 114
80 88 114
80 88 114
80 88 114
80 88 114
80 88 114
80 88 114
80 88 114
80 88 114
80 88 114
80 88 114
80 88 114
80 88 114
80 88 114
80 88 114
80 88 114
80 88 114
80 88 114
80 88 114
80 88 114
80 88 114
80 88 114
80 88 114
80 88 114
80 88 114
80 88 114
80 88 114
80 88 114
80 88 114
80 88 114
80 88 114
80 88 114
80 88 114
80 88 114
80 88 114
80 88 114
80 88 114
80 88 114
80 88 114
80 88 114
80 88 114
80 88 114
80 88 114
80 88 114
80 88 114
80 88 114
80 88 114
80 88 114
80 88 114
80 88 114
80 88 114
80 88 114
80 88 114
80 88 114
80 88 114
80 88 114
80 88 114
80 88 114
80 88 114
80 88 114
80 88 114
80 88 114
80 88 114
80 88 114
80 88 114
80 88 114
80 88 114
80 88 114
80 88 114
80 88 114
80 88 114
80 88 114
80 88 114
80 88 114
80 88 114
80 88 114
80 88 114
80 88 114
80 88 114
80 88 114
80 88 114
80 88 114
80 88 114
80 88 114
80 88 114
80 88 114
80 88 114
80 88 114
80 88 114
80 88 114
80 88 114
80 88 114
80 88 114
80 88 114
80 88 114
80 88 114
80 88 114
80 88 114
80 88 114
80 88 114
80 88 114
80 88 114
80 88 114
80 88 114
80 88 114
80 88 114
80 88 114
80 88 114
80 88 114
80 88 114
80 88 114
80 88 114
80 88 114
80 88 114
80 88 114
80 88 114
80 88 114
80 88 114
80 88 114
80 88 114
80 88 114
80 88 114
80 88 114
80 88 114
80 88 114
80 88 114
80 88 114
80 88 114
80 88 114
80 88 114
80 88 114
80 88 114
80 88 114
80 88 114
80 88 114
80 88 114
80 88 114
80 88 114
80 88 114
80 88 114
80 88 114
80 88 114
80 88 114
80 88 114
80 88 114
80 88 114
80 88 114
80 88 114
80 88 114
80 88 114
80 88 114
80 85 103
82 84 91
77 79 86
79 82 89
77 80 87
78 81 88
79 82 89
80 83 90
81 84 91
78 81 88
77 80 86
79 82 89
76 78 85
79 82 89
76 79 86
76 79 86
78 81 88
79 82 89
76 79 87
79 84 98
80 88 114
80 88 114
80 88 114
80 88 114
80 88 114
80 88 114
80 88 114
80 88 114
80 88 114
80 88 114
80 88 114
80 88 114
80 88 114
80 88 114
80 88 114
80 88 114
80 88 114
80 88 114
80 88 114
80 88 114
80 88 114
80 88 114
80 88 114
80 88 114
80 88 114
80 88 114
80 88 114
80 88 114
80 88 114
80 88 114
80 88 114
80 88 114
80 88 114
80 88 114
80 88 114
80 88 114
80 88 114
80 88 114
80 88 114
80 88 114
80 88 114
80 88 114
80 88 114
80 88 114
80 88 114
80 88 114
80 88 114
80 88 114
80 88 114
80 88 114
80 88 114
80 88 114
80 88 114
80 88 114
80 88 114
80 88 114
80 88 114
80 88 114
80 88 114
80 88 114
80 88 114
80 88 114
80 88 114
80 88 114
80 88 114
80 88 114
80 88 114
80 88 114
80 88 114
80 88 114
80 88 114
80 88 114
80 88 114
80 88 114
80 88 114
80 88 114
80 88 114
80 88 114
80 88 114
80 88 114
80 88 114
80 88 114
80 88 114
80 88 114
80 88 114
80 88 114
80 88 114
80 88 114
80 88 114
80 88 114
80 88 114
80 88 114
80 88 114
80 88 114
80 88 114
80 88 114
80 88 114
80 88 114
80 88 114
80 88 114
80 88 114
80 88 114
80 88 114
80 88 114
80 88 114
80 88 114
80 88 114
80 88 114
80 88 114
80 88 114
80 88 114
80 88 114
80 88 114
80 88 114
80 88 114
80 88 114
80 88 114
80 88 114
80 88 114
80 88 114
80 88 114
80 88 114
80 88 114
80 88 114
80 88 114
80 88 114
80 88 114
80 88 114
80 88 114
80 88 114
80 88 114
80 88 114
80 88 114
80 88 114
80 88 114
80 88 114
80 88 114
80 88 114
80 88 114
80 88 114
80 88 114
80 88 114
80 88 114
80 88 114
80 88 114
80 88 114
80 88 114
80 88 114
80 88 114
80 88 114
80 88 114
80 88 114
80 88 114
80 88 114
80 88 114
80 88 114
80 88 114
80 88 114
80 88 114
80 88 114
80 88 114
80 88 114
80 88 114
80 88 114
80 88 114
80 88 114
80 88 114
80 88 114
80 88 114
80 88 114
80 88 114
80 88 114
80 88 114
80 88 114
80 88 114
80 88 114
80 88 114
80 88 114
80 88 114
80 88 114
80 88 114
80 88 114
80 88 114
80 88 114
80 88 114
80 88 114
80 88 114
80 88 114
80 88 114
80 88 114
80 88 114
80 88 114
80 88 114
80 88 114
80 88 114
80 88 114
80 88 114
80 88 114
80 88 114
80 88 114
80 88 114
80 88 114
80 88 114
80 88 114
80 88 114
80 88 114
80 88 114
80 88 114
80 88 114
80 88 114
80 88 114
80 88 114
80 88 114
80 88 114
80 88 114
80 88 114
80 88 114
80 88 114
80 88 114
80 88 114
80 88 114
80 88 114
80 88 114
80 88 114
80 88 114
80 88 114
80 88 114
80 88 114
80 88 114
80 88 114
80 88 114
80 88 114
80 88 114
80 88 114
80 88 114
80 88 114
80 88 114
80 88 114
80 88 114
80 88 114
80 88 114
80 88 114
80 88 114
80 88 114
80 88 114
80 88 114
80 88 114
80 88 114
80 88 114
80 88 114
80 88 114
80 88 114
80 88 114
80 88 114
80 88 114
80 88 114
80 88 114
80 88 114
80 88 114
80 88 114
80 88 114
80 88 114
80 88 114
80 88 114
80 88 114
80 88 114
80 88 114
80 88 114
80 88 114
80 88 114
80 88 114
80 88 114
80 88 114
80 88 114
80 88 114
80 88 114
80 88 114
80 88 114
80 88 114
80 88 114
80 88 114
80 88 114
80 88 114
80 88 114
80 88 114
80 88 114
80 88 114
80 88 114
80 88 114
80 88 114
80 88 114
80 88 114
80 88 114
80 88 114
80 88 114
80 88 114
80 88 114
80 88 114
80 88 114
80 88 114
80 88 114
80 88 114
80 88 114
80 88 114
80 88 114
80 88 114
80 88 114
80 88 114
80 88 114
80 88 114
80 88 114
80 88 114
80 88 114
80 88 114
80 88 114
80 88 114
80 88 114
80 88 114
80 88 114
80 88 114
80 88 114
80 88 114
80 88 114
80 88 114
80 88 114
80 88 114
80 88 114
80 88 114
80 88 114
80 88 114
80 88 114
80 88 114
80 88 114
80 88 114
80 88 114
80 88 114
80 88 114
80 88 114
80 88 114
80 88 114
80 88 114
80 88 114
80 88 114
80 88 114
80 88 114
80 88 114
80 88 114
80 88 114
80 88 114
80 88 114
80 88 114
80 88 114
80 88 114
80 88 114
80 88 114
80 88 114
80 88 114
80 88 114
80 88 114
80 88 114
80 88 114
80 88 114
80 88 114
80 88 114
80 88 114
80 88 114
80 88 114
80 88 114
80 88 114
80 88 114
80 88 114
80 88 114
80 88 114
80 88 114
80 88 114
80 88 114
80 88 114
80 88 114
80 88 114
80 88 114
81 88 114
79 82 93
79 82 88
79 82 89
76 79 86
81 84 91
76 79 86
76 79 85
80 83 90
79 82 89
80 83 91
79 82 89
78 81 88
78 81 88
82 85 93
77 80 87
78 81 88
76 79 86
77 80 87
81 88 112
80 88 114
80 88 114
80 88 114
80 88 114
80 88 114
80 88 114
80 88 114
80 88 114
80 88 114
80 88 114
80 88 114
80 88 114
80 88 114
80 88 114
80 88 114
80 88 114
80 88 114
80 88 114
80 88 114
80 88 114
80 88 114
80 88 114
80 88 114
80 88 114
80 88 114
80 88 114
80 88 114
80 88 114
80 88 114
80 88 114
80 88 114
80 88 114
80 88 114
80 88 114
80 88 114
80 88 114
80 88 114
80 88 114
80 88 114
80 88 114
80 88 114
80 88 114
80 88 114
80 88 114
80 88 114
80 88 114
80 88 114
80 88 114
80 88 114
80 88 114
80 88 114
80 88 114
80 88 114
80 88 114
80 88 114
80 88 114
80 88 114
80 88 114
80 88 114
80 88 114
80 88 114
80 88 114
80 88 114
80 88 114
80 88 114
80 88 114
80 88 114
80 88 114
80 88 114
80 88 114
80 88 114
80 88 114
80 88 114
80 88 114
80 88 114
80 88 114
80 88 114
80 88 114
80 88 114
80 88 114
80 88 114
80 88 114
80 88 114
80 88 114
80 88 114
80 88 114
80 88 114
80 88 114
80 88 114
80 88 114
80 88 114
80 88 114
80 88 114
80 88 114
80 88 114
80 88 114
80 88 114
80 88 114
80 88 114
80 88 114
80 88 114
80 88 114
80 88 114
80 88 114
80 88 114
80 88 114
80 88 114
80 88 114
80 88 114
80 88 114
80 88 114
80 88 114
80 88 114
80 88 114
80 88 114
80 88 114
80 88 114
80 88 114
80 88 114
80 88 114
80 88 114
80 88 114
80 88 114
80 88 114
80 88 114
80 88 114
80 88 114
80 88 114
80 88 114
80 88 114
80 88 114
80 88 114
80 88 114
80 88 114
80 88 114
80 88 114
80 88 114
80 88 114
80 88 114
80 88 114
80 88 114
80 88 114
80 88 114
80 88 114
80 88 114
80 88 114
80 88 114
80 88 114
80 88 114
80 88 114
80 88 114
80 88 114
80 88 114
80 88 114
80 88 114
80 88 114
80 88 114
80 88 114
80 88 114
80 88 114
80 88 114
80 88 114
80 88 114
80 88 114
80 88 114
80 88 114
80 88 114
80 88 114
80 88 114
80 88 114
80 88 114
80 88 114
80 88 114
80 88 114
80 88 114
80 88 114
80 88 114
80 88 114
80 88 114
80 88 114
80 88 114
80 88 114
80 88 114
80 88 114
80 88 114
80 88 114
80 88 114
80 88 114
80 88 114
80 88 114
80 88 114
80 88 114
80 88 114
80 88 114
80 88 114
80 88 114
80 88 114
80 88 114
80 88 114
80 88 114
80 88 114
80 88 114
80 88 114
80 88 114
80 88 114
80 88 114
80 88 114
80 88 114
80 88 114
80 88 114
80 88 114
80 88 114
80 88 114
80 88 114
80 88 114
80 88 114
80 88 114
80 88 114
80 88 114
80 88 114
80 88 114
80 88 114
80 88 114
80 88 114
80 88 114
80 88 114
80 88 114
80 88 114
80 88 114
80 88 114
80 88 114
80 88 114
80 88 114
80 88 114
80 88 114
80 88 114
80 88 114
80 88 114
80 88 114
80 88 114
80 88 114
80 88 114
80 88 114
80 88 114
80 88 114
80 88 114
80 88 114
80 88 114
80 88 114
80 88 114
80 88 114
80 88 114
80 88 114
80 88 114
80 88 114
80 88 114
80 88 114
80 88 114
80 88 114
80 88 114
80 88 114
80 88 114
80 88 114
80 88 114
80 88 114
80 88 114
80 88 114
80 88 114
80 88 114
80 88 114
80 88 114
80 88 114
80 88 114
80 88 114
80 88 114
80 88 114
80 88 114
80 88 114
80 88 114
80 88 114
80 88 114
80 88 114
80 88 114
80 88 114
80 88 114
80 88 114
80 88 114
80 88 114
80 88 114
80 88 114
80 88 114
80 88 114
80 88 114
80 88 114
80 88 114
80 88 114
80 88 114
80 88 114
80 88 114
80 88 114
80 88 114
80 88 114
80 88 114
80 88 114
80 88 114
80 88 114
80 88 114
80 88 114
80 88 114
80 88 114
80 88 114
80 88 114
80 88 114
80 88 114
80 88 114
80 88 114
80 88 114
80 88 114
80 88 114
80 88 114
80 88 114
80 88 114
80 88 114
80 88 114
80 88 114
80 88 114
80 88 114
80 88 114
80 88 114
80 88 114
80 88 114
80 88 114
80 88 114
80 88 114
80 88 114
80 88 114
80 88 114
80 88 114
80 88 114
80 88 114
80 88 114
80 88 114
80 88 114
80 88 114
80 88 114
80 88 114
80 88 114
80 88 114
80 88 114
80 88 114
80 88 114
80 88 114
80 88 114
80 88 114
80 88 114
80 88 114
80 88 114
80 88 114
80 88 114
80 88 114
80 88 114
80 88 114
80 88 114
80 88 114
80 88 114
80 88 114
80 88 114
80 88 114
80 88 114
80 88 114
80 88 114
80 88 114
80 88 114
80 88 114
80 88 114
80 88 114
80 88 114
80 88 114
80 88 114
80 88 114
80 88 114
81 88 112
78 81 89
77 80 86
78 81 88
79 82 89
82 85 92
79 82 89
77 80 86
71 74 81
78 81 88
78 81 88
78 81 88
81 84 91
78 81 88
82 85 92
79 82 89
78 81 88
81 87 106
80 88 114
80 88 114
80 88 114
80 88 114
80 88 114
80 88 114
80 88 114
80 88 114
80 88 114
80 88 114
80 88 114
80 88 114
80 88 114
80 88 114
80 88 114
80 88 114
80 88 114
80 88 114
80 88 114
80 88 114
80 88 114
80 88 114
80 88 114
80 88 114
80 88 114
80 88 114
80 88 114
80 88 114
80 88 114
80 88 114
80 88 114
80 88 114
80 88 114
80 88 114
80 88 114
80 88 114
80 88 114
80 88 114
80 88 114
80 88 114
80 88 114
80 88 114
80 88 114
80 88 114
80 88 114
80 88 114
80 88 114
80 88 114
80 88 114
80 88 114
80 88 114
80 88 114
80 88 114
80 88 114
80 88 114
80 88 114
80 88 114
80 88 114
80 88 114
80 88 114
80 88 114
80 88 114
80 88 114
80 88 114
80 88 114
80 88 114
80 88 114
80 88 114
80 88 114
80 88 114
80 88 114
80 88 114
80 88 114
80 88 114
80 88 114
80 88 114
80 88 114
80 88 114
80 88 114
80 88 114
80 88 114
80 88 114
80 88 114
80 88 114
80 88 114
80 88 114
80 88 114
80 88 114
80 88 114
80 88 114
80 88 114
80 88 114
80 88 114
80 88 114
80 88 114
80 88 114
80 88 114
80 88 114
80 88 114
80 88 114
80 88 114
80 88 114
80 88 114
80 88 114
80 88 114
80 88 114
80 88 114
80 88 114
80 88 114
80 88 114
80 88 114
80 88 114
80 88 114
80 88 114
80 88 114
80 88 114
80 88 114
80 88 114
80 88 114
80 88 114
80 88 114
80 88 114
80 88 114
80 88 114
80 88 114
80 88 114
80 88 114
80 88 114
80 88 114
80 88 114
80 88 114
80 88 114
80 88 114
80 88 114
80 88 114
80 88 114
80 88 114
80 88 114
80 88 114
80 88 114
80 88 114
80 88 114
80 88 114
80 88 114
80 88 114
80 88 114
80 88 114
80 88 114
80 88 114
80 88 114
80 88 114
80 88 114
80 88 114
80 88 114
80 88 114
80 88 114
80 88 114
80 88 114
80 88 114
80 88 114
80 88 114
80 88 114
80 88 114
80 88 114
80 88 114
80 88 114
80 88 114
80 88 114
80 88 114
80 88 114
80 88 114
80 88 114
80 88 114
80 88 114
80 88 114
80 88 114
80 88 114
80 88 114
80 88 114
80 88 114
80 88 114
80 88 114
80 88 114
80 88 114
80 88 114
80 88 114
80 88 114
80 88 114
80 88 114
80 88 114
80 88 114
80 88 114
80 88 114
80 88 114
80 88 114
80 88 114
80 88 114
80 88 114
80 88 114
80 88 114
80 88 114
80 88 114
80 88 114
80 88 114
80 88 114
80 88 114
80 88 114
80 88 114
80 88 114
80 88 114
80 88 114
80 88 114
80 88 114
80 88 114
80 88 114
80 88 114
80 88 114
80 88 114
80 88 114
80 88 114
80 88 114
80 88 114
80 88 114
80 88 114
80 88 114
80 88 114
80 88 114
80 88 114
80 88 114
80 88 114
80 88 114
80 88 114
80 88 114
80 88 114
80 88 114
80 88 114
80 88 114
80 88 114
80 88 114
80 88 114
80 88 114
80 88 114
80 88 114
80 88 114
80 88 114
80 88 114
80 88 114
80 88 114
80 88 114
80 88 114
80 88 114
80 88 114
80 88 114
80 88 114
80 88 114
80 88 114
80 88 114
80 88 114
80 88 114
80 88 114
80 88 114
80 88 114
80 88 114
80 88 114
80 88 114
80 88 114
80 88 114
80 88 114
80 88 114
80 88 114
80 88 114
80 88 114
80 88 114
80 88 114
80 88 114
80 88 114
80 88 114
80 88 114
80 88 114
80 88 114
80 88 114
80 88 114
80 88 114
80 88 114
80 88 114
80 88 114
80 88 114
80 88 114
80 88 114
80 88 114
80 88 114
80 88 114
80 88 114
80 88 114
80 88 114
80 88 114
80 88 114
80 88 114
80 88 114
80 88 114
80 88 114
80 88 114
80 88 114
80 88 114
80 88 114
80 88 114
80 88 114
80 88 114
80 88 114
80 88 114
80 88 114
80 88 114
80 88 114
80 88 114
80 88 114
80 88 114
80 88 114
80 88 114
80 88 114
80 88 114
80 88 114
80 88 114
80 88 114
80 88 114
80 88 114
80 88 114
80 88 114
80 88 114
80 88 114
80 88 114
80 88 114
80 88 114
80 88 114
80 88 114
80 88 114
80 88 114
80 88 114
80 88 114
80 88 114
80 88 114
80 88 114
80 88 114
80 88 114
80 88 114
80 88 114
80 88 114
80 88 114
80 88 114
80 88 114
80 88 114
80 88 114
80 88 114
80 88 114
80 88 114
80 88 114
80 88 114
80 88 114
80 88 114
80 88 114
80 88 114
80 88 114
80 88 114
80 88 114
80 88 114
80 88 114
80 88 114
80 88 114
80 88 114
80 88 114
80 88 114
80 88 114
80 88 114
80 88 114
80 88 114
80 88 114
80 88 114
80 88 114
80 88 114
80 88 114
80 88 114
80 88 114
80 88 114
80 88 114
79 86 109
79 82 91
78 80 87
78 81 88
77 80 87
82 85 92
80 83 90
77 79 86
76 80 87
78 81 88
78 81 88
77 80 87
78 81 88
81 84 92
72 75 81
77 83 100
80 88 114
80 88 114
80 88 114
80 88 114
80 88 114
80 88 114
80 88 114
80 88 114
80 88 114
80 88 114
80 88 114
80 88 114
80 88 114
80 88 114
80 88 114
80 88 114
80 88 114
80 88 114
80 88 114
80 88 114
80 88 114
80 88 114
80 88 114
80 88 114
80 88 114
80 88 114
80 88 114
80 88 114
80 88 114
80 88 114
80 88 114
80 88 114
80 88 114
80 88 114
80 88 114
80 88 114
80 88 114
80 88 114
80 88 114
80 88 114
80 88 114
80 88 114
80 88 114
80 88 114
80 88 114
80 88 114
80 88 114
80 88 114
80 88 114
80 88 114
80 88 114
80 88 114
80 88 114
80 88 114
80 88 114
80 88 114
80 88 114
80 88 114
80 88 114
80 88 114
80 88 114
80 88 114
80 88 114
80 88 114
80 88 114
80 88 114
80 88 114
80 88 114
80 88 114
80 88 114
80 88 114
80 88 114
80 88 114
80 88 114
80 88 114
80 88 114
80 88 114
80 88 114
80 88 114
80 88 114
80 88 114
80 88 114
80 88 114
80 88 114
80 88 114
80 88 114
80 88 114
80 88 114
80 88 114
80 88 114
80 88 114
80 88 114
80 88 114
80 88 114
80 88 114
80 88 114
80 88 114
80 88 114
80 88 114
80 88 114
80 88 114
80 88 114
80 88 114
80 88 114
80 88 114
80 88 114
80 88 114
80 88 114
80 88 114
80 88 114
80 88 114
80 88 114
80 88 114
80 88 114
80 88 114
80 88 114
80 88 114
80 88 114
80 88 114
80 88 114
80 88 114
80 88 114
80 88 114
80 88 114
80 88 114
80 88 114
80 88 114
80 88 114
80 88 114
80 88 114
80 88 114
80 88 114
80 88 114
80 88 114
80 88 114
80 88 114
80 88 114
80 88 114
80 88 114
80 88 114
80 88 114
80 88 114
80 88 114
80 88 114
80 88 114
80 88 114
80 88 114
80 88 114
80 88 114
80 88 114
80 88 114
80 88 114
80 88 114
80 88 114
80 88 114
80 88 114
80 88 114
80 88 114
80 88 114
80 88 114
80 88 114
80 88 114
80 88 114
80 88 114
80 88 114
80 88 114
80 88 114
80 88 114
80 88 114
80 88 114
80 88 114
80 88 114
80 88 114
80 88 114
80 88 114
80 88 114
80 88 114
80 88 114
80 88 114
80 88 114
80 88 114
80 88 114
80 88 114
80 88 114
80 88 114
80 88 114
80 88 114
80 88 114
80 88 114
80 88 114
80 88 114
80 88 114
80 88 114
80 88 114
80 88 114
80 88 114
80 88 114
80 88 114
80 88 114
80 88 114
80 88 114
80 88 114
80 88 114
80 88 114
80 88 114
80 88 114
80 88 114
80 88 114
80 88 114
80 88 114
80 88 114
80 88 114
80 88 114
80 88 114
80 88 114
80 88 114
80 88 114
80 88 114
80 88 114
80 88 114
80 88 114
80 88 114
80 88 114
80 88 114
80 88 114
80 88 114
80 88 114
80 88 114
80 88 114
80 88 114
80 88 114
80 88 114
80 88 114
80 88 114
80 88 114
80 88 114
80 88 114
80 88 114
80 88 114
80 88 114
80 88 114
80 88 114
80 88 114
80 88 114
80 88 114
80 88 114
80 88 114
80 88 114
80 88 114
80 88 114
80 88 114
80 88 114
80 88 114
80 88 114
80 88 114
80 88 114
80 88 114
80 88 114
80 88 114
80 88 114
80 88 114
80 88 114
80 88 114
80 88 114
80 88 114
80 88 114
80 88 114
80 88 114
80 88 114
80 88 114
80 88 114
80 88 114
80 88 114
80 88 114
80 88 114
80 88 114
80 88 114
80 88 114
80 88 114
80 88 114
80 88 114
80 88 114
80 88 114
80 88 114
80 88 114
80 88 114
80 88 114
80 88 114
80 88 114
80 88 114
80 88 114
80 88 114
80 88 114
80 88 114
80 88 114
80 88 114
80 88 114
80 88 114
80 88 114
80 88 114
80 88 114
80 88 114
80 88 114
80 88 114
80 88 114
80 88 114
80 88 114
80 88 114
80 88 114
80 88 114
80 88 114
80 88 114
80 88 114
80 88 114
80 88 114
80 88 114
80 88 114
80 88 114
80 88 114
80 88 114
80 88 114
80 88 114
80 88 114
80 88 114
80 88 114
80 88 114
80 88 114
80 88 114
80 88 114
80 88 114
80 88 114
80 88 114
80 88 114
80 88 114
80 88 114
80 88 114
80 88 114
80 88 114
80 88 114
80 88 114
80 88 114
80 88 114
80 88 114
80 88 114
80 88 114
80 88 114
80 88 114
80 88 114
80 88 114
80 88 114
80 88 114
80 88 114
80 88 114
80 88 114
80 88 114
80 88 114
80 88 114
80 88 114
80 88 114
80 88 114
80 88 114
80 88 114
80 88 114
80 88 114
80 88 114
80 88 114
80 88 114
80 88 114
80 88 114
80 88 114
80 88 114
80 88 114
80 88 114
80 88 114
80 88 114
80 88 114
80 88 114
80 88 114
80 88 114
80 88 114
80 88 114
80 88 114
80 88 114
80 88 114
80 88 114
80 88 112
79 83 97
78 81 88
79 82 89
79 82 89
79 82 89
78 81 88
81 84 91
78 81 88
76 79 86
80 83 90
78 81 88
81 84 93
79 85 105
80 88 114
80 88 114
80 88 114
80 88 114
80 88 114
80 88 114
80 88 114
80 88 114
80 88 114
80 88 114
80 88 114
80 88 114
80 88 114
80 88 114
80 88 114
80 88 114
80 88 114
80 88 114
80 88 114
80 88 114
80 88 114
80 88 114
80 88 114
80 88 114
80 88 114
80 88 114
80 88 114
80 88 114
80 88 114
80 88 114
80 88 114
80 88 114
80 88 114
80 88 114
80 88 114
80 88 114
80 88 114
80 88 114
80 88 114
80 88 114
80 88 114
80 88 114
80 88 114
80 88 114
80 88 114
80 88 114
80 88 114
80 88 114
80 88 114
80 88 114
80 88 114
80 88 114
80 88 114
80 88 114
80 88 114
80 88 114
80 88 114
80 88 114
80 88 114
80 88 114
80 88 114
80 88 114
80 88 114
80 88 114
80 88 114
80 88 114
80 88 114
80 88 114
80 88 114
80 88 114
80 88 114
80 88 114
80 88 114
80 88 114
80 88 114
80 88 114
80 88 114
80 88 114
80 88 114
80 88 114
80 88 114
80 88 114
80 88 114
80 88 114
80 88 114
80 88 114
80 88 114
80 88 114
80 88 114
80 88 114
80 88 114
80 88 114
80 88 114
80 88 114
80 88 114
80 88 114
80 88 114
80 88 114
80 88 114
80 88 114
80 88 114
80 88 114
80 88 114
80 88 114
80 88 114
80 88 114
80 88 114
80 88 114
80 88 114
80 88 114
80 88 114
80 88 114
80 88 114
80 88 114
80 88 114
80 88 114
80 88 114
80 88 114
80 88 114
80 88 114
80 88 114
80 88 114
80 88 114
80 88 114
80 88 114
80 88 114
80 88 114
80 88 114
80 88 114
80 88 114
80 88 114
80 88 114
80 88 114
80 88 114
80 88 114
80 88 114
80 88 114
80 88 114
80 88 114
80 88 114
80 88 114
80 88 114
80 88 114
80 88 114
80 88 114
80 88 114
80 88 114
80 88 114
80 88 114
80 88 114
80 88 114
80 88 114
80 88 114
80 88 114
80 88 114
80 88 114
80 88 114
80 88 114
80 88 114
80 88 114
80 88 114
80 88 114
80 88 114
80 88 114
80 88 114
80 88 114
80 88 114
80 88 114
80 88 114
80 88 114
80 88 114
80 88 114
80 88 114
80 88 114
80 88 114
80 88 114
80 88 114
80 88 114
80 88 114
80 88 114
80 88 114
80 88 114
80 88 114
80 88 114
80 88 114
80 88 114
80 88 114
80 88 114
80 88 114
80 88 114
80 88 114
80 88 114
80 88 114
80 88 114
80 88 114
80 88 114
80 88 114
80 88 114
80 88 114
80 88 114
80 88 114
80 88 114
80 88 114
80 88 114
80 88 114
80 88 114
80 88 114
80 88 114
80 88 114
80 88 114
80 88 114
80 88 114
80 88 114
80 88 114
80 88 114
80 88 114
80 88 114
80 88 114
80 88 114
80 88 114
80 88 114
80 88 114
80 88 114
80 88 114
80 88 114
80 88 114
80 88 114
80 88 114
80 88 114
80 88 114
80 88 114
80 88 114
80 88 114
80 88 114
80 88 114
80 88 114
80 88 114
80 88 114
80 88 114
80 88 114
80 88 114
80 88 114
80 88 114
80 88 114
80 88 114
80 88 114
80 88 114
80 88 114
80 88 114
80 88 114
80 88 114
80 88 114
80 88 114
80 88 114
80 88 114
80 88 114
80 88 114
80 88 114
80 88 114
80 88 114
80 88 114
80 88 114
80 88 114
80 88 114
80 88 114
80 88 114
80 88 114
80 88 114
80 88 114
80 88 114
80 88 114
80 88 114
80 88 114
80 88 114
80 88 114
80 88 114
80 88 114
80 88 114
80 88 114
80 88 114
80 88 114
80 88 114
80 88 114
80 88 114
80 88 114
80 88 114
80 88 114
80 88 114
80 88 114
80 88 114
80 88 114
80 88 114
80 88 114
80 88 114
80 88 114
80 88 114
80 88 114
80 88 114
80 88 114
80 88 114
80 88 114
80 88 114
80 88 114
80 88 114
80 88 114
80 88 114
80 88 114
80 88 114
80 88 114
80 88 114
80 88 114
80 88 114
80 88 114
80 88 114
80 88 114
80 88 114
80 88 114
80 88 114
80 88 114
80 88 114
80 88 114
80 88 114
80 88 114
80 88 114
80 88 114
80 88 114
80 88 114
80 88 114
80 88 114
80 88 114
80 88 114
80 88 114
80 88 114
80 88 114
80 88 114
80 88 114
80 88 114
80 88 114
80 88 114
80 88 114
80 88 114
80 88 114
80 88 114
80 88 114
80 88 114
80 88 114
80 88 114
80 88 114
80 88 114
80 88 114
80 88 114
80 88 114
80 88 114
80 88 114
80 88 114
80 88 114
80 88 114
80 88 114
80 88 114
80 88 114
80 88 114
80 88 114
80 88 114
80 88 114
80 88 114
80 88 114
80 88 114
80 88 114
80 88 114
80 88 114
80 88 114
80 88 114
80 88 114
80 88 114
80 88 114
80 88 114
80 88 114
80 88 114
80 88 114
80 88 114
80 88 114
80 88 114
80 88 114
80 88 114
80 88 114
80 88 114
80 88 114
80 88 114
79 86 108
80 84 99
77 80 88
80 84 91
78 81 88
76 78 85
80 82 90
74 77 84
81 85 95
80 86 103
81 88 113
80 88 114
80 88 114
80 88 114
80 88 114
80 88 114
80 88 114
80 88 114
80 88 114
80 88 114
80 88 114
80 88 114
80 88 114
80 88 114
80 88 114
80 88 114
80 88 114
80 88 114
80 88 114
80 88 114
80 88 114
80 88 114
80 88 114
80 88 114
80 88 114
80 88 114
80 88 114
80 88 114
80 88 114
80 88 114
80 88 114
80 88 114
80 88 114
80 88 114
80 88 114
80 88 114
80 88 114
80 88 114
80 88 114
80 88 114
80 88 114
80 88 114
80 88 114
80 88 114
80 88 114
80 88 114
80 88 114
80 88 114
80 88 114
80 88 114
80 88 114
80 88 114
80 88 114
80 88 114
80 88 114
80 88 114
80 88 114
80 88 114
80 88 114
80 88 114
80 88 114
80 88 114
80 88 114
80 88 114
80 88 114
80 88 114
80 88 114
80 88 114
80 88 114
80 88 114
80 88 114
80 88 114
80 88 114
80 88 114
80 88 114
80 88 114
80 88 114
80 88 114
80 88 114
80 88 114
80 88 114
80 88 114
80 88 114
80 88 114
80 88 114
80 88 114
80 88 114
80 88 114
80 88 114
80 88 114
80 88 114
80 88 114
80 88 114
80 88 114
80 88 114
80 88 114
80 88 114
80 88 114
80 88 114
80 88 114
80 88 114
80 88 114
80 88 114
80 88 114
80 88 114
80 88 114
80 88 114
80 88 114
80 88 114
80 88 114
80 88 114
80 88 114
80 88 114
80 88 114
80 88 114
80 88 114
80 88 114
80 88 114
80 88 114
80 88 114
80 88 114
80 88 114
80 88 114
80 88 114
80 88 114
80 88 114
80 88 114
80 88 114
80 88 114
80 88 114
80 88 114
80 88 114
80 88 114
80 88 114
80 88 114
80 88 114
80 88 114
80 88 114
80 88 114
80 88 114
80 88 114
80 88 114
80 88 114
80 88 114
80 88 114
80 88 114
80 88 114
80 88 114
80 88 114
80 88 114
80 88 114
80 88 114
80 88 114
80 88 114
80 88 114
80 88 114
80 88 114
80 88 114
80 88 114
80 88 114
80 88 114
80 88 114
80 88 114
80 88 114
80 88 114
80 88 114
80 88 114
80 88 114
80 88 114
80 88 114
80 88 114
80 88 114
80 88 114
80 88 114
80 88 114
80 88 114
80 88 114
80 88 114
80 88 114
80 88 114
80 88 114
80 88 114
80 88 114
80 88 114
80 88 114
80 88 114
80 88 114
80 88 114
80 88 114
80 88 114
80 88 114
80 88 114
80 88 114
80 88 114
80 88 114
80 88 114
80 88 114
80 88 114
80 88 114
80 88 114
80 88 114
80 88 114
80 88 114
80 88 114
80 88 114
80 88 114
80 88 114
80 88 114
80 88 114
80 88 114
80 88 114
80 88 114
80 88 114
80 88 114
80 88 114
80 88 114
80 88 114
80 88 114
80 88 114
80 88 114
80 88 114
80 88 114
80 88 114
80 88 114
80 88 114
80 88 114
80 88 114
80 88 114
80 88 114
80 88 114
80 88 114
80 88 114
80 88 114
80 88 114
80 88 114
80 88 114
80 88 114
80 88 114
80 88 114
80 88 114
80 88 114
80 88 114
80 88 114
80 88 114
80 88 114
80 88 114
80 88 114
80 88 114
80 88 114
80 88 114
80 88 114
80 88 114
80 88 114
80 88 114
80 88 114
80 88 114
80 88 114
80 88 114
80 88 114
80 88 114
80 88 114
80 88 114
80 88 114
80 88 114
80 88 114
80 88 114
80 88 114
80 88 114
80 88 114
80 88 114
80 88 114
80 88 114
80 88 114
80 88 114
80 88 114
80 88 114
80 88 114
80 88 114
80 88 114
80 88 114
80 88 114
80 88 114
80 88 114
80 88 114
80 88 114
80 88 114
80 88 114
80 88 114
80 88 114
80 88 114
80 88 114
80 88 114
80 88 114
80 88 114
80 88 114
80 88 114
80 88 114
80 88 114
80 88 114
80 88 114
80 88 114
80 88 114
80 88 114
80 88 114
80 88 114
80 88 114
80 88 114
80 88 114
80 88 114
80 88 114
80 88 114
80 88 114
80 88 114
80 88 114
80 88 114
80 88 114
80 88 114
80 88 114
80 88 114
80 88 114
80 88 114
80 88 114
80 88 114
80 88 114
80 88 114
80 88 114
80 88 114
80 88 114
80 88 114
80 88 114
80 88 114
80 88 114
80 88 114
80 88 114
80 88 114
80 88 114
80 88 114
80 88 114
80 88 114
80 88 114
80 88 114
80 88 114
80 88 114
80 88 114
80 88 114
80 88 114
80 88 114
80 88 114
80 88 114
80 88 114
80 88 114
80 88 114
80 88 114
80 88 114
80 88 114
80 88 114
80 88 114
80 88 114
80 88 114
80 88 114
80 88 114
80 88 114
80 88 114
80 88 114
80 88 114
80 88 114
80 88 114
80 88 114
80 88 114
80 88 114
80 88 114
80 88 114
80 88 114
80 88 114
80 88 114
80 88 114
80 88 114
80 88 114
80 88 114
80 88 114
80 88 114
80 88 114
80 88 114
80 88 114
80 88 114
80 88 114
80 88 114
80 88 114
80 88 114
80 88 114
80 88 114
80 88 114
80 88 114
81 88 111
80 86 107
82 88 108
80 86 108
81 88 112
80 88 114
80 88 114
80 88 114
80 88 114
80 88 114
80 88 114
80 88 114
80 88 114
80 88 114
80 88 114
80 88 114
80 88 114
80 88 114
80 88 114
80 88 114
80 88 114
80 88 114
80 88 114
80 88 114
80 88 114
80 88 114
80 88 114
80 88 114
80 88 114
80 88 114
80 88 114
80 88 114
80 88 114
80 88 114
80 88 114
80 88 114
80 88 114
80 88 114
80 88 114
80 88 114
80 88 114
80 88 114
80 88 114
80 88 114
80 88 114
80 88 114
80 88 114
80 88 114
80 88 114
80 88 114
80 88 114
80 88 114
80 88 114
80 88 114
80 88 114
80 88 114
80 88 114
80 88 114
80 88 114
80 88 114
80 88 114
80 88 114
80 88 114
80 88 114
80 88 114
80 88 114
80 88 114
80 88 114
80 88 114
80 88 114
80 88 114
80 88 114
80 88 114
80 88 114
80 88 114
80 88 114
80 88 114
80 88 114
80 88 114
80 88 114
80 88 114
80 88 114
80 88 114
80 88 114
80 88 114
80 88 114
80 88 114
80 88 114
80 88 114
80 88 114
80 88 114
80 88 114
80 88 114
80 88 114
80 88 114
80 88 114
80 88 114
80 88 114
80 88 114
80 88 114
80 88 114
80 88 114
80 88 114
80 88 114
80 88 114
80 88 114
80 88 114
80 88 114
80 88 114
80 88 114
80 88 114
80 88 114
80 88 114
80 88 114
80 88 114
80 88 114
80 88 114
80 88 114
80 88 114
80 88 114
80 88 114
80 88 114
80 88 114
80 88 114
80 88 114
80 88 114
80 88 114
80 88 114
80 88 114
80 88 114
80 88 114
80 88 114
80 88 114
80 88 114
80 88 114
80 88 114
80 88 114
80 88 114
80 88 114
80 88 114
80 88 114
80 88 114
80 88 114
80 88 114
80 88 114
80 88 114
80 88 114
80 88 114
80 88 114
80 88 114
80 88 114
80 88 114
80 88 114
80 88 114
80 88 114
80 88 114
80 88 114
80 88 114
80 88 114
80 88 114
80 88 114
80 88 114
80 88 114
80 88 114
80 88 114
80 88 114
80 88 114
80 88 114
80 88 114
80 88 114
80 88 114
80 88 114
80 88 114
80 88 114
80 88 114
80 88 114
80 88 114
80 88 114
80 88 114
80 88 114
80 88 114
80 88 114
80 88 114
80 88 114
80 88 114
80 88 114
80 88 114
80 88 114
80 88 114
80 88 114
80 88 114
80 88 114
80 88 114
80 88 114
80 88 114
80 88 114
80 88 114
80 88 114
80 88 114
80 88 114
80 88 114
80 88 114
80 88 114
80 88 114
80 88 114
80 88 114
80 88 114
80 88 114
80 88 114
80 88 114
80 88 114
80 88 114
80 88 114
80 88 114
80 88 114
80 88 114
80 88 114
80 88 114
80 88 114
80 88 114
80 88 114
80 88 114
80 88 114
80 88 114
80 88 114
80 88 114
80 88 114
80 88 114
80 88 114
80 88 114
80 88 114
80 88 114
80 88 114
80 88 114
80 88 114
80 88 114
80 88 114
80 88 114
80 88 114
80 88 114
80 88 114
80 88 114
80 88 114
80 88 114
80 88 114
80 88 114
80 88 114
80 88 114
80 88 114
80 88 114
80 88 114
80 88 114
80 88 114
80 88 114
80 88 114
80 88 114
80 88 114
80 88 114
80 88 114
80 88 114
80 88 114
80 88 114
80 88 114
80 88 114
80 88 114
80 88 114
80 88 114
80 88 114
80 88 114
80 88 114
80 88 114
80 88 114
80 88 114
80 88 114
80 88 114
80 88 114
80 88 114
80 88 114
80 88 114
80 88 114
80 88 114
80 88 114
80 88 114
80 88 114
80 88 114
80 88 114
80 88 114
80 88 114
80 88 114
80 88 114
80 88 114
80 88 114
80 88 114
80 88 114
80 88 114
80 88 114
80 88 114
80 88 114
80 88 114
80 88 114
80 88 114
80 88 114
80 88 114
80 88 114
80 88 114
80 88 114
80 88 114
80 88 114
80 88 114
80 88 114
80 88 114
80 88 114
80 88 114
80 88 114
80 88 114
80 88 114
80 88 114
80 88 114
80 88 114
80 88 114
80 88 114
80 88 114
80 88 114
80 88 114
80 88 114
80 88 114
80 88 114
80 88 114
80 88 114
80 88 114
80 88 114
80 88 114
80 88 114
80 88 114
80 88 114
80 88 114
80 88 114
80 88 114
80 88 114
80 88 114
80 88 114
80 88 114
80 88 114
80 88 114
80 88 114
80 88 114
80 88 114
80 88 114
80 88 114
80 88 114
80 88 114
80 88 114
80 88 114
80 88 114
80 88 114
80 88 114
80 88 114
80 88 114
80 88 114
80 88 114
80 88 114
80 88 114
80 88 114
80 88 114
80 88 114
80 88 114
80 88 114
80 88 114
80 88 114
80 88 114
80 88 114
80 88 114
80 88 114
80 88 114
80 88 114
80 88 114
80 88 114
80 88 114
80 88 114
80 88 114
80 88 114
80 88 114
80 88 114
80 88 114
80 88 114
80 88 114
80 88 114
80 88 114
80 88 114
80 88 114
80 88 114
80 88 114
80 88 114
80 88 114
80 88 114
80 88 114
80 88 114
80 88 114
80 88 114
80 88 114
80 88 114
80 88 114
80 88 114
80 88 114
80 88 114
80 88 114
80 88 114
80 88 114
80 88 114
80 88 114
80 88 114
80 88 114
80 88 114
80 88 114
80 88 114
80 88 114
80 88 114
80 88 114
80 88 114
80 88 114
80 88 114
80 88 114
80 88 114
80 88 114
80 88 114
80 88 114
80 88 114
80 88 114
80 88 114
80 88 114
80 88 114
80 88 114
80 88 114
80 88 114
80 88 114
80 88 114
80 88 114
80 88 114
80 88 114
80 88 114
80 88 114
80 88 114
80 88 114
80 88 114
80 88 114
80 88 114
80 88 114
80 88 114
80 88 114
80 88 114
80 88 114
80 88 114
80 88 114
80 88 114
80 88 114
80 88 114
80 88 114
80 88 114
80 88 114
80 88 114
80 88 114
80 88 114
80 88 114
80 88 114
80 88 114
80 88 114
80 88 114
80 88 114
80 88 114
80 88 114
80 88 114
80 88 114
80 88 114
80 88 114
80 88 114
80 88 114
80 88 114
80 88 114
80 88 114
80 88 114
80 88 114
80 88 114
80 88 114
80 88 114
80 88 114
80 88 114
80 88 114
80 88 114
80 88 114
80 88 114
80 88 114
80 88 114
80 88 114
80 88 114
80 88 114
80 88 114
80 88 114
80 88 114
80 88 114
80 88 114
80 88 114
80 88 114
80 88 114
80 88 114
80 88 114
80 88 114
80 88 114
80 88 114
80 88 114
80 88 114
80 88 114
80 88 114
80 88 114
80 88 114
80 88 114
80 88 114
80 88 114
80 88 114
80 88 114
80 88 114
80 88 114
80 88 114
80 88 114
80 88 114
80 88 114
80 88 114
80 88 114
80 88 114
80 88 114
80 88 114
80 88 114
80 88 114
80 88 114
80 88 114
80 88 114
80 88 114
80 88 114
80 88 114
80 88 114
80 88 114
80 88 114
80 88 114
80 88 114
80 88 114
80 88 114
80 88 114
80 88 114
80 88 114
80 88 114
80 88 114
80 88 114
80 88 114
80 88 114
80 88 114
80 88 114
80 88 114
80 88 114
80 88 114
80 88 114
80 88 114
80 88 114
80 88 114
80 88 114
80 88 114
80 88 114
80 88 114
80 88 114
80 88 114
80 88 114
80 88 114
80 88 114
80 88 114
80 88 114
80 88 114
80 88 114
80 88 114
80 88 114
80 88 114
80 88 114
80 88 114
80 88 114
80 88 114
80 88 114
80 88 114
80 88 114
80 88 114
80 88 114
80 88 114
80 88 114
80 88 114
80 88 114
80 88 114
80 88 114
80 88 114
80 88 114
80 88 114
80 88 114
80 88 114
80 88 114
80 88 114
80 88 114
80 88 114
80 88 114
80 88 114
80 88 114
80 88 114
80 88 114
80 88 114
80 88 114
80 88 114
80 88 114
80 88 114
80 88 114
80 88 114
80 88 114
80 88 114
80 88 114
80 88 114
80 88 114
80 88 114
80 88 114
80 88 114
80 88 114
80 88 114
80 88 114
80 88 114
80 88 114
80 88 114
80 88 114
80 88 114
80 88 114
80 88 114
80 88 114
80 88 114
80 88 114
80 88 114
80 88 114
80 88 114
80 88 114
80 88 114
80 88 114
80 88 114
80 88 114
80 88 114
80 88 114
80 88 114
80 88 114
80 88 114
80 88 114
80 88 114
80 88 114
80 88 114
80 88 114
80 88 114
80 88 114
80 88 114
80 88 114
80 88 114
80 88 114
80 88 114
80 88 114
80 88 114
80 88 114
80 88 114
80 88 114
80 88 114
80 88 114
80 88 114
80 88 114
80 88 114
80 88 114
80 88 114
80 88 114
80 88 114
80 88 114
80 88 114
80 88 114
80 88 114
80 88 114
80 88 114
80 88 114
80 88 114
80 88 114
80 88 114
80 88 114
80 88 114
80 88 114
80 88 114
80 88 114
80 88 114
80 88 114
80 88 114
80 88 114
80 88 114
80 88 114
80 88 114
80 88 114
80 88 114
80 88 114
80 88 114
80 88 114
80 88 114
80 88 114
80 88 114
80 88 114
80 88 114
80 88 114
80 88 114
80 88 114
80 88 114
80 88 114
80 88 114
80 88 114
80 88 114
80 88 114
80 88 114
80 88 114
80 88 114
80 88 114
80 88 114
80 88 114
80 88 114
80 88 114
80 88 114
80 88 114
80 88 114
80 88 114
80 88 114
80 88 114
80 88 114
80 88 114
80 88 114
80 88 114
80 88 114
80 88 114
80 88 114
80 88 114
80 88 114
80 88 114
80 88 114
80 88 114
80 88 114
80 88 114
80 88 114
80 88 114
80 88 114
80 88 114
80 88 114
80 88 114
80 88 114
80 88 114
80 88 114
80 88 114
80 88 114
80 88 114
80 88 114
80 88 114
80 88 114
80 88 114
80 88 114
80 88 114
80 88 114
80 88 114
80 88 114
80 88 114
80 88 114
80 88 114
80 88 114
80 88 114
80 88 114
80 88 114
80 88 114
80 88 114
80 88 114
80 88 114
80 88 114
80 88 114
80 88 114
80 88 114
80 88 114
80 88 114
80 88 114
80 88 114
80 88 114
80 88 114
80 88 114
80 88 114
80 88 114
80 88 114
80 88 114
80 88 114
80 88 114
80 88 114
80 88 114
80 88 114
80 88 114
80 88 114
80 88 114
80 88 114
80 88 114
80 88 114
80 88 114
80 88 114
80 88 114
80 88 114
80 88 114
80 88 114
80 88 114
80 88 114
80 88 114
80 88 114
80 88 114
80 88 114
80 88 114
80 88 114
80 88 114
80 88 114
80 88 114
80 88 114
80 88 114
80 88 114
80 88 114
80 88 114
80 88 114
80 88 114
80 88 114
80 88 114
80 88 114
80 88 114
80 88 114
80 88 114
80 88 114
80 88 114
80 88 114
80 88 114
80 88 114
80 88 114
80 88 114
80 88 114
80 88 114
80 88 114
80 88 114
80 88 114
80 88 114
80 88 114
80 88 114
80 88 114
80 88 114
80 88 114
80 88 114
80 88 114
80 88 114
80 88 114
80 88 114
80 88 114
80 88 114
80 88 114
80 88 114
80 88 114
80 88 114
80 88 114
80 88 114
80 88 114
80 88 114
80 88 114
80 88 114
80 88 114
80 88 114
80 88 114
80 88 114
80 88 114
80 88 114
80 88 114
80 88 114
80 88 114
80 88 114
80 88 114
80 88 114
80 88 114
80 88 114
80 88 114
80 88 114
80 88 114
80 88 114
80 88 114
80 88 114
80 88 114
80 88 114
80 88 114
80 88 114
80 88 114
80 88 114
80 88 114
80 88 114
80 88 114
80 88 114
80 88 114
80 88 114
80 88 114
80 88 114
80 88 114
80 88 114
80 88 114
80 88 114
80 88 114
80 88 114
80 88 114
80 88 114
80 88 114
80 88 114
80 88 114
80 88 114
80 88 114
80 88 114
80 88 114
80 88 114
80 88 114
80 88 114
80 88 114
80 88 114
80 88 114
80 88 114
80 88 114
80 88 114
80 88 114
80 88 114
80 88 114
80 88 114
80 88 114
80 88 114
80 88 114
80 88 114
80 88 114
80 88 114
80 88 114
80 88 114
80 88 114
80 88 114
80 88 114
80 88 114
80 88 114
80 88 114
80 88 114
80 88 114
80 88 114
80 88 114
80 88 114
80 88 114
80 88 114
80 88 114
80 88 114
80 88 114
80 88 114
80 88 114
80 88 114
80 88 114
80 88 114
80 88 114
80 88 114
80 88 114
80 88 114
80 88 114
80 88 114
80 88 114
80 88 114
80 88 114
80 88 114
80 88 114
80 88 114
80 88 114
80 88 114
80 88 114
80 88 114
80 88 114
80 88 114
80 88 114
80 88 114
80 88 114
80 88 114
80 88 114
80 88 114
80 88 114
80 88 114
80 88 114
80 88 114
80 88 114
80 88 114
80 88 114
80 88 114
80 88 114
80 88 114
80 88 114
80 88 114
80 88 114
80 88 114
80 88 114
80 88 114
80 88 114
80 88 114
80 88 114
80 88 114
80 88 114
80 88 114
80 88 114
80 88 114
80 88 114
80 88 114
80 88 114
80 88 114
80 88 114
80 88 114
80 88 114
80 88 114
80 88 114
80 88 114
80 88 114
80 88 114
80 88 114
80 88 114
80 88 114
80 88 114
80 88 114
80 88 114
80 88 114
80 88 114
80 88 114
80 88 114
80 88 114
80 88 114
80 88 114
80 88 114
80 88 114
80 88 114
80 88 114
80 88 114
80 88 114
80 88 114
80 88 114
80 88 114
80 88 114
80 88 114
80 88 114
80 88 114
80 88 114
80 88 114
80 88 114
80 88 114
80 88 114
80 88 114
80 88 114
80 88 114
80 88 114
80 88 114
80 88 114
80 88 114
80 88 114
80 88 114
80 88 114
80 88 114
80 88 114
80 88 114
80 88 114
80 88 114
80 88 114
80 88 114
80 88 114
80 88 114
80 88 114
80 88 114
80 88 114
80 88 114
80 88 114
80 88 114
80 88 114
80 88 114
80 88 114
80 88 114
80 88 114
80 88 114
80 88 114
80 88 114
80 88 114
80 88 114
80 88 114
80 88 114
80 88 114
80 88 114
80 88 114
80 88 114
80 88 114
80 88 114
80 88 114
80 88 114
80 88 114
80 88 114
80 88 114
80 88 114
80 88 114
80 88 114
80 88 114
80 88 114
80 88 114
80 88 114
80 88 114
80 88 114
80 88 114
80 88 114
80 88 114
80 88 114
80 88 114
80 88 114
80 88 114
80 88 114
80 88 114
80 88 114
80 88 114
80 88 114
80 88 114
80 88 114
80 88 114
80 88 114
80 88 114
80 88 114
80 88 114
80 88 114
80 88 114
80 88 114
80 88 114
80 88 114
80 88 114
80 88 114
80 88 114
80 88 114
80 88 114
80 88 114
80 88 114
80 88 114
80 88 114
80 88 114
80 88 114
80 88 114
80 88 114
80 88 114
80 88 114
80 88 114
80 88 114
80 88 114
80 88 114
80 88 114
80 88 114
80 88 114
80 88 114
80 88 114
80 88 114
80 88 114
80 88 114
80 88 114
80 88 114
80 88 114
80 88 114
80 88 114
80 88 114
80 88 114
80 88 114
80 88 114
80 88 114
80 88 114
80 88 114
80 88 114
80 88 114
80 88 114
80 88 114
80 88 114
80 88 114
80 88 114
80 88 114
80 88 114
80 88 114
80 88 114
80 88 114
80 88 114
80 88 114
80 88 114
80 88 114
80 88 114
80 88 114
80 88 114
80 88 114
80 88 114
80 88 114
80 88 114
80 88 114
80 88 114
80 88 114
80 88 114
80 88 114
80 88 114
80 88 114
80 88 114
80 88 114
80 88 114
80 88 114
80 88 114
80 88 114
80 88 114
80 88 114
80 88 114
80 88 114
80 88 114
80 88 114
80 88 114
80 88 114
80 88 114
80 88 114
80 88 114
80 88 114
80 88 114
80 88 114
80 88 114
80 88 114
80 88 114
80 88 114
80 88 114
80 88 114
80 88 114
80 88 114
80 88 114
80 88 114
80 88 114
80 88 114
80 88 114
80 88 114
80 88 114
80 88 114
80 88 114
80 88 114
80 88 114
80 88 114
80 88 114
80 88 114
80 88 114
80 88 114
80 88 114
80 88 114
80 88 114
80 88 114
80 88 114
80 88 114
80 88 114
80 88 114
80 88 114
80 88 114
80 88 114
80 88 114
80 88 114
80 88 114
80 88 114
80 88 114
80 88 114
80 88 114
80 88 114
80 88 114
80 88 114
80 88 114
80 88 114
80 88 114
80 88 114
80 88 114
80 88 114
80 88 114
80 88 114
80 88 114
80 88 114
80 88 114
80 88 114
80 88 114
80 88 114
80 88 114
80 88 114
80 88 114
80 88 114
80 88 114
80 88 114
80 88 114
80 88 114
80 88 114
80 88 114
80 88 114
80 88 114
80 88 114
80 88 114
80 88 114
80 88 114
80 88 114
80 88 114
80 88 114
80 88 114
80 88 114
80 88 114
80 88 114
80 88 114
80 88 114
80 88 114
80 88 114
80 88 114
80 88 114
80 88 114
80 88 114
80 88 114
80 88 114
80 88 114
80 88 114
80 88 114
80 88 114
80 88 114
80 88 114
80 88 114
80 88 114
80 88 114
80 88 114
80 88 114
80 88 114
80 88 114
80 88 114
80 88 114
80 88 114
80 88 114
80 88 114
80 88 114
80 88 114
80 88 114
80 88 114
80 88 114
80 88 114
80 88 114
80 88 114
80 88 114
80 88 114
80 88 114
80 88 114
80 88 114
80 88 114
80 88 114
80 88 114
80 88 114
80 88 114
80 88 114
80 88 114
80 88 114
80 88 114
80 88 114
80 88 114
80 88 114
80 88 114
80 88 114
80 88 114
80 88 114
80 88 114
80 88 114
80 88 114
80 88 114
80 88 114
80 88 114
80 88 114
80 88 114
80 88 114
80 88 114
80 88 114
80 88 114
80 88 114
80 88 114
80 88 114
80 88 114
80 88 114
80 88 114
80 88 114
80 88 114
80 88 114
80 88 114
80 88 114
80 88 114
80 88 114
80 88 114
80 88 114
80 88 114
80 88 114
80 88 114
80 88 114
80 88 114
80 88 114
80 88 114
80 88 114
80 88 114
80 88 114
80 88 114
80 88 114
80 88 114
80 88 114
80 88 114
80 88 114
80 88 114
80 88 114
80 88 114
80 88 114
80 88 114
80 88 114
80 88 114
80 88 114
80 88 114
80 88 114
80 88 114
80 88 114
80 88 114
80 88 114
80 88 114
80 88 114
80 88 114
80 88 114
80 88 114
80 88 114
80 88 114
80 88 114
80 88 114
80 88 114
80 88 114
80 88 114
80 88 114
80 88 114
80 88 114
80 88 114
80 88 114
80 88 114
80 88 114
80 88 114
80 88 114
80 88 114
80 88 114
80 88 114
80 88 114
80 88 114
80 88 114
80 88 114
80 88 114
80 88 114
80 88 114
80 88 114
80 88 114
80 88 114
80 88 114
80 88 114
80 88 114
80 88 114
80 88 114
80 88 114
80 88 114
80 88 114
80 88 114
80 88 114
80 88 114
80 88 114
80 88 114
80 88 114
80 88 114
80 88 114
80 88 114
80 88 114
80 88 114
80 88 114
80 88 114
80 88 114
80 88 114
80 88 114
80 88 114
80 88 114
80 88 114
80 88 114
80 88 114
80 88 114
80 88 114
80 88 114
80 88 114
80 88 114
80 88 114
80 88 114
80 88 114
80 88 114
80 88 114
80 88 114
80 88 114
80 88 114
80 88 114
80 88 114
80 88 114
80 88 114
80 88 114
80 88 114
80 88 114
80 88 114
80 88 114
80 88 114
80 88 114
80 88 114
80 88 114
80 88 114
80 88 114
80 88 114
80 88 114
80 88 114
80 88 114
80 88 114
80 88 114
80 88 114
80 88 114
80 88 114
80 88 114
80 88 114
80 88 114
80 88 114
80 88 114
80 88 114
80 88 114
80 88 114
80 88 114
80 88 114
80 88 114
80 88 114
80 88 114
80 88 114
80 88 114
80 88 114
80 88 114
80 88 114
80 88 114
80 88 114
80 88 114
80 88 114
80 88 114
80 88 114
80 88 114
80 88 114
80 88 114
80 88 114
80 88 114
80 88 114
80 88 114
80 88 114
80 88 114
80 88 114
80 88 114
80 88 114
80 88 114
80 88 114
80 88 114
80 88 114
80 88 114
80 88 114
80 88 114
80 88 114
80 88 114
80 88 114
80 88 114
80 88 114
80 88 114
80 88 114
80 88 114
80 88 114
80 88 114
80 88 114
80 88 114
80 88 114
80 88 114
80 88 114
80 88 114
80 88 114
80 88 114
80 88 114
80 88 114
80 88 114
80 88 114
80 88 114
80 88 114
80 88 114
80 88 114
80 88 114
80 88 114
80 88 114
80 88 114
80 88 114
80 88 114
80 88 114
80 88 114
80 88 114
80 88 114
80 88 114
80 88 114
80 88 114
80 88 114
80 88 114
80 88 114
80 88 114
80 88 114
80 88 114
80 88 114
80 88 114
80 88 114
80 88 114
80 88 114
80 88 114
80 88 114
80 88 114
80 88 114
80 88 114
80 88 114
80 88 114
80 88 114
80 88 114
80 88 114
80 88 114
80 88 114
80 88 114
80 88 114
80 88 114
80 88 114
80 88 114
80 88 114
80 88 114
80 88 114
80 88 114
80 88 114
80 88 114
80 88 114
80 88 114
80 88 114
80 88 114
80 88 114
80 88 114
80 88 114
80 88 114
80 88 114
80 88 114
80 88 114
80 88 114
80 88 114
80 88 114
80 88 114
80 88 114
80 88 114
80 88 114
80 88 114
80 88 114
80 88 114
80 88 114
80 88 114
80 88 114
80 88 114
80 88 114
80 88 114
80 88 114
80 88 114
80 88 114
80 88 114
80 88 114
80 88 114
80 88 114
80 88 114
80 88 114
80 88 114
80 88 114
80 88 114
80 88 114
80 88 114
80 88 114
80 88 114
80 88 114
80 88 114
80 88 114
80 88 114
80 88 114
80 88 114
80 88 114
80 88 114
80 88 114
80 88 114
80 88 114
80 88 114
80 88 114
80 88 114
80 88 114
80 88 114
80 88 114
80 88 114
80 88 114
80 88 114
80 88 114
80 88 114
80 88 114
80 88 114
80 88 114
80 88 114
80 88 114
80 88 114
80 88 114
80 88 114
80 88 114
80 88 114
80 88 114
80 88 114
80 88 114
80 88 114
80 88 114
80 88 114
80 88 114
80 88 114
80 88 114
80 88 114
80 88 114
80 88 114
80 88 114
80 88 114
80 88 114
80 88 114
80 88 114
80 88 114
80 88 114
80 88 114
80 88 114
80 88 114
80 88 114
80 88 114
80 88 114
80 88 114
80 88 114
80 88 114
80 88 114
80 88 114
80 88 114
80 88 114
80 88 114
80 88 114
80 88 114
80 88 114
80 88 114
80 88 114
80 88 114
80 88 114
80 88 114
80 88 114
80 88 114
80 88 114
80 88 114
80 88 114
80 88 114
80 88 114
80 88 114
80 88 114
80 88 114
80 88 114
80 88 114
80 88 114
80 88 114
80 88 114
80 88 114
80 88 114
80 88 114
80 88 114
80 88 114
80 88 114
80 88 114
80 88 114
80 88 114
80 88 114
80 88 114
80 88 114
80 88 114
80 88 114
80 88 114
80 88 114
80 88 114
80 88 114
80 88 114
80 88 114
80 88 114
80 88 114
80 88 114
80 88 114
80 88 114
80 88 114
80 88 114
80 88 114
80 88 114
80 88 114
80 88 114
80 88 114
80 88 114
80 88 114
80 88 114
80 88 114
80 88 114
80 88 114
80 88 114
80 88 114
80 88 114
80 88 114
80 88 114
80 88 114
80 88 114
80 88 114
80 88 114
80 88 114
80 88 114
80 88 114
80 88 114
80 88 114
80 88 114
80 88 114
80 88 114
80 88 114
80 88 114
80 88 114
80 88 114
80 88 114
80 88 114
80 88 114
80 88 114
80 88 114
80 88 114
80 88 114
80 88 114
80 88 114
80 88 114
80 88 114
80 88 114
80 88 114
80 88 114
80 88 114
80 88 114
80 88 114
80 88 114
80 88 114
80 88 114
80 88 114
80 88 114
80 88 114
80 88 114
80 88 114
80 88 114
80 88 114
80 88 114
80 88 114
80 88 114
80 88 114
80 88 114
80 88 114
80 88 114
80 88 114
80 88 114
80 88 114
80 88 114
80 88 114
80 88 114
80 88 114
80 88 114
80 88 114
80 88 114
80 88 114
80 88 114
80 88 114
80 88 114
80 88 114
80 88 114
80 88 114
80 88 114
80 88 114
80 88 114
80 88 114
80 88 114
80 88 114
80 88 114
80 88 114
80 88 114
80 88 114
80 88 114
80 88 114
80 88 114
80 88 114
80 88 114
80 88 114
80 88 114
80 88 114
80 88 114
80 88 114
80 88 114
80 88 114
80 88 114
80 88 114
80 88 114
80 88 114
80 88 114
80 88 114
80 88 114
80 88 114
80 88 114
80 88 114
80 88 114
80 88 114
80 88 114
80 88 114
80 88 114
80 88 114
80 88 114
80 88 114
80 88 114
80 88 114
80 88 114
80 88 114
80 88 114
80 88 114
80 88 114
80 88 114
80 88 114
80 88 114
80 88 114
80 88 114
80 88 114
80 88 114
80 88 114
80 88 114
80 88 114
80 88 114
80 88 114
80 88 114
80 88 114
80 88 114
80 88 114
80 88 114
80 88 114
80 88 114
80 88 114
80 88 114
80 88 114
80 88 114
80 88 114
80 88 114
80 88 114
80 88 114
80 88 114
80 88 114
80 88 114
80 88 114
80 88 114
80 88 114
80 88 114
80 88 114
80 88 114
80 88 114
80 88 114
80 88 114
80 88 114
80 88 114
80 88 114
80 88 114
80 88 114
80 88 114
80 88 114
80 88 114
80 88 114
80 88 114
80 88 114
80 88 114
80 88 114
80 88 114
80 88 114
80 88 114
80 88 114
80 88 114
80 88 114
80 88 114
80 88 114
80 88 114
80 88 114
80 88 114
80 88 114
80 88 114
80 88 114
80 88 114
80 88 114
80 88 114
80 88 114
80 88 114
80 88 114
80 88 114
80 88 114
80 88 114
80 88 114
80 88 114
80 88 114
80 88 114
80 88 114
80 88 114
80 88 114
80 88 114
80 88 114
80 88 114
80 88 114
80 88 114
80 88 114
80 88 114
80 88 114
80 88 114
80 88 114
80 88 114
80 88 114
80 88 114
80 88 114
80 88 114
80 88 114
80 88 114
80 88 114
80 88 114
80 88 114
80 88 114
80 88 114
80 88 114
80 88 114
80 88 114
80 88 114
80 88 114
80 88 114
80 88 114
80 88 114
80 88 114
80 88 114
80 88 114
80 88 114
80 88 114
80 88 114
80 88 114
80 88 114
80 88 114
80 88 114
80 88 114
80 88 114
80 88 114
80 88 114
80 88 114
80 88 114
80 88 114
80 88 114
80 88 114
80 88 114
80 88 114
80 88 114
80 88 114
80 88 114
80 88 114
80 88 114
80 88 114
80 88 114
80 88 114
80 88 114
80 88 114
80 88 114
80 88 114
80 88 114
80 88 114
80 88 114
80 88 114
80 88 114
80 88 114
80 88 114
80 88 114
80 88 114
80 88 114
80 88 114
80 88 114
80 88 114
80 88 114
80 88 114
80 88 114
80 88 114
80 88 114
80 88 114
80 88 114
80 88 114
80 88 114
80 88 114
80 88 114
80 88 114
80 88 114
80 88 114
80 88 114
80 88 114
80 88 114
80 88 114
80 88 114
80 88 114
80 88 114
80 88 114
80 88 114
80 88 114
80 88 114
80 88 114
80 88 114
80 88 114
80 88 114
80 88 114
80 88 114
80 88 114
80 88 114
80 88 114
80 88 114
80 88 114
80 88 114
80 88 114
80 88 114
80 88 114
80 88 114
80 88 114
80 88 114
80 88 114
80 88 114
80 88 114
80 88 114
80 88 114
80 88 114
80 88 114
80 88 114
80 88 114
80 88 114
80 88 114
80 88 114
80 88 114
80 88 114
80 88 114
80 88 114
80 88 114
80 88 114
80 88 114
80 88 114
80 88 114
80 88 114
80 88 114
80 88 114
80 88 114
80 88 114
80 88 114
80 88 114
80 88 114
80 88 114
80 88 114
80 88 114
80 88 114
80 88 114
80 88 114
80 88 114
80 88 114
80 88 114
80 88 114
80 88 114
80 88 114
80 88 114
80 88 114
80 88 114
80 88 114
80 88 114
80 88 114
80 88 114
80 88 114
80 88 114
80 88 114
80 88 114
80 88 114
80 88 114
80 88 114
80 88 114
80 88 114
80 88 114
80 88 114
80 88 114
80 88 114
80 88 114
80 88 114
80 88 114
80 88 114
80 88 114
80 88 114
80 88 114
80 88 114
80 88 114
80 88 114
80 88 114
80 88 114
80 88 114
80 88 114
80 88 114
80 88 114
80 88 114
80 88 114
80 88 114
80 88 114
80 88 114
80 88 114
80 88 114
80 88 114
80 88 114
80 88 114
80 88 114
80 88 114
80 88 114
80 88 114
80 88 114
80 88 114
80 88 114
80 88 114
80 88 114
80 88 114
80 88 114
80 88 114
80 88 114
80 88 114
80 88 114
80 88 114
80 88 114
80 88 114
80 88 114
80 88 114
80 88 114
80 88 114
80 88 114
80 88 114
80 88 114
80 88 114
80 88 114
80 88 114
80 88 114
80 88 114
80 88 114
80 88 114
80 88 114
80 88 114
80 88 114
80 88 114
80 88 114
80 88 114
80 88 114
80 88 114
80 88 114
80 88 114
80 88 114
80 88 114
80 88 114
80 88 114
80 88 114
80 88 114
80 88 114
80 88 114
80 88 114
80 88 114
80 88 114
80 88 114
80 88 114
80 88 114
80 88 114
80 88 114
80 88 114
80 88 114
80 88 114
80 88 114
80 88 114
80 88 114
80 88 114
80 88 114
80 88 114
80 88 114
80 88 114
80 88 114
80 88 114
80 88 114
80 88 114
80 88 114
80 88 114
80 88 114
80 88 114
80 88 114
80 88 114
80 88 114
80 88 114
80 88 114
80 88 114
80 88 114
80 88 114
80 88 114
80 88 114
80 88 114
80 88 114
80 88 114
80 88 114
80 88 114
80 88 114
80 88 114
80 88 114
80 88 114
80 88 114
80 88 114
80 88 114
80 88 114
80 88 114
80 88 114
80 88 114
80 88 114
80 88 114
80 88 114
80 88 114
80 88 114
80 88 114
80 88 114
80 88 114
80 88 114
80 88 114
80 88 114
80 88 114
80 88 114
80 88 114
80 88 114
80 88 114
80 88 114
80 88 114
80 88 114
80 88 114
80 88 114
80 88 114
80 88 114
80 88 114
80 88 114
80 88 114
80 88 114
80 88 114
80 88 114
80 88 114
80 88 114
80 88 114
80 88 114
80 88 114
80 88 114
80 88 114
80 88 114
80 88 114
80 88 114
80 88 114
80 88 114
80 88 114
80 88 114
80 88 114
80 88 114
80 88 114
80 88 114
80 88 114
80 88 114
80 88 114
80 88 114
80 88 114
80 88 114
80 88 114
80 88 114
80 88 114
80 88 114
80 88 114
80 88 114
80 88 114
80 88 114
80 88 114
80 88 114
80 88 114
80 88 114
80 88 114
80 88 114
80 88 114
80 88 114
80 88 114
80 88 114
80 88 114
80 88 114
80 88 114
80 88 114
80 88 114
80 88 114
80 88 114
80 88 114
80 88 114
80 88 114
80 88 114
80 88 114
80 88 114
80 88 114
80 88 114
80 88 114
80 88 114
80 88 114
80 88 114
80 88 114
80 88 114
80 88 114
80 88 114
80 88 114
80 88 114
80 88 114
80 88 114
80 88 114
80 88 114
80 88 114
80 88 114
80 88 114
80 88 114
80 88 114
80 88 114
80 88 114
80 88 114
80 88 114
80 88 114
80 88 114
80 88 114
80 88 114
80 88 114
80 88 114
80 88 114
80 88 114
80 88 114
80 88 114
80 88 114
80 88 114
80 88 114
80 88 114
80 88 114
80 88 114
80 88 114
80 88 114
80 88 114
80 88 114
80 88 114
80 88 114
80 88 114
80 88 114
80 88 114
80 88 114
80 88 114
80 88 114
80 88 114
80 88 114
80 88 114
80 88 114
80 88 114
80 88 114
80 88 114
80 88 114
80 88 114
80 88 114
80 88 114
80 88 114
80 88 114
80 88 114
80 88 114
80 88 114
80 88 114
80 88 114
80 88 114
80 88 114
80 88 114
80 88 114
80 88 114
80 88 114
80 88 114
80 88 114
80 88 114
80 88 114
80 88 114
80 88 114
80 88 114
80 88 114
80 88 114
80 88 114
80 88 114
80 88 114
80 88 114
80 88 114
80 88 114
80 88 114
80 88 114
80 88 114
80 88 114
80 88 114
80 88 114
80 88 114
80 88 114
80 88 114
80 88 114
80 88 114
80 88 114
80 88 114
80 88 114
80 88 114
80 88 114
80 88 114
80 88 114
80 88 114
80 88 114
80 88 114
80 88 114
80 88 114
80 88 114
80 88 114
80 88 114
80 88 114
80 88 114
80 88 114
80 88 114
80 88 114
80 88 114
80 88 114
80 88 114
80 88 114
80 88 114
80 88 114
80 88 114
80 88 114
80 88 114
80 88 114
80 88 114
80 88 114
80 88 114
80 88 114
80 88 114
80 88 114
80 88 114
80 88 114
80 88 114
80 88 114
80 88 114
80 88 114
80 88 114
80 88 114
80 88 114
80 88 114
80 88 114
80 88 114
80 88 114
80 88 114
80 88 114
80 88 114
80 88 114
80 88 114
80 88 114
80 88 114
80 88 114
80 88 114
80 88 114
80 88 114
80 88 114
80 88 114
80 88 114
80 88 114
80 88 114
80 88 114
80 88 114
80 88 114
80 88 114
80 88 114
80 88 114
80 88 114
80 88 114
80 88 114
80 88 114
80 88 114
80 88 114
80 88 114
80 88 114
80 88 114
80 88 114
80 88 114
80 88 114
80 88 114
80 88 114
80 88 114
80 88 114
80 88 114
80 88 114
80 88 114
80 88 114
80 88 114
80 88 114
80 88 114
80 88 114
80 88 114
80 88 114
80 88 114
80 88 114
80 88 114
80 88 114
80 88 114
80 88 114
80 88 114
80 88 114
80 88 114
80 88 114
80 88 114
80 88 114
80 88 114
80 88 114
80 88 114
80 88 114
80 88 114
80 88 114
80 88 114
80 88 114
80 88 114
80 88 114
80 88 114
80 88 114
80 88 114
80 88 114
80 88 114
80 88 114
80 88 114
80 88 114
80 88 114
80 88 114
80 88 114
80 88 114
80 88 114
80 88 114
80 88 114
80 88 114
80 88 114
80 88 114
80 88 114
80 88 114
80 88 114
80 88 114
80 88 114
80 88 114
80 88 114
80 88 114
80 88 114
80 88 114
80 88 114
80 88 114
80 88 114
80 88 114
80 88 114
80 88 114
80 88 114
80 88 114
80 88 114
80 88 114
80 88 114
80 88 114
80 88 114
80 88 114
80 88 114
80 88 114
80 88 114
80 88 114
80 88 114
80 88 114
80 88 114
80 88 114
80 88 114
80 88 114
80 88 114
80 88 114
80 88 114
80 88 114
80 88 114
80 88 114
80 88 114
80 88 114
80 88 114
80 88 114
80 88 114
80 88 114
80 88 114
80 88 114
80 88 114
80 88 114
80 88 114
80 88 114
80 88 114
80 88 114
80 88 114
80 88 114
80 88 114
80 88 114
80 88 114
80 88 114
80 88 114
80 88 114
80 88 114
80 88 114
80 88 114
80 88 114
80 88 114
80 88 114
80 88 114
80 88 114
80 88 114
80 88 114
80 88 114
80 88 114
80 88 114
80 88 114
80 88 114
80 88 114
80 88 114
80 88 114
80 88 114
80 88 114
80 88 114
80 88 114
80 88 114
80 88 114
80 88 114
80 88 114
80 88 114
80 88 114
80 88 114
80 88 114
80 88 114
80 88 114
80 88 114
80 88 114
80 88 114
80 88 114
80 88 114
80 88 114
80 88 114
80 88 114
80 88 114
80 88 114
80 88 114
80 88 114
80 88 114
80 88 114
80 88 114
80 88 114
80 88 114
80 88 114
80 88 114
80 88 114
80 88 114
80 88 114
80 88 114
80 88 114
80 88 114
80 88 114
80 88 114
80 88 114
80 88 114
80 88 114
80 88 114
80 88 114
80 88 114
80 88 114
80 88 114
80 88 114
80 88 114
80 88 114
80 88 114
80 88 114
80 88 114
80 88 114
80 88 114
80 88 114
80 88 114
80 88 114
80 88 114
80 88 114
80 88 114
80 88 114
80 88 114
80 88 114
80 88 114
80 88 114
80 88 114
80 88 114
80 88 114
80 88 114
80 88 114
80 88 114
80 88 114
80 88 114
80 88 114
80 88 114
80 88 114
80 88 114
80 88 114
80 88 114
80 88 114
80 88 114
80 88 114
80 88 114
80 88 114
80 88 114
80 88 114
80 88 114
80 88 114
80 88 114
80 88 114
80 88 114
80 88 114
80 88 114
80 88 114
80 88 114
80 88 114
80 88 114
80 88 114
80 88 114
80 88 114
80 88 114
80 88 114
80 88 114
80 88 114
80 88 114
80 88 114
80 88 114
80 88 114
80 88 114
80 88 114
80 88 114
80 88 114
80 88 114
80 88 114
80 88 114
80 88 114
80 88 114
80 88 114
80 88 114
80 88 114
80 88 114
80 88 114
80 88 114
80 88 114
80 88 114
80 88 114
80 88 114
80 88 114
80 88 114
80 88 114
80 88 114
80 88 114
80 88 114
80 88 114
80 88 114
80 88 114
80 88 114
80 88 114
80 88 114
80 88 114
80 88 114
80 88 114
80 88 114
80 88 114
80 88 114
80 88 114
80 88 114
80 88 114
80 88 114
80 88 114
80 88 114
80 88 114
80 88 114
80 88 114
80 88 114
80 88 114
80 88 114
80 88 114
80 88 114
80 88 114
80 88 114
80 88 114
80 88 114
80 88 114
80 88 114
80 88 114
80 88 114
80 88 114
80 88 114
80 88 114
80 88 114
80 88 114
80 88 114
80 88 114
80 88 114
80 88 114
80 88 114
80 88 114
80 88 114
80 88 114
80 88 114
80 88 114
80 88 114
80 88 114
80 88 114
80 88 114
80 88 114
80 88 114
80 88 114
80 88 114
80 88 114
80 88 114
80 88 114
80 88 114
80 88 114
80 88 114
80 88 114
80 88 114
80 88 114
80 88 114
80 88 114
80 88 114
80 88 114
80 88 114
80 88 114
80 88 114
80 88 114
80 88 114
80 88 114
80 88 114
80 88 114
80 88 114
80 88 114
80 88 114
80 88 114
80 88 114
80 88 114
80 88 114
80 88 114
80 88 114
80 88 114
80 88 114
80 88 114
80 88 114
80 88 114
80 88 114
80 88 114
80 88 114
80 88 114
80 88 114
80 88 114
80 88 114
80 88 114
80 88 114
80 88 114
80 88 114
80 88 114
80 88 114
80 88 114
80 88 114
80 88 114
80 88 114
80 88 114
80 88 114
80 88 114
80 88 114
80 88 114
80 88 114
80 88 114
80 88 114
80 88 114
80 88 114
80 88 114
80 88 114
80 88 114
80 88 114
80 88 114
80 88 114
80 88 114
80 88 114
80 88 114
80 88 114
80 88 114
80 88 114
80 88 114
80 88 114
80 88 114
80 88 114
80 88 114
80 88 114
80 88 114
80 88 114
80 88 114
80 88 114
80 88 114
80 88 114
80 88 114
80 88 114
80 88 114
80 88 114
80 88 114
80 88 114
80 88 114
80 88 114
80 88 114
80 88 114
80 88 114
80 88 114
80 88 114
80 88 114
80 88 114
80 88 114
80 88 114
80 88 114
80 88 114
80 88 114
80 88 114
80 88 114
80 88 114
80 88 114
80 88 114
80 88 114
80 88 114
80 88 114
80 88 114
80 88 114
80 88 114
80 88 114
80 88 114
80 88 114
80 88 114
80 88 114
80 88 114
80 88 114
80 88 114
80 88 114
80 88 114
80 88 114
80 88 114
80 88 114
80 88 114
80 88 114
80 88 114
80 88 114
80 88 114
80 88 114
80 88 114
80 88 114
80 88 114
80 88 114
80 88 114
80 88 114
80 88 114
80 88 114
80 88 114
80 88 114
80 88 114
80 88 114
80 88 114
80 88 114
80 88 114
80 88 114
80 88 114
80 88 114
80 88 114
80 88 114
80 88 114
80 88 114
80 88 114
80 88 114
80 88 114
80 88 114
80 88 114
80 88 114
80 88 114
80 88 114
80 88 114
80 88 114
80 88 114
80 88 114
80 88 114
80 88 114
80 88 114
80 88 114
80 88 114
80 88 114
80 88 114
80 88 114
80 88 114
80 88 114
80 88 114
80 88 114
80 88 114
80 88 114
80 88 114
80 88 114
80 88 114
80 88 114
80 88 114
80 88 114
80 88 114
80 88 114
80 88 114
80 88 114
80 88 114
80 88 114
80 88 114
80 88 114
80 88 114
80 88 114
80 88 114
80 88 114
80 88 114
80 88 114
80 88 114
80 88 114
80 88 114
80 88 114
80 88 114
80 88 114
80 88 114
80 88 114
80 88 114
80 88 114
80 88 114
80 88 114
80 88 114
80 88 114
80 88 114
80 88 114
80 88 114
80 88 114
80 88 114
80 88 114
80 88 114
80 88 114
80 88 114
80 88 114
80 88 114
80 88 114
80 88 114
80 88 114
80 88 114
80 88 114
80 88 114
80 88 114
80 88 114
80 88 114
80 88 114
80 88 114
80 88 114
80 88 114
80 88 114
80 88 114
80 88 114
80 88 114
80 88 114
80 88 114
80 88 114
80 88 114
80 88 114
80 88 114
80 88 114
80 88 114
80 88 114
80 88 114
80 88 114
80 88 114
80 88 114
80 88 114
80 88 114
80 88 114
80 88 114
80 88 114
80 88 114
80 88 114
80 88 114
80 88 114
80 88 114
80 88 114
80 88 114
80 88 114
80 88 114
80 88 114
80 88 114
80 88 114
80 88 114
80 88 114
80 88 114
80 88 114
80 88 114
80 88 114
80 88 114
80 88 114
80 88 114
80 88 114
80 88 114
80 88 114
80 88 114
80 88 114
80 88 114
80 88 114
80 88 114
80 88 114
80 88 114
80 88 114
80 88 114
80 88 114
80 88 114
80 88 114
80 88 114
80 88 114
80 88 114
80 88 114
80 88 114
80 88 114
80 88 114
80 88 114
80 88 114
80 88 114
80 88 114
80 88 114
80 88 114
80 88 114
80 88 114
80 88 114
80 88 114
80 88 114
80 88 114
80 88 114
80 88 114
80 88 114
80 88 114
80 88 114
80 88 114
80 88 114
80 88 114
80 88 114
80 88 114
80 88 114
80 88 114
80 88 114
80 88 114
80 88 114
80 88 114
80 88 114
80 88 114
80 88 114
80 88 114
80 88 114
80 88 114
80 88 114
80 88 114
80 88 114
80 88 114
80 88 114
80 88 114
80 88 114
80 88 114
80 88 114
80 88 114
80 88 114
80 88 114
80 88 114
80 88 114
80 88 114
80 88 114
80 88 114
80 88 114
80 88 114
80 88 114
80 88 114
80 88 114
80 88 114
80 88 114
80 88 114
80 88 114
80 88 114
80 88 114
80 88 114
80 88 114
80 88 114
80 88 114
80 88 114
80 88 114
80 88 114
80 88 114
80 88 114
80 88 114
80 88 114
80 88 114
80 88 114
80 88 114
80 88 114
80 88 114
80 88 114
80 88 114
80 88 114
80 88 114
80 88 114
80 88 114
80 88 114
80 88 114
80 88 114
80 88 114
80 88 114
80 88 114
80 88 114
80 88 114
80 88 114
80 88 114
80 88 114
80 88 114
80 88 114
80 88 114
80 88 114
80 88 114
80 88 114
80 88 114
80 88 114
80 88 114
80 88 114
80 88 114
80 88 114
80 88 114
80 88 114
80 88 114
80 88 114
80 88 114
80 88 114
80 88 114
80 88 114
80 88 114
80 88 114
80 88 114
80 88 114
80 88 114
80 88 114
80 88 114
80 88 114
80 88 114
80 88 114
80 88 114
80 88 114
80 88 114
80 88 114
80 88 114
80 88 114
80 88 114
80 88 114
80 88 114
80 88 114
80 88 114
80 88 114
80 88 114
80 88 114
80 88 114
80 88 114
80 88 114
80 88 114
80 88 114
80 88 114
80 88 114
80 88 114
80 88 114
80 88 114
80 88 114
80 88 114
80 88 114
80 88 114
80 88 114
80 88 114
80 88 114
80 88 114
80 88 114
80 88 114
80 88 114
80 88 114
80 88 114
80 88 114
80 88 114
80 88 114
80 88 114
80 88 114
80 88 114
80 88 114
80 88 114
80 88 114
80 88 114
80 88 114
80 88 114
80 88 114
80 88 114
80 88 114
80 88 114
80 88 114
80 88 114
80 88 114
80 88 114
80 88 114
80 88 114
80 88 114
80 88 114
80 88 114
80 88 114
80 88 114
80 88 114
80 88 114
80 88 114
80 88 114
80 88 114
80 88 114
80 88 114
80 88 114
80 88 114
80 88 114
80 88 114
80 88 114
80 88 114
80 88 114
80 88 114
80 88 114
80 88 114
80 88 114
80 88 114
80 88 114
80 88 114
80 88 114
80 88 114
80 88 114
80 88 114
80 88 114
80 88 114
80 88 114
80 88 114
80 88 114
80 88 114
80 88 114
80 88 114
80 88 114
80 88 114
80 88 114
80 88 114
80 88 114
80 88 114
80 88 114
80 88 114
80 88 114
80 88 114
80 88 114
80 88 114
80 88 114
80 88 114
80 88 114
80 88 114
80 88 114
80 88 114
80 88 114
80 88 114
80 88 114
80 88 114
80 88 114
80 88 114
80 88 114
80 88 114
80 88 114
80 88 114
80 88 114
80 88 114
80 88 114
80 88 114
80 88 114
80 88 114
80 88 114
80 88 114
80 88 114
80 88 114
80 88 114
80 88 114
80 88 114
80 88 114
80 88 114
80 88 114
80 88 114
80 88 114
80 88 114
80 88 114
80 88 114
80 88 114
80 88 114
80 88 114
80 88 114
80 88 114
80 88 114
80 88 114
80 88 114
80 88 114
80 88 114
80 88 114
80 88 114
80 88 114
80 88 114
80 88 114
80 88 114
80 88 114
80 88 114
80 88 114
80 88 114
80 88 114
80 88 114
80 88 114
80 88 114
80 88 114
80 88 114
80 88 114
80 88 114
80 88 114
80 88 114
80 88 114
80 88 114
80 88 114
80 88 114
80 88 114
80 88 114
80 88 114
80 88 114
80 88 114
80 88 114
80 88 114
80 88 114
80 88 114
80 88 114
80 88 114
80 88 114
80 88 114
80 88 114
80 88 114
80 88 114
80 88 114
80 88 114
80 88 114
80 88 114
80 88 114
80 88 114
80 88 114
80 88 114
80 88 114
80 88 114
80 88 114
80 88 114
80 88 114
80 88 114
80 88 114
80 88 114
80 88 114
80 88 114
80 88 114
80 88 114
80 88 114
80 88 114
80 88 114
80 88 114
80 88 114
80 88 114
80 88 114
80 88 114
80 88 114
80 88 114
80 88 114
80 88 114
80 88 114
80 88 114
80 88 114
80 88 114
80 88 114
80 88 114
80 88 114
80 88 114
80 88 114
80 88 114
80 88 114
80 88 114
80 88 114
80 88 114
80 88 114
80 88 114
80 88 114
80 88 114
80 88 114
80 88 114
80 88 114
80 88 114
80 88 114
80 88 114
80 88 114
80 88 114
80 88 114
80 88 114
80 88 114
80 88 114
80 88 114
80 88 114
80 88 114
80 88 114
80 88 114
80 88 114
80 88 114
80 88 114
80 88 114
80 88 114
80 88 114
80 88 114
80 88 114
80 88 114
80 88 114
80 88 114
80 88 114
80 88 114
80 88 114
80 88 114
80 88 114
80 88 114
80 88 114
80 88 114
80 88 114
80 88 114
80 88 114
80 88 114
80 88 114
80 88 114
80 88 114
80 88 114
80 88 114
80 88 114
80 88 114
80 88 114
80 88 114
80 88 114
80 88 114
80 88 114
80 88 114
80 88 114
80 88 114
80 88 114
80 88 114
80 88 114
80 88 114
80 88 114
80 88 114
80 88 114
80 88 114
80 88 114
80 88 114
80 88 114
80 88 114
80 88 114
80 88 114
80 88 114
80 88 114
80 88 114
80 88 114
80 88 114
80 88 114
80 88 114
80 88 114
80 88 114
80 88 114
80 88 114
80 88 114
80 88 114
80 88 114
80 88 114
80 88 114
80 88 114
80 88 114
80 88 114
80 88 114
80 88 114
80 88 114
80 88 114
80 88 114
80 88 114
80 88 114
80 88 114
80 88 114
80 88 114
80 88 114
80 88 114
80 88 114
80 88 114
80 88 114
80 88 114
80 88 114
80 88 114
80 88 114
80 88 114
80 88 114
80 88 114
80 88 114
80 88 114
80 88 114
80 88 114
80 88 114
80 88 114
80 88 114
80 88 114
80 88 114
80 88 114
80 88 114
80 88 114
80 88 114
80 88 114
80 88 114
80 88 114
80 88 114
80 88 114
80 88 114
80 88 114
80 88 114
80 88 114
80 88 114
80 88 114
80 88 114
80 88 114
80 88 114
80 88 114
80 88 114
80 88 114
80 88 114
80 88 114
80 88 114
80 88 114
80 88 114
80 88 114
80 88 114
80 88 114
80 88 114
80 88 114
80 88 114
80 88 114
80 88 114
80 88 114
80 88 114
80 88 114
80 88 114
80 88 114
80 88 114
80 88 114
80 88 114
80 88 114
80 88 114
80 88 114
80 88 114
80 88 114
80 88 114
80 88 114
80 88 114
80 88 114
80 88 114
80 88 114
80 88 114
80 88 114
80 88 114
80 88 114
80 88 114
80 88 114
80 88 114
80 88 114
80 88 114
80 88 114
80 88 114
80 88 114
80 88 114
80 88 114
80 88 114
80 88 114
80 88 114
80 88 114
80 88 114
80 88 114
80 88 114
80 88 114
80 88 114
80 88 114
80 88 114
80 88 114
80 88 114
80 88 114
80 88 114
80 88 114
80 88 114
80 88 114
80 88 114
80 88 114
80 88 114
80 88 114
80 88 114
80 88 114
80 88 114
80 88 114
80 88 114
80 88 114
80 88 114
80 88 114
80 88 114
80 88 114
80 88 114
80 88 114
80 88 114
80 88 114
80 88 114
80 88 114
80 88 114
80 88 114
80 88 114
80 88 114
80 88 114
80 88 114
80 88 114
80 88 114
80 88 114
80 88 114
80 88 114
80 88 114
80 88 114
80 88 114
80 88 114
80 88 114
80 88 114
80 88 114
80 88 114
80 88 114
80 88 114
80 88 114
80 88 114
80 88 114
80 88 114
80 88 114
80 88 114
80 88 114
80 88 114
80 88 114
80 88 114
80 88 114
80 88 114
80 88 114
80 88 114
80 88 114
80 88 114
80 88 114
80 88 114
80 88 114
80 88 114
80 88 114
80 88 114
80 88 114
80 88 114
80 88 114
80 88 114
80 88 114
80 88 114
80 88 114
80 88 114
80 88 114
80 88 114
80 88 114
80 88 114
80 88 114
80 88 114
80 88 114
80 88 114
80 88 114
80 88 114
80 88 114
80 88 114
80 88 114
80 88 114
80 88 114
80 88 114
80 88 114
80 88 114
80 88 114
80 88 114
80 88 114
80 88 114
80 88 114
80 88 114
80 88 114
80 88 114
80 88 114
80 88 114
80 88 114
80 88 114
80 88 114
80 88 114
80 88 114
80 88 114
80 88 114
80 88 114
80 88 114
80 88 114
80 88 114
80 88 114
80 88 114
80 88 114
80 88 114
80 88 114
80 88 114
80 88 114
80 88 114
80 88 114
80 88 114
80 88 114
80 88 114
80 88 114
80 88 114
80 88 114
80 88 114
80 88 114
80 88 114
80 88 114
80 88 114
80 88 114
80 88 114
80 88 114
80 88 114
80 88 114
80 88 114
80 88 114
80 88 114
80 88 114
80 88 114
80 88 114
80 88 114
80 88 114
80 88 114
80 88 114
80 88 114
80 88 114
80 88 114
80 88 114
80 88 114
80 88 114
80 88 114
80 88 114
80 88 114
80 88 114
80 88 114
80 88 114
80 88 114
80 88 114
80 88 114
80 88 114
80 88 114
80 88 114
80 88 114
80 88 114
80 88 114
80 88 114
80 88 114
80 88 114
80 88 114
80 88 114
80 88 114
80 88 114
80 88 114
80 88 114
80 88 114
80 88 114
80 88 114
80 88 114
80 88 114
80 88 114
80 88 114
80 88 114
80 88 114
80 88 114
80 88 114
80 88 114
80 88 114
80 88 114
80 88 114
80 88 114
80 88 114
80 88 114
80 88 114
80 88 114
80 88 114
80 88 114
80 88 114
80 88 114
80 88 114
80 88 114
80 88 114
80 88 114
80 88 114
80 88 114
80 88 114
80 88 114
80 88 114
80 88 114
80 88 114
80 88 114
80 88 114
80 88 114
80 88 114
80 88 114
80 88 114
80 88 114
80 88 114
80 88 114
80 88 114
80 88 114
80 88 114
80 88 114
80 88 114
80 88 114
80 88 114
80 88 114
80 88 114
80 88 114
80 88 114
80 88 114
80 88 114
80 88 114
80 88 114
80 88 114
80 88 114
80 88 114
80 88 114
80 88 114
80 88 114
80 88 114
80 88 114
80 88 114
80 88 114
80 88 114
80 88 114
80 88 114
80 88 114
80 88 114
80 88 114
80 88 114
80 88 114
80 88 114
80 88 114
80 88 114
80 88 114
80 88 114
80 88 114
80 88 114
80 88 114
80 88 114
80 88 114
80 88 114
80 88 114
80 88 114
80 88 114
80 88 114
80 88 114
80 88 114
80 88 114
80 88 114
80 88 114
80 88 114
80 88 114
80 88 114
80 88 114
80 88 114
80 88 114
80 88 114
80 88 114
80 88 114
80 88 114
80 88 114
80 88 114
80 88 114
80 88 114
80 88 114
80 88 114
80 88 114
80 88 114
80 88 114
80 88 114
80 88 114
80 88 114
80 88 114
80 88 114
80 88 114
80 88 114
80 88 114
80 88 114
80 88 114
80 88 114
80 88 114
80 88 114
80 88 114
80 88 114
80 88 114
80 88 114
80 88 114
80 88 114
80 88 114
80 88 114
80 88 114
80 88 114
80 88 114
80 88 114
80 88 114
80 88 114
80 88 114
80 88 114
80 88 114
80 88 114
80 88 114
80 88 114
80 88 114
80 88 114
80 88 114
80 88 114
80 88 114
80 88 114
80 88 114
80 88 114
80 88 114
80 88 114
80 88 114
80 88 114
80 88 114
80 88 114
80 88 114
80 88 114
80 88 114
80 88 114
80 88 114
80 88 114
80 88 114
80 88 114
80 88 114
80 88 114
80 88 114
80 88 114
80 88 114
80 88 114
80 88 114
80 88 114
80 88 114
80 88 114
80 88 114
80 88 114
80 88 114
80 88 114
80 88 114
80 88 114
80 88 114
80 88 114
80 88 114
80 88 114
80 88 114
80 88 114
80 88 114
80 88 114
80 88 114
80 88 114
80 88 114
80 88 114
80 88 114
80 88 114
80 88 114
80 88 114
80 88 114
80 88 114
80 88 114
80 88 114
80 88 114
80 88 114
80 88 114
80 88 114
80 88 114
80 88 114
80 88 114
80 88 114
80 88 114
80 88 114
80 88 114
80 88 114
80 88 114
80 88 114
80 88 114
80 88 114
80 88 114
80 88 114
80 88 114
80 88 114
80 88 114
80 88 114
80 88 114
80 88 114
80 88 114
80 88 114
80 88 114
80 88 114
80 88 114
80 88 114
80 88 114
80 88 114
80 88 114
80 88 114
80 88 114
80 88 114
80 88 114
80 88 114
80 88 114
80 88 114
80 88 114
80 88 114
80 88 114
80 88 114
80 88 114
80 88 114
80 88 114
80 88 114
80 88 114
80 88 114
80 88 114
80 88 114
80 88 114
80 88 114
80 88 114
80 88 114
80 88 114
80 88 114
80 88 114
80 88 114
80 88 114
80 88 114
80 88 114
80 88 114
80 88 114
80 88 114
80 88 114
80 88 114
80 88 114
80 88 114
80 88 114
80 88 114
80 88 114
80 88 114
80 88 114
80 88 114
80 88 114
80 88 114
80 88 114
80 88 114
80 88 114
80 88 114
80 88 114
80 88 114
80 88 114
80 88 114
80 88 114
80 88 114
80 88 114
80 88 114
80 88 114
80 88 114
80 88 114
80 88 114
80 88 114
80 88 114
80 88 114
80 88 114
80 88 114
80 88 114
80 88 114
80 88 114
80 88 114
80 88 114
80 88 114
80 88 114
80 88 114
80 88 114
80 88 114
80 88 114
80 88 114
80 88 114
80 88 114
80 88 114
80 88 114
80 88 114
80 88 114
80 88 114
80 88 114
80 88 114
80 88 114
80 88 114
80 88 114
80 88 114
80 88 114
80 88 114
80 88 114
80 88 114
80 88 114
80 88 114
80 88 114
80 88 114
80 88 114
80 88 114
80 88 114
80 88 114
80 88 114
80 88 114
80 88 114
80 88 114
80 88 114
80 88 114
80 88 114
80 88 114
80 88 114
80 88 114
80 88 114
80 88 114
80 88 114
80 88 114
80 88 114
80 88 114
80 88 114
80 88 114
80 88 114
80 88 114
80 88 114
80 88 114
80 88 114
80 88 114
80 88 114
80 88 114
80 88 114
80 88 114
80 88 114
80 88 114
80 88 114
80 88 114
80 88 114
80 88 114
80 88 114
80 88 114
80 88 114
80 88 114
80 88 114
80 88 114
80 88 114
80 88 114
80 88 114
80 88 114
80 88 114
80 88 114
80 88 114
80 88 114
80 88 114
80 88 114
80 88 114
80 88 114
80 88 114
80 88 114
80 88 114
80 88 114
80 88 114
80 88 114
80 88 114
80 88 114
80 88 114
80 88 114
80 88 114
80 88 114
80 88 114
80 88 114
80 88 114
80 88 114
80 88 114
80 88 114
80 88 114
80 88 114
80 88 114
80 88 114
80 88 114
80 88 114
80 88 114
80 88 114
80 88 114
80 88 114
80 88 114
80 88 114
80 88 114
80 88 114
80 88 114
80 88 114
80 88 114
80 88 114
80 88 114
80 88 114
80 88 114
80 88 114
80 88 114
80 88 114
80 88 114
80 88 114
80 88 114
80 88 114
80 88 114
80 88 114
80 88 114
80 88 114
80 88 114
80 88 114
80 88 114
80 88 114
80 88 114
80 88 114
80 88 114
80 88 114
80 88 114
80 88 114
80 88 114
80 88 114
80 88 114
80 88 114
80 88 114
80 88 114
80 88 114
80 88 114
80 88 114
80 88 114
80 88 114
80 88 114
80 88 114
80 88 114
80 88 114
80 88 114
80 88 114
80 88 114
80 88 114
80 88 114
80 88 114
80 88 114
80 88 114
80 88 114
80 88 114
80 88 114
80 88 114
80 88 114
80 88 114
80 88 114
80 88 114
80 88 114
80 88 114
80 88 114
80 88 114
80 88 114
80 88 114
80 88 114
80 88 114
80 88 114
80 88 114
80 88 114
80 88 114
80 88 114
80 88 114
80 88 114
80 88 114
80 88 114
80 88 114
80 88 114
80 88 114
80 88 114
80 88 114
80 88 114
80 88 114
80 88 114
80 88 114
80 88 114
80 88 114
80 88 114
80 88 114
80 88 114
80 88 114
80 88 114
80 88 114
80 88 114
80 88 114
80 88 114
80 88 114
80 88 114
80 88 114
80 88 114
80 88 114
80 88 114
80 88 114
80 88 114
80 88 114
80 88 114
80 88 114
80 88 114
80 88 114
80 88 114
80 88 114
80 88 114
80 88 114
80 88 114
80 88 114
80 88 114
80 88 114
80 88 114
80 88 114
80 88 114
80 88 114
80 88 114
80 88 114
80 88 114
80 88 114
80 88 114
80 88 114
80 88 114
80 88 114
80 88 114
80 88 114
80 88 114
80 88 114
80 88 114
80 88 114
80 88 114
80 88 114
80 88 114
80 88 114
80 88 114
80 88 114
80 88 114
80 88 114
80 88 114
80 88 114
80 88 114
80 88 114
80 88 114
80 88 114
80 88 114
80 88 114
80 88 114
80 88 114
80 88 114
80 88 114
80 88 114
80 88 114
80 88 114
80 88 114
80 88 114
80 88 114
80 88 114
80 88 114
80 88 114
80 88 114
80 88 114
80 88 114
80 88 114
80 88 114
80 88 114
80 88 114
80 88 114
80 88 114
80 88 114
80 88 114
80 88 114
80 88 114
80 88 114
80 88 114
80 88 114
80 88 114
80 88 114
80 88 114
80 88 114
80 88 114
80 88 114
80 88 114
80 88 114
80 88 114
80 88 114
80 88 114
80 88 114
80 88 114
80 88 114
80 88 114
80 88 114
80 88 114
80 88 114
80 88 114
80 88 114
80 88 114
80 88 114
80 88 114
80 88 114
80 88 114
80 88 114
80 88 114
80 88 114
80 88 114
80 88 114
80 88 114
80 88 114
80 88 114
80 88 114
80 88 114
80 88 114
80 88 114
80 88 114
80 88 114
80 88 114
80 88 114
80 88 114
80 88 114
80 88 114
80 88 114
80 88 114
80 88 114
80 88 114
80 88 114
80 88 114
80 88 114
80 88 114
80 88 114
80 88 114
80 88 114
80 88 114
80 88 114
80 88 114
80 88 114
80 88 114
80 88 114
80 88 114
80 88 114
80 88 114
80 88 114
80 88 114
80 88 114
80 88 114
80 88 114
80 88 114
80 88 114
80 88 114
80 88 114
80 88 114
80 88 114
80 88 114
80 88 114
80 88 114
80 88 114
80 88 114
80 88 114
80 88 114
80 88 114
80 88 114
80 88 114
80 88 114
80 88 114
80 88 114
80 88 114
80 88 114
80 88 114
80 88 114
80 88 114
80 88 114
80 88 114
80 88 114
80 88 114
80 88 114
80 88 114
80 88 114
80 88 114
80 88 114
80 88 114
80 88 114
80 88 114
80 88 114
80 88 114
80 88 114
80 88 114
80 88 114
80 88 114
80 88 114
80 88 114
80 88 114
80 88 114
80 88 114
80 88 114
80 88 114
80 88 114
80 88 114
80 88 114
80 88 114
80 88 114
80 88 114
80 88 114
80 88 114
80 88 114
80 88 114
80 88 114
80 88 114
80 88 114
80 88 114
80 88 114
80 88 114
80 88 114
80 88 114
80 88 114
80 88 114
80 88 114
80 88 114
80 88 114
80 88 114
80 88 114
80 88 114
80 88 114
80 88 114
80 88 114
80 88 114
80 88 114
80 88 114
80 88 114
80 88 114
80 88 114
80 88 114
80 88 114
80 88 114
80 88 114
80 88 114
80 88 114
80 88 114
80 88 114
80 88 114
80 88 114
80 88 114
80 88 114
80 88 114
80 88 114
80 88 114
80 88 114
80 88 114
80 88 114
80 88 114
80 88 114
80 88 114
80 88 114
80 88 114
80 88 114
80 88 114
80 88 114
80 88 114
80 88 114
80 88 114
80 88 114
80 88 114
80 88 114
80 88 114
80 88 114
80 88 114
80 88 114
80 88 114
80 88 114
80 88 114
80 88 114
80 88 114
80 88 114
80 88 114
80 88 114
80 88 114
80 88 114
80 88 114
80 88 114
80 88 114
80 88 114
80 88 114
80 88 114
80 88 114
80 88 114
80 88 114
80 88 114
80 88 114
80 88 114
80 88 114
80 88 114
80 88 114
80 88 114
80 88 114
80 88 114
80 88 114
80 88 114
80 88 114
80 88 114
80 88 114
80 88 114
80 88 114
80 88 114
80 88 114
80 88 114
80 88 114
80 88 114
80 88 114
80 88 114
80 88 114
80 88 114
80 88 114
80 88 114
80 88 114
80 88 114
80 88 114
80 88 114
80 88 114
80 88 114
80 88 114
80 88 114
80 88 114
80 88 114
80 88 114
80 88 114
80 88 114
80 88 114
80 88 114
80 88 114
80 88 114
80 88 114
80 88 114
80 88 114
80 88 114
80 88 114
80 88 114
80 88 114
80 88 114
80 88 114
80 88 114
80 88 114
80 88 114
80 88 114
80 88 114
80 88 114
80 88 114
80 88 114
80 88 114
80 88 114
80 88 114
80 88 114
80 88 114
80 88 114
80 88 114
80 88 114
80 88 114
80 88 114
80 88 114
80 88 114
80 88 114
80 88 114
80 88 114
80 88 114
80 88 114
80 88 114
80 88 114
80 88 114
80 88 114
80 88 114
80 88 114
80 88 114
80 88 114
80 88 114
80 88 114
80 88 114
80 88 114
80 88 114
80 88 114
80 88 114
80 88 114
80 88 114
80 88 114
80 88 114
80 88 114
80 88 114
80 88 114
80 88 114
80 88 114
80 88 114
80 88 114
80 88 114
80 88 114
80 88 114
80 88 114
80 88 114
80 88 114
80 88 114
80 88 114
80 88 114
80 88 114
80 88 114
80 88 114
80 88 114
80 88 114
80 88 114
80 88 114
80 88 114
80 88 114
80 88 114
80 88 114
80 88 114
80 88 114
80 88 114
80 88 114
80 88 114
80 88 114
80 88 114
80 88 114
80 88 114
80 88 114
80 88 114
80 88 114
80 88 114
80 88 114
80 88 114
80 88 114
80 88 114
80 88 114
80 88 114
80 88 114
80 88 114
80 88 114
80 88 114
80 88 114
80 88 114
80 88 114
80 88 114
80 88 114
80 88 114
80 88 114
80 88 114
80 88 114
80 88 114
80 88 114
80 88 114
80 88 114
80 88 114
80 88 114
80 88 114
80 88 114
80 88 114
80 88 114
80 88 114
80 88 114
80 88 114
80 88 114
80 88 114
80 88 114
80 88 114
80 88 114
80 88 114
80 88 114
80 88 114
80 88 114
80 88 114
80 88 114
80 88 114
80 88 114
80 88 114
80 88 114
80 88 114
80 88 114
80 88 114
80 88 114
80 88 114
80 88 114
80 88 114
80 88 114
80 88 114
80 88 114
80 88 114
80 88 114
80 88 114
80 88 114
80 88 114
80 88 114
80 88 114
80 88 114
80 88 114
80 88 114
80 88 114
80 88 114
80 88 114
80 88 114
80 88 114
80 88 114
80 88 114
80 88 114
80 88 114
80 88 114
80 88 114
80 88 114
80 88 114
80 88 114
80 88 114
80 88 114
80 88 114
80 88 114
80 88 114
80 88 114
80 88 114
80 88 114
80 88 114
80 88 114
80 88 114
80 88 114
80 88 114
80 88 114
80 88 114
80 88 114
80 88 114
80 88 114
80 88 114
80 88 114
80 88 114
80 88 114
80 88 114
80 88 114
80 88 114
80 88 114
80 88 114
80 88 114
80 88 114
80 88 114
80 88 114
80 88 114
80 88 114
80 88 114
80 88 114
80 88 114
80 88 114
80 88 114
80 88 114
80 88 114
80 88 114
80 88 114
80 88 114
80 88 114
80 88 114
80 88 114
80 88 114
80 88 114
80 88 114
80 88 114
80 88 114
80 88 114
80 88 114
80 88 114
80 88 114
80 88 114
80 88 114
80 88 114
80 88 114
80 88 114
80 88 114
80 88 114
80 88 114
80 88 114
80 88 114
80 88 114
80 88 114
80 88 114
80 88 114
80 88 114
80 88 114
80 88 114
80 88 114
80 88 114
80 88 114
80 88 114
80 88 114
80 88 114
80 88 114
80 88 114
80 88 114
80 88 114
80 88 114
80 88 114
80 88 114
80 88 114
80 88 114
80 88 114
80 88 114
80 88 114
80 88 114
80 88 114
80 88 114
80 88 114
80 88 114
80 88 114
80 88 114
80 88 114
80 88 114
80 88 114
80 88 114
80 88 114
80 88 114
80 88 114
80 88 114
80 88 114
80 88 114
80 88 114
80 88 114
80 88 114
80 88 114
80 88 114
80 88 114
80 88 114
80 88 114
80 88 114
80 88 114
80 88 114
80 88 114
80 88 114
80 88 114
80 88 114
80 88 114
80 88 114
80 88 114
80 88 114
80 88 114
80 88 114
80 88 114
80 88 114
80 88 114
80 88 114
80 88 114
80 88 114
80 88 114
80 88 114
80 88 114
80 88 114
80 88 114
80 88 114
80 88 114
80 88 114
80 88 114
80 88 114
80 88 114
80 88 114
80 88 114
80 88 114
80 88 114
80 88 114
80 88 114
80 88 114
80 88 114
80 88 114
80 88 114
80 88 114
80 88 114
80 88 114
80 88 114
80 88 114
80 88 114
80 88 114
80 88 114
80 88 114
80 88 114
80 88 114
80 88 114
80 88 114
80 88 114
80 88 114
80 88 114
80 88 114
80 88 114
80 88 114
80 88 114
80 88 114
80 88 114
80 88 114
80 88 114
80 88 114
80 88 114
80 88 114
80 88 114
80 88 114
80 88 114
80 88 114
80 88 114
80 88 114
80 88 114
80 88 114
80 88 114
80 88 114
80 88 114
80 88 114
80 88 114
80 88 114
80 88 114
80 88 114
80 88 114
80 88 114
80 88 114
80 88 114
80 88 114
80 88 114
80 88 114
80 88 114
80 88 114
80 88 114
80 88 114
80 88 114
80 88 114
80 88 114
80 88 114
80 88 114
80 88 114
80 88 114
80 88 114
80 88 114
80 88 114
80 88 114
80 88 114
80 88 114
80 88 114
80 88 114
80 88 114
80 88 114
80 88 114
80 88 114
80 88 114
80 88 114
80 88 114
80 88 114
80 88 114
80 88 114
80 88 114
80 88 114
80 88 114
80 88 114
80 88 114
80 88 114
80 88 114
80 88 114
80 88 114
80 88 114
80 88 114
80 88 114
80 88 114
80 88 114
80 88 114
80 88 114
80 88 114
80 88 114
80 88 114
80 88 114
80 88 114
80 88 114
80 88 114
80 88 114
80 88 114
80 88 114
80 88 114
80 88 114
80 88 114
80 88 114
80 88 114
80 88 114
80 88 114
80 88 114
80 88 114
80 88 114
80 88 114
80 88 114
80 88 114
80 88 114
80 88 114
80 88 114
80 88 114
80 88 114
80 88 114
80 88 114
80 88 114
80 88 114
80 88 114
80 88 114
80 88 114
80 88 114
80 88 114
80 88 114
80 88 114
80 88 114
80 88 114
80 88 114
80 88 114
80 88 114
80 88 114
80 88 114
80 88 114
80 88 114
80 88 114
80 88 114
80 88 114
80 88 114
80 88 114
80 88 114
80 88 114
80 88 114
80 88 114
80 88 114
80 88 114
80 88 114
80 88 114
80 88 114
80 88 114
80 88 114
80 88 114
80 88 114
80 88 114
80 88 114
80 88 114
80 88 114
80 88 114
80 88 114
80 88 114
80 88 114
80 88 114
80 88 114
80 88 114
80 88 114
80 88 114
80 88 114
80 88 114
80 88 114
80 88 114
80 88 114
80 88 114
80 88 114
80 88 114
80 88 114
80 88 114
80 88 114
80 88 114
80 88 114
80 88 114
80 88 114
80 88 114
80 88 114
80 88 114
80 88 114
80 88 114
80 88 114
80 88 114
80 88 114
80 88 114
80 88 114
80 88 114
80 88 114
80 88 114
80 88 114
80 88 114
80 88 114
80 88 114
80 88 114
80 88 114
80 88 114
80 88 114
80 88 114
80 88 114
80 88 114
80 88 114
80 88 114
80 88 114
80 88 114
80 88 114
80 88 114
80 88 114
80 88 114
80 88 114
80 88 114
80 88 114
80 88 114
80 88 114
80 88 114
80 88 114
80 88 114
80 88 114
80 88 114
80 88 114
80 88 114
80 88 114
80 88 114
80 88 114
80 88 114
80 88 114
80 88 114
80 88 114
80 88 114
80 88 114
80 88 114
80 88 114
80 88 114
80 88 114
80 88 114
80 88 114
80 88 114
80 88 114
80 88 114
80 88 114
80 88 114
80 88 114
80 88 114
80 88 114
80 88 114
80 88 114
80 88 114
80 88 114
80 88 114
80 88 114
80 88 114
80 88 114
80 88 114
80 88 114
80 88 114
80 88 114
80 88 114
80 88 114
80 88 114
80 88 114
80 88 114
80 88 114
80 88 114
80 88 114
80 88 114
80 88 114
80 88 114
80 88 114
80 88 114
80 88 114
80 88 114
80 88 114
80 88 114
80 88 114
80 88 114
80 88 114
80 88 114
80 88 114
80 88 114
80 88 114
80 88 114
80 88 114
80 88 114
80 88 114
80 88 114
80 88 114
80 88 114
80 88 114
80 88 114
80 88 114
80 88 114
80 88 114
80 88 114
80 88 114
80 88 114
80 88 114
80 88 114
80 88 114
80 88 114
80 88 114
80 88 114
80 88 114
80 88 114
80 88 114
80 88 114
80 88 114
80 88 114
80 88 114
80 88 114
80 88 114
80 88 114
80 88 114
80 88 114
80 88 114
80 88 114
80 88 114
80 88 114
80 88 114
80 88 114
80 88 114
80 88 114
80 88 114
80 88 114
80 88 114
80 88 114
80 88 114
80 88 114
80 88 114
80 88 114
80 88 114
80 88 114
80 88 114
80 88 114
80 88 114
80 88 114
80 88 114
80 88 114
80 88 114
80 88 114
80 88 114
80 88 114
80 88 114
80 88 114
80 88 114
80 88 114
80 88 114
80 88 114
80 88 114
80 88 114
80 88 114
80 88 114
80 88 114
80 88 114
80 88 114
80 88 114
80 88 114
80 88 114
80 88 114
80 88 114
80 88 114
80 88 114
80 88 114
80 88 114
80 88 114
80 88 114
80 88 114
80 88 114
80 88 114
80 88 114
80 88 114
80 88 114
80 88 114
80 88 114
80 88 114
80 88 114
80 88 114
80 88 114
80 88 114
80 88 114
80 88 114
80 88 114
80 88 114
80 88 114
80 88 114
80 88 114
80 88 114
80 88 114
80 88 114
80 88 114
80 88 114
80 88 114
80 88 114
80 88 114
80 88 114
80 88 114
80 88 114
80 88 114
80 88 114
80 88 114
80 88 114
80 88 114
80 88 114
80 88 114
80 88 114
80 88 114
80 88 114
80 88 114
80 88 114
80 88 114
80 88 114
80 88 114
80 88 114
80 88 114
80 88 114
80 88 114
80 88 114
80 88 114
80 88 114
80 88 114
80 88 114
80 88 114
80 88 114
80 88 114
80 88 114
80 88 114
80 88 114
80 88 114
80 88 114
80 88 114
80 88 114
80 88 114
80 88 114
80 88 114
80 88 114
80 88 114
80 88 114
80 88 114
80 88 114
80 88 114
80 88 114
80 88 114
80 88 114
80 88 114
80 88 114
80 88 114
80 88 114
80 88 114
80 88 114
80 88 114
80 88 114
80 88 114
80 88 114
80 88 114
80 88 114
80 88 114
80 88 114
80 88 114
80 88 114
80 88 114
80 88 114
80 88 114
80 88 114
80 88 114
80 88 114
80 88 114
80 88 114
80 88 114
80 88 114
80 88 114
80 88 114
80 88 114
80 88 114
80 88 114
80 88 114
80 88 114
80 88 114
80 88 114
80 88 114
80 88 114
80 88 114
80 88 114
80 88 114
80 88 114
80 88 114
80 88 114
80 88 114
80 88 114
80 88 114
80 88 114
80 88 114
80 88 114
80 88 114
80 88 114
80 88 114
80 88 114
80 88 114
80 88 114
80 88 114
80 88 114
80 88 114
80 88 114
80 88 114
80 88 114
80 88 114
80 88 114
80 88 114
80 88 114
80 88 114
80 88 114
80 88 114
80 88 114
80 88 114
80 88 114
80 88 114
80 88 114
80 88 114
80 88 114
80 88 114
80 88 114
80 88 114
80 88 114
80 88 114
80 88 114
80 88 114
80 88 114
80 88 114
80 88 114
80 88 114
80 88 114
80 88 114
80 88 114
80 88 114
80 88 114
80 88 114
80 88 114
80 88 114
80 88 114
80 88 114
80 88 114
80 88 114
80 88 114
80 88 114
80 88 114
80 88 114
80 88 114
80 88 114
80 88 114
80 88 114
80 88 114
80 88 114
80 88 114
80 88 114
80 88 114
80 88 114
80 88 114
80 88 114
80 88 114
80 88 114
80 88 114
80 88 114
80 88 114
80 88 114
80 88 114
80 88 114
80 88 114
80 88 114
80 88 114
80 88 114
80 88 114
80 88 114
80 88 114
80 88 114
80 88 114
80 88 114
80 88 114
80 88 114
80 88 114
80 88 114
80 88 114
80 88 114
80 88 114
80 88 114
80 88 114
80 88 114
80 88 114
80 88 114
80 88 114
80 88 114
80 88 114
80 88 114
80 88 114
80 88 114
80 88 114
80 88 114
80 88 114
80 88 114
80 88 114
80 88 114
80 88 114
80 88 114
80 88 114
80 88 114
80 88 114
80 88 114
80 88 114
80 88 114
80 88 114
80 88 114
80 88 114
80 88 114
80 88 114
80 88 114
80 88 114
80 88 114
80 88 114
80 88 114
80 88 114
80 88 114
80 88 114
80 88 114
80 88 114
80 88 114
80 88 114
80 88 114
80 88 114
80 88 114
80 88 114
80 88 114
80 88 114
80 88 114
80 88 114
80 88 114
80 88 114
80 88 114
80 88 114
80 88 114
80 88 114
80 88 114
80 88 114
80 88 114
80 88 114
80 88 114
80 88 114
80 88 114
80 88 114
80 88 114
80 88 114
80 88 114
80 88 114
80 88 114
80 88 114
80 88 114
80 88 114
80 88 114
80 88 114
80 88 114
80 88 114
80 88 114
80 88 114
80 88 114
80 88 114
80 88 114
80 88 114
80 88 114
80 88 114
80 88 114
80 88 114
80 88 114
80 88 114
80 88 114
80 88 114
80 88 114
80 88 114
80 88 114
80 88 114
80 88 114
80 88 114
80 88 114
80 88 114
80 88 114
80 88 114
80 88 114
80 88 114
80 88 114
80 88 114
80 88 114
80 88 114
80 88 114
80 88 114
80 88 114
80 88 114
80 88 114
80 88 114
80 88 114
80 88 114
80 88 114
80 88 114
80 88 114
80 88 114
80 88 114
80 88 114
80 88 114
80 88 114
80 88 114
80 88 114
80 88 114
80 88 114
80 88 114
80 88 114
80 88 114
80 88 114
80 88 114
80 88 114
80 88 114
80 88 114
80 88 114
80 88 114
80 88 114
80 88 114
80 88 114
80 88 114
80 88 114
80 88 114
80 88 114
80 88 114
80 88 114
80 88 114
80 88 114
80 88 114
80 88 114
80 88 114
80 88 114
80 88 114
80 88 114
80 88 114
80 88 114
80 88 114
80 88 114
80 88 114
80 88 114
80 88 114
80 88 114
80 88 114
80 88 114
80 88 114
80 88 114
80 88 114
80 88 114
80 88 114
80 88 114
80 88 114
80 88 114
80 88 114
80 88 114
80 88 114
80 88 114
80 88 114
80 88 114
80 88 114
80 88 114
80 88 114
80 88 114
80 88 114
80 88 114
80 88 114
80 88 114
80 88 114
80 88 114
80 88 114
80 88 114
80 88 114
80 88 114
80 88 114
80 88 114
80 88 114
80 88 114
80 88 114
80 88 114
80 88 114
80 88 114
80 88 114
80 88 114
80 88 114
80 88 114
80 88 114
80 88 114
80 88 114
80 88 114
80 88 114
80 88 114
80 88 114
80 88 114
80 88 114
80 88 114
80 88 114
80 88 114
80 88 114
80 88 114
80 88 114
80 88 114
80 88 114
80 88 114
80 88 114
80 88 114
80 88 114
80 88 114
80 88 114
80 88 114
80 88 114
80 88 114
80 88 114
80 88 114
80 88 114
80 88 114
80 88 114
80 88 114
80 88 114
80 88 114
80 88 114
80 88 114
80 88 114
80 88 114
80 88 114
80 88 114
80 88 114
80 88 114
80 88 114
80 88 114
80 88 114
80 88 114
80 88 114
80 88 114
80 88 114
80 88 114
80 88 114
80 88 114
80 88 114
80 88 114
80 88 114
80 88 114
80 88 114
80 88 114
80 88 114
80 88 114
80 88 114
80 88 114
80 88 114
80 88 114
80 88 114
80 88 114
80 88 114
80 88 114
80 88 114
80 88 114
80 88 114
80 88 114
80 88 114
80 88 114
80 88 114
80 88 114
80 88 114
80 88 114
80 88 114
80 88 114
80 88 114
80 88 114
80 88 114
80 88 114
80 88 114
80 88 114
80 88 114
80 88 114
80 88 114
80 88 114
80 88 114
80 88 114
80 88 114
80 88 114
80 88 114
80 88 114
80 88 114
80 88 114
80 88 114
80 88 114
80 88 114
80 88 114
80 88 114
80 88 114
80 88 114
80 88 114
80 88 114
80 88 114
80 88 114
80 88 114
80 88 114
80 88 114
80 88 114
80 88 114
80 88 114
80 88 114
80 88 114
80 88 114
80 88 114
80 88 114
80 88 114
80 88 114
80 88 114
80 88 114
80 88 114
80 88 114
80 88 114
80 88 114
80 88 114
80 88 114
80 88 114
80 88 114
80 88 114
80 88 114
80 88 114
80 88 114
80 88 114
80 88 114
80 88 114
80 88 114
80 88 114
80 88 114
80 88 114
80 88 114
80 88 114
80 88 114
80 88 114
80 88 114
80 88 114
80 88 114
80 88 114
80 88 114
80 88 114
80 88 114
80 88 114
80 88 114
80 88 114
80 88 114
80 88 114
80 88 114
80 88 114
80 88 114
80 88 114
80 88 114
80 88 114
80 88 114
80 88 114
80 88 114
80 88 114
80 88 114
80 88 114
80 88 114
80 88 114
80 88 114
80 88 114
80 88 114
80 88 114
80 88 114
80 88 114
80 88 114
80 88 114
80 88 114
80 88 114
80 88 114
80 88 114
80 88 114
80 88 114
80 88 114
80 88 114
80 88 114
80 88 114
80 88 114
80 88 114
80 88 114
80 88 114
80 88 114
80 88 114
80 88 114
80 88 114
80 88 114
80 88 114
80 88 114
80 88 114
80 88 114
80 88 114
80 88 114
80 88 114
80 88 114
80 88 114
80 88 114
80 88 114
80 88 114
80 88 114
80 88 114
80 88 114
80 88 114
80 88 114
80 88 114
80 88 114
80 88 114
80 88 114
80 88 114
80 88 114
80 88 114
80 88 114
80 88 114
80 88 114
80 88 114
80 88 114
80 88 114
80 88 114
80 88 114
80 88 114
80 88 114
80 88 114
80 88 114
80 88 114
80 88 114
80 88 114
80 88 114
80 88 114
80 88 114
80 88 114
80 88 114
80 88 114
80 88 114
80 88 114
80 88 114
80 88 114
80 88 114
80 88 114
80 88 114
80 88 114
80 88 114
80 88 114
80 88 114
80 88 114
80 88 114
80 88 114
80 88 114
80 88 114
80 88 114
80 88 114
80 88 114
80 88 114
80 88 114
80 88 114
80 88 114
80 88 114
80 88 114
80 88 114
80 88 114
80 88 114
80 88 114
80 88 114
80 88 114
80 88 114
80 88 114
80 88 114
80 88 114
80 88 114
80 88 114
80 88 114
80 88 114
80 88 114
80 88 114
80 88 114
80 88 114
80 88 114
80 88 114
80 88 114
80 88 114
80 88 114
80 88 114
80 88 114
80 88 114
80 88 114
80 88 114
80 88 114
80 88 114
80 88 114
80 88 114
80 88 114
80 88 114
80 88 114
80 88 114
80 88 114
80 88 114
80 88 114
80 88 114
80 88 114
80 88 114
80 88 114
80 88 114
80 88 114
80 88 114
80 88 114
80 88 114
80 88 114
80 88 114
80 88 114
80 88 114
80 88 114
80 88 114
80 88 114
80 88 114
80 88 114
80 88 114
80 88 114
80 88 114
80 88 114
80 88 114
80 88 114
80 88 114
80 88 114
80 88 114
80 88 114
80 88 114
80 88 114
80 88 114
80 88 114
80 88 114
80 88 114
80 88 114
80 88 114
80 88 114
80 88 114
80 88 114
80 88 114
80 88 114
80 88 114
80 88 114
80 88 114
80 88 114
80 88 114
80 88 114
80 88 114
80 88 114
80 88 114
80 88 114
80 88 114
80 88 114
80 88 114
80 88 114
80 88 114
80 88 114
80 88 114
80 88 114
80 88 114
80 88 114
80 88 114
80 88 114
80 88 114
80 88 114
80 88 114
80 88 114
80 88 114
80 88 114
80 88 114
80 88 114
80 88 114
80 88 114
80 88 114
80 88 114
80 88 114
80 88 114
80 88 114
80 88 114
80 88 114
80 88 114
80 88 114
80 88 114
80 88 114
80 88 114
80 88 114
80 88 114
80 88 114
80 88 114
80 88 114
80 88 114
80 88 114
80 88 114
80 88 114
80 88 114
80 88 114
80 88 114
80 88 114
80 88 114
80 88 114
80 88 114
80 88 114
80 88 114
80 88 114
80 88 114
80 88 114
80 88 114
80 88 114
80 88 114
80 88 114
80 88 114
80 88 114
80 88 114
80 88 114
80 88 114
80 88 114
80 88 114
80 88 114
80 88 114
80 88 114
80 88 114
80 88 114
80 88 114
80 88 114
80 88 114
80 88 114
80 88 114
80 88 114
80 88 114
80 88 114
80 88 114
80 88 114
80 88 114
80 88 114
80 88 114
80 88 114
80 88 114
80 88 114
80 88 114
80 88 114
80 88 114
80 88 114
80 88 114
80 88 114
80 88 114
80 88 114
80 88 114
80 88 114
80 88 114
80 88 114
80 88 114
80 88 114
80 88 114
80 88 114
80 88 114
80 88 114
80 88 114
80 88 114
80 88 114
80 88 114
80 88 114
80 88 114
80 88 114
80 88 114
80 88 114
80 88 114
80 88 114
80 88 114
80 88 114
80 88 114
80 88 114
80 88 114
80 88 114
80 88 114
80 88 114
80 88 114
80 88 114
80 88 114
80 88 114
80 88 114
80 88 114
80 88 114
80 88 114
80 88 114
80 88 114
80 88 114
80 88 114
80 88 114
80 88 114
80 88 114
80 88 114
80 88 114
80 88 114
80 88 114
80 88 114
80 88 114
80 88 114
80 88 114
80 88 114
80 88 114
80 88 114
80 88 114
80 88 114
80 88 114
80 88 114
80 88 114
80 88 114
80 88 114
80 88 114
80 88 114
80 88 114
80 88 114
80 88 114
73 84 112
68 85 116
65 84 115
66 84 116
68 83 112
75 87 115
80 88 114
80 88 114
80 88 114
80 88 114
80 88 114
80 88 114
80 88 114
80 88 114
80 88 114
80 88 114
80 88 114
80 88 114
80 88 114
80 88 114
80 88 114
80 88 114
80 88 114
80 88 114
80 88 114
80 88 114
80 88 114
80 88 114
80 88 114
80 88 114
80 88 114
80 88 114
80 88 114
80 88 114
80 88 114
80 88 114
80 88 114
80 88 114
80 88 114
80 88 114
80 88 114
80 88 114
80 88 114
80 88 114
80 88 114
80 88 114
80 88 114
80 88 114
80 88 114
80 88 114
80 88 114
80 88 114
80 88 114
80 88 114
80 88 114
80 88 114
80 88 114
80 88 114
80 88 114
80 88 114
80 88 114
80 88 114
80 88 114
80 88 114
80 88 114
80 88 114
80 88 114
80 88 114
80 88 114
80 88 114
80 88 114
80 88 114
80 88 114
80 88 114
80 88 114
80 88 114
80 88 114
80 88 114
80 88 114
80 88 114
80 88 114
80 88 114
80 88 114
80 88 114
80 88 114
80 88 114
80 88 114
80 88 114
80 88 114
80 88 114
80 88 114
80 88 114
80 88 114
80 88 114
80 88 114
80 88 114
80 88 114
80 88 114
80 88 114
80 88 114
80 88 114
80 88 114
80 88 114
80 88 114
80 88 114
80 88 114
80 88 114
80 88 114
80 88 114
80 88 114
80 88 114
80 88 114
80 88 114
80 88 114
80 88 114
80 88 114
80 88 114
80 88 114
80 88 114
80 88 114
80 88 114
80 88 114
80 88 114
80 88 114
80 88 114
80 88 114
80 88 114
80 88 114
80 88 114
80 88 114
80 88 114
80 88 114
80 88 114
80 88 114
80 88 114
80 88 114
80 88 114
80 88 114
80 88 114
80 88 114
80 88 114
80 88 114
80 88 114
80 88 114
80 88 114
80 88 114
80 88 114
80 88 114
80 88 114
80 88 114
80 88 114
80 88 114
80 88 114
80 88 114
80 88 114
80 88 114
80 88 114
80 88 114
80 88 114
80 88 114
80 88 114
80 88 114
80 88 114
80 88 114
80 88 114
80 88 114
80 88 114
80 88 114
80 88 114
80 88 114
80 88 114
80 88 114
80 88 114
80 88 114
80 88 114
80 88 114
80 88 114
80 88 114
80 88 114
80 88 114
80 88 114
80 88 114
80 88 114
80 88 114
80 88 114
80 88 114
80 88 114
80 88 114
80 88 114
80 88 114
80 88 114
80 88 114
80 88 114
80 88 114
80 88 114
80 88 114
80 88 114
80 88 114
80 88 114
80 88 114
80 88 114
80 88 114
80 88 114
80 88 114
80 88 114
80 88 114
80 88 114
80 88 114
80 88 114
80 88 114
80 88 114
80 88 114
80 88 114
80 88 114
80 88 114
80 88 114
80 88 114
80 88 114
80 88 114
80 88 114
80 88 114
80 88 114
80 88 114
80 88 114
80 88 114
80 88 114
80 88 114
80 88 114
80 88 114
80 88 114
80 88 114
80 88 114
80 88 114
80 88 114
80 88 114
80 88 114
80 88 114
80 88 114
80 88 114
80 88 114
80 88 114
80 88 114
80 88 114
80 88 114
80 88 114
80 88 114
80 88 114
80 88 114
80 88 114
80 88 114
80 88 114
80 88 114
80 88 114
80 88 114
80 88 114
80 88 114
80 88 114
80 88 114
80 88 114
80 88 114
80 88 114
80 88 114
80 88 114
80 88 114
80 88 114
80 88 114
80 88 114
80 88 114
80 88 114
80 88 114
80 88 114
80 88 114
80 88 114
80 88 114
80 88 114
80 88 114
80 88 114
80 88 114
80 88 114
80 88 114
80 88 114
80 88 114
80 88 114
80 88 114
80 88 114
80 88 114
80 88 114
80 88 114
80 88 114
80 88 114
80 88 114
80 88 114
80 88 114
80 88 114
80 88 114
80 88 114
80 88 114
80 88 114
80 88 114
80 88 114
80 88 114
80 88 114
80 88 114
80 88 114
80 88 114
80 88 114
80 88 114
80 88 114
80 88 114
80 88 114
80 88 114
80 88 114
80 88 114
80 88 114
80 88 114
80 88 114
80 88 114
80 88 114
80 88 114
80 88 114
80 88 114
80 88 114
80 88 114
80 88 114
80 88 114
80 88 114
80 88 114
80 88 114
80 88 114
80 88 114
80 88 114
80 88 114
80 88 114
80 88 114
80 88 114
80 88 114
80 88 114
80 88 114
80 88 114
80 88 114
80 88 114
80 88 114
80 88 114
80 88 114
80 88 114
80 88 114
80 88 114
80 88 114
80 88 114
80 88 114
80 88 114
80 88 114
80 88 114
80 88 114
80 88 114
80 88 114
80 88 114
80 88 114
80 88 114
80 88 114
80 88 114
80 88 114
80 88 114
80 88 114
80 88 114
80 88 114
80 88 114
80 88 114
80 88 114
80 88 114
80 88 114
80 88 114
80 88 114
80 88 114
80 88 114
80 88 114
80 88 114
80 88 114
80 88 114
80 88 114
80 88 114
80 88 114
80 88 114
80 88 114
80 88 114
80 88 114
80 88 114
80 88 114
80 88 114
80 88 114
80 88 114
80 88 114
80 88 114
80 88 114
80 88 114
80 88 114
80 88 114
80 88 114
68 84 113
54 81 115
48 75 108
51 80 115
52 81 116
50 77 111
50 78 113
51 79 114
55 80 113
70 86 117
80 88 114
80 88 114
80 88 114
80 88 114
80 88 114
80 88 114
80 88 114
80 88 114
80 88 114
80 88 114
80 88 114
80 88 114
80 88 114
80 88 114
80 88 114
80 88 114
80 88 114
80 88 114
80 88 114
80 88 114
80 88 114
80 88 114
80 88 114
80 88 114
80 88 114
80 88 114
80 88 114
80 88 114
80 88 114
80 88 114
80 88 114
80 88 114
80 88 114
80 88 114
80 88 114
80 88 114
80 88 114
80 88 114
80 88 114
80 88 114
80 88 114
80 88 114
80 88 114
80 88 114
80 88 114
80 88 114
80 88 114
80 88 114
80 88 114
80 88 114
80 88 114
80 88 114
80 88 114
80 88 114
80 88 114
80 88 114
80 88 114
80 88 114
80 88 114
80 88 114
80 88 114
80 88 114
80 88 114
80 88 114
80 88 114
80 88 114
80 88 114
80 88 114
80 88 114
80 88 114
80 88 114
80 88 114
80 88 114
80 88 114
80 88 114
80 88 114
80 88 114
80 88 114
80 88 114
80 88 114
80 88 114
80 88 114
80 88 114
80 88 114
80 88 114
80 88 114
80 88 114
80 88 114
80 88 114
80 88 114
80 88 114
80 88 114
80 88 114
80 88 114
80 88 114
80 88 114
80 88 114
80 88 114
80 88 114
80 88 114
80 88 114
80 88 114
80 88 114
80 88 114
80 88 114
80 88 114
80 88 114
80 88 114
80 88 114
80 88 114
80 88 114
80 88 114
80 88 114
80 88 114
80 88 114
80 88 114
80 88 114
80 88 114
80 88 114
80 88 114
80 88 114
80 88 114
80 88 114
80 88 114
80 88 114
80 88 114
80 88 114
80 88 114
80 88 114
80 88 114
80 88 114
80 88 114
80 88 114
80 88 114
80 88 114
80 88 114
80 88 114
80 88 114
80 88 114
80 88 114
80 88 114
80 88 114
80 88 114
80 88 114
80 88 114
80 88 114
80 88 114
80 88 114
80 88 114
80 88 114
80 88 114
80 88 114
80 88 114
80 88 114
80 88 114
80 88 114
80 88 114
80 88 114
80 88 114
80 88 114
80 88 114
80 88 114
80 88 114
80 88 114
80 88 114
80 88 114
80 88 114
80 88 114
80 88 114
80 88 114
80 88 114
80 88 114
80 88 114
80 88 114
80 88 114
80 88 114
80 88 114
80 88 114
80 88 114
80 88 114
80 88 114
80 88 114
80 88 114
80 88 114
80 88 114
80 88 114
80 88 114
80 88 114
80 88 114
80 88 114
80 88 114
80 88 114
80 88 114
80 88 114
80 88 114
80 88 114
80 88 114
80 88 114
80 88 114
80 88 114
80 88 114
80 88 114
80 88 114
80 88 114
80 88 114
80 88 114
80 88 114
80 88 114
80 88 114
80 88 114
80 88 114
80 88 114
80 88 114
80 88 114
80 88 114
80 88 114
80 88 114
80 88 114
80 88 114
80 88 114
80 88 114
80 88 114
80 88 114
80 88 114
80 88 114
80 88 114
80 88 114
80 88 114
80 88 114
80 88 114
80 88 114
80 88 114
80 88 114
80 88 114
80 88 114
80 88 114
80 88 114
80 88 114
80 88 114
80 88 114
80 88 114
80 88 114
80 88 114
80 88 114
80 88 114
80 88 114
80 88 114
80 88 114
80 88 114
80 88 114
80 88 114
80 88 114
80 88 114
80 88 114
80 88 114
80 88 114
80 88 114
80 88 114
80 88 114
80 88 114
80 88 114
80 88 114
80 88 114
80 88 114
80 88 114
80 88 114
80 88 114
80 88 114
80 88 114
80 88 114
80 88 114
80 88 114
80 88 114
80 88 114
80 88 114
80 88 114
80 88 114
80 88 114
80 88 114
80 88 114
80 88 114
80 88 114
80 88 114
80 88 114
80 88 114
80 88 114
80 88 114
80 88 114
80 88 114
80 88 114
80 88 114
80 88 114
80 88 114
80 88 114
80 88 114
80 88 114
80 88 114
80 88 114
80 88 114
80 88 114
80 88 114
80 88 114
80 88 114
80 88 114
80 88 114
80 88 114
80 88 114
80 88 114
80 88 114
80 88 114
80 88 114
80 88 114
80 88 114
80 88 114
80 88 114
80 88 114
80 88 114
80 88 114
80 88 114
80 88 114
80 88 114
80 88 114
80 88 114
80 88 114
80 88 114
80 88 114
80 88 114
80 88 114
80 88 114
80 88 114
80 88 114
80 88 114
80 88 114
80 88 114
80 88 114
80 88 114
80 88 114
80 88 114
80 88 114
80 88 114
80 88 114
80 88 114
80 88 114
80 88 114
80 88 114
80 88 114
80 88 114
80 88 114
80 88 114
80 88 114
80 88 114
80 88 114
80 88 114
80 88 114
80 88 114
80 88 114
80 88 114
80 88 114
80 88 114
80 88 114
80 88 114
80 88 114
80 88 114
80 88 114
80 88 114
80 88 114
80 88 114
80 88 114
80 88 114
80 88 114
80 88 114
80 88 114
80 88 114
80 88 114
80 88 114
80 88 114
80 88 114
80 88 114
80 88 114
80 88 114
80 88 114
80 88 114
80 88 114
80 88 114
80 88 114
80 88 114
80 88 114
80 88 114
78 87 113
58 81 114
50 78 113
52 81 117
52 80 116
48 74 107
51 80 116
51 79 115
52 80 116
50 78 113
50 78 113
49 77 111
57 79 111
77 87 114
80 88 114
80 88 114
80 88 114
80 88 114
80 88 114
80 88 114
80 88 114
80 88 114
80 88 114
80 88 114
80 88 114
80 88 114
80 88 114
80 88 114
80 88 114
80 88 114
80 88 114
80 88 114
80 88 114
80 88 114
80 88 114
80 88 114
80 88 114
80 88 114
80 88 114
80 88 114
80 88 114
80 88 114
80 88 114
80 88 114
80 88 114
80 88 114
80 88 114
80 88 114
80 88 114
80 88 114
80 88 114
80 88 114
80 88 114
80 88 114
80 88 114
80 88 114
80 88 114
80 88 114
80 88 114
80 88 114
80 88 114
80 88 114
80 88 114
80 88 114
80 88 114
80 88 114
80 88 114
80 88 114
80 88 114
80 88 114
80 88 114
80 88 114
80 88 114
80 88 114
80 88 114
80 88 114
80 88 114
80 88 114
80 88 114
80 88 114
80 88 114
80 88 114
80 88 114
80 88 114
80 88 114
80 88 114
80 88 114
80 88 114
80 88 114
80 88 114
80 88 114
80 88 114
80 88 114
80 88 114
80 88 114
80 88 114
80 88 114
80 88 114
80 88 114
80 88 114
80 88 114
80 88 114
80 88 114
80 88 114
80 88 114
80 88 114
80 88 114
80 88 114
80 88 114
80 88 114
80 88 114
80 88 114
80 88 114
80 88 114
80 88 114
80 88 114
80 88 114
80 88 114
80 88 114
80 88 114
80 88 114
80 88 114
80 88 114
80 88 114
80 88 114
80 88 114
80 88 114
80 88 114
80 88 114
80 88 114
80 88 114
80 88 114
80 88 114
80 88 114
80 88 114
80 88 114
80 88 114
80 88 114
80 88 114
80 88 114
80 88 114
80 88 114
80 88 114
80 88 114
80 88 114
80 88 114
80 88 114
80 88 114
80 88 114
80 88 114
80 88 114
80 88 114
80 88 114
80 88 114
80 88 114
80 88 114
80 88 114
80 88 114
80 88 114
80 88 114
80 88 114
80 88 114
80 88 114
80 88 114
80 88 114
80 88 114
80 88 114
80 88 114
80 88 114
80 88 114
80 88 114
80 88 114
80 88 114
80 88 114
80 88 114
80 88 114
80 88 114
80 88 114
80 88 114
80 88 114
80 88 114
80 88 114
80 88 114
80 88 114
80 88 114
80 88 114
80 88 114
80 88 114
80 88 114
80 88 114
80 88 114
80 88 114
80 88 114
80 88 114
80 88 114
80 88 114
80 88 114
80 88 114
80 88 114
80 88 114
80 88 114
80 88 114
80 88 114
80 88 114
80 88 114
80 88 114
80 88 114
80 88 114
80 88 114
80 88 114
80 88 114
80 88 114
80 88 114
80 88 114
80 88 114
80 88 114
80 88 114
80 88 114
80 88 114
80 88 114
80 88 114
80 88 114
80 88 114
80 88 114
80 88 114
80 88 114
80 88 114
80 88 114
80 88 114
80 88 114
80 88 114
80 88 114
80 88 114
80 88 114
80 88 114
80 88 114
80 88 114
80 88 114
80 88 114
80 88 114
80 88 114
80 88 114
80 88 114
80 88 114
80 88 114
80 88 114
80 88 114
80 88 114
80 88 114
80 88 114
80 88 114
80 88 114
80 88 114
80 88 114
80 88 114
80 88 114
80 88 114
80 88 114
80 88 114
80 88 114
80 88 114
80 88 114
80 88 114
80 88 114
80 88 114
80 88 114
80 88 114
80 88 114
80 88 114
80 88 114
80 88 114
80 88 114
80 88 114
80 88 114
80 88 114
80 88 114
80 88 114
80 88 114
80 88 114
80 88 114
80 88 114
80 88 114
80 88 114
80 88 114
80 88 114
80 88 114
80 88 114
80 88 114
80 88 114
80 88 114
80 88 114
80 88 114
80 88 114
80 88 114
80 88 114
80 88 114
80 88 114
80 88 114
80 88 114
80 88 114
80 88 114
80 88 114
80 88 114
80 88 114
80 88 114
80 88 114
80 88 114
80 88 114
80 88 114
80 88 114
80 88 114
80 88 114
80 88 114
80 88 114
80 88 114
80 88 114
80 88 114
80 88 114
80 88 114
80 88 114
80 88 114
80 88 114
80 88 114
80 88 114
80 88 114
80 88 114
80 88 114
80 88 114
80 88 114
80 88 114
80 88 114
80 88 114
80 88 114
80 88 114
80 88 114
80 88 114
80 88 114
80 88 114
80 88 114
80 88 114
80 88 114
80 88 114
80 88 114
80 88 114
80 88 114
80 88 114
80 88 114
80 88 114
80 88 114
80 88 114
80 88 114
80 88 114
80 88 114
80 88 114
80 88 114
80 88 114
80 88 114
80 88 114
80 88 114
80 88 114
80 88 114
80 88 114
80 88 114
80 88 114
80 88 114
80 88 114
80 88 114
80 88 114
80 88 114
80 88 114
80 88 114
80 88 114
80 88 114
80 88 114
80 88 114
80 88 114
80 88 114
80 88 114
80 88 114
80 88 114
80 88 114
80 88 114
80 88 114
80 88 114
80 88 114
80 88 114
80 88 114
80 88 114
80 88 114
80 88 114
80 88 114
80 88 114
80 88 114
80 88 114
80 88 114
80 88 114
80 88 114
80 88 114
80 88 114
80 88 114
58 81 115
51 79 115
51 79 114
51 79 114
50 78 112
50 77 111
51 80 116
51 80 115
50 78 113
52 81 117
49 77 111
49 77 111
51 80 116
57 84 121
77 86 113
80 88 114
80 88 114
80 88 114
80 88 114
80 88 114
80 88 114
80 88 114
80 88 114
80 88 114
80 88 114
80 88 114
80 88 114
80 88 114
80 88 114
80 88 114
80 88 114
80 88 114
80 88 114
80 88 114
80 88 114
80 88 114
80 88 114
80 88 114
80 88 114
80 88 114
80 88 114
80 88 114
80 88 114
80 88 114
80 88 114
80 88 114
80 88 114
80 88 114
80 88 114
80 88 114
80 88 114
80 88 114
80 88 114
80 88 114
80 88 114
80 88 114
80 88 114
80 88 114
80 88 114
80 88 114
80 88 114
80 88 114
80 88 114
80 88 114
80 88 114
80 88 114
80 88 114
80 88 114
80 88 114
80 88 114
80 88 114
80 88 114
80 88 114
80 88 114
80 88 114
80 88 114
80 88 114
80 88 114
80 88 114
80 88 114
80 88 114
80 88 114
80 88 114
80 88 114
80 88 114
80 88 114
80 88 114
80 88 114
80 88 114
80 88 114
80 88 114
80 88 114
80 88 114
80 88 114
80 88 114
80 88 114
80 88 114
80 88 114
80 88 114
80 88 114
80 88 114
80 88 114
80 88 114
80 88 114
80 88 114
80 88 114
80 88 114
80 88 114
80 88 114
80 88 114
80 88 114
80 88 114
80 88 114
80 88 114
80 88 114
80 88 114
80 88 114
80 88 114
80 88 114
80 88 114
80 88 114
80 88 114
80 88 114
80 88 114
80 88 114
80 88 114
80 88 114
80 88 114
80 88 114
80 88 114
80 88 114
80 88 114
80 88 114
80 88 114
80 88 114
80 88 114
80 88 114
80 88 114
80 88 114
80 88 114
80 88 114
80 88 114
80 88 114
80 88 114
80 88 114
80 88 114
80 88 114
80 88 114
80 88 114
80 88 114
80 88 114
80 88 114
80 88 114
80 88 114
80 88 114
80 88 114
80 88 114
80 88 114
80 88 114
80 88 114
80 88 114
80 88 114
80 88 114
80 88 114
80 88 114
80 88 114
80 88 114
80 88 114
80 88 114
80 88 114
80 88 114
80 88 114
80 88 114
80 88 114
80 88 114
80 88 114
80 88 114
80 88 114
80 88 114
80 88 114
80 88 114
80 88 114
80 88 114
80 88 114
80 88 114
80 88 114
80 88 114
80 88 114
80 88 114
80 88 114
80 88 114
80 88 114
80 88 114
80 88 114
80 88 114
80 88 114
80 88 114
80 88 114
80 88 114
80 88 114
80 88 114
80 88 114
80 88 114
80 88 114
80 88 114
80 88 114
80 88 114
80 88 114
80 88 114
80 88 114
80 88 114
80 88 114
80 88 114
80 88 114
80 88 114
80 88 114
80 88 114
80 88 114
80 88 114
80 88 114
80 88 114
80 88 114
80 88 114
80 88 114
80 88 114
80 88 114
80 88 114
80 88 114
80 88 114
80 88 114
80 88 114
80 88 114
80 88 114
80 88 114
80 88 114
80 88 114
80 88 114
80 88 114
80 88 114
80 88 114
80 88 114
80 88 114
80 88 114
80 88 114
80 88 114
80 88 114
80 88 114
80 88 114
80 88 114
80 88 114
80 88 114
80 88 114
80 88 114
80 88 114
80 88 114
80 88 114
80 88 114
80 88 114
80 88 114
80 88 114
80 88 114
80 88 114
80 88 114
80 88 114
80 88 114
80 88 114
80 88 114
80 88 114
80 88 114
80 88 114
80 88 114
80 88 114
80 88 114
80 88 114
80 88 114
80 88 114
80 88 114
80 88 114
80 88 114
80 88 114
80 88 114
80 88 114
80 88 114
80 88 114
80 88 114
80 88 114
80 88 114
80 88 114
80 88 114
80 88 114
80 88 114
80 88 114
80 88 114
80 88 114
80 88 114
80 88 114
80 88 114
80 88 114
80 88 114
80 88 114
80 88 114
80 88 114
80 88 114
80 88 114
80 88 114
80 88 114
80 88 114
80 88 114
80 88 114
80 88 114
80 88 114
80 88 114
80 88 114
80 88 114
80 88 114
80 88 114
80 88 114
80 88 114
80 88 114
80 88 114
80 88 114
80 88 114
80 88 114
80 88 114
80 88 114
80 88 114
80 88 114
80 88 114
80 88 114
80 88 114
80 88 114
80 88 114
80 88 114
80 88 114
80 88 114
80 88 114
80 88 114
80 88 114
80 88 114
80 88 114
80 88 114
80 88 114
80 88 114
80 88 114
80 88 114
80 88 114
80 88 114
80 88 114
80 88 114
80 88 114
80 88 114
80 88 114
80 88 114
80 88 114
80 88 114
80 88 114
80 88 114
80 88 114
80 88 114
80 88 114
80 88 114
80 88 114
80 88 114
80 88 114
80 88 114
80 88 114
80 88 114
80 88 114
80 88 114
80 88 114
80 88 114
80 88 114
80 88 114
80 88 114
80 88 114
80 88 114
80 88 114
80 88 114
80 88 114
80 88 114
80 88 114
80 88 114
80 88 114
80 88 114
80 88 114
80 88 114
80 88 114
80 88 114
80 88 114
80 88 114
80 88 114
80 88 114
80 88 114
80 88 114
80 88 114
80 88 114
80 88 114
80 88 114
80 88 114
66 83 113
50 78 112
51 79 114
50 77 112
52 80 116
50 78 113
50 77 111
53 82 119
50 78 113
50 78 113
50 78 113
49 76 110
48 74 108
52 81 117
50 77 112
55 78 111
80 88 114
80 88 114
80 88 114
80 88 114
80 88 114
80 88 114
80 88 114
80 88 114
80 88 114
80 88 114
80 88 114
80 88 114
80 88 114
80 88 114
80 88 114
80 88 114
80 88 114
80 88 114
80 88 114
80 88 114
80 88 114
80 88 114
80 88 114
80 88 114
80 88 114
80 88 114
80 88 114
80 88 114
80 88 114
80 88 114
80 88 114
80 88 114
80 88 114
80 88 114
80 88 114
80 88 114
80 88 114
80 88 114
80 88 114
80 88 114
80 88 114
80 88 114
80 88 114
80 88 114
80 88 114
80 88 114
80 88 114
80 88 114
80 88 114
80 88 114
80 88 114
80 88 114
80 88 114
80 88 114
80 88 114
80 88 114
80 88 114
80 88 114
80 88 114
80 88 114
80 88 114
80 88 114
80 88 114
80 88 114
80 88 114
80 88 114
80 88 114
80 88 114
80 88 114
80 88 114
80 88 114
80 88 114
80 88 114
80 88 114
80 88 114
80 88 114
80 88 114
80 88 114
80 88 114
80 88 114
80 88 114
80 88 114
80 88 114
80 88 114
80 88 114
80 88 114
80 88 114
80 88 114
80 88 114
80 88 114
80 88 114
80 88 114
80 88 114
80 88 114
80 88 114
80 88 114
80 88 114
80 88 114
80 88 114
80 88 114
80 88 114
80 88 114
80 88 114
80 88 114
80 88 114
80 88 114
80 88 114
80 88 114
80 88 114
80 88 114
80 88 114
80 88 114
80 88 114
80 88 114
80 88 114
80 88 114
80 88 114
80 88 114
80 88 114
80 88 114
80 88 114
80 88 114
80 88 114
80 88 114
80 88 114
80 88 114
80 88 114
80 88 114
80 88 114
80 88 114
80 88 114
80 88 114
80 88 114
80 88 114
80 88 114
80 88 114
80 88 114
80 88 114
80 88 114
80 88 114
80 88 114
80 88 114
80 88 114
80 88 114
80 88 114
80 88 114
80 88 114
80 88 114
80 88 114
80 88 114
80 88 114
80 88 114
80 88 114
80 88 114
80 88 114
80 88 114
80 88 114
80 88 114
80 88 114
80 88 114
80 88 114
80 88 114
80 88 114
80 88 114
80 88 114
80 88 114
80 88 114
80 88 114
80 88 114
80 88 114
80 88 114
80 88 114
80 88 114
80 88 114
80 88 114
80 88 114
80 88 114
80 88 114
80 88 114
80 88 114
80 88 114
80 88 114
80 88 114
80 88 114
80 88 114
80 88 114
80 88 114
80 88 114
80 88 114
80 88 114
80 88 114
80 88 114
80 88 114
80 88 114
80 88 114
80 88 114
80 88 114
80 88 114
80 88 114
80 88 114
80 88 114
80 88 114
80 88 114
80 88 114
80 88 114
80 88 114
80 88 114
80 88 114
80 88 114
80 88 114
80 88 114
80 88 114
80 88 114
80 88 114
80 88 114
80 88 114
80 88 114
80 88 114
80 88 114
80 88 114
80 88 114
80 88 114
80 88 114
80 88 114
80 88 114
80 88 114
80 88 114
80 88 114
80 88 114
80 88 114
80 88 114
80 88 114
80 88 114
80 88 114
80 88 114
80 88 114
80 88 114
80 88 114
80 88 114
80 88 114
80 88 114
80 88 114
80 88 114
80 88 114
80 88 114
80 88 114
80 88 114
80 88 114
80 88 114
80 88 114
80 88 114
80 88 114
80 88 114
80 88 114
80 88 114
80 88 114
80 88 114
80 88 114
80 88 114
80 88 114
80 88 114
80 88 114
80 88 114
80 88 114
80 88 114
80 88 114
80 88 114
80 88 114
80 88 114
80 88 114
80 88 114
80 88 114
80 88 114
80 88 114
80 88 114
80 88 114
80 88 114
80 88 114
80 88 114
80 88 114
80 88 114
80 88 114
80 88 114
80 88 114
80 88 114
80 88 114
80 88 114
80 88 114
80 88 114
80 88 114
80 88 114
80 88 114
80 88 114
80 88 114
80 88 114
80 88 114
80 88 114
80 88 114
80 88 114
80 88 114
80 88 114
80 88 114
80 88 114
80 88 114
80 88 114
80 88 114
80 88 114
80 88 114
80 88 114
80 88 114
80 88 114
80 88 114
80 88 114
80 88 114
80 88 114
80 88 114
80 88 114
80 88 114
80 88 114
80 88 114
80 88 114
80 88 114
80 88 114
80 88 114
80 88 114
80 88 114
80 88 114
80 88 114
80 88 114
80 88 114
80 88 114
80 88 114
80 88 114
80 88 114
80 88 114
80 88 114
80 88 114
80 88 114
80 88 114
80 88 114
80 88 114
80 88 114
80 88 114
80 88 114
80 88 114
80 88 114
80 88 114
80 88 114
80 88 114
80 88 114
80 88 114
80 88 114
80 88 114
80 88 114
80 88 114
80 88 114
80 88 114
80 88 114
80 88 114
80 88 114
80 88 114
80 88 114
80 88 114
80 88 114
80 88 114
80 88 114
80 88 114
80 88 114
80 88 114
80 88 114
80 88 114
80 88 114
80 88 114
80 88 114
80 88 114
80 88 114
80 88 114
80 88 114
80 88 114
80 88 114
80 88 114
80 88 114
80 88 114
80 88 114
53 80 114
49 77 111
52 81 117
51 79 114
52 80 116
49 77 111
50 78 113
49 76 110
50 78 113
50 78 113
50 78 113
50 77 112
52 80 116
50 78 113
53 82 118
51 79 115
67 84 114
80 88 114
80 88 114
80 88 114
80 88 114
80 88 114
80 88 114
80 88 114
80 88 114
80 88 114
80 88 114
80 88 114
80 88 114
80 88 114
80 88 114
80 88 114
80 88 114
80 88 114
80 88 114
80 88 114
80 88 114
80 88 114
80 88 114
80 88 114
80 88 114
80 88 114
80 88 114
80 88 114
80 88 114
80 88 114
80 88 114
80 88 114
80 88 114
80 88 114
80 88 114
80 88 114
80 88 114
80 88 114
80 88 114
80 88 114
80 88 114
80 88 114
80 88 114
80 88 114
80 88 114
80 88 114
80 88 114
80 88 114
80 88 114
80 88 114
80 88 114
80 88 114
80 88 114
80 88 114
80 88 114
80 88 114
80 88 114
80 88 114
80 88 114
80 88 114
80 88 114
80 88 114
80 88 114
80 88 114
80 88 114
80 88 114
80 88 114
80 88 114
80 88 114
80 88 114
80 88 114
80 88 114
80 88 114
80 88 114
80 88 114
80 88 114
80 88 114
80 88 114
80 88 114
80 88 114
80 88 114
80 88 114
80 88 114
80 88 114
80 88 114
80 88 114
80 88 114
80 88 114
80 88 114
80 88 114
80 88 114
80 88 114
80 88 114
80 88 114
80 88 114
80 88 114
80 88 114
80 88 114
80 88 114
80 88 114
80 88 114
80 88 114
80 88 114
80 88 114
80 88 114
80 88 114
80 88 114
80 88 114
80 88 114
80 88 114
80 88 114
80 88 114
80 88 114
80 88 114
80 88 114
80 88 114
80 88 114
80 88 114
80 88 114
80 88 114
80 88 114
80 88 114
80 88 114
80 88 114
80 88 114
80 88 114
80 88 114
80 88 114
80 88 114
80 88 114
80 88 114
80 88 114
80 88 114
80 88 114
80 88 114
80 88 114
80 88 114
80 88 114
80 88 114
80 88 114
80 88 114
80 88 114
80 88 114
80 88 114
80 88 114
80 88 114
80 88 114
80 88 114
80 88 114
80 88 114
80 88 114
80 88 114
80 88 114
80 88 114
80 88 114
80 88 114
80 88 114
80 88 114
80 88 114
80 88 114
80 88 114
80 88 114
80 88 114
80 88 114
80 88 114
80 88 114
80 88 114
80 88 114
80 88 114
80 88 114
80 88 114
80 88 114
80 88 114
80 88 114
80 88 114
80 88 114
80 88 114
80 88 114
80 88 114
80 88 114
80 88 114
80 88 114
80 88 114
80 88 114
80 88 114
80 88 114
80 88 114
80 88 114
80 88 114
80 88 114
80 88 114
80 88 114
80 88 114
80 88 114
80 88 114
80 88 114
80 88 114
80 88 114
80 88 114
80 88 114
80 88 114
80 88 114
80 88 114
80 88 114
80 88 114
80 88 114
80 88 114
80 88 114
80 88 114
80 88 114
80 88 114
80 88 114
80 88 114
80 88 114
80 88 114
80 88 114
80 88 114
80 88 114
80 88 114
80 88 114
80 88 114
80 88 114
80 88 114
80 88 114
80 88 114
80 88 114
80 88 114
80 88 114
80 88 114
80 88 114
80 88 114
80 88 114
80 88 114
80 88 114
80 88 114
80 88 114
80 88 114
80 88 114
80 88 114
80 88 114
80 88 114
80 88 114
80 88 114
80 88 114
80 88 114
80 88 114
80 88 114
80 88 114
80 88 114
80 88 114
80 88 114
80 88 114
80 88 114
80 88 114
80 88 114
80 88 114
80 88 114
80 88 114
80 88 114
80 88 114
80 88 114
80 88 114
80 88 114
80 88 114
80 88 114
80 88 114
80 88 114
80 88 114
80 88 114
80 88 114
80 88 114
80 88 114
80 88 114
80 88 114
80 88 114
80 88 114
80 88 114
80 88 114
80 88 114
80 88 114
80 88 114
80 88 114
80 88 114
80 88 114
80 88 114
80 88 114
80 88 114
80 88 114
80 88 114
80 88 114
80 88 114
80 88 114
80 88 114
80 88 114
80 88 114
80 88 114
80 88 114
80 88 114
80 88 114
80 88 114
80 88 114
80 88 114
80 88 114
80 88 114
80 88 114
80 88 114
80 88 114
80 88 114
80 88 114
80 88 114
80 88 114
80 88 114
80 88 114
80 88 114
80 88 114
80 88 114
80 88 114
80 88 114
80 88 114
80 88 114
80 88 114
80 88 114
80 88 114
80 88 114
80 88 114
80 88 114
80 88 114
80 88 114
80 88 114
80 88 114
80 88 114
80 88 114
80 88 114
80 88 114
80 88 114
80 88 114
80 88 114
80 88 114
80 88 114
80 88 114
80 88 114
80 88 114
80 88 114
80 88 114
80 88 114
80 88 114
80 88 114
80 88 114
80 88 114
80 88 114
80 88 114
80 88 114
80 88 114
80 88 114
80 88 114
80 88 114
80 88 114
80 88 114
80 88 114
80 88 114
80 88 114
80 88 114
80 88 114
80 88 114
80 88 114
80 88 114
80 88 114
80 88 114
80 88 114
80 88 114
80 88 114
80 88 114
80 88 114
80 88 114
80 88 114
80 88 114
80 88 114
80 88 114
80 88 114
80 88 114
80 88 114
80 88 114
80 88 114
74 87 116
50 78 112
51 79 114
50 78 113
53 82 119
50 78 113
49 76 110
52 80 116
50 77 111
51 79 114
51 79 114
51 80 115
49 76 110
53 83 120
50 77 111
50 78 113
51 79 115
56 84 121
79 87 114
80 88 114
80 88 114
80 88 114
80 88 114
80 88 114
80 88 114
80 88 114
80 88 114
80 88 114
80 88 114
80 88 114
80 88 114
80 88 114
80 88 114
80 88 114
80 88 114
80 88 114
80 88 114
80 88 114
80 88 114
80 88 114
80 88 114
80 88 114
80 88 114
80 88 114
80 88 114
80 88 114
80 88 114
80 88 114
80 88 114
80 88 114
80 88 114
80 88 114
80 88 114
80 88 114
80 88 114
80 88 114
80 88 114
80 88 114
80 88 114
80 88 114
80 88 114
80 88 114
80 88 114
80 88 114
80 88 114
80 88 114
80 88 114
80 88 114
80 88 114
80 88 114
80 88 114
80 88 114
80 88 114
80 88 114
80 88 114
80 88 114
80 88 114
80 88 114
80 88 114
80 88 114
80 88 114
80 88 114
80 88 114
80 88 114
80 88 114
80 88 114
80 88 114
80 88 114
80 88 114
80 88 114
80 88 114
80 88 114
80 88 114
80 88 114
80 88 114
80 88 114
80 88 114
80 88 114
80 88 114
80 88 114
80 88 114
80 88 114
80 88 114
80 88 114
80 88 114
80 88 114
80 88 114
80 88 114
80 88 114
80 88 114
80 88 114
80 88 114
80 88 114
80 88 114
80 88 114
80 88 114
80 88 114
80 88 114
80 88 114
80 88 114
80 88 114
80 88 114
80 88 114
80 88 114
80 88 114
80 88 114
80 88 114
80 88 114
80 88 114
80 88 114
80 88 114
80 88 114
80 88 114
80 88 114
80 88 114
80 88 114
80 88 114
80 88 114
80 88 114
80 88 114
80 88 114
80 88 114
80 88 114
80 88 114
80 88 114
80 88 114
80 88 114
80 88 114
80 88 114
80 88 114
80 88 114
80 88 114
80 88 114
80 88 114
80 88 114
80 88 114
80 88 114
80 88 114
80 88 114
80 88 114
80 88 114
80 88 114
80 88 114
80 88 114
80 88 114
80 88 114
80 88 114
80 88 114
80 88 114
80 88 114
80 88 114
80 88 114
80 88 114
80 88 114
80 88 114
80 88 114
80 88 114
80 88 114
80 88 114
80 88 114
80 88 114
80 88 114
80 88 114
80 88 114
80 88 114
80 88 114
80 88 114
80 88 114
80 88 114
80 88 114
80 88 114
80 88 114
80 88 114
80 88 114
80 88 114
80 88 114
80 88 114
80 88 114
80 88 114
80 88 114
80 88 114
80 88 114
80 88 114
80 88 114
80 88 114
80 88 114
80 88 114
80 88 114
80 88 114
80 88 114
80 88 114
80 88 114
80 88 114
80 88 114
80 88 114
80 88 114
80 88 114
80 88 114
80 88 114
80 88 114
80 88 114
80 88 114
80 88 114
80 88 114
80 88 114
80 88 114
80 88 114
80 88 114
80 88 114
80 88 114
80 88 114
80 88 114
80 88 114
80 88 114
80 88 114
80 88 114
80 88 114
80 88 114
80 88 114
80 88 114
80 88 114
80 88 114
80 88 114
80 88 114
80 88 114
80 88 114
80 88 114
80 88 114
80 88 114
80 88 114
80 88 114
80 88 114
80 88 114
80 88 114
80 88 114
80 88 114
80 88 114
80 88 114
80 88 114
80 88 114
80 88 114
80 88 114
80 88 114
80 88 114
80 88 114
80 88 114
80 88 114
80 88 114
80 88 114
80 88 114
80 88 114
80 88 114
80 88 114
80 88 114
80 88 114
80 88 114
80 88 114
80 88 114
80 88 114
80 88 114
80 88 114
80 88 114
80 88 114
80 88 114
80 88 114
80 88 114
80 88 114
80 88 114
80 88 114
80 88 114
80 88 114
80 88 114
80 88 114
80 88 114
80 88 114
80 88 114
80 88 114
80 88 114
80 88 114
80 88 114
80 88 114
80 88 114
80 88 114
80 88 114
80 88 114
80 88 114
80 88 114
80 88 114
80 88 114
80 88 114
80 88 114
80 88 114
80 88 114
80 88 114
80 88 114
80 88 114
80 88 114
80 88 114
80 88 114
80 88 114
80 88 114
80 88 114
80 88 114
80 88 114
80 88 114
80 88 114
80 88 114
80 88 114
80 88 114
80 88 114
80 88 114
80 88 114
80 88 114
80 88 114
80 88 114
80 88 114
80 88 114
80 88 114
80 88 114
80 88 114
80 88 114
80 88 114
80 88 114
80 88 114
80 88 114
80 88 114
80 88 114
80 88 114
80 88 114
80 88 114
80 88 114
80 88 114
80 88 114
80 88 114
80 88 114
80 88 114
80 88 114
80 88 114
80 88 114
80 88 114
80 88 114
80 88 114
80 88 114
80 88 114
80 88 114
80 88 114
80 88 114
80 88 114
80 88 114
80 88 114
80 88 114
80 88 114
80 88 114
80 88 114
80 88 114
80 88 114
80 88 114
80 88 114
80 88 114
80 88 114
80 88 114
80 88 114
80 88 114
80 88 114
80 88 114
80 88 114
80 88 114
80 88 114
80 88 114
80 88 114
80 88 114
80 88 114
80 88 114
80 88 114
80 88 114
80 88 114
80 88 114
80 88 114
80 88 114
80 88 114
69 85 114
50 78 113
51 79 114
49 76 110
52 81 118
51 79 114
52 81 117
52 80 116
50 78 113
49 76 110
49 76 110
51 79 115
52 81 117
51 80 115
51 79 115
51 79 114
50 77 112
51 79 115
73 87 116
80 88 114
80 88 114
80 88 114
80 88 114
80 88 114
80 88 114
80 88 114
80 88 114
80 88 114
80 88 114
80 88 114
80 88 114
80 88 114
80 88 114
80 88 114
80 88 114
80 88 114
80 88 114
80 88 114
80 88 114
80 88 114
80 88 114
80 88 114
80 88 114
80 88 114
80 88 114
80 88 114
80 88 114
80 88 114
80 88 114
80 88 114
80 88 114
80 88 114
80 88 114
80 88 114
80 88 114
80 88 114
80 88 114
80 88 114
80 88 114
80 88 114
80 88 114
80 88 114
80 88 114
80 88 114
80 88 114
80 88 114
80 88 114
80 88 114
80 88 114
80 88 114
80 88 114
80 88 114
80 88 114
80 88 114
80 88 114
80 88 114
80 88 114
80 88 114
80 88 114
80 88 114
80 88 114
80 88 114
80 88 114
80 88 114
80 88 114
80 88 114
80 88 114
80 88 114
80 88 114
80 88 114
80 88 114
80 88 114
80 88 114
80 88 114
80 88 114
80 88 114
80 88 114
80 88 114
80 88 114
80 88 114
80 88 114
80 88 114
80 88 114
80 88 114
80 88 114
80 88 114
80 88 114
80 88 114
80 88 114
80 88 114
80 88 114
80 88 114
80 88 114
80 88 114
80 88 114
80 88 114
80 88 114
80 88 114
80 88 114
80 88 114
80 88 114
80 88 114
80 88 114
80 88 114
80 88 114
80 88 114
80 88 114
80 88 114
80 88 114
80 88 114
80 88 114
80 88 114
80 88 114
80 88 114
80 88 114
80 88 114
80 88 114
80 88 114
80 88 114
80 88 114
80 88 114
80 88 114
80 88 114
80 88 114
80 88 114
80 88 114
80 88 114
80 88 114
80 88 114
80 88 114
80 88 114
80 88 114
80 88 114
80 88 114
80 88 114
80 88 114
80 88 114
80 88 114
80 88 114
80 88 114
80 88 114
80 88 114
80 88 114
80 88 114
80 88 114
80 88 114
80 88 114
80 88 114
80 88 114
80 88 114
80 88 114
80 88 114
80 88 114
80 88 114
80 88 114
80 88 114
80 88 114
80 88 114
80 88 114
80 88 114
80 88 114
80 88 114
80 88 114
80 88 114
80 88 114
80 88 114
80 88 114
80 88 114
80 88 114
80 88 114
80 88 114
80 88 114
80 88 114
80 88 114
80 88 114
80 88 114
80 88 114
80 88 114
80 88 114
80 88 114
80 88 114
80 88 114
80 88 114
80 88 114
80 88 114
80 88 114
80 88 114
80 88 114
80 88 114
80 88 114
80 88 114
80 88 114
80 88 114
80 88 114
80 88 114
80 88 114
80 88 114
80 88 114
80 88 114
80 88 114
80 88 114
80 88 114
80 88 114
80 88 114
80 88 114
80 88 114
80 88 114
80 88 114
80 88 114
80 88 114
80 88 114
80 88 114
80 88 114
80 88 114
80 88 114
80 88 114
80 88 114
80 88 114
80 88 114
80 88 114
80 88 114
80 88 114
80 88 114
80 88 114
80 88 114
80 88 114
80 88 114
80 88 114
80 88 114
80 88 114
80 88 114
80 88 114
80 88 114
80 88 114
80 88 114
80 88 114
80 88 114
80 88 114
80 88 114
80 88 114
80 88 114
80 88 114
80 88 114
80 88 114
80 88 114
80 88 114
80 88 114
80 88 114
80 88 114
80 88 114
80 88 114
80 88 114
80 88 114
80 88 114
80 88 114
80 88 114
80 88 114
80 88 114
80 88 114
80 88 114
80 88 114
80 88 114
80 88 114
80 88 114
80 88 114
80 88 114
80 88 114
80 88 114
80 88 114
80 88 114
80 88 114
80 88 114
80 88 114
80 88 114
80 88 114
80 88 114
80 88 114
80 88 114
80 88 114
80 88 114
80 88 114
80 88 114
80 88 114
80 88 114
80 88 114
80 88 114
80 88 114
80 88 114
80 88 114
80 88 114
80 88 114
80 88 114
80 88 114
80 88 114
80 88 114
80 88 114
80 88 114
80 88 114
80 88 114
80 88 114
80 88 114
80 88 114
80 88 114
80 88 114
80 88 114
80 88 114
80 88 114
80 88 114
80 88 114
80 88 114
80 88 114
80 88 114
80 88 114
80 88 114
80 88 114
80 88 114
80 88 114
80 88 114
80 88 114
80 88 114
80 88 114
80 88 114
80 88 114
80 88 114
80 88 114
80 88 114
80 88 114
80 88 114
80 88 114
80 88 114
80 88 114
80 88 114
80 88 114
80 88 114
80 88 114
80 88 114
80 88 114
80 88 114
80 88 114
80 88 114
80 88 114
80 88 114
80 88 114
80 88 114
80 88 114
80 88 114
80 88 114
80 88 114
80 88 114
80 88 114
80 88 114
80 88 114
80 88 114
80 88 114
80 88 114
80 88 114
80 88 114
80 88 114
80 88 114
80 88 114
80 88 114
80 88 114
80 88 114
80 88 114
80 88 114
80 88 114
80 88 114
80 88 114
80 88 114
80 88 114
80 88 114
80 88 114
80 88 114
80 88 114
80 88 114
80 88 114
80 88 114
80 88 114
80 88 114
80 88 114
68 85 115
50 78 112
51 79 115
51 79 114
51 79 114
50 77 112
49 76 109
51 80 115
52 81 118
50 77 112
50 78 113
49 77 111
51 79 115
51 79 114
49 77 111
53 83 120
53 82 118
52 80 116
67 85 117
80 88 114
80 88 114
80 88 114
80 88 114
80 88 114
80 88 114
80 88 114
80 88 114
80 88 114
80 88 114
80 88 114
80 88 114
80 88 114
80 88 114
80 88 114
80 88 114
80 88 114
80 88 114
80 88 114
80 88 114
80 88 114
80 88 114
80 88 114
80 88 114
80 88 114
80 88 114
80 88 114
80 88 114
80 88 114
80 88 114
80 88 114
80 88 114
80 88 114
80 88 114
80 88 114
80 88 114
80 88 114
80 88 114
80 88 114
80 88 114
80 88 114
80 88 114
80 88 114
80 88 114
80 88 114
80 88 114
80 88 114
80 88 114
80 88 114
80 88 114
80 88 114
80 88 114
80 88 114
80 88 114
80 88 114
80 88 114
80 88 114
80 88 114
80 88 114
80 88 114
80 88 114
80 88 114
80 88 114
80 88 114
80 88 114
80 88 114
80 88 114
80 88 114
80 88 114
80 88 114
80 88 114
80 88 114
80 88 114
80 88 114
80 88 114
80 88 114
80 88 114
80 88 114
80 88 114
80 88 114
80 88 114
80 88 114
80 88 114
80 88 114
80 88 114
80 88 114
80 88 114
80 88 114
80 88 114
80 88 114
80 88 114
80 88 114
80 88 114
80 88 114
80 88 114
80 88 114
80 88 114
80 88 114
80 88 114
80 88 114
80 88 114
80 88 114
80 88 114
80 88 114
80 88 114
80 88 114
80 88 114
80 88 114
80 88 114
80 88 114
80 88 114
80 88 114
80 88 114
80 88 114
80 88 114
80 88 114
80 88 114
80 88 114
80 88 114
80 88 114
80 88 114
80 88 114
80 88 114
80 88 114
80 88 114
80 88 114
80 88 114
80 88 114
80 88 114
80 88 114
80 88 114
80 88 114
80 88 114
80 88 114
80 88 114
80 88 114
80 88 114
80 88 114
80 88 114
80 88 114
80 88 114
80 88 114
80 88 114
80 88 114
80 88 114
80 88 114
80 88 114
80 88 114
80 88 114
80 88 114
80 88 114
80 88 114
80 88 114
80 88 114
80 88 114
80 88 114
80 88 114
80 88 114
80 88 114
80 88 114
80 88 114
80 88 114
80 88 114
80 88 114
80 88 114
80 88 114
80 88 114
80 88 114
80 88 114
80 88 114
80 88 114
80 88 114
80 88 114
80 88 114
80 88 114
80 88 114
80 88 114
80 88 114
80 88 114
80 88 114
80 88 114
80 88 114
80 88 114
80 88 114
80 88 114
80 88 114
80 88 114
80 88 114
80 88 114
80 88 114
80 88 114
80 88 114
80 88 114
80 88 114
80 88 114
80 88 114
80 88 114
80 88 114
80 88 114
80 88 114
80 88 114
80 88 114
80 88 114
80 88 114
80 88 114
80 88 114
80 88 114
80 88 114
80 88 114
80 88 114
80 88 114
80 88 114
80 88 114
80 88 114
80 88 114
80 88 114
80 88 114
80 88 114
80 88 114
80 88 114
80 88 114
80 88 114
80 88 114
80 88 114
80 88 114
80 88 114
80 88 114
80 88 114
80 88 114
80 88 114
80 88 114
80 88 114
80 88 114
80 88 114
80 88 114
80 88 114
80 88 114
80 88 114
80 88 114
80 88 114
80 88 114
80 88 114
80 88 114
80 88 114
80 88 114
80 88 114
80 88 114
80 88 114
80 88 114
80 88 114
80 88 114
80 88 114
80 88 114
80 88 114
80 88 114
80 88 114
80 88 114
80 88 114
80 88 114
80 88 114
80 88 114
80 88 114
80 88 114
80 88 114
80 88 114
80 88 114
80 88 114
80 88 114
80 88 114
80 88 114
80 88 114
80 88 114
80 88 114
80 88 114
80 88 114
80 88 114
80 88 114
80 88 114
80 88 114
80 88 114
80 88 114
80 88 114
80 88 114
80 88 114
80 88 114
80 88 114
80 88 114
80 88 114
80 88 114
80 88 114
80 88 114
80 88 114
80 88 114
80 88 114
80 88 114
80 88 114
80 88 114
80 88 114
80 88 114
80 88 114
80 88 114
80 88 114
80 88 114
80 88 114
80 88 114
80 88 114
80 88 114
80 88 114
80 88 114
80 88 114
80 88 114
80 88 114
80 88 114
80 88 114
80 88 114
80 88 114
80 88 114
80 88 114
80 88 114
80 88 114
80 88 114
80 88 114
80 88 114
80 88 114
80 88 114
80 88 114
80 88 114
80 88 114
80 88 114
80 88 114
80 88 114
80 88 114
80 88 114
80 88 114
80 88 114
80 88 114
80 88 114
80 88 114
80 88 114
80 88 114
80 88 114
80 88 114
80 88 114
80 88 114
80 88 114
80 88 114
80 88 114
80 88 114
80 88 114
80 88 114
80 88 114
80 88 114
80 88 114
80 88 114
80 88 114
80 88 114
80 88 114
80 88 114
80 88 114
80 88 114
80 88 114
80 88 114
80 88 114
80 88 114
80 88 114
80 88 114
80 88 114
80 88 114
80 88 114
80 88 114
80 88 114
80 88 114
80 88 114
80 88 114
80 88 114
80 88 114
80 88 114
80 88 114
80 88 114
80 88 114
80 88 114
70 84 113
53 82 118
51 79 114
51 79 114
51 80 115
49 76 111
50 78 113
51 79 114
50 77 111
51 79 115
53 82 118
49 76 111
52 81 118
51 80 116
51 79 114
52 80 116
50 78 113
49 76 110
64 83 115
80 88 114
80 88 114
80 88 114
80 88 114
80 88 114
80 88 114
80 88 114
80 88 114
80 88 114
80 88 114
80 88 114
80 88 114
80 88 114
80 88 114
80 88 114
80 88 114
80 88 114
80 88 114
80 88 114
80 88 114
80 88 114
80 88 114
80 88 114
80 88 114
80 88 114
80 88 114
80 88 114
80 88 114
80 88 114
80 88 114
80 88 114
80 88 114
80 88 114
80 88 114
80 88 114
80 88 114
80 88 114
80 88 114
80 88 114
80 88 114
80 88 114
80 88 114
80 88 114
80 88 114
80 88 114
80 88 114
80 88 114
80 88 114
80 88 114
80 88 114
80 88 114
80 88 114
80 88 114
80 88 114
80 88 114
80 88 114
80 88 114
80 88 114
80 88 114
80 88 114
80 88 114
80 88 114
80 88 114
80 88 114
80 88 114
80 88 114
80 88 114
80 88 114
80 88 114
80 88 114
80 88 114
80 88 114
80 88 114
80 88 114
80 88 114
80 88 114
80 88 114
80 88 114
80 88 114
80 88 114
80 88 114
80 88 114
80 88 114
80 88 114
80 88 114
80 88 114
80 88 114
80 88 114
80 88 114
80 88 114
80 88 114
80 88 114
80 88 114
80 88 114
80 88 114
80 88 114
80 88 114
80 88 114
80 88 114
80 88 114
80 88 114
80 88 114
80 88 114
80 88 114
80 88 114
80 88 114
80 88 114
80 88 114
80 88 114
80 88 114
80 88 114
80 88 114
80 88 114
80 88 114
80 88 114
80 88 114
80 88 114
80 88 114
80 88 114
80 88 114
80 88 114
80 88 114
80 88 114
80 88 114
80 88 114
80 88 114
80 88 114
80 88 114
80 88 114
80 88 114
80 88 114
80 88 114
80 88 114
80 88 114
80 88 114
80 88 114
80 88 114
80 88 114
80 88 114
80 88 114
80 88 114
80 88 114
80 88 114
80 88 114
80 88 114
80 88 114
80 88 114
80 88 114
80 88 114
80 88 114
80 88 114
80 88 114
80 88 114
80 88 114
80 88 114
80 88 114
80 88 114
80 88 114
80 88 114
80 88 114
80 88 114
80 88 114
80 88 114
80 88 114
80 88 114
80 88 114
80 88 114
80 88 114
80 88 114
80 88 114
80 88 114
80 88 114
80 88 114
80 88 114
80 88 114
80 88 114
80 88 114
80 88 114
80 88 114
80 88 114
80 88 114
80 88 114
80 88 114
80 88 114
80 88 114
80 88 114
80 88 114
80 88 114
80 88 114
80 88 114
80 88 114
80 88 114
80 88 114
80 88 114
80 88 114
80 88 114
80 88 114
80 88 114
80 88 114
80 88 114
80 88 114
80 88 114
80 88 114
80 88 114
80 88 114
80 88 114
80 88 114
80 88 114
80 88 114
80 88 114
80 88 114
80 88 114
80 88 114
80 88 114
80 88 114
80 88 114
80 88 114
80 88 114
80 88 114
80 88 114
80 88 114
80 88 114
80 88 114
80 88 114
80 88 114
80 88 114
80 88 114
80 88 114
80 88 114
80 88 114
80 88 114
80 88 114
80 88 114
80 88 114
80 88 114
80 88 114
80 88 114
80 88 114
80 88 114
80 88 114
80 88 114
80 88 114
80 88 114
80 88 114
80 88 114
80 88 114
80 88 114
80 88 114
80 88 114
80 88 114
80 88 114
80 88 114
80 88 114
80 88 114
80 88 114
80 88 114
80 88 114
80 88 114
80 88 114
80 88 114
80 88 114
80 88 114
80 88 114
80 88 114
80 88 114
80 88 114
80 88 114
80 88 114
80 88 114
80 88 114
80 88 114
80 88 114
80 88 114
80 88 114
80 88 114
80 88 114
80 88 114
80 88 114
80 88 114
80 88 114
80 88 114
80 88 114
80 88 114
80 88 114
80 88 114
80 88 114
80 88 114
80 88 114
80 88 114
80 88 114
80 88 114
80 88 114
80 88 114
80 88 114
80 88 114
80 88 114
80 88 114
80 88 114
80 88 114
80 88 114
80 88 114
80 88 114
80 88 114
80 88 114
80 88 114
80 88 114
80 88 114
80 88 114
80 88 114
80 88 114
80 88 114
80 88 114
80 88 114
80 88 114
80 88 114
80 88 114
80 88 114
80 88 114
80 88 114
80 88 114
80 88 114
80 88 114
80 88 114
80 88 114
80 88 114
80 88 114
80 88 114
80 88 114
80 88 114
80 88 114
80 88 114
80 88 114
80 88 114
80 88 114
80 88 114
80 88 114
80 88 114
80 88 114
80 88 114
80 88 114
80 88 114
80 88 114
80 88 114
80 88 114
80 88 114
80 88 114
80 88 114
80 88 114
80 88 114
80 88 114
80 88 114
80 88 114
80 88 114
80 88 114
80 88 114
80 88 114
80 88 114
80 88 114
80 88 114
80 88 114
80 88 114
80 88 114
80 88 114
80 88 114
80 88 114
80 88 114
80 88 114
80 88 114
80 88 114
80 88 114
80 88 114
80 88 114
80 88 114
80 88 114
80 88 114
80 88 114
80 88 114
80 88 114
80 88 114
80 88 114
80 88 114
77 87 115
47 73 106
50 78 113
52 81 117
50 77 111
52 81 117
52 81 118
50 78 112
48 75 109
50 78 112
51 79 114
51 79 114
51 80 115
49 77 111
48 75 108
50 78 113
50 78 114
51 79 115
64 81 111
80 88 114
80 88 114
80 88 114
80 88 114
80 88 114
80 88 114
80 88 114
80 88 114
80 88 114
80 88 114
80 88 114
80 88 114
80 88 114
80 88 114
80 88 114
80 88 114
80 88 114
80 88 114
80 88 114
80 88 114
80 88 114
80 88 114
80 88 114
80 88 114
80 88 114
80 88 114
80 88 114
80 88 114
80 88 114
80 88 114
80 88 114
80 88 114
80 88 114
80 88 114
80 88 114
80 88 114
80 88 114
80 88 114
80 88 114
80 88 114
80 88 114
80 88 114
80 88 114
80 88 114
80 88 114
80 88 114
80 88 114
80 88 114
80 88 114
80 88 114
80 88 114
80 88 114
80 88 114
80 88 114
80 88 114
80 88 114
80 88 114
80 88 114
80 88 114
80 88 114
80 88 114
80 88 114
80 88 114
80 88 114
80 88 114
80 88 114
80 88 114
80 88 114
80 88 114
80 88 114
80 88 114
80 88 114
80 88 114
80 88 114
80 88 114
80 88 114
80 88 114
80 88 114
80 88 114
80 88 114
80 88 114
80 88 114
80 88 114
80 88 114
80 88 114
80 88 114
80 88 114
80 88 114
80 88 114
80 88 114
80 88 114
80 88 114
80 88 114
80 88 114
80 88 114
80 88 114
80 88 114
80 88 114
80 88 114
80 88 114
80 88 114
80 88 114
80 88 114
80 88 114
80 88 114
80 88 114
80 88 114
80 88 114
80 88 114
80 88 114
80 88 114
80 88 114
80 88 114
80 88 114
80 88 114
80 88 114
80 88 114
80 88 114
80 88 114
80 88 114
80 88 114
80 88 114
80 88 114
80 88 114
80 88 114
80 88 114
80 88 114
80 88 114
80 88 114
80 88 114
80 88 114
80 88 114
80 88 114
80 88 114
80 88 114
80 88 114
80 88 114
80 88 114
80 88 114
80 88 114
80 88 114
80 88 114
80 88 114
80 88 114
80 88 114
80 88 114
80 88 114
80 88 114
80 88 114
80 88 114
80 88 114
80 88 114
80 88 114
80 88 114
80 88 114
80 88 114
80 88 114
80 88 114
80 88 114
80 88 114
80 88 114
80 88 114
80 88 114
80 88 114
80 88 114
80 88 114
80 88 114
80 88 114
80 88 114
80 88 114
80 88 114
80 88 114
80 88 114
80 88 114
80 88 114
80 88 114
80 88 114
80 88 114
80 88 114
80 88 114
80 88 114
80 88 114
80 88 114
80 88 114
80 88 114
80 88 114
80 88 114
80 88 114
80 88 114
80 88 114
80 88 114
80 88 114
80 88 114
80 88 114
80 88 114
80 88 114
80 88 114
80 88 114
80 88 114
80 88 114
80 88 114
80 88 114
80 88 114
80 88 114
80 88 114
80 88 114
80 88 114
80 88 114
80 88 114
80 88 114
80 88 114
80 88 114
80 88 114
80 88 114
80 88 114
80 88 114
80 88 114
80 88 114
80 88 114
80 88 114
80 88 114
80 88 114
80 88 114
80 88 114
80 88 114
80 88 114
80 88 114
80 88 114
80 88 114
80 88 114
80 88 114
80 88 114
80 88 114
80 88 114
80 88 114
80 88 114
80 88 114
80 88 114
80 88 114
80 88 114
80 88 114
80 88 114
80 88 114
80 88 114
80 88 114
80 88 114
80 88 114
80 88 114
80 88 114
80 88 114
80 88 114
80 88 114
80 88 114
80 88 114
80 88 114
80 88 114
80 88 114
80 88 114
80 88 114
80 88 114
80 88 114
80 88 114
80 88 114
80 88 114
80 88 114
80 88 114
80 88 114
80 88 114
80 88 114
80 88 114
80 88 114
80 88 114
80 88 114
80 88 114
80 88 114
80 88 114
80 88 114
80 88 114
80 88 114
80 88 114
80 88 114
80 88 114
80 88 114
80 88 114
80 88 114
80 88 114
80 88 114
80 88 114
80 88 114
80 88 114
80 88 114
80 88 114
80 88 114
80 88 114
80 88 114
80 88 114
80 88 114
80 88 114
80 88 114
80 88 114
80 88 114
80 88 114
80 88 114
80 88 114
80 88 114
80 88 114
80 88 114
80 88 114
80 88 114
80 88 114
80 88 114
80 88 114
80 88 114
80 88 114
80 88 114
80 88 114
80 88 114
80 88 114
80 88 114
80 88 114
80 88 114
80 88 114
80 88 114
80 88 114
80 88 114
80 88 114
80 88 114
80 88 114
80 88 114
80 88 114
80 88 114
80 88 114
80 88 114
80 88 114
80 88 114
80 88 114
80 88 114
80 88 114
80 88 114
80 88 114
80 88 114
80 88 114
80 88 114
80 88 114
80 88 114
80 88 114
80 88 114
80 88 114
80 88 114
80 88 114
80 88 114
80 88 114
80 88 114
80 88 114
80 88 114
80 88 114
80 88 114
80 88 114
80 88 114
80 88 114
80 88 114
80 88 114
80 88 114
80 88 114
80 88 114
80 88 114
80 88 114
80 88 114
80 88 114
80 88 114
80 88 114
80 88 114
80 88 114
80 88 114
80 88 114
80 88 114
80 88 114
80 88 114
80 88 114
80 88 114
80 88 114
80 88 114
58 82 116
51 79 115
52 82 118
49 76 110
50 78 113
51 80 116
50 78 113
50 78 113
52 80 116
50 78 114
50 77 112
50 77 112
51 80 116
49 76 111
50 78 113
52 81 117
50 77 112
70 84 113
80 88 114
80 88 114
80 88 114
80 88 114
80 88 114
80 88 114
80 88 114
80 88 114
80 88 114
80 88 114
80 88 114
80 88 114
80 88 114
80 88 114
80 88 114
80 88 114
80 88 114
80 88 114
80 88 114
80 88 114
80 88 114
80 88 114
80 88 114
80 88 114
80 88 114
80 88 114
80 88 114
80 88 114
80 88 114
80 88 114
80 88 114
80 88 114
80 88 114
80 88 114
80 88 114
80 88 114
80 88 114
80 88 114
80 88 114
80 88 114
80 88 114
80 88 114
80 88 114
80 88 114
80 88 114
80 88 114
80 88 114
80 88 114
80 88 114
80 88 114
80 88 114
80 88 114
80 88 114
80 88 114
80 88 114
80 88 114
80 88 114
80 88 114
80 88 114
80 88 114
80 88 114
80 88 114
80 88 114
80 88 114
80 88 114
80 88 114
80 88 114
80 88 114
80 88 114
80 88 114
80 88 114
80 88 114
80 88 114
80 88 114
80 88 114
80 88 114
80 88 114
80 88 114
80 88 114
80 88 114
80 88 114
80 88 114
80 88 114
80 88 114
80 88 114
80 88 114
80 88 114
80 88 114
80 88 114
80 88 114
80 88 114
80 88 114
80 88 114
80 88 114
80 88 114
80 88 114
80 88 114
80 88 114
80 88 114
80 88 114
80 88 114
80 88 114
80 88 114
80 88 114
80 88 114
80 88 114
80 88 114
80 88 114
80 88 114
80 88 114
80 88 114
80 88 114
80 88 114
80 88 114
80 88 114
80 88 114
80 88 114
80 88 114
80 88 114
80 88 114
80 88 114
80 88 114
80 88 114
80 88 114
80 88 114
80 88 114
80 88 114
80 88 114
80 88 114
80 88 114
80 88 114
80 88 114
80 88 114
80 88 114
80 88 114
80 88 114
80 88 114
80 88 114
80 88 114
80 88 114
80 88 114
80 88 114
80 88 114
80 88 114
80 88 114
80 88 114
80 88 114
80 88 114
80 88 114
80 88 114
80 88 114
80 88 114
80 88 114
80 88 114
80 88 114
80 88 114
80 88 114
80 88 114
80 88 114
80 88 114
80 88 114
80 88 114
80 88 114
80 88 114
80 88 114
80 88 114
80 88 114
80 88 114
80 88 114
80 88 114
80 88 114
80 88 114
80 88 114
80 88 114
80 88 114
80 88 114
80 88 114
80 88 114
80 88 114
80 88 114
80 88 114
80 88 114
80 88 114
80 88 114
80 88 114
80 88 114
80 88 114
80 88 114
80 88 114
80 88 114
80 88 114
80 88 114
80 88 114
80 88 114
80 88 114
80 88 114
80 88 114
80 88 114
80 88 114
80 88 114
80 88 114
80 88 114
80 88 114
80 88 114
80 88 114
80 88 114
80 88 114
80 88 114
80 88 114
80 88 114
80 88 114
80 88 114
80 88 114
80 88 114
80 88 114
80 88 114
80 88 114
80 88 114
80 88 114
80 88 114
80 88 114
80 88 114
80 88 114
80 88 114
80 88 114
80 88 114
80 88 114
80 88 114
80 88 114
80 88 114
80 88 114
80 88 114
80 88 114
80 88 114
80 88 114
80 88 114
80 88 114
80 88 114
80 88 114
80 88 114
80 88 114
80 88 114
80 88 114
80 88 114
80 88 114
80 88 114
80 88 114
80 88 114
80 88 114
80 88 114
80 88 114
80 88 114
80 88 114
80 88 114
80 88 114
80 88 114
80 88 114
80 88 114
80 88 114
80 88 114
80 88 114
80 88 114
80 88 114
80 88 114
80 88 114
80 88 114
80 88 114
80 88 114
80 88 114
80 88 114
80 88 114
80 88 114
80 88 114
80 88 114
80 88 114
80 88 114
80 88 114
80 88 114
80 88 114
80 88 114
80 88 114
80 88 114
80 88 114
80 88 114
80 88 114
80 88 114
80 88 114
80 88 114
80 88 114
80 88 114
80 88 114
80 88 114
80 88 114
80 88 114
80 88 114
80 88 114
80 88 114
80 88 114
80 88 114
80 88 114
80 88 114
80 88 114
80 88 114
80 88 114
80 88 114
80 88 114
80 88 114
80 88 114
80 88 114
80 88 114
80 88 114
80 88 114
80 88 114
80 88 114
80 88 114
80 88 114
80 88 114
80 88 114
80 88 114
80 88 114
80 88 114
80 88 114
80 88 114
80 88 114
80 88 114
80 88 114
80 88 114
80 88 114
80 88 114
80 88 114
80 88 114
80 88 114
80 88 114
80 88 114
80 88 114
80 88 114
80 88 114
80 88 114
80 88 114
80 88 114
80 88 114
80 88 114
80 88 114
80 88 114
80 88 114
80 88 114
80 88 114
80 88 114
80 88 114
80 88 114
80 88 114
80 88 114
80 88 114
80 88 114
80 88 114
80 88 114
80 88 114
80 88 114
80 88 114
80 88 114
80 88 114
80 88 114
80 88 114
80 88 114
80 88 114
80 88 114
80 88 114
80 88 114
80 88 114
80 88 114
80 88 114
80 88 114
80 88 114
80 88 114
80 88 114
80 88 114
80 88 114
80 88 114
80 88 114
80 88 114
80 88 114
80 88 114
72 85 113
49 77 111
50 77 111
51 80 115
52 80 116
51 79 114
51 79 115
51 79 114
53 82 119
49 76 110
51 79 115
52 81 117
49 77 112
48 74 108
51 79 115
52 81 117
52 79 115
79 88 115
80 88 114
80 88 114
80 88 114
80 88 114
80 88 114
80 88 114
80 88 114
80 88 114
80 88 114
80 88 114
80 88 114
80 88 114
80 88 114
80 88 114
80 88 114
80 88 114
80 88 114
80 88 114
80 88 114
80 88 114
80 88 114
80 88 114
80 88 114
80 88 114
80 88 114
80 88 114
80 88 114
80 88 114
80 88 114
80 88 114
80 88 114
80 88 114
80 88 114
80 88 114
80 88 114
80 88 114
80 88 114
80 88 114
80 88 114
80 88 114
80 88 114
80 88 114
80 88 114
80 88 114
80 88 114
80 88 114
80 88 114
80 88 114
80 88 114
80 88 114
80 88 114
80 88 114
80 88 114
80 88 114
80 88 114
80 88 114
80 88 114
80 88 114
80 88 114
80 88 114
80 88 114
80 88 114
80 88 114
80 88 114
80 88 114
80 88 114
80 88 114
80 88 114
80 88 114
80 88 114
80 88 114
80 88 114
80 88 114
80 88 114
80 88 114
80 88 114
80 88 114
80 88 114
80 88 114
80 88 114
80 88 114
80 88 114
80 88 114
80 88 114
80 88 114
80 88 114
80 88 114
80 88 114
80 88 114
80 88 114
80 88 114
80 88 114
80 88 114
80 88 114
80 88 114
80 88 114
80 88 114
80 88 114
80 88 114
80 88 114
80 88 114
80 88 114
80 88 114
80 88 114
80 88 114
80 88 114
80 88 114
80 88 114
80 88 114
80 88 114
80 88 114
80 88 114
80 88 114
80 88 114
80 88 114
80 88 114
80 88 114
80 88 114
80 88 114
80 88 114
80 88 114
80 88 114
80 88 114
80 88 114
80 88 114
80 88 114
80 88 114
80 88 114
80 88 114
80 88 114
80 88 114
80 88 114
80 88 114
80 88 114
80 88 114
80 88 114
80 88 114
80 88 114
80 88 114
80 88 114
80 88 114
80 88 114
80 88 114
80 88 114
80 88 114
80 88 114
80 88 114
80 88 114
80 88 114
80 88 114
80 88 114
80 88 114
80 88 114
80 88 114
80 88 114
80 88 114
80 88 114
80 88 114
80 88 114
80 88 114
80 88 114
80 88 114
80 88 114
80 88 114
80 88 114
80 88 114
80 88 114
80 88 114
80 88 114
80 88 114
80 88 114
80 88 114
80 88 114
80 88 114
80 88 114
80 88 114
80 88 114
80 88 114
80 88 114
80 88 114
80 88 114
80 88 114
80 88 114
80 88 114
80 88 114
80 88 114
80 88 114
80 88 114
80 88 114
80 88 114
80 88 114
80 88 114
80 88 114
80 88 114
80 88 114
80 88 114
80 88 114
80 88 114
80 88 114
80 88 114
80 88 114
80 88 114
80 88 114
80 88 114
80 88 114
80 88 114
80 88 114
80 88 114
80 88 114
80 88 114
80 88 114
80 88 114
80 88 114
80 88 114
80 88 114
80 88 114
80 88 114
80 88 114
80 88 114
80 88 114
80 88 114
80 88 114
80 88 114
80 88 114
80 88 114
80 88 114
80 88 114
80 88 114
80 88 114
80 88 114
80 88 114
80 88 114
80 88 114
80 88 114
80 88 114
80 88 114
80 88 114
80 88 114
80 88 114
80 88 114
80 88 114
80 88 114
80 88 114
80 88 114
80 88 114
80 88 114
80 88 114
80 88 114
80 88 114
80 88 114
80 88 114
80 88 114
80 88 114
80 88 114
80 88 114
80 88 114
80 88 114
80 88 114
80 88 114
80 88 114
80 88 114
80 88 114
80 88 114
80 88 114
80 88 114
80 88 114
80 88 114
80 88 114
80 88 114
80 88 114
80 88 114
80 88 114
80 88 114
80 88 114
80 88 114
80 88 114
80 88 114
80 88 114
80 88 114
80 88 114
80 88 114
80 88 114
80 88 114
80 88 114
80 88 114
80 88 114
80 88 114
80 88 114
80 88 114
80 88 114
80 88 114
80 88 114
80 88 114
80 88 114
80 88 114
80 88 114
80 88 114
80 88 114
80 88 114
80 88 114
80 88 114
80 88 114
80 88 114
80 88 114
80 88 114
80 88 114
80 88 114
80 88 114
80 88 114
80 88 114
80 88 114
80 88 114
80 88 114
80 88 114
80 88 114
80 88 114
80 88 114
80 88 114
80 88 114
80 88 114
80 88 114
80 88 114
80 88 114
80 88 114
80 88 114
80 88 114
80 88 114
80 88 114
80 88 114
80 88 114
80 88 114
80 88 114
80 88 114
80 88 114
80 88 114
80 88 114
80 88 114
80 88 114
80 88 114
80 88 114
80 88 114
80 88 114
80 88 114
80 88 114
80 88 114
80 88 114
80 88 114
80 88 114
80 88 114
80 88 114
80 88 114
80 88 114
80 88 114
80 88 114
80 88 114
80 88 114
80 88 114
80 88 114
80 88 114
80 88 114
80 88 114
80 88 114
80 88 114
80 88 114
80 88 114
80 88 114
80 88 114
80 88 114
80 88 114
80 88 114
80 88 114
80 88 114
80 88 114
80 88 114
80 88 114
80 88 114
80 88 114
80 88 114
80 88 114
80 88 114
80 88 114
80 88 114
80 88 114
62 81 112
51 79 114
51 79 115
52 80 116
52 81 117
50 78 113
53 82 119
52 81 117
52 80 116
50 77 112
49 76 110
51 79 114
51 80 115
48 75 109
50 78 113
65 83 115
80 88 114
80 88 114
80 88 114
80 88 114
80 88 114
80 88 114
80 88 114
80 88 114
80 88 114
80 88 114
80 88 114
80 88 114
80 88 114
80 88 114
80 88 114
80 88 114
80 88 114
80 88 114
80 88 114
80 88 114
80 88 114
80 88 114
80 88 114
80 88 114
80 88 114
80 88 114
80 88 114
80 88 114
80 88 114
80 88 114
80 88 114
80 88 114
80 88 114
80 88 114
80 88 114
80 88 114
80 88 114
80 88 114
80 88 114
80 88 114
80 88 114
80 88 114
80 88 114
80 88 114
80 88 114
80 88 114
80 88 114
80 88 114
80 88 114
80 88 114
80 88 114
80 88 114
80 88 114
80 88 114
80 88 114
80 88 114
80 88 114
80 88 114
80 88 114
80 88 114
80 88 114
80 88 114
80 88 114
80 88 114
80 88 114
80 88 114
80 88 114
80 88 114
80 88 114
80 88 114
80 88 114
80 88 114
80 88 114
80 88 114
80 88 114
80 88 114
80 88 114
80 88 114
80 88 114
80 88 114
80 88 114
80 88 114
80 88 114
80 88 114
80 88 114
80 88 114
80 88 114
80 88 114
80 88 114
80 88 114
80 88 114
80 88 114
80 88 114
80 88 114
80 88 114
80 88 114
80 88 114
80 88 114
80 88 114
80 88 114
80 88 114
80 88 114
80 88 114
80 88 114
80 88 114
80 88 114
80 88 114
80 88 114
80 88 114
80 88 114
80 88 114
80 88 114
80 88 114
80 88 114
80 88 114
80 88 114
80 88 114
80 88 114
80 88 114
80 88 114
80 88 114
80 88 114
80 88 114
80 88 114
80 88 114
80 88 114
80 88 114
80 88 114
80 88 114
80 88 114
80 88 114
80 88 114
80 88 114
80 88 114
80 88 114
80 88 114
80 88 114
80 88 114
80 88 114
80 88 114
80 88 114
80 88 114
80 88 114
80 88 114
80 88 114
80 88 114
80 88 114
80 88 114
80 88 114
80 88 114
80 88 114
80 88 114
80 88 114
80 88 114
80 88 114
80 88 114
80 88 114
80 88 114
80 88 114
80 88 114
80 88 114
80 88 114
80 88 114
80 88 114
80 88 114
80 88 114
80 88 114
80 88 114
80 88 114
80 88 114
80 88 114
80 88 114
80 88 114
80 88 114
80 88 114
80 88 114
80 88 114
80 88 114
80 88 114
80 88 114
80 88 114
80 88 114
80 88 114
80 88 114
80 88 114
80 88 114
80 88 114
80 88 114
80 88 114
80 88 114
80 88 114
80 88 114
80 88 114
80 88 114
80 88 114
80 88 114
80 88 114
80 88 114
80 88 114
80 88 114
80 88 114
80 88 114
80 88 114
80 88 114
80 88 114
80 88 114
80 88 114
80 88 114
80 88 114
80 88 114
80 88 114
80 88 114
80 88 114
80 88 114
80 88 114
80 88 114
80 88 114
80 88 114
80 88 114
80 88 114
80 88 114
80 88 114
80 88 114
80 88 114
80 88 114
80 88 114
80 88 114
80 88 114
80 88 114
80 88 114
80 88 114
80 88 114
80 88 114
80 88 114
80 88 114
80 88 114
80 88 114
80 88 114
80 88 114
80 88 114
80 88 114
80 88 114
80 88 114
80 88 114
80 88 114
80 88 114
80 88 114
80 88 114
80 88 114
80 88 114
80 88 114
80 88 114
80 88 114
80 88 114
80 88 114
80 88 114
80 88 114
80 88 114
80 88 114
80 88 114
80 88 114
80 88 114
80 88 114
80 88 114
80 88 114
80 88 114
80 88 114
80 88 114
80 88 114
80 88 114
80 88 114
80 88 114
80 88 114
80 88 114
80 88 114
80 88 114
80 88 114
80 88 114
80 88 114
80 88 114
80 88 114
80 88 114
80 88 114
80 88 114
80 88 114
80 88 114
80 88 114
80 88 114
80 88 114
80 88 114
80 88 114
80 88 114
80 88 114
80 88 114
80 88 114
80 88 114
80 88 114
80 88 114
80 88 114
80 88 114
80 88 114
80 88 114
80 88 114
80 88 114
80 88 114
80 88 114
80 88 114
80 88 114
80 88 114
80 88 114
80 88 114
80 88 114
80 88 114
80 88 114
80 88 114
80 88 114
80 88 114
80 88 114
80 88 114
80 88 114
80 88 114
80 88 114
80 88 114
80 88 114
80 88 114
80 88 114
80 88 114
80 88 114
80 88 114
80 88 114
80 88 114
80 88 114
80 88 114
80 88 114
80 88 114
80 88 114
80 88 114
80 88 114
80 88 114
80 88 114
80 88 114
80 88 114
80 88 114
80 88 114
80 88 114
80 88 114
80 88 114
80 88 114
80 88 114
80 88 114
80 88 114
80 88 114
80 88 114
80 88 114
80 88 114
80 88 114
80 88 114
80 88 114
80 88 114
80 88 114
80 88 114
80 88 114
80 88 114
80 88 114
80 88 114
80 88 114
80 88 114
80 88 114
80 88 114
80 88 114
80 88 114
80 88 114
80 88 114
80 88 114
80 88 114
80 88 114
80 88 114
80 88 114
80 88 114
80 88 114
80 88 114
80 88 114
80 88 114
80 88 114
79 87 113
60 81 113
50 77 111
51 79 114
52 80 116
51 79 114
53 82 118
49 77 112
52 81 117
50 79 114
51 80 115
50 77 112
50 78 113
54 83 121
58 81 115
80 88 114
80 88 114
80 88 114
80 88 114
80 88 114
80 88 114
80 88 114
80 88 114
80 88 114
80 88 114
80 88 114
80 88 114
80 88 114
80 88 114
80 88 114
80 88 114
80 88 114
80 88 114
80 88 114
80 88 114
80 88 114
80 88 114
80 88 114
80 88 114
80 88 114
80 88 114
80 88 114
80 88 114
80 88 114
80 88 114
80 88 114
80 88 114
80 88 114
80 88 114
80 88 114
80 88 114
80 88 114
80 88 114
80 88 114
80 88 114
80 88 114
80 88 114
80 88 114
80 88 114
80 88 114
80 88 114
80 88 114
80 88 114
80 88 114
80 88 114
80 88 114
80 88 114
80 88 114
80 88 114
80 88 114
80 88 114
80 88 114
80 88 114
80 88 114
80 88 114
80 88 114
80 88 114
80 88 114
80 88 114
80 88 114
80 88 114
80 88 114
80 88 114
80 88 114
80 88 114
80 88 114
80 88 114
80 88 114
80 88 114
80 88 114
80 88 114
80 88 114
80 88 114
80 88 114
80 88 114
80 88 114
80 88 114
80 88 114
80 88 114
80 88 114
80 88 114
80 88 114
80 88 114
80 88 114
80 88 114
80 88 114
80 88 114
80 88 114
80 88 114
80 88 114
80 88 114
80 88 114
80 88 114
80 88 114
80 88 114
80 88 114
80 88 114
80 88 114
80 88 114
80 88 114
80 88 114
80 88 114
80 88 114
80 88 114
80 88 114
80 88 114
80 88 114
80 88 114
80 88 114
80 88 114
80 88 114
80 88 114
80 88 114
80 88 114
80 88 114
80 88 114
80 88 114
80 88 114
80 88 114
80 88 114
80 88 114
80 88 114
80 88 114
80 88 114
80 88 114
80 88 114
80 88 114
80 88 114
80 88 114
80 88 114
80 88 114
80 88 114
80 88 114
80 88 114
80 88 114
80 88 114
80 88 114
80 88 114
80 88 114
80 88 114
80 88 114
80 88 114
80 88 114
80 88 114
80 88 114
80 88 114
80 88 114
80 88 114
80 88 114
80 88 114
80 88 114
80 88 114
80 88 114
80 88 114
80 88 114
80 88 114
80 88 114
80 88 114
80 88 114
80 88 114
80 88 114
80 88 114
80 88 114
80 88 114
80 88 114
80 88 114
80 88 114
80 88 114
80 88 114
80 88 114
80 88 114
80 88 114
80 88 114
80 88 114
80 88 114
80 88 114
80 88 114
80 88 114
80 88 114
80 88 114
80 88 114
80 88 114
80 88 114
80 88 114
80 88 114
80 88 114
80 88 114
80 88 114
80 88 114
80 88 114
80 88 114
80 88 114
80 88 114
80 88 114
80 88 114
80 88 114
80 88 114
80 88 114
80 88 114
80 88 114
80 88 114
80 88 114
80 88 114
80 88 114
80 88 114
80 88 114
80 88 114
80 88 114
80 88 114
80 88 114
80 88 114
80 88 114
80 88 114
80 88 114
80 88 114
80 88 114
80 88 114
80 88 114
80 88 114
80 88 114
80 88 114
80 88 114
80 88 114
80 88 114
80 88 114
80 88 114
80 88 114
80 88 114
80 88 114
80 88 114
80 88 114
80 88 114
80 88 114
80 88 114
80 88 114
80 88 114
80 88 114
80 88 114
80 88 114
80 88 114
80 88 114
80 88 114
80 88 114
80 88 114
80 88 114
80 88 114
80 88 114
80 88 114
80 88 114
80 88 114
80 88 114
80 88 114
80 88 114
80 88 114
80 88 114
80 88 114
80 88 114
80 88 114
80 88 114
80 88 114
80 88 114
80 88 114
80 88 114
80 88 114
80 88 114
80 88 114
80 88 114
80 88 114
80 88 114
80 88 114
80 88 114
80 88 114
80 88 114
80 88 114
80 88 114
80 88 114
80 88 114
80 88 114
80 88 114
80 88 114
80 88 114
80 88 114
80 88 114
80 88 114
80 88 114
80 88 114
80 88 114
80 88 114
80 88 114
80 88 114
80 88 114
80 88 114
80 88 114
80 88 114
80 88 114
80 88 114
80 88 114
80 88 114
80 88 114
80 88 114
80 88 114
80 88 114
80 88 114
80 88 114
80 88 114
80 88 114
80 88 114
80 88 114
80 88 114
80 88 114
80 88 114
80 88 114
80 88 114
80 88 114
80 88 114
80 88 114
80 88 114
80 88 114
80 88 114
80 88 114
80 88 114
80 88 114
80 88 114
80 88 114
80 88 114
80 88 114
80 88 114
80 88 114
80 88 114
80 88 114
80 88 114
80 88 114
80 88 114
80 88 114
80 88 114
80 88 114
80 88 114
80 88 114
80 88 114
80 88 114
80 88 114
80 88 114
80 88 114
80 88 114
80 88 114
80 88 114
80 88 114
80 88 114
80 88 114
80 88 114
80 88 114
80 88 114
80 88 114
80 88 114
80 88 114
80 88 114
80 88 114
80 88 114
80 88 114
80 88 114
80 88 114
80 88 114
80 88 114
80 88 114
80 88 114
80 88 114
80 88 114
80 88 114
80 88 114
80 88 114
80 88 114
80 88 114
80 88 114
80 88 114
80 88 114
80 88 114
80 88 114
80 88 114
80 88 114
80 88 114
80 88 114
80 88 114
64 81 111
51 79 114
49 77 111
52 80 116
51 80 115
52 81 117
51 80 115
49 76 110
51 80 116
51 80 115
51 79 114
60 83 117
79 88 115
80 88 114
80 88 114
80 88 114
80 88 114
80 88 114
80 88 114
80 88 114
80 88 114
80 88 114
80 88 114
80 88 114
80 88 114
80 88 114
80 88 114
80 88 114
80 88 114
80 88 114
80 88 114
80 88 114
80 88 114
80 88 114
80 88 114
80 88 114
80 88 114
80 88 114
80 88 114
80 88 114
80 88 114
80 88 114
80 88 114
80 88 114
80 88 114
80 88 114
80 88 114
80 88 114
80 88 114
80 88 114
80 88 114
80 88 114
80 88 114
80 88 114
80 88 114
80 88 114
80 88 114
80 88 114
80 88 114
80 88 114
80 88 114
80 88 114
80 88 114
80 88 114
80 88 114
80 88 114
80 88 114
80 88 114
80 88 114
80 88 114
80 88 114
80 88 114
80 88 114
80 88 114
80 88 114
80 88 114
80 88 114
80 88 114
80 88 114
80 88 114
80 88 114
80 88 114
80 88 114
80 88 114
80 88 114
80 88 114
80 88 114
80 88 114
80 88 114
80 88 114
80 88 114
80 88 114
80 88 114
80 88 114
80 88 114
80 88 114
80 88 114
80 88 114
80 88 114
80 88 114
80 88 114
80 88 114
80 88 114
80 88 114
80 88 114
80 88 114
80 88 114
80 88 114
80 88 114
80 88 114
80 88 114
80 88 114
80 88 114
80 88 114
80 88 114
80 88 114
80 88 114
80 88 114
80 88 114
80 88 114
80 88 114
80 88 114
80 88 114
80 88 114
80 88 114
80 88 114
80 88 114
80 88 114
80 88 114
80 88 114
80 88 114
80 88 114
80 88 114
80 88 114
80 88 114
80 88 114
80 88 114
80 88 114
80 88 114
80 88 114
80 88 114
80 88 114
80 88 114
80 88 114
80 88 114
80 88 114
80 88 114
80 88 114
80 88 114
80 88 114
80 88 114
80 88 114
80 88 114
80 88 114
80 88 114
80 88 114
80 88 114
80 88 114
80 88 114
80 88 114
80 88 114
80 88 114
80 88 114
80 88 114
80 88 114
80 88 114
80 88 114
80 88 114
80 88 114
80 88 114
80 88 114
80 88 114
80 88 114
80 88 114
80 88 114
80 88 114
80 88 114
80 88 114
80 88 114
80 88 114
80 88 114
80 88 114
80 88 114
80 88 114
80 88 114
80 88 114
80 88 114
80 88 114
80 88 114
80 88 114
80 88 114
80 88 114
80 88 114
80 88 114
80 88 114
80 88 114
80 88 114
80 88 114
80 88 114
80 88 114
80 88 114
80 88 114
80 88 114
80 88 114
80 88 114
80 88 114
80 88 114
80 88 114
80 88 114
80 88 114
80 88 114
80 88 114
80 88 114
80 88 114
80 88 114
80 88 114
80 88 114
80 88 114
80 88 114
80 88 114
80 88 114
80 88 114
80 88 114
80 88 114
80 88 114
80 88 114
80 88 114
80 88 114
80 88 114
80 88 114
80 88 114
80 88 114
80 88 114
80 88 114
80 88 114
80 88 114
80 88 114
80 88 114
80 88 114
80 88 114
80 88 114
80 88 114
80 88 114
80 88 114
80 88 114
80 88 114
80 88 114
80 88 114
80 88 114
80 88 114
80 88 114
80 88 114
80 88 114
80 88 114
80 88 114
80 88 114
80 88 114
80 88 114
80 88 114
80 88 114
80 88 114
80 88 114
80 88 114
80 88 114
80 88 114
80 88 114
80 88 114
80 88 114
80 88 114
80 88 114
80 88 114
80 88 114
80 88 114
80 88 114
80 88 114
80 88 114
80 88 114
80 88 114
80 88 114
80 88 114
80 88 114
80 88 114
80 88 114
80 88 114
80 88 114
80 88 114
80 88 114
80 88 114
80 88 114
80 88 114
80 88 114
80 88 114
80 88 114
80 88 114
80 88 114
80 88 114
80 88 114
80 88 114
80 88 114
80 88 114
80 88 114
80 88 114
80 88 114
80 88 114
80 88 114
80 88 114
80 88 114
80 88 114
80 88 114
80 88 114
80 88 114
80 88 114
80 88 114
80 88 114
80 88 114
80 88 114
80 88 114
80 88 114
80 88 114
80 88 114
80 88 114
80 88 114
80 88 114
80 88 114
80 88 114
80 88 114
80 88 114
80 88 114
80 88 114
80 88 114
80 88 114
80 88 114
80 88 114
80 88 114
80 88 114
80 88 114
80 88 114
80 88 114
80 88 114
80 88 114
80 88 114
80 88 114
80 88 114
80 88 114
80 88 114
80 88 114
80 88 114
80 88 114
80 88 114
80 88 114
80 88 114
80 88 114
80 88 114
80 88 114
80 88 114
80 88 114
80 88 114
80 88 114
80 88 114
80 88 114
80 88 114
80 88 114
80 88 114
80 88 114
80 88 114
80 88 114
80 88 114
80 88 114
80 88 114
80 88 114
80 88 114
80 88 114
80 88 114
80 88 114
80 88 114
80 88 114
80 88 114
80 88 114
80 88 114
80 88 114
80 88 114
80 88 114
80 88 114
80 88 114
80 88 114
80 88 114
80 88 114
80 88 114
80 88 114
80 88 114
80 88 114
80 88 114
80 88 114
80 88 114
80 88 114
80 88 114
80 88 114
80 88 114
80 88 114
80 88 114
80 88 114
76 87 114
63 85 118
53 80 116
50 78 113
53 83 120
50 78 113
50 78 113
51 80 115
57 82 117
70 84 114
80 88 114
80 88 114
80 88 114
80 88 114
80 88 114
80 88 114
80 88 114
80 88 114
80 88 114
80 88 114
80 88 114
80 88 114
80 88 114
80 88 114
80 88 114
80 88 114
80 88 114
80 88 114
80 88 114
80 88 114
80 88 114
80 88 114
80 88 114
80 88 114
80 88 114
80 88 114
80 88 114
80 88 114
80 88 114
80 88 114
80 88 114
80 88 114
80 88 114
80 88 114
80 88 114
80 88 114
80 88 114
80 88 114
80 88 114
80 88 114
80 88 114
80 88 114
80 88 114
80 88 114
80 88 114
80 88 114
80 88 114
80 88 114
80 88 114
80 88 114
80 88 114
80 88 114
80 88 114
80 88 114
80 88 114
80 88 114
80 88 114
80 88 114
80 88 114
80 88 114
80 88 114
80 88 114
80 88 114
80 88 114
80 88 114
80 88 114
80 88 114
80 88 114
80 88 114
80 88 114
80 88 114
80 88 114
80 88 114
80 88 114
80 88 114
80 88 114
80 88 114
80 88 114
80 88 114
80 88 114
80 88 114
80 88 114
80 88 114
80 88 114
80 88 114
80 88 114
80 88 114
80 88 114
80 88 114
80 88 114
80 88 114
80 88 114
80 88 114
80 88 114
80 88 114
80 88 114
80 88 114
80 88 114
80 88 114
80 88 114
80 88 114
80 88 114
80 88 114
80 88 114
80 88 114
80 88 114
80 88 114
80 88 114
80 88 114
80 88 114
80 88 114
80 88 114
80 88 114
80 88 114
80 88 114
80 88 114
80 88 114
80 88 114
80 88 114
80 88 114
80 88 114
80 88 114
80 88 114
80 88 114
80 88 114
80 88 114
80 88 114
80 88 114
80 88 114
80 88 114
80 88 114
80 88 114
80 88 114
80 88 114
80 88 114
80 88 114
80 88 114
80 88 114
80 88 114
80 88 114
80 88 114
80 88 114
80 88 114
80 88 114
80 88 114
80 88 114
80 88 114
80 88 114
80 88 114
80 88 114
80 88 114
80 88 114
80 88 114
80 88 114
80 88 114
80 88 114
80 88 114
80 88 114
80 88 114
80 88 114
80 88 114
80 88 114
80 88 114
80 88 114
80 88 114
80 88 114
80 88 114
80 88 114
80 88 114
80 88 114
80 88 114
80 88 114
80 88 114
80 88 114
80 88 114
80 88 114
80 88 114
80 88 114
80 88 114
80 88 114
80 88 114
80 88 114
80 88 114
80 88 114
80 88 114
80 88 114
80 88 114
80 88 114
80 88 114
80 88 114
80 88 114
80 88 114
80 88 114
80 88 114
80 88 114
80 88 114
80 88 114
80 88 114
80 88 114
80 88 114
80 88 114
80 88 114
80 88 114
80 88 114
80 88 114
80 88 114
80 88 114
80 88 114
80 88 114
80 88 114
80 88 114
80 88 114
80 88 114
80 88 114
80 88 114
80 88 114
80 88 114
80 88 114
80 88 114
80 88 114
80 88 114
80 88 114
80 88 114
80 88 114
80 88 114
80 88 114
80 88 114
80 88 114
80 88 114
80 88 114
80 88 114
80 88 114
80 88 114
80 88 114
80 88 114
80 88 114
80 88 114
80 88 114
80 88 114
80 88 114
80 88 114
80 88 114
80 88 114
80 88 114
80 88 114
80 88 114
80 88 114
80 88 114
80 88 114
80 88 114
80 88 114
80 88 114
80 88 114
80 88 114
80 88 114
80 88 114
80 88 114
80 88 114
80 88 114
80 88 114
80 88 114
80 88 114
80 88 114
80 88 114
80 88 114
80 88 114
80 88 114
80 88 114
80 88 114
80 88 114
80 88 114
80 88 114
80 88 114
80 88 114
80 88 114
80 88 114
80 88 114
80 88 114
80 88 114
80 88 114
80 88 114
80 88 114
80 88 114
80 88 114
80 88 114
80 88 114
80 88 114
80 88 114
80 88 114
80 88 114
80 88 114
80 88 114
80 88 114
80 88 114
80 88 114
80 88 114
80 88 114
80 88 114
80 88 114
80 88 114
80 88 114
80 88 114
80 88 114
80 88 114
80 88 114
80 88 114
80 88 114
80 88 114
80 88 114
80 88 114
80 88 114
80 88 114
80 88 114
80 88 114
80 88 114
80 88 114
80 88 114
80 88 114
80 88 114
80 88 114
80 88 114
80 88 114
80 88 114
80 88 114
80 88 114
80 88 114
80 88 114
80 88 114
80 88 114
80 88 114
80 88 114
80 88 114
80 88 114
80 88 114
80 88 114
80 88 114
80 88 114
80 88 114
80 88 114
80 88 114
80 88 114
80 88 114
80 88 114
80 88 114
80 88 114
80 88 114
80 88 114
80 88 114
80 88 114
80 88 114
80 88 114
80 88 114
80 88 114
80 88 114
80 88 114
80 88 114
80 88 114
80 88 114
80 88 114
80 88 114
80 88 114
80 88 114
80 88 114
80 88 114
80 88 114
80 88 114
80 88 114
80 88 114
80 88 114
80 88 114
80 88 114
80 88 114
80 88 114
80 88 114
80 88 114
80 88 114
80 88 114
80 88 114
80 88 114
80 88 114
80 88 114
80 88 114
80 88 114
80 88 114
80 88 114
80 88 114
80 88 114
80 88 114
80 88 114
80 88 114
80 88 114
80 88 114
79 88 114
74 86 114
70 84 113
68 82 111
71 85 114
76 86 113
80 88 114
80 88 114
80 88 114
80 88 114
80 88 114
80 88 114
80 88 114
80 88 114
80 88 114
80 88 114
80 88 114
80 88 114
80 88 114
80 88 114
80 88 114
80 88 114
80 88 114
80 88 114
80 88 114
80 88 114
80 88 114
80 88 114
80 88 114
80 88 114
80 88 114
80 88 114
80 88 114
80 88 114
80 88 114
80 88 114
80 88 114
80 88 114
80 88 114
80 88 114
80 88 114
80 88 114
80 88 114
80 88 114
80 88 114
80 88 114
80 88 114
80 88 114
80 88 114
80 88 114
80 88 114
80 88 114
80 88 114
80 88 114
80 88 114
80 88 114
80 88 114
80 88 114
80 88 114
80 88 114
80 88 114
80 88 114
80 88 114
80 88 114
80 88 114
80 88 114
80 88 114
80 88 114
80 88 114
80 88 114
80 88 114
80 88 114
80 88 114
80 88 114
80 88 114
80 88 114
80 88 114
80 88 114
80 88 114
80 88 114
80 88 114
80 88 114
80 88 114
80 88 114
80 88 114
80 88 114
80 88 114
80 88 114
80 88 114
80 88 114
80 88 114
80 88 114
80 88 114
80 88 114
80 88 114
80 88 114
80 88 114
80 88 114
80 88 114
80 88 114
80 88 114
80 88 114
80 88 114
80 88 114
80 88 114
80 88 114
80 88 114
80 88 114
80 88 114
80 88 114
80 88 114
80 88 114
80 88 114
80 88 114
80 88 114
80 88 114
80 88 114
80 88 114
80 88 114
80 88 114
80 88 114
80 88 114
80 88 114
80 88 114
80 88 114
80 88 114
80 88 114
80 88 114
80 88 114
80 88 114
80 88 114
80 88 114
80 88 114
80 88 114
80 88 114
80 88 114
80 88 114
80 88 114
80 88 114
80 88 114
80 88 114
80 88 114
80 88 114
80 88 114
80 88 114
80 88 114
80 88 114
80 88 114
80 88 114
80 88 114
80 88 114
80 88 114
80 88 114
80 88 114
80 88 114
80 88 114
80 88 114
80 88 114
80 88 114
80 88 114
80 88 114
80 88 114
80 88 114
80 88 114
80 88 114
80 88 114
80 88 114
80 88 114
80 88 114
80 88 114
80 88 114
80 88 114
80 88 114
80 88 114
80 88 114
80 88 114
80 88 114
80 88 114
80 88 114
80 88 114
80 88 114
80 88 114
80 88 114
80 88 114
80 88 114
80 88 114
80 88 114
80 88 114
80 88 114
80 88 114
80 88 114
80 88 114
80 88 114
80 88 114
80 88 114
80 88 114
80 88 114
80 88 114
80 88 114
80 88 114
80 88 114
80 88 114
80 88 114
80 88 114
80 88 114
80 88 114
80 88 114
80 88 114
80 88 114
80 88 114
80 88 114
80 88 114
80 88 114
80 88 114
80 88 114
80 88 114
80 88 114
80 88 114
80 88 114
80 88 114
80 88 114
80 88 114
80 88 114
80 88 114
80 88 114
80 88 114
80 88 114
80 88 114
80 88 114
80 88 114
80 88 114
80 88 114
80 88 114
80 88 114
80 88 114
80 88 114
80 88 114
80 88 114
80 88 114
80 88 114
80 88 114
80 88 114
80 88 114
80 88 114
80 88 114
80 88 114
80 88 114
80 88 114
80 88 114
80 88 114
80 88 114
80 88 114
80 88 114
80 88 114
80 88 114
80 88 114
80 88 114
80 88 114
80 88 114
80 88 114
80 88 114
80 88 114
80 88 114
80 88 114
80 88 114
80 88 114
80 88 114
80 88 114
80 88 114
80 88 114
80 88 114
80 88 114
80 88 114
80 88 114
80 88 114
80 88 114
80 88 114
80 88 114
80 88 114
80 88 114
80 88 114
80 88 114
80 88 114
80 88 114
80 88 114
80 88 114
80 88 114
80 88 114
80 88 114
80 88 114
80 88 114
80 88 114
80 88 114
80 88 114
80 88 114
80 88 114
80 88 114
80 88 114
80 88 114
80 88 114
80 88 114
80 88 114
80 88 114
80 88 114
80 88 114
80 88 114
80 88 114
80 88 114
80 88 114
80 88 114
80 88 114
80 88 114
80 88 114
80 88 114
80 88 114
80 88 114
80 88 114
80 88 114
80 88 114
80 88 114
80 88 114
80 88 114
80 88 114
80 88 114
80 88 114
80 88 114
80 88 114
80 88 114
80 88 114
80 88 114
80 88 114
80 88 114
80 88 114
80 88 114
80 88 114
80 88 114
80 88 114
80 88 114
80 88 114
80 88 114
80 88 114
80 88 114
80 88 114
80 88 114
80 88 114
80 88 114
80 88 114
80 88 114
80 88 114
80 88 114
80 88 114
80 88 114
80 88 114
80 88 114
80 88 114
80 88 114
80 88 114
80 88 114
80 88 114
80 88 114
80 88 114
80 88 114
80 88 114
80 88 114
80 88 114
80 88 114
80 88 114
80 88 114
80 88 114
80 88 114
80 88 114
80 88 114
80 88 114
80 88 114
80 88 114
80 88 114
80 88 114
80 88 114
80 88 114
80 88 114
80 88 114
80 88 114
80 88 114
80 88 114
80 88 114
80 88 114
80 88 114
80 88 114
80 88 114
80 88 114
80 88 114
80 88 114
80 88 114
80 88 114
80 88 114
80 88 114
80 88 114
80 88 114
80 88 114
80 88 114
80 88 114
80 88 114
80 88 114
80 88 114
80 88 114
80 88 114
80 88 114
80 88 114
80 88 114
80 88 114
80 88 114
80 88 114
80 88 114
80 88 114
80 88 114
80 88 114
80 88 114
80 88 114
80 88 114
80 88 114
80 88 114
80 88 114
80 88 114
80 88 114
80 88 114
80 88 114
80 88 114
80 88 114
80 88 114
80 88 114
80 88 114
80 88 114
80 88 114
80 88 114
80 88 114
80 88 114
80 88 114
80 88 114
80 88 114
80 88 114
80 88 114
80 88 114
80 88 114
80 88 114
80 88 114
80 88 114
80 88 114
80 88 114
80 88 114
80 88 114
80 88 114
80 88 114
80 88 114
80 88 114
80 88 114
80 88 114
80 88 114
80 88 114
80 88 114
80 88 114
80 88 114
80 88 114
80 88 114
80 88 114
80 88 114
80 88 114
80 88 114
80 88 114
80 88 114
80 88 114
80 88 114
80 88 114
80 88 114
80 88 114
80 88 114
80 88 114
80 88 114
80 88 114
80 88 114
80 88 114
80 88 114
80 88 114
80 88 114
80 88 114
80 88 114
80 88 114
80 88 114
80 88 114
80 88 114
80 88 114
80 88 114
80 88 114
80 88 114
80 88 114
80 88 114
80 88 114
80 88 114
80 88 114
80 88 114
80 88 114
80 88 114
80 88 114
80 88 114
80 88 114
80 88 114
80 88 114
80 88 114
80 88 114
80 88 114
80 88 114
80 88 114
80 88 114
80 88 114
80 88 114
80 88 114
80 88 114
80 88 114
80 88 114
80 88 114
80 88 114
80 88 114
80 88 114
80 88 114
80 88 114
80 88 114
80 88 114
80 88 114
80 88 114
80 88 114
80 88 114
80 88 114
80 88 114
80 88 114
80 88 114
80 88 114
80 88 114
80 88 114
80 88 114
80 88 114
80 88 114
80 88 114
80 88 114
80 88 114
80 88 114
80 88 114
80 88 114
80 88 114
80 88 114
80 88 114
80 88 114
80 88 114
80 88 114
80 88 114
80 88 114
80 88 114
80 88 114
80 88 114
80 88 114
80 88 114
80 88 114
80 88 114
80 88 114
80 88 114
80 88 114
80 88 114
80 88 114
80 88 114
80 88 114
80 88 114
80 88 114
80 88 114
80 88 114
80 88 114
80 88 114
80 88 114
80 88 114
80 88 114
80 88 114
80 88 114
80 88 114
80 88 114
80 88 114
80 88 114
80 88 114
80 88 114
80 88 114
80 88 114
80 88 114
80 88 114
80 88 114
80 88 114
80 88 114
80 88 114
80 88 114
80 88 114
80 88 114
80 88 114
80 88 114
80 88 114
80 88 114
80 88 114
80 88 114
80 88 114
80 88 114
80 88 114
80 88 114
80 88 114
80 88 114
80 88 114
80 88 114
80 88 114
80 88 114
80 88 114
80 88 114
80 88 114
80 88 114
80 88 114
80 88 114
80 88 114
80 88 114
80 88 114
80 88 114
80 88 114
80 88 114
80 88 114
80 88 114
80 88 114
80 88 114
80 88 114
80 88 114
80 88 114
80 88 114
80 88 114
80 88 114
80 88 114
80 88 114
80 88 114
80 88 114
80 88 114
80 88 114
80 88 114
80 88 114
80 88 114
80 88 114
80 88 114
80 88 114
80 88 114
80 88 114
80 88 114
80 88 114
80 88 114
80 88 114
80 88 114
80 88 114
80 88 114
80 88 114
80 88 114
80 88 114
80 88 114
80 88 114
80 88 114
80 88 114
80 88 114
80 88 114
80 88 114
80 88 114
80 88 114
80 88 114
80 88 114
80 88 114
80 88 114
80 88 114
80 88 114
80 88 114
80 88 114
80 88 114
80 88 114
80 88 114
80 88 114
80 88 114
80 88 114
80 88 114
80 88 114
80 88 114
80 88 114
80 88 114
80 88 114
80 88 114
80 88 114
80 88 114
80 88 114
80 88 114
80 88 114
80 88 114
80 88 114
80 88 114
80 88 114
80 88 114
80 88 114
80 88 114
80 88 114
80 88 114
80 88 114
80 88 114
80 88 114
80 88 114
80 88 114
80 88 114
80 88 114
80 88 114
80 88 114
80 88 114
80 88 114
80 88 114
80 88 114
80 88 114
80 88 114
80 88 114
80 88 114
80 88 114
80 88 114
80 88 114
80 88 114
80 88 114
80 88 114
80 88 114
80 88 114
80 88 114
80 88 114
80 88 114
80 88 114
80 88 114
80 88 114
80 88 114
80 88 114
80 88 114
80 88 114
80 88 114
80 88 114
80 88 114
80 88 114
80 88 114
80 88 114
80 88 114
80 88 114
80 88 114
80 88 114
80 88 114
80 88 114
80 88 114
80 88 114
80 88 114
80 88 114
80 88 114
80 88 114
80 88 114
80 88 114
80 88 114
80 88 114
80 88 114
80 88 114
80 88 114
80 88 114
80 88 114
80 88 114
80 88 114
80 88 114
80 88 114
80 88 114
80 88 114
80 88 114
80 88 114
80 88 114
80 88 114
80 88 114
80 88 114
80 88 114
80 88 114
80 88 114
80 88 114
80 88 114
80 88 114
80 88 114
80 88 114
80 88 114
80 88 114
80 88 114
80 88 114
80 88 114
80 88 114
80 88 114
80 88 114
80 88 114
80 88 114
80 88 114
80 88 114
80 88 114
80 88 114
80 88 114
80 88 114
80 88 114
80 88 114
80 88 114
80 88 114
80 88 114
80 88 114
80 88 114
80 88 114
80 88 114
80 88 114
80 88 114
80 88 114
80 88 114
80 88 114
80 88 114
80 88 114
80 88 114
80 88 114
80 88 114
80 88 114
80 88 114
80 88 114
80 88 114
80 88 114
80 88 114
80 88 114
80 88 114
80 88 114
80 88 114
80 88 114
80 88 114
80 88 114
80 88 114
80 88 114
80 88 114
80 88 114
80 88 114
80 88 114
80 88 114
80 88 114
80 88 114
80 88 114
80 88 114
80 88 114
80 88 114
80 88 114
80 88 114
80 88 114
80 88 114
80 88 114
80 88 114
80 88 114
80 88 114
80 88 114
80 88 114
80 88 114
80 88 114
80 88 114
80 88 114
80 88 114
80 88 114
80 88 114
80 88 114
80 88 114
80 88 114
80 88 114
80 88 114
80 88 114
80 88 114
80 88 114
80 88 114
80 88 114
80 88 114
80 88 114
80 88 114
80 88 114
80 88 114
80 88 114
80 88 114
80 88 114
80 88 114
80 88 114
80 88 114
80 88 114
80 88 114
80 88 114
80 88 114
80 88 114
80 88 114
80 88 114
80 88 114
80 88 114
80 88 114
80 88 114
80 88 114
80 88 114
80 88 114
80 88 114
80 88 114
80 88 114
80 88 114
80 88 114
80 88 114
80 88 114
80 88 114
80 88 114
80 88 114
80 88 114
80 88 114
80 88 114
80 88 114
80 88 114
80 88 114
80 88 114
80 88 114
80 88 114
80 88 114
80 88 114
80 88 114
80 88 114
80 88 114
80 88 114
80 88 114
80 88 114
80 88 114
80 88 114
80 88 114
80 88 114
80 88 114
80 88 114
80 88 114
80 88 114
80 88 114
80 88 114
80 88 114
80 88 114
80 88 114
80 88 114
80 88 114
80 88 114
80 88 114
80 88 114
80 88 114
80 88 114
80 88 114
80 88 114
80 88 114
80 88 114
80 88 114
80 88 114
80 88 114
80 88 114
80 88 114
80 88 114
80 88 114
80 88 114
80 88 114
80 88 114
80 88 114
80 88 114
80 88 114
80 88 114
80 88 114
80 88 114
80 88 114
80 88 114
80 88 114
80 88 114
80 88 114
80 88 114
80 88 114
80 88 114
80 88 114
80 88 114
80 88 114
80 88 114
80 88 114
80 88 114
80 88 114
80 88 114
80 88 114
80 88 114
80 88 114
80 88 114
80 88 114
80 88 114
80 88 114
80 88 114
80 88 114
80 88 114
80 88 114
80 88 114
80 88 114
80 88 114
80 88 114
80 88 114
80 88 114
80 88 114
80 88 114
80 88 114
80 88 114
80 88 114
80 88 114
80 88 114
80 88 114
80 88 114
80 88 114
80 88 114
80 88 114
80 88 114
80 88 114
80 88 114
80 88 114
80 88 114
80 88 114
80 88 114
80 88 114
80 88 114
80 88 114
80 88 114
80 88 114
80 88 114
80 88 114
80 88 114
80 88 114
80 88 114
80 88 114
80 88 114
80 88 114
80 88 114
80 88 114
80 88 114
80 88 114
80 88 114
80 88 114
80 88 114
80 88 114
80 88 114
80 88 114
80 88 114
80 88 114
80 88 114
80 88 114
80 88 114
80 88 114
80 88 114
80 88 114
80 88 114
80 88 114
80 88 114
80 88 114
80 88 114
80 88 114
80 88 114
80 88 114
80 88 114
80 88 114
80 88 114
80 88 114
80 88 114
80 88 114
80 88 114
80 88 114
80 88 114
80 88 114
80 88 114
80 88 114
80 88 114
80 88 114
80 88 114
80 88 114
80 88 114
80 88 114
80 88 114
80 88 114
80 88 114
80 88 114
80 88 114
80 88 114
80 88 114
80 88 114
80 88 114
80 88 114
80 88 114
80 88 114
80 88 114
80 88 114
80 88 114
80 88 114
80 88 114
80 88 114
80 88 114
80 88 114
80 88 114
80 88 114
80 88 114
80 88 114
80 88 114
80 88 114
80 88 114
80 88 114
80 88 114
80 88 114
80 88 114
80 88 114
80 88 114
80 88 114
80 88 114
80 88 114
80 88 114
80 88 114
80 88 114
80 88 114
80 88 114
80 88 114
80 88 114
80 88 114
80 88 114
80 88 114
80 88 114
80 88 114
80 88 114
80 88 114
80 88 114
80 88 114
80 88 114
80 88 114
80 88 114
80 88 114
80 88 114
80 88 114
80 88 114
80 88 114
80 88 114
80 88 114
80 88 114
80 88 114
80 88 114
80 88 114
80 88 114
80 88 114
80 88 114
80 88 114
80 88 114
80 88 114
80 88 114
80 88 114
80 88 114
80 88 114
80 88 114
80 88 114
80 88 114
80 88 114
80 88 114
80 88 114
80 88 114
80 88 114
80 88 114
80 88 114
80 88 114
80 88 114
80 88 114
80 88 114
80 88 114
80 88 114
80 88 114
80 88 114
80 88 114
80 88 114
80 88 114
80 88 114
80 88 114
80 88 114
80 88 114
80 88 114
80 88 114
80 88 114
80 88 114
80 88 114
80 88 114
80 88 114
80 88 114
80 88 114
80 88 114
80 88 114
80 88 114
80 88 114
80 88 114
80 88 114
80 88 114
80 88 114
80 88 114
80 88 114
80 88 114
80 88 114
80 88 114
80 88 114
80 88 114
80 88 114
80 88 114
80 88 114
80 88 114
80 88 114
80 88 114
80 88 114
80 88 114
80 88 114
80 88 114
80 88 114
80 88 114
80 88 114
80 88 114
80 88 114
80 88 114
80 88 114
80 88 114
80 88 114
80 88 114
80 88 114
80 88 114
80 88 114
80 88 114
80 88 114
80 88 114
80 88 114
80 88 114
80 88 114
80 88 114
80 88 114
80 88 114
80 88 114
80 88 114
80 88 114
80 88 114
80 88 114
80 88 114
80 88 114
80 88 114
80 88 114
80 88 114
80 88 114
80 88 114
80 88 114
80 88 114
80 88 114
80 88 114
80 88 114
80 88 114
80 88 114
80 88 114
80 88 114
80 88 114
80 88 114
80 88 114
80 88 114
80 88 114
80 88 114
80 88 114
80 88 114
80 88 114
80 88 114
80 88 114
80 88 114
80 88 114
80 88 114
80 88 114
80 88 114
80 88 114
80 88 114
80 88 114
80 88 114
80 88 114
80 88 114
80 88 114
80 88 114
80 88 114
80 88 114
80 88 114
80 88 114
80 88 114
80 88 114
80 88 114
80 88 114
80 88 114
80 88 114
80 88 114
80 88 114
80 88 114
80 88 114
80 88 114
80 88 114
80 88 114
80 88 114
80 88 114
80 88 114
80 88 114
80 88 114
80 88 114
80 88 114
80 88 114
80 88 114
80 88 114
80 88 114
80 88 114
80 88 114
80 88 114
80 88 114
80 88 114
80 88 114
80 88 114
80 88 114
80 88 114
80 88 114
80 88 114
80 88 114
80 88 114
80 88 114
80 88 114
80 88 114
80 88 114
80 88 114
80 88 114
80 88 114
80 88 114
80 88 114
80 88 114
80 88 114
80 88 114
80 88 114
80 88 114
80 88 114
80 88 114
80 88 114
80 88 114
80 88 114
80 88 114
80 88 114
80 88 114
80 88 114
80 88 114
80 88 114
80 88 114
80 88 114
80 88 114
80 88 114
80 88 114
80 88 114
80 88 114
80 88 114
80 88 114
80 88 114
80 88 114
80 88 114
80 88 114
80 88 114
80 88 114
80 88 114
80 88 114
80 88 114
80 88 114
80 88 114
80 88 114
80 88 114
80 88 114
80 88 114
80 88 114
80 88 114
80 88 114
80 88 114
80 88 114
80 88 114
80 88 114
80 88 114
80 88 114
80 88 114
80 88 114
80 88 114
80 88 114
80 88 114
80 88 114
80 88 114
80 88 114
80 88 114
80 88 114
80 88 114
80 88 114
80 88 114
80 88 114
80 88 114
80 88 114
80 88 114
80 88 114
80 88 114
80 88 114
80 88 114
80 88 114
80 88 114
80 88 114
80 88 114
80 88 114
80 88 114
80 88 114
80 88 114
80 88 114
80 88 114
80 88 114
80 88 114
80 88 114
80 88 114
80 88 114
80 88 114
80 88 114
80 88 114
80 88 114
80 88 114
80 88 114
80 88 114
80 88 114
80 88 114
80 88 114
80 88 114
80 88 114
80 88 114
80 88 114
80 88 114
80 88 114
80 88 114
80 88 114
80 88 114
80 88 114
80 88 114
80 88 114
80 88 114
80 88 114
80 88 114
80 88 114
80 88 114
80 88 114
80 88 114
80 88 114
80 88 114
80 88 114
80 88 114
80 88 114
80 88 114
80 88 114
80 88 114
80 88 114
80 88 114
80 88 114
80 88 114
80 88 114
80 88 114
80 88 114
80 88 114
80 88 114
80 88 114
80 88 114
80 88 114
80 88 114
80 88 114
80 88 114
80 88 114
80 88 114
80 88 114
80 88 114
80 88 114
80 88 114
80 88 114
80 88 114
80 88 114
80 88 114
80 88 114
80 88 114
80 88 114
80 88 114
80 88 114
80 88 114
80 88 114
80 88 114
80 88 114
80 88 114
80 88 114
80 88 114
80 88 114
80 88 114
80 88 114
80 88 114
80 88 114
80 88 114
80 88 114
80 88 114
80 88 114
80 88 114
80 88 114
80 88 114
80 88 114
80 88 114
80 88 114
80 88 114
80 88 114
80 88 114
80 88 114
80 88 114
80 88 114
80 88 114
80 88 114
80 88 114
80 88 114
80 88 114
80 88 114
80 88 114
80 88 114
80 88 114
80 88 114
80 88 114
80 88 114
80 88 114
80 88 114
80 88 114
80 88 114
80 88 114
80 88 114
80 88 114
80 88 114
80 88 114
80 88 114
80 88 114
80 88 114
80 88 114
80 88 114
80 88 114
80 88 114
80 88 114
80 88 114
80 88 114
80 88 114
80 88 114
80 88 114
80 88 114
80 88 114
80 88 114
80 88 114
80 88 114
80 88 114
80 88 114
80 88 114
80 88 114
80 88 114
80 88 114
80 88 114
80 88 114
80 88 114
80 88 114
80 88 114
80 88 114
80 88 114
80 88 114
80 88 114
80 88 114
80 88 114
80 88 114
80 88 114
80 88 114
80 88 114
80 88 114
80 88 114
80 88 114
80 88 114
80 88 114
80 88 114
80 88 114
80 88 114
80 88 114
80 88 114
80 88 114
80 88 114
80 88 114
80 88 114
80 88 114
80 88 114
80 88 114
80 88 114
80 88 114
80 88 114
80 88 114
80 88 114
80 88 114
80 88 114
80 88 114
80 88 114
80 88 114
80 88 114
80 88 114
80 88 114
80 88 114
80 88 114
80 88 114
80 88 114
80 88 114
80 88 114
80 88 114
80 88 114
80 88 114
80 88 114
80 88 114
80 88 114
80 88 114
80 88 114
80 88 114
80 88 114
80 88 114
80 88 114
80 88 114
80 88 114
80 88 114
80 88 114
80 88 114
80 88 114
80 88 114
80 88 114
80 88 114
80 88 114
80 88 114
80 88 114
80 88 114
80 88 114
80 88 114
80 88 114
80 88 114
80 88 114
80 88 114
80 88 114
80 88 114
80 88 114
80 88 114
80 88 114
80 88 114
80 88 114
80 88 114
80 88 114
80 88 114
80 88 114
80 88 114
80 88 114
80 88 114
80 88 114
80 88 114
80 88 114
80 88 114
80 88 114
80 88 114
80 88 114
80 88 114
80 88 114
80 88 114
80 88 114
80 88 114
80 88 114
80 88 114
80 88 114
80 88 114
80 88 114
80 88 114
80 88 114
80 88 114
80 88 114
80 88 114
80 88 114
80 88 114
80 88 114
80 88 114
80 88 114
80 88 114
80 88 114
80 88 114
80 88 114
80 88 114
80 88 114
80 88 114
80 88 114
80 88 114
80 88 114
80 88 114
80 88 114
80 88 114
80 88 114
80 88 114
80 88 114
80 88 114
80 88 114
80 88 114
80 88 114
80 88 114
80 88 114
80 88 114
80 88 114
80 88 114
80 88 114
80 88 114
80 88 114
80 88 114
80 88 114
80 88 114
80 88 114
80 88 114
80 88 114
80 88 114
80 88 114
80 88 114
80 88 114
80 88 114
80 88 114
80 88 114
80 88 114
80 88 114
80 88 114
80 88 114
80 88 114
80 88 114
80 88 114
80 88 114
80 88 114
80 88 114
80 88 114
80 88 114
80 88 114
80 88 114
80 88 114
80 88 114
80 88 114
80 88 114
80 88 114
80 88 114
80 88 114
80 88 114
80 88 114
80 88 114
80 88 114
80 88 114
80 88 114
80 88 114
80 88 114
80 88 114
80 88 114
80 88 114
80 88 114
80 88 114
80 88 114
80 88 114
80 88 114
80 88 114
80 88 114
80 88 114
80 88 114
80 88 114
80 88 114
80 88 114
80 88 114
80 88 114
80 88 114
80 88 114
80 88 114
80 88 114
80 88 114
80 88 114
80 88 114
80 88 114
80 88 114
80 88 114
80 88 114
80 88 114
80 88 114
80 88 114
80 88 114
80 88 114
80 88 114
80 88 114
80 88 114
80 88 114
80 88 114
80 88 114
80 88 114
80 88 114
80 88 114
80 88 114
80 88 114
80 88 114
80 88 114
80 88 114
80 88 114
80 88 114
80 88 114
80 88 114
80 88 114
80 88 114
80 88 114
80 88 114
80 88 114
80 88 114
80 88 114
80 88 114
80 88 114
80 88 114
80 88 114
80 88 114
80 88 114
80 88 114
80 88 114
80 88 114
80 88 114
80 88 114
80 88 114
80 88 114
80 88 114
80 88 114
80 88 114
80 88 114
80 88 114
80 88 114
80 88 114
80 88 114
80 88 114
80 88 114
80 88 114
80 88 114
80 88 114
80 88 114
80 88 114
80 88 114
80 88 114
80 88 114
80 88 114
80 88 114
80 88 114
80 88 114
80 88 114
80 88 114
80 88 114
80 88 114
80 88 114
80 88 114
80 88 114
80 88 114
80 88 114
80 88 114
80 88 114
80 88 114
80 88 114
80 88 114
80 88 114
80 88 114
80 88 114
80 88 114
80 88 114
80 88 114
80 88 114
80 88 114
80 88 114
80 88 114
80 88 114
80 88 114
80 88 114
80 88 114
80 88 114
80 88 114
80 88 114
80 88 114
80 88 114
80 88 114
80 88 114
80 88 114
80 88 114
80 88 114
80 88 114
80 88 114
80 88 114
80 88 114
80 88 114
80 88 114
80 88 114
80 88 114
80 88 114
80 88 114
80 88 114
80 88 114
80 88 114
80 88 114
80 88 114
80 88 114
80 88 114
80 88 114
80 88 114
80 88 114
80 88 114
80 88 114
80 88 114
80 88 114
80 88 114
80 88 114
80 88 114
80 88 114
80 88 114
80 88 114
80 88 114
80 88 114
80 88 114
80 88 114
80 88 114
80 88 114
80 88 114
80 88 114
80 88 114
80 88 114
80 88 114
80 88 114
80 88 114
80 88 114
80 88 114
80 88 114
80 88 114
80 88 114
80 88 114
80 88 114
80 88 114
80 88 114
80 88 114
80 88 114
80 88 114
80 88 114
80 88 114
80 88 114
80 88 114
80 88 114
80 88 114
80 88 114
80 88 114
80 88 114
80 88 114
80 88 114
80 88 114
80 88 114
80 88 114
80 88 114
80 88 114
80 88 114
80 88 114
80 88 114
80 88 114
80 88 114
80 88 114
80 88 114
80 88 114
80 88 114
80 88 114
80 88 114
80 88 114
80 88 114
80 88 114
80 88 114
80 88 114
80 88 114
80 88 114
80 88 114
80 88 114
80 88 114
80 88 114
80 88 114
80 88 114
80 88 114
80 88 114
80 88 114
80 88 114
80 88 114
80 88 114
80 88 114
80 88 114
80 88 114
80 88 114
80 88 114
80 88 114
80 88 114
80 88 114
80 88 114
80 88 114
80 88 114
80 88 114
80 88 114
80 88 114
80 88 114
80 88 114
80 88 114
80 88 114
80 88 114
80 88 114
80 88 114
80 88 114
80 88 114
80 88 114
80 88 114
80 88 114
80 88 114
80 88 114
80 88 114
80 88 114
80 88 114
80 88 114
80 88 114
80 88 114
80 88 114
80 88 114
80 88 114
80 88 114
80 88 114
80 88 114
80 88 114
80 88 114
80 88 114
80 88 114
80 88 114
80 88 114
80 88 114
80 88 114
80 88 114
80 88 114
80 88 114
80 88 114
80 88 114
80 88 114
80 88 114
80 88 114
80 88 114
80 88 114
80 88 114
80 88 114
80 88 114
80 88 114
80 88 114
80 88 114
80 88 114
80 88 114
80 88 114
80 88 114
80 88 114
80 88 114
80 88 114
80 88 114
80 88 114
80 88 114
80 88 114
80 88 114
80 88 114
80 88 114
80 88 114
80 88 114
80 88 114
80 88 114
80 88 114
80 88 114
80 88 114
80 88 114
80 88 114
80 88 114
80 88 114
80 88 114
80 88 114
80 88 114
80 88 114
80 88 114
80 88 114
80 88 114
80 88 114
80 88 114
80 88 114
80 88 114
80 88 114
80 88 114
80 88 114
80 88 114
80 88 114
80 88 114
80 88 114
80 88 114
80 88 114
80 88 114
80 88 114
80 88 114
80 88 114
80 88 114
80 88 114
80 88 114
80 88 114
80 88 114
80 88 114
80 88 114
80 88 114
80 88 114
80 88 114
80 88 114
80 88 114
80 88 114
80 88 114
80 88 114
80 88 114
80 88 114
80 88 114
80 88 114
80 88 114
80 88 114
80 88 114
80 88 114
80 88 114
80 88 114
80 88 114
80 88 114
80 88 114
80 88 114
80 88 114
80 88 114
80 88 114
80 88 114
80 88 114
80 88 114
80 88 114
80 88 114
80 88 114
80 88 114
80 88 114
80 88 114
80 88 114
80 88 114
80 88 114
80 88 114
80 88 114
80 88 114
80 88 114
80 88 114
80 88 114
80 88 114
80 88 114
80 88 114
80 88 114
80 88 114
80 88 114
80 88 114
80 88 114
80 88 114
80 88 114
80 88 114
80 88 114
80 88 114
80 88 114
80 88 114
80 88 114
80 88 114
80 88 114
80 88 114
80 88 114
80 88 114
80 88 114
80 88 114
80 88 114
80 88 114
80 88 114
80 88 114
80 88 114
80 88 114
80 88 114
80 88 114
80 88 114
80 88 114
80 88 114
80 88 114
80 88 114
80 88 114
80 88 114
80 88 114
80 88 114
80 88 114
80 88 114
80 88 114
80 88 114
80 88 114
80 88 114
80 88 114
80 88 114
80 88 114
80 88 114
80 88 114
80 88 114
80 88 114
80 88 114
80 88 114
80 88 114
80 88 114
80 88 114
80 88 114
80 88 114
80 88 114
80 88 114
80 88 114
80 88 114
80 88 114
80 88 114
80 88 114
80 88 114
80 88 114
80 88 114
80 88 114
80 88 114
80 88 114
80 88 114
80 88 114
80 88 114
80 88 114
80 88 114
80 88 114
80 88 114
80 88 114
80 88 114
80 88 114
80 88 114
80 88 114
80 88 114
80 88 114
80 88 114
80 88 114
80 88 114
80 88 114
80 88 114
80 88 114
80 88 114
80 88 114
80 88 114
80 88 114
80 88 114
80 88 114
80 88 114
80 88 114
80 88 114
80 88 114
80 88 114
80 88 114
80 88 114
80 88 114
80 88 114
80 88 114
80 88 114
80 88 114
80 88 114
80 88 114
80 88 114
80 88 114
80 88 114
80 88 114
80 88 114
80 88 114
80 88 114
80 88 114
80 88 114
80 88 114
80 88 114
80 88 114
80 88 114
80 88 114
80 88 114
80 88 114
80 88 114
80 88 114
80 88 114
80 88 114
80 88 114
80 88 114
80 88 114
80 88 114
80 88 114
80 88 114
80 88 114
80 88 114
80 88 114
80 88 114
80 88 114
80 88 114
80 88 114
80 88 114
80 88 114
80 88 114
80 88 114
80 88 114
80 88 114
80 88 114
80 88 114
80 88 114
80 88 114
80 88 114
80 88 114
80 88 114
80 88 114
80 88 114
80 88 114
80 88 114
80 88 114
80 88 114
80 88 114
80 88 114
80 88 114
80 88 114
80 88 114
80 88 114
80 88 114
80 88 114
80 88 114
80 88 114
80 88 114
80 88 114
80 88 114
80 88 114
80 88 114
80 88 114
80 88 114
80 88 114
80 88 114
80 88 114
80 88 114
80 88 114
80 88 114
80 88 114
80 88 114
80 88 114
80 88 114
80 88 114
80 88 114
80 88 114
80 88 114
80 88 114
80 88 114
80 88 114
80 88 114
80 88 114
80 88 114
80 88 114
80 88 114
80 88 114
80 88 114
80 88 114
80 88 114
80 88 114
80 88 114
80 88 114
80 88 114
80 88 114
80 88 114
80 88 114
80 88 114
80 88 114
80 88 114
80 88 114
80 88 114
80 88 114
80 88 114
80 88 114
80 88 114
80 88 114
80 88 114
80 88 114
80 88 114
80 88 114
80 88 114
80 88 114
80 88 114
80 88 114
80 88 114
80 88 114
80 88 114
80 88 114
80 88 114
80 88 114
80 88 114
80 88 114
80 88 114
80 88 114
80 88 114
80 88 114
80 88 114
80 88 114
80 88 114
80 88 114
80 88 114
80 88 114
80 88 114
80 88 114
80 88 114
80 88 114
80 88 114
80 88 114
80 88 114
80 88 114
80 88 114
80 88 114
80 88 114
80 88 114
80 88 114
80 88 114
80 88 114
80 88 114
80 88 114
80 88 114
80 88 114
80 88 114
80 88 114
80 88 114
80 88 114
80 88 114
80 88 114
80 88 114
80 88 114
80 88 114
80 88 114
80 88 114
80 88 114
80 88 114
80 88 114
80 88 114
80 88 114
80 88 114
80 88 114
80 88 114
80 88 114
80 88 114
80 88 114
80 88 114
80 88 114
80 88 114
80 88 114
80 88 114
80 88 114
80 88 114
80 88 114
80 88 114
80 88 114
80 88 114
80 88 114
80 88 114
80 88 114
80 88 114
80 88 114
80 88 114
80 88 114
80 88 114
80 88 114
80 88 114
80 88 114
80 88 114
80 88 114
80 88 114
80 88 114
80 88 114
80 88 114
80 88 114
80 88 114
80 88 114
80 88 114
80 88 114
80 88 114
80 88 114
80 88 114
80 88 114
80 88 114
80 88 114
80 88 114
80 88 114
80 88 114
80 88 114
80 88 114
80 88 114
80 88 114
80 88 114
80 88 114
80 88 114
80 88 114
80 88 114
80 88 114
80 88 114
80 88 114
80 88 114
80 88 114
80 88 114
80 88 114
80 88 114
80 88 114
80 88 114
80 88 114
80 88 114
80 88 114
80 88 114
80 88 114
80 88 114
80 88 114
80 88 114
80 88 114
80 88 114
80 88 114
80 88 114
80 88 114
80 88 114
80 88 114
80 88 114
80 88 114
80 88 114
80 88 114
80 88 114
80 88 114
80 88 114
80 88 114
80 88 114
80 88 114
80 88 114
80 88 114
80 88 114
80 88 114
80 88 114
80 88 114
80 88 114
80 88 114
80 88 114
80 88 114
80 88 114
80 88 114
80 88 114
80 88 114
80 88 114
80 88 114
80 88 114
80 88 114
80 88 114
80 88 114
80 88 114
80 88 114
80 88 114
80 88 114
80 88 114
80 88 114
80 88 114
80 88 114
80 88 114
80 88 114
80 88 114
80 88 114
80 88 114
80 88 114
80 88 114
80 88 114
80 88 114
80 88 114
80 88 114
80 88 114
80 88 114
80 88 114
80 88 114
80 88 114
80 88 114
80 88 114
80 88 114
80 88 114
80 88 114
80 88 114
80 88 114
80 88 114
80 88 114
80 88 114
80 88 114
80 88 114
80 88 114
80 88 114
80 88 114
80 88 114
80 88 114
80 88 114
80 88 114
80 88 114
80 88 114
80 88 114
80 88 114
80 88 114
80 88 114
80 88 114
80 88 114
80 88 114
80 88 114
80 88 114
80 88 114
80 88 114
80 88 114
80 88 114
80 88 114
80 88 114
80 88 114
80 88 114
80 88 114
80 88 114
80 88 114
80 88 114
80 88 114
80 88 114
80 88 114
80 88 114
80 88 114
80 88 114
80 88 114
80 88 114
80 88 114
80 88 114
80 88 114
80 88 114
80 88 114
80 88 114
80 88 114
80 88 114
80 88 114
80 88 114
80 88 114
80 88 114
80 88 114
80 88 114
80 88 114
80 88 114
80 88 114
80 88 114
80 88 114
80 88 114
80 88 114
80 88 114
80 88 114
80 88 114
80 88 114
80 88 114
80 88 114
80 88 114
80 88 114
80 88 114
80 88 114
80 88 114
80 88 114
80 88 114
80 88 114
80 88 114
80 88 114
80 88 114
80 88 114
80 88 114
80 88 114
80 88 114
80 88 114
80 88 114
80 88 114
80 88 114
80 88 114
80 88 114
80 88 114
80 88 114
80 88 114
80 88 114
80 88 114
80 88 114
80 88 114
80 88 114
80 88 114
80 88 114
80 88 114
80 88 114
80 88 114
80 88 114
80 88 114
80 88 114
80 88 114
80 88 114
80 88 114
80 88 114
80 88 114
80 88 114
80 88 114
80 88 114
80 88 114
80 88 114
80 88 114
80 88 114
80 88 114
80 88 114
80 88 114
80 88 114
80 88 114
80 88 114
80 88 114
80 88 114
80 88 114
80 88 114
80 88 114
80 88 114
80 88 114
80 88 114
80 88 114
80 88 114
80 88 114
80 88 114
80 88 114
80 88 114
80 88 114
80 88 114
80 88 114
80 88 114
80 88 114
80 88 114
80 88 114
80 88 114
80 88 114
80 88 114
80 88 114
80 88 114
80 88 114
80 88 114
80 88 114
80 88 114
80 88 114
80 88 114
80 88 114
80 88 114
80 88 114
80 88 114
80 88 114
80 88 114
80 88 114
80 88 114
80 88 114
80 88 114
80 88 114
80 88 114
80 88 114
80 88 114
80 88 114
80 88 114
80 88 114
80 88 114
80 88 114
80 88 114
80 88 114
80 88 114
80 88 114
80 88 114
80 88 114
80 88 114
80 88 114
80 88 114
80 88 114
80 88 114
80 88 114
80 88 114
80 88 114
80 88 114
80 88 114
80 88 114
80 88 114
80 88 114
80 88 114
80 88 114
80 88 114
80 88 114
80 88 114
80 88 114
80 88 114
80 88 114
80 88 114
80 88 114
80 88 114
80 88 114
80 88 114
80 88 114
80 88 114
80 88 114
80 88 114
80 88 114
80 88 114
80 88 114
80 88 114
80 88 114
80 88 114
80 88 114
80 88 114
80 88 114
80 88 114
80 88 114
80 88 114
80 88 114
80 88 114
80 88 114
80 88 114
80 88 114
80 88 114
80 88 114
80 88 114
80 88 114
80 88 114
80 88 114
80 88 114
80 88 114
80 88 114
80 88 114
80 88 114
80 88 114
80 88 114
80 88 114
80 88 114
80 88 114
80 88 114
80 88 114
80 88 114
80 88 114
80 88 114
80 88 114
80 88 114
80 88 114
80 88 114
80 88 114
80 88 114
80 88 114
80 88 114
80 88 114
80 88 114
80 88 114
80 88 114
80 88 114
80 88 114
80 88 114
80 88 114
80 88 114
80 88 114
80 88 114
80 88 114
80 88 114
80 88 114
80 88 114
80 88 114
80 88 114
80 88 114
80 88 114
80 88 114
80 88 114
80 88 114
80 88 114
80 88 114
80 88 114
80 88 114
80 88 114
80 88 114
80 88 114
80 88 114
80 88 114
80 88 114
80 88 114
80 88 114
80 88 114
80 88 114
80 88 114
80 88 114
80 88 114
80 88 114
80 88 114
80 88 114
80 88 114
80 88 114
80 88 114
80 88 114
80 88 114
80 88 114
80 88 114
80 88 114
80 88 114
80 88 114
80 88 114
80 88 114
80 88 114
80 88 114
80 88 114
80 88 114
80 88 114
80 88 114
80 88 114
80 88 114
80 88 114
80 88 114
80 88 114
80 88 114
80 88 114
80 88 114
80 88 114
80 88 114
80 88 114
80 88 114
80 88 114
80 88 114
80 88 114
80 88 114
80 88 114
80 88 114
80 88 114
80 88 114
80 88 114
80 88 114
80 88 114
80 88 114
80 88 114
80 88 114
80 88 114
80 88 114
80 88 114
80 88 114
80 88 114
80 88 114
80 88 114
80 88 114
80 88 114
80 88 114
80 88 114
80 88 114
80 88 114
80 88 114
80 88 114
80 88 114
80 88 114
80 88 114
80 88 114
80 88 114
80 88 114
80 88 114
80 88 114
80 88 114
80 88 114
80 88 114
80 88 114
80 88 114
80 88 114
80 88 114
80 88 114
80 88 114
80 88 114
80 88 114
80 88 114
80 88 114
80 88 114
80 88 114
80 88 114
80 88 114
80 88 114
80 88 114
80 88 114
80 88 114
80 88 114
80 88 114
80 88 114
80 88 114
80 88 114
80 88 114
80 88 114
80 88 114
80 88 114
80 88 114
80 88 114
80 88 114
80 88 114
80 88 114
80 88 114
80 88 114
80 88 114
80 88 114
80 88 114
80 88 114
80 88 114
80 88 114
80 88 114
80 88 114
80 88 114
80 88 114
80 88 114
80 88 114
80 88 114
80 88 114
80 88 114
80 88 114
80 88 114
80 88 114
80 88 114
80 88 114
80 88 114
80 88 114
80 88 114
80 88 114
80 88 114
80 88 114
80 88 114
80 88 114
80 88 114
80 88 114
80 88 114
80 88 114
80 88 114
80 88 114
80 88 114
80 88 114
80 88 114
80 88 114
80 88 114
80 88 114
80 88 114
80 88 114
80 88 114
80 88 114
80 88 114
80 88 114
80 88 114
80 88 114
80 88 114
80 88 114
80 88 114
80 88 114
80 88 114
80 88 114
80 88 114
80 88 114
80 88 114
80 88 114
80 88 114
80 88 114
80 88 114
80 88 114
80 88 114
80 88 114
80 88 114
80 88 114
80 88 114
80 88 114
80 88 114
80 88 114
80 88 114
80 88 114
80 88 114
80 88 114
80 88 114
80 88 114
80 88 114
80 88 114
80 88 114
80 88 114
80 88 114
80 88 114
80 88 114
80 88 114
80 88 114
80 88 114
80 88 114
80 88 114
80 88 114
80 88 114
80 88 114
80 88 114
80 88 114
80 88 114
80 88 114
80 88 114
80 88 114
80 88 114
80 88 114
80 88 114
80 88 114
80 88 114
80 88 114
80 88 114
80 88 114
80 88 114
80 88 114
80 88 114
80 88 114
80 88 114
80 88 114
80 88 114
80 88 114
80 88 114
80 88 114
80 88 114
80 88 114
80 88 114
80 88 114
80 88 114
80 88 114
80 88 114
80 88 114
80 88 114
80 88 114
80 88 114
80 88 114
80 88 114
80 88 114
80 88 114
80 88 114
80 88 114
80 88 114
80 88 114
80 88 114
80 88 114
80 88 114
80 88 114
80 88 114
80 88 114
80 88 114
80 88 114
80 88 114
80 88 114
80 88 114
80 88 114
80 88 114
80 88 114
80 88 114
80 88 114
80 88 114
80 88 114
80 88 114
80 88 114
80 88 114
80 88 114
80 88 114
80 88 114
80 88 114
80 88 114
80 88 114
80 88 114
80 88 114
80 88 114
80 88 114
80 88 114
80 88 114
80 88 114
80 88 114
80 88 114
80 88 114
80 88 114
80 88 114
80 88 114
80 88 114
80 88 114
80 88 114
80 88 114
80 88 114
80 88 114
80 88 114
80 88 114
80 88 114
80 88 114
80 88 114
80 88 114
80 88 114
80 88 114
80 88 114
80 88 114
80 88 114
80 88 114
80 88 114
80 88 114
80 88 114
80 88 114
80 88 114
80 88 114
80 88 114
80 88 114
80 88 114
80 88 114
80 88 114
80 88 114
80 88 114
80 88 114
80 88 114
80 88 114
80 88 114
80 88 114
80 88 114
80 88 114
80 88 114
80 88 114
80 88 114
80 88 114
80 88 114
80 88 114
80 88 114
80 88 114
80 88 114
80 88 114
80 88 114
80 88 114
80 88 114
80 88 114
80 88 114
80 88 114
80 88 114
80 88 114
80 88 114
80 88 114
80 88 114
80 88 114
80 88 114
80 88 114
80 88 114
80 88 114
80 88 114
80 88 114
80 88 114
80 88 114
80 88 114
80 88 114
80 88 114
80 88 114
80 88 114
80 88 114
80 88 114
80 88 114
80 88 114
80 88 114
80 88 114
80 88 114
80 88 114
80 88 114
80 88 114
80 88 114
80 88 114
80 88 114
80 88 114
80 88 114
80 88 114
80 88 114
80 88 114
80 88 114
80 88 114
80 88 114
80 88 114
80 88 114
80 88 114
80 88 114
80 88 114
80 88 114
80 88 114
80 88 114
80 88 114
80 88 114
80 88 114
80 88 114
80 88 114
80 88 114
80 88 114
80 88 114
80 88 114
80 88 114
80 88 114
80 88 114
80 88 114
80 88 114
80 88 114
80 88 114
80 88 114
80 88 114
80 88 114
80 88 114
80 88 114
80 88 114
80 88 114
80 88 114
80 88 114
80 88 114
80 88 114
80 88 114
80 88 114
80 88 114
80 88 114
80 88 114
80 88 114
80 88 114
80 88 114
80 88 114
80 88 114
80 88 114
80 88 114
80 88 114
80 88 114
80 88 114
80 88 114
80 88 114
80 88 114
80 88 114
80 88 114
80 88 114
80 88 114
80 88 114
80 88 114
80 88 114
80 88 114
80 88 114
80 88 114
80 88 114
80 88 114
80 88 114
80 88 114
80 88 114
80 88 114
80 88 114
80 88 114
80 88 114
80 88 114
80 88 114
80 88 114
80 88 114
80 88 114
80 88 114
80 88 114
80 88 114
80 88 114
80 88 114
80 88 114
80 88 114
80 88 114
80 88 114
80 88 114
80 88 114
80 88 114
80 88 114
80 88 114
80 88 114
80 88 114
80 88 114
80 88 114
80 88 114
80 88 114
80 88 114
80 88 114
80 88 114
80 88 114
80 88 114
80 88 114
80 88 114
80 88 114
80 88 114
80 88 114
80 88 114
80 88 114
80 88 114
80 88 114
80 88 114
80 88 114
80 88 114
80 88 114
80 88 114
80 88 114
80 88 114
80 88 114
80 88 114
80 88 114
80 88 114
80 88 114
80 88 114
80 88 114
80 88 114
80 88 114
80 88 114
80 88 114
80 88 114
80 88 114
80 88 114
80 88 114
80 88 114
80 88 114
80 88 114
80 88 114
80 88 114
80 88 114
80 88 114
80 88 114
80 88 114
80 88 114
80 88 114
80 88 114
80 88 114
80 88 114
80 88 114
80 88 114
80 88 114
80 88 114
80 88 114
80 88 114
80 88 114
80 88 114
80 88 114
80 88 114
80 88 114
80 88 114
80 88 114
80 88 114
80 88 114
80 88 114
80 88 114
80 88 114
80 88 114
80 88 114
80 88 114
80 88 114
80 88 114
80 88 114
80 88 114
80 88 114
80 88 114
80 88 114
80 88 114
80 88 114
80 88 114
80 88 114
80 88 114
80 88 114
80 88 114
80 88 114
80 88 114
80 88 114
80 88 114
80 88 114
80 88 114
80 88 114
80 88 114
80 88 114
80 88 114
80 88 114
80 88 114
80 88 114
80 88 114
80 88 114
80 88 114
80 88 114
80 88 114
80 88 114
80 88 114
80 88 114
80 88 114
80 88 114
80 88 114
80 88 114
80 88 114
80 88 114
80 88 114
80 88 114
80 88 114
80 88 114
80 88 114
80 88 114
80 88 114
80 88 114
80 88 114
80 88 114
80 88 114
80 88 114
80 88 114
80 88 114
80 88 114
80 88 114
80 88 114
80 88 114
80 88 114
80 88 114
80 88 114
80 88 114
80 88 114
80 88 114
80 88 114
80 88 114
80 88 114
80 88 114
80 88 114
80 88 114
80 88 114
80 88 114
80 88 114
80 88 114
80 88 114
80 88 114
80 88 114
80 88 114
80 88 114
80 88 114
80 88 114
80 88 114
80 88 114
80 88 114
80 88 114
80 88 114
80 88 114
80 88 114
80 88 114
80 88 114
80 88 114
80 88 114
80 88 114
80 88 114
80 88 114
80 88 114
80 88 114
80 88 114
80 88 114
80 88 114
80 88 114
80 88 114
80 88 114
80 88 114
80 88 114
80 88 114
80 88 114
80 88 114
80 88 114
80 88 114
80 88 114
80 88 114
80 88 114
80 88 114
80 88 114
80 88 114
80 88 114
80 88 114
80 88 114
80 88 114
80 88 114
80 88 114
80 88 114
80 88 114
80 88 114
80 88 114
80 88 114
80 88 114
80 88 114
80 88 114
80 88 114
80 88 114
80 88 114
80 88 114
80 88 114
80 88 114
80 88 114
80 88 114
80 88 114
80 88 114
80 88 114
80 88 114
80 88 114
80 88 114
80 88 114
80 88 114
80 88 114
80 88 114
80 88 114
80 88 114
80 88 114
80 88 114
80 88 114
80 88 114
80 88 114
80 88 114
80 88 114
80 88 114
80 88 114
80 88 114
80 88 114
80 88 114
80 88 114
80 88 114
80 88 114
80 88 114
80 88 114
80 88 114
80 88 114
80 88 114
80 88 114
80 88 114
80 88 114
80 88 114
80 88 114
80 88 114
80 88 114
80 88 114
80 88 114
80 88 114
80 88 114
80 88 114
80 88 114
80 88 114
80 88 114
80 88 114
80 88 114
80 88 114
80 88 114
80 88 114
80 88 114
80 88 114
80 88 114
80 88 114
80 88 114
80 88 114
80 88 114
80 88 114
80 88 114
80 88 114
80 88 114
80 88 114
80 88 114
80 88 114
80 88 114
80 88 114
80 88 114
80 88 114
80 88 114
80 88 114
80 88 114
80 88 114
80 88 114
80 88 114
80 88 114
80 88 114
80 88 114
80 88 114
80 88 114
80 88 114
80 88 114
80 88 114
80 88 114
80 88 114
80 88 114
80 88 114
80 88 114
80 88 114
80 88 114
80 88 114
80 88 114
80 88 114
80 88 114
80 88 114
80 88 114
80 88 114
80 88 114
80 88 114
80 88 114
80 88 114
80 88 114
80 88 114
80 88 114
80 88 114
80 88 114
80 88 114
80 88 114
80 88 114
80 88 114
80 88 114
80 88 114
80 88 114
80 88 114
80 88 114
80 88 114
80 88 114
80 88 114
80 88 114
80 88 114
80 88 114
80 88 114
80 88 114
80 88 114
80 88 114
80 88 114
80 88 114
80 88 114
80 88 114
80 88 114
80 88 114
80 88 114
80 88 114
80 88 114
80 88 114
80 88 114
80 88 114
80 88 114
80 88 114
80 88 114
80 88 114
80 88 114
80 88 114
80 88 114
80 88 114
80 88 114
80 88 114
80 88 114
80 88 114
80 88 114
80 88 114
80 88 114
80 88 114
80 88 114
80 88 114
80 88 114
80 88 114
80 88 114
80 88 114
80 88 114
80 88 114
80 88 114
80 88 114
80 88 114
80 88 114
80 88 114
80 88 114
80 88 114
80 88 114
80 88 114
80 88 114
80 88 114
80 88 114
80 88 114
80 88 114
80 88 114
80 88 114
80 88 114
80 88 114
80 88 114
80 88 114
80 88 114
80 88 114
80 88 114
80 88 114
80 88 114
80 88 114
80 88 114
80 88 114
80 88 114
80 88 114
80 88 114
80 88 114
80 88 114
80 88 114
80 88 114
80 88 114
80 88 114
80 88 114
80 88 114
80 88 114
80 88 114
80 88 114
80 88 114
80 88 114
80 88 114
80 88 114
80 88 114
80 88 114
80 88 114
80 88 114
80 88 114
80 88 114
80 88 114
80 88 114
80 88 114
80 88 114
80 88 114
80 88 114
80 88 114
80 88 114
80 88 114
80 88 114
80 88 114
80 88 114
80 88 114
80 88 114
80 88 114
80 88 114
80 88 114
80 88 114
80 88 114
80 88 114
80 88 114
80 88 114
80 88 114
80 88 114
80 88 114
80 88 114
80 88 114
80 88 114
80 88 114
80 88 114
80 88 114
80 88 114
80 88 114
80 88 114
80 88 114
80 88 114
80 88 114
80 88 114
80 88 114
80 88 114
80 88 114
80 88 114
80 88 114
80 88 114
80 88 114
80 88 114
80 88 114
80 88 114
80 88 114
80 88 114
80 88 114
80 88 114
80 88 114
80 88 114
80 88 114
80 88 114
80 88 114
80 88 114
80 88 114
80 88 114
80 88 114
80 88 114
80 88 114
80 88 114
80 88 114
80 88 114
80 88 114
80 88 114
80 88 114
80 88 114
80 88 114
80 88 114
80 88 114
80 88 114
80 88 114
80 88 114
80 88 114
80 88 114
80 88 114
80 88 114
80 88 114
80 88 114
80 88 114
80 88 114
80 88 114
80 88 114
80 88 114
80 88 114
80 88 114
80 88 114
80 88 114
80 88 114
80 88 114
80 88 114
80 88 114
80 88 114
80 88 114
80 88 114
80 88 114
80 88 114
80 88 114
80 88 114
80 88 114
80 88 114
80 88 114
80 88 114
80 88 114
80 88 114
80 88 114
80 88 114
80 88 114
80 88 114
80 88 114
80 88 114
80 88 114
80 88 114
80 88 114
80 88 114
80 88 114
80 88 114
80 88 114
80 88 114
80 88 114
80 88 114
80 88 114
80 88 114
80 88 114
80 88 114
80 88 114
80 88 114
80 88 114
80 88 114
80 88 114
80 88 114
80 88 114
80 88 114
80 88 114
80 88 114
80 88 114
80 88 114
80 88 114
80 88 114
80 88 114
80 88 114
80 88 114
80 88 114
80 88 114
80 88 114
80 88 114
80 88 114
80 88 114
80 88 114
80 88 114
80 88 114
80 88 114
80 88 114
80 88 114
80 88 114
80 88 114
80 88 114
80 88 114
80 88 114
80 88 114
80 88 114
80 88 114
80 88 114
80 88 114
80 88 114
80 88 114
80 88 114
80 88 114
80 88 114
80 88 114
80 88 114
80 88 114
80 88 114
80 88 114
80 88 114
80 88 114
80 88 114
80 88 114
80 88 114
80 88 114
80 88 114
80 88 114
80 88 114
80 88 114
80 88 114
80 88 114
80 88 114
80 88 114
80 88 114
80 88 114
80 88 114
80 88 114
80 88 114
80 88 114
80 88 114
80 88 114
80 88 114
80 88 114
80 88 114
80 88 114
80 88 114
80 88 114
80 88 114
80 88 114
80 88 114
80 88 114
80 88 114
80 88 114
80 88 114
80 88 114
80 88 114
80 88 114
80 88 114
80 88 114
80 88 114
80 88 114
80 88 114
80 88 114
80 88 114
80 88 114
80 88 114
80 88 114
80 88 114
80 88 114
80 88 114
80 88 114
80 88 114
80 88 114
80 88 114
80 88 114
80 88 114
80 88 114
80 88 114
80 88 114
80 88 114
80 88 114
80 88 114
80 88 114
80 88 114
80 88 114
80 88 114
80 88 114
80 88 114
80 88 114
80 88 114
80 88 114
80 88 114
80 88 114
80 88 114
80 88 114
80 88 114
80 88 114
80 88 114
80 88 114
80 88 114
80 88 114
80 88 114
80 88 114
80 88 114
80 88 114
80 88 114
80 88 114
80 88 114
80 88 114
80 88 114
80 88 114
80 88 114
80 88 114
80 88 114
80 88 114
80 88 114
80 88 114
80 88 114
80 88 114
80 88 114
80 88 114
80 88 114
80 88 114
80 88 114
80 88 114
80 88 114
80 88 114
80 88 114
80 88 114
80 88 114
80 88 114
80 88 114
80 88 114
80 88 114
80 88 114
80 88 114
80 88 114
80 88 114
80 88 114
80 88 114
80 88 114
80 88 114
80 88 114
80 88 114
80 88 114
80 88 114
80 88 114
80 88 114
80 88 114
80 88 114
80 88 114
80 88 114
80 88 114
80 88 114
80 88 114
80 88 114
80 88 114
80 88 114
80 88 114
80 88 114
80 88 114
80 88 114
80 88 114
80 88 114
80 88 114
80 88 114
80 88 114
80 88 114
80 88 114
80 88 114
80 88 114
80 88 114
80 88 114
80 88 114
80 88 114
80 88 114
80 88 114
80 88 114
80 88 114
80 88 114
80 88 114
80 88 114
80 88 114
80 88 114
80 88 114
80 88 114
80 88 114
80 88 114
80 88 114
80 88 114
80 88 114
80 88 114
80 88 114
80 88 114
80 88 114
80 88 114
80 88 114
80 88 114
80 88 114
80 88 114
80 88 114
80 88 114
80 88 114
80 88 114
80 88 114
80 88 114
80 88 114
80 88 114
80 88 114
80 88 114
80 88 114
80 88 114
80 88 114
80 88 114
80 88 114
80 88 114
80 88 114
80 88 114
80 88 114
80 88 114
80 88 114
80 88 114
80 88 114
80 88 114
80 88 114
80 88 114
80 88 114
80 88 114
80 88 114
80 88 114
80 88 114
80 88 114
80 88 114
80 88 114
80 88 114
80 88 114
80 88 114
80 88 114
80 88 114
80 88 114
80 88 114
80 88 114
80 88 114
80 88 114
80 88 114
80 88 114
80 88 114
80 88 114
80 88 114
80 88 114
80 88 114
80 88 114
80 88 114
80 88 114
80 88 114
80 88 114
80 88 114
80 88 114
80 88 114
80 88 114
80 88 114
80 88 114
80 88 114
80 88 114
80 88 114
80 88 114
80 88 114
80 88 114
80 88 114
80 88 114
80 88 114
80 88 114
80 88 114
80 88 114
80 88 114
80 88 114
80 88 114
80 88 114
80 88 114
80 88 114
80 88 114
80 88 114
80 88 114
80 88 114
80 88 114
80 88 114
80 88 114
80 88 114
80 88 114
80 88 114
80 88 114
80 88 114
80 88 114
80 88 114
80 88 114
80 88 114
80 88 114
80 88 114
80 88 114
80 88 114
80 88 114
80 88 114
80 88 114
80 88 114
80 88 114
80 88 114
80 88 114
80 88 114
80 88 114
80 88 114
80 88 114
80 88 114
80 88 114
80 88 114
80 88 114
80 88 114
80 88 114
80 88 114
80 88 114
80 88 114
80 88 114
80 88 114
80 88 114
80 88 114
80 88 114
80 88 114
80 88 114
80 88 114
80 88 114
80 88 114
80 88 114
80 88 114
80 88 114
80 88 114
80 88 114
80 88 114
80 88 114
80 88 114
80 88 114
80 88 114
80 88 114
80 88 114
80 88 114
80 88 114
80 88 114
80 88 114
80 88 114
80 88 114
80 88 114
80 88 114
80 88 114
80 88 114
80 88 114
80 88 114
80 88 114
80 88 114
80 88 114
80 88 114
80 88 114
80 88 114
80 88 114
80 88 114
80 88 114
80 88 114
80 88 114
80 88 114
80 88 114
80 88 114
80 88 114
80 88 114
80 88 114
80 88 114
80 88 114
80 88 114
80 88 114
80 88 114
80 88 114
80 88 114
80 88 114
80 88 114
80 88 114
80 88 114
80 88 114
80 88 114
80 88 114
80 88 114
80 88 114
80 88 114
80 88 114
80 88 114
80 88 114
80 88 114
80 88 114
80 88 114
80 88 114
80 88 114
80 88 114
80 88 114
80 88 114
80 88 114
80 88 114
80 88 114
80 88 114
80 88 114
80 88 114
80 88 114
80 88 114
80 88 114
80 88 114
80 88 114
80 88 114
80 88 114
80 88 114
80 88 114
80 88 114
80 88 114
80 88 114
80 88 114
80 88 114
80 88 114
80 88 114
80 88 114
80 88 114
80 88 114
80 88 114
80 88 114
80 88 114
80 88 114
80 88 114
80 88 114
80 88 114
80 88 114
80 88 114
80 88 114
80 88 114
80 88 114
80 88 114
80 88 114
80 88 114
80 88 114
80 88 114
80 88 114
80 88 114
80 88 114
80 88 114
80 88 114
80 88 114
80 88 114
80 88 114
80 88 114
80 88 114
80 88 114
80 88 114
80 88 114
80 88 114
80 88 114
80 88 114
80 88 114
80 88 114
80 88 114
80 88 114
80 88 114
80 88 114
80 88 114
80 88 114
80 88 114
80 88 114
80 88 114
80 88 114
80 88 114
80 88 114
80 88 114
80 88 114
80 88 114
80 88 114
80 88 114
80 88 114
80 88 114
80 88 114
80 88 114
80 88 114
80 88 114
80 88 114
80 88 114
80 88 114
80 88 114
80 88 114
80 88 114
80 88 114
80 88 114
80 88 114
80 88 114
80 88 114
80 88 114
80 88 114
80 88 114
80 88 114
80 88 114
80 88 114
80 88 114
80 88 114
80 88 114
80 88 114
80 88 114
80 88 114
80 88 114
80 88 114
80 88 114
80 88 114
80 88 114
80 88 114
80 88 114
80 88 114
80 88 114
80 88 114
80 88 114
80 88 114
80 88 114
80 88 114
80 88 114
80 88 114
80 88 114
80 88 114
80 88 114
80 88 114
80 88 114
80 88 114
80 88 114
80 88 114
80 88 114
80 88 114
80 88 114
80 88 114
80 88 114
80 88 114
80 88 114
80 88 114
80 88 114
80 88 114
80 88 114
80 88 114
80 88 114
80 88 114
80 88 114
80 88 114
80 88 114
80 88 114
80 88 114
80 88 114
80 88 114
80 88 114
80 88 114
80 88 114
80 88 114
80 88 114
80 88 114
80 88 114
80 88 114
80 88 114
80 88 114
80 88 114
80 88 114
80 88 114
80 88 114
80 88 114
80 88 114
80 88 114
80 88 114
80 88 114
80 88 114
80 88 114
80 88 114
80 88 114
80 88 114
80 88 114
80 88 114
80 88 114
80 88 114
80 88 114
80 88 114
80 88 114
80 88 114
80 88 114
80 88 114
80 88 114
80 88 114
80 88 114
80 88 114
80 88 114
80 88 114
80 88 114
80 88 114
80 88 114
80 88 114
80 88 114
80 88 114
80 88 114
80 88 114
80 88 114
80 88 114
80 88 114
80 88 114
80 88 114
80 88 114
80 88 114
80 88 114
80 88 114
80 88 114
80 88 114
80 88 114
80 88 114
80 88 114
80 88 114
80 88 114
80 88 114
80 88 114
80 88 114
80 88 114
80 88 114
80 88 114
80 88 114
80 88 114
80 88 114
80 88 114
80 88 114
80 88 114
80 88 114
80 88 114
80 88 114
80 88 114
80 88 114
80 88 114
80 88 114
80 88 114
80 88 114
80 88 114
80 88 114
80 88 114
80 88 114
80 88 114
80 88 114
80 88 114
80 88 114
80 88 114
80 88 114
80 88 114
80 88 114
80 88 114
80 88 114
80 88 114
80 88 114
80 88 114
80 88 114
80 88 114
80 88 114
80 88 114
80 88 114
80 88 114
80 88 114
80 88 114
80 88 114
80 88 114
80 88 114
80 88 114
80 88 114
80 88 114
80 88 114
80 88 114
80 88 114
80 88 114
80 88 114
80 88 114
80 88 114
80 88 114
80 88 114
80 88 114
80 88 114
80 88 114
80 88 114
80 88 114
80 88 114
80 88 114
80 88 114
80 88 114
80 88 114
80 88 114
80 88 114
80 88 114
80 88 114
80 88 114
80 88 114
80 88 114
80 88 114
80 88 114
80 88 114
80 88 114
80 88 114
80 88 114
80 88 114
80 88 114
80 88 114
80 88 114
80 88 114
80 88 114
80 88 114
80 88 114
80 88 114
80 88 114
80 88 114
80 88 114
80 88 114
80 88 114
80 88 114
80 88 114
80 88 114
80 88 114
80 88 114
80 88 114
80 88 114
80 88 114
80 88 114
80 88 114
80 88 114
80 88 114
80 88 114
80 88 114
80 88 114
80 88 114
80 88 114
80 88 114
80 88 114
80 88 114
80 88 114
80 88 114
80 88 114
80 88 114
80 88 114
80 88 114
80 88 114
80 88 114
80 88 114
80 88 114
80 88 114
80 88 114
80 88 114
80 88 114
80 88 114
80 88 114
80 88 114
80 88 114
80 88 114
80 88 114
80 88 114
80 88 114
80 88 114
80 88 114
80 88 114
80 88 114
80 88 114
80 88 114
80 88 114
80 88 114
80 88 114
80 88 114
80 88 114
80 88 114
80 88 114
80 88 114
80 88 114
80 88 114
80 88 114
80 88 114
80 88 114
80 88 114
80 88 114
80 88 114
80 88 114
80 88 114
80 88 114
80 88 114
80 88 114
80 88 114
80 88 114
80 88 114
80 88 114
80 88 114
80 88 114
80 88 114
80 88 114
80 88 114
80 88 114
80 88 114
80 88 114
80 88 114
80 88 114
80 88 114
80 88 114
80 88 114
80 88 114
80 88 114
80 88 114
80 88 114
80 88 114
80 88 114
80 88 114
80 88 114
80 88 114
80 88 114
80 88 114
80 88 114
80 88 114
80 88 114
80 88 114
80 88 114
80 88 114
80 88 114
80 88 114
80 88 114
80 88 114
80 88 114
80 88 114
80 88 114
80 88 114
80 88 114
80 88 114
80 88 114
80 88 114
80 88 114
80 88 114
80 88 114
80 88 114
80 88 114
80 88 114
80 88 114
80 88 114
80 88 114
80 88 114
80 88 114
80 88 114
80 88 114
80 88 114
80 88 114
80 88 114
80 88 114
80 88 114
80 88 114
80 88 114
80 88 114
80 88 114
80 88 114
80 88 114
80 88 114
80 88 114
80 88 114
80 88 114
80 88 114
80 88 114
80 88 114
80 88 114
80 88 114
80 88 114
80 88 114
80 88 114
80 88 114
80 88 114
80 88 114
80 88 114
80 88 114
80 88 114
80 88 114
80 88 114
80 88 114
80 88 114
80 88 114
80 88 114
80 88 114
80 88 114
80 88 114
80 88 114
80 88 114
80 88 114
80 88 114
80 88 114
80 88 114
80 88 114
80 88 114
80 88 114
80 88 114
80 88 114
80 88 114
80 88 114
80 88 114
80 88 114
80 88 114
80 88 114
80 88 114
80 88 114
80 88 114
80 88 114
80 88 114
80 88 114
80 88 114
80 88 114
80 88 114
80 88 114
80 88 114
80 88 114
80 88 114
80 88 114
80 88 114
80 88 114
80 88 114
80 88 114
80 88 114
80 88 114
80 88 114
80 88 114
80 88 114
80 88 114
80 88 114
80 88 114
80 88 114
80 88 114
80 88 114
80 88 114
80 88 114
80 88 114
80 88 114
80 88 114
80 88 114
80 88 114
80 88 114
80 88 114
80 88 114
80 88 114
80 88 114
80 88 114
80 88 114
80 88 114
80 88 114
80 88 114
80 88 114
80 88 114
80 88 114
80 88 114
80 88 114
80 88 114
80 88 114
80 88 114
80 88 114
80 88 114
80 88 114
80 88 114
80 88 114
80 88 114
80 88 114
80 88 114
80 88 114
80 88 114
80 88 114
80 88 114
80 88 114
80 88 114
80 88 114
80 88 114
80 88 114
80 88 114
80 88 114
80 88 114
80 88 114
80 88 114
80 88 114
80 88 114
80 88 114
80 88 114
80 88 114
80 88 114
80 88 114
80 88 114
80 88 114
80 88 114
80 88 114
80 88 114
80 88 114
80 88 114
80 88 114
80 88 114
80 88 114
80 88 114
80 88 114
80 88 114
80 88 114
80 88 114
80 88 114
80 88 114
80 88 114
80 88 114
80 88 114
80 88 114
80 88 114
80 88 114
80 88 114
80 88 114
80 88 114
80 88 114
80 88 114
80 88 114
80 88 114
80 88 114
80 88 114
80 88 114
80 88 114
80 88 114
80 88 114
80 88 114
80 88 114
80 88 114
80 88 114
80 88 114
80 88 114
80 88 114
80 88 114
80 88 114
80 88 114
80 88 114
80 88 114
80 88 114
80 88 114
80 88 114
80 88 114
80 88 114
80 88 114
80 88 114
80 88 114
80 88 114
80 88 114
80 88 114
80 88 114
80 88 114
80 88 114
80 88 114
80 88 114
80 88 114
80 88 114
80 88 114
80 88 114
80 88 114
80 88 114
80 88 114
80 88 114
80 88 114
80 88 114
80 88 114
80 88 114
80 88 114
80 88 114
80 88 114
80 88 114
80 88 114
80 88 114
80 88 114
80 88 114
80 88 114
80 88 114
80 88 114
80 88 114
80 88 114
80 88 114
80 88 114
80 88 114
80 88 114
80 88 114
80 88 114
80 88 114
80 88 114
80 88 114
80 88 114
80 88 114
80 88 114
80 88 114
80 88 114
80 88 114
80 88 114
80 88 114
80 88 114
80 88 114
80 88 114
80 88 114
80 88 114
80 88 114
80 88 114
80 88 114
80 88 114
80 88 114
80 88 114
80 88 114
80 88 114
80 88 114
80 88 114
80 88 114
80 88 114
80 88 114
80 88 114
80 88 114
80 88 114
80 88 114
80 88 114
80 88 114
80 88 114
80 88 114
80 88 114
80 88 114
80 88 114
80 88 114
80 88 114
80 88 114
80 88 114
80 88 114
80 88 114
80 88 114
80 88 114
80 88 114
80 88 114
80 88 114
80 88 114
80 88 114
80 88 114
80 88 114
80 88 114
80 88 114
80 88 114
80 88 114
80 88 114
80 88 114
80 88 114
80 88 114
80 88 114
80 88 114
80 88 114
80 88 114
80 88 114
80 88 114
80 88 114
80 88 114
80 88 114
80 88 114
80 88 114
80 88 114
80 88 114
80 88 114
80 88 114
80 88 114
80 88 114
80 88 114
80 88 114
80 88 114
80 88 114
80 88 114
80 88 114
80 88 114
80 88 114
80 88 114
80 88 114
80 88 114
80 88 114
80 88 114
80 88 114
80 88 114
80 88 114
80 88 114
80 88 114
80 88 114
80 88 114
80 88 114
80 88 114
80 88 114
80 88 114
80 88 114
80 88 114
80 88 114
80 88 114
80 88 114
80 88 114
80 88 114
80 88 114
80 88 114
80 88 114
80 88 114
80 88 114
80 88 114
80 88 114
80 88 114
80 88 114
80 88 114
80 88 114
80 88 114
80 88 114
80 88 114
80 88 114
80 88 114
80 88 114
80 88 114
80 88 114
80 88 114
80 88 114
80 88 114
80 88 114
80 88 114
80 88 114
80 88 114
80 88 114
80 88 114
80 88 114
80 88 114
80 88 114
80 88 114
80 88 114
80 88 114
80 88 114
80 88 114
80 88 114
80 88 114
80 88 114
80 88 114
80 88 114
80 88 114
80 88 114
80 88 114
80 88 114
80 88 114
80 88 114
80 88 114
80 88 114
80 88 114
80 88 114
80 88 114
80 88 114
80 88 114
80 88 114
80 88 114
80 88 114
80 88 114
80 88 114
80 88 114
80 88 114
80 88 114
80 88 114
80 88 114
80 88 114
80 88 114
80 88 114
80 88 114
80 88 114
80 88 114
80 88 114
80 88 114
80 88 114
80 88 114
80 88 114
80 88 114
80 88 114
80 88 114
80 88 114
80 88 114
80 88 114
80 88 114
80 88 114
80 88 114
80 88 114
80 88 114
80 88 114
80 88 114
80 88 114
80 88 114
80 88 114
80 88 114
80 88 114
80 88 114
80 88 114
80 88 114
80 88 114
80 88 114
80 88 114
80 88 114
80 88 114
80 88 114
80 88 114
80 88 114
80 88 114
80 88 114
80 88 114
80 88 114
80 88 114
80 88 114
80 88 114
80 88 114
80 88 114
80 88 114
80 88 114
80 88 114
80 88 114
80 88 114
80 88 114
80 88 114
80 88 114
80 88 114
80 88 114
80 88 114
80 88 114
80 88 114
80 88 114
80 88 114
80 88 114
80 88 114
80 88 114
80 88 114
80 88 114
80 88 114
80 88 114
80 88 114
80 88 114
80 88 114
80 88 114
80 88 114
80 88 114
80 88 114
80 88 114
80 88 114
80 88 114
80 88 114
80 88 114
80 88 114
80 88 114
80 88 114
80 88 114
80 88 114
80 88 114
80 88 114
80 88 114
80 88 114
80 88 114
80 88 114
80 88 114
80 88 114
80 88 114
80 88 114
80 88 114
80 88 114
80 88 114
80 88 114
80 88 114
80 88 114
80 88 114
80 88 114
80 88 114
80 88 114
80 88 114
80 88 114
80 88 114
80 88 114
80 88 114
80 88 114
80 88 114
80 88 114
80 88 114
80 88 114
80 88 114
80 88 114
80 88 114
80 88 114
80 88 114
80 88 114
80 88 114
80 88 114
80 88 114
80 88 114
80 88 114
80 88 114
80 88 114
80 88 114
80 88 114
80 88 114
80 88 114
80 88 114
80 88 114
80 88 114
80 88 114
80 88 114
80 88 114
80 88 114
80 88 114
80 88 114
80 88 114
80 88 114
80 88 114
80 88 114
80 88 114
80 88 114
80 88 114
80 88 114
80 88 114
80 88 114
80 88 114
80 88 114
80 88 114
80 88 114
80 88 114
80 88 114
80 88 114
80 88 114
80 88 114
80 88 114
80 88 114
80 88 114
80 88 114
80 88 114
80 88 114
80 88 114
80 88 114
80 88 114
80 88 114
80 88 114
80 88 114
80 88 114
80 88 114
80 88 114
80 88 114
80 88 114
80 88 114
80 88 114
80 88 114
80 88 114
80 88 114
80 88 114
80 88 114
80 88 114
80 88 114
80 88 114
80 88 114
80 88 114
80 88 114
80 88 114
80 88 114
80 88 114
80 88 114
80 88 114
80 88 114
80 88 114
80 88 114
80 88 114
80 88 114
80 88 114
80 88 114
80 88 114
80 88 114
80 88 114
80 88 114
80 88 114
80 88 114
80 88 114
80 88 114
80 88 114
80 88 114
80 88 114
80 88 114
80 88 114
80 88 114
80 88 114
80 88 114
80 88 114
80 88 114
80 88 114
80 88 114
80 88 114
80 88 114
80 88 114
80 88 114
80 88 114
80 88 114
80 88 114
80 88 114
80 88 114
80 88 114
80 88 114
80 88 114
80 88 114
80 88 114
80 88 114
80 88 114
80 88 114
80 88 114
80 88 114
80 88 114
80 88 114
80 88 114
80 88 114
80 88 114
80 88 114
80 88 114
80 88 114
80 88 114
80 88 114
80 88 114
80 88 114
80 88 114
80 88 114
80 88 114
80 88 114
80 88 114
80 88 114
80 88 114
80 88 114
80 88 114
80 88 114
80 88 114
80 88 114
80 88 114
80 88 114
80 88 114
80 88 114
80 88 114
80 88 114
80 88 114
80 88 114
80 88 114
80 88 114
80 88 114
80 88 114
80 88 114
80 88 114
80 88 114
80 88 114
80 88 114
80 88 114
80 88 114
80 88 114
80 88 114
80 88 114
80 88 114
80 88 114
80 88 114
80 88 114
80 88 114
80 88 114
80 88 114
80 88 114
80 88 114
80 88 114
80 88 114
80 88 114
80 88 114
80 88 114
80 88 114
80 88 114
80 88 114
80 88 114
80 88 114
80 88 114
80 88 114
80 88 114
80 88 114
80 88 114
80 88 114
80 88 114
80 88 114
80 88 114
80 88 114
80 88 114
80 88 114
80 88 114
80 88 114
80 88 114
80 88 114
80 88 114
80 88 114
80 88 114
80 88 114
80 88 114
80 88 114
80 88 114
80 88 114
80 88 114
80 88 114
80 88 114
80 88 114
80 88 114
80 88 114
80 88 114
80 88 114
80 88 114
80 88 114
80 88 114
80 88 114
80 88 114
80 88 114
80 88 114
80 88 114
80 88 114
80 88 114
80 88 114
80 88 114
80 88 114
80 88 114
80 88 114
80 88 114
80 88 114
80 88 114
80 88 114
80 88 114
80 88 114
80 88 114
80 88 114
80 88 114
80 88 114
80 88 114
80 88 114
80 88 114
80 88 114
80 88 114
80 88 114
80 88 114
80 88 114
80 88 114
80 88 114
80 88 114
80 88 114
80 88 114
80 88 114
80 88 114
80 88 114
80 88 114
80 88 114
80 88 114
80 88 114
80 88 114
80 88 114
80 88 114
80 88 114
80 88 114
80 88 114
80 88 114
80 88 114
80 88 114
80 88 114
80 88 114
80 88 114
80 88 114
80 88 114
80 88 114
80 88 114
80 88 114
80 88 114
80 88 114
80 88 114
80 88 114
80 88 114
80 88 114
80 88 114
80 88 114
80 88 114
80 88 114
80 88 114
80 88 114
80 88 114
80 88 114
80 88 114
80 88 114
80 88 114
80 88 114
80 88 114
80 88 114
80 88 114
80 88 114
80 88 114
80 88 114
80 88 114
80 88 114
80 88 114
80 88 114
80 88 114
80 88 114
80 88 114
80 88 114
80 88 114
80 88 114
80 88 114
80 88 114
80 88 114
80 88 114
80 88 114
80 88 114
80 88 114
80 88 114
80 88 114
80 88 114
80 88 114
80 88 114
80 88 114
80 88 114
80 88 114
80 88 114
80 88 114
80 88 114
80 88 114
80 88 114
80 88 114
80 88 114
80 88 114
80 88 114
80 88 114
80 88 114
80 88 114
80 88 114
80 88 114
80 88 114
80 88 114
80 88 114
80 88 114
80 88 114
80 88 114
80 88 114
80 88 114
80 88 114
80 88 114
80 88 114
80 88 114
80 88 114
80 88 114
80 88 114
80 88 114
80 88 114
80 88 114
80 88 114
80 88 114
80 88 114
80 88 114
80 88 114
80 88 114
80 88 114
80 88 114
80 88 114
80 88 114
80 88 114
80 88 114
80 88 114
80 88 114
80 88 114
80 88 114
80 88 114
80 88 114
80 88 114
80 88 114
80 88 114
80 88 114
80 88 114
80 88 114
80 88 114
80 88 114
80 88 114
80 88 114
80 88 114
80 88 114
80 88 114
80 88 114
80 88 114
80 88 114
80 88 114
80 88 114
80 88 114
80 88 114
80 88 114
80 88 114
80 88 114
80 88 114
80 88 114
80 88 114
80 88 114
80 88 114
80 88 114
80 88 114
80 88 114
80 88 114
80 88 114
80 88 114
80 88 114
80 88 114
80 88 114
80 88 114
80 88 114
80 88 114
80 88 114
80 88 114
80 88 114
80 88 114
80 88 114
80 88 114
80 88 114
80 88 114
80 88 114
80 88 114
80 88 114
80 88 114
80 88 114
80 88 114
80 88 114
80 88 114
80 88 114
80 88 114
80 88 114
80 88 114
80 88 114
80 88 114
80 88 114
80 88 114
80 88 114
80 88 114
80 88 114
80 88 114
80 88 114
80 88 114
80 88 114
80 88 114
80 88 114
80 88 114
80 88 114
80 88 114
80 88 114
80 88 114
80 88 114
80 88 114
80 88 114
80 88 114
80 88 114
80 88 114
80 88 114
80 88 114
80 88 114
80 88 114
80 88 114
80 88 114
80 88 114
80 88 114
80 88 114
80 88 114
80 88 114
80 88 114
80 88 114
80 88 114
80 88 114
80 88 114
80 88 114
80 88 114
80 88 114
80 88 114
80 88 114
80 88 114
80 88 114
80 88 114
80 88 114
80 88 114
80 88 114
80 88 114
80 88 114
80 88 114
80 88 114
80 88 114
80 88 114
80 88 114
80 88 114
80 88 114
80 88 114
80 88 114
80 88 114
80 88 114
80 88 114
80 88 114
80 88 114
80 88 114
80 88 114
80 88 114
80 88 114
80 88 114
80 88 114
80 88 114
80 88 114
80 88 114
80 88 114
80 88 114
80 88 114
80 88 114
80 88 114
80 88 114
80 88 114
80 88 114
80 88 114
80 88 114
80 88 114
80 88 114
80 88 114
80 88 114
80 88 114
80 88 114
80 88 114
80 88 114
80 88 114
80 88 114
80 88 114
80 88 114
80 88 114
80 88 114
80 88 114
80 88 114
80 88 114
80 88 114
80 88 114
80 88 114
80 88 114
80 88 114
80 88 114
80 88 114
80 88 114
80 88 114
80 88 114
80 88 114
80 88 114
80 88 114
80 88 114
80 88 114
80 88 114
80 88 114
80 88 114
80 88 114
80 88 114
80 88 114
80 88 114
80 88 114
80 88 114
80 88 114
80 88 114
80 88 114
80 88 114
80 88 114
80 88 114
80 88 114
80 88 114
80 88 114
80 88 114
80 88 114
80 88 114
80 88 114
80 88 114
80 88 114
80 88 114
80 88 114
80 88 114
80 88 114
80 88 114
80 88 114
80 88 114
80 88 114
80 88 114
80 88 114
80 88 114
80 88 114
80 88 114
80 88 114
80 88 114
80 88 114
80 88 114
80 88 114
80 88 114
80 88 114
80 88 114
80 88 114
80 88 114
80 88 114
80 88 114
80 88 114
80 88 114
80 88 114
80 88 114
80 88 114
80 88 114
80 88 114
80 88 114
80 88 114
80 88 114
80 88 114
80 88 114
80 88 114
80 88 114
80 88 114
80 88 114
80 88 114
80 88 114
80 88 114
80 88 114
80 88 114
80 88 114
80 88 114
80 88 114
80 88 114
80 88 114
80 88 114
80 88 114
80 88 114
80 88 114
80 88 114
80 88 114
80 88 114
80 88 114
80 88 114
80 88 114
80 88 114
80 88 114
80 88 114
80 88 114
80 88 114
80 88 114
80 88 114
80 88 114
80 88 114
80 88 114
80 88 114
80 88 114
80 88 114
80 88 114
80 88 114
80 88 114
80 88 114
80 88 114
80 88 114
80 88 114
80 88 114
80 88 114
80 88 114
80 88 114
80 88 114
80 88 114
80 88 114
80 88 114
80 88 114
80 88 114
80 88 114
80 88 114
80 88 114
80 88 114
80 88 114
80 88 114
80 88 114
80 88 114
80 88 114
80 88 114
80 88 114
80 88 114
80 88 114
80 88 114
80 88 114
80 88 114
80 88 114
80 88 114
80 88 114
80 88 114
80 88 114
80 88 114
80 88 114
80 88 114
80 88 114
80 88 114
80 88 114
80 88 114
80 88 114
80 88 114
80 88 114
80 88 114
80 88 114
80 88 114
80 88 114
80 88 114
80 88 114
80 88 114
80 88 114
80 88 114
80 88 114
80 88 114
80 88 114
80 88 114
80 88 114
80 88 114
80 88 114
80 88 114
80 88 114
80 88 114
80 88 114
80 88 114
80 88 114
80 88 114
80 88 114
80 88 114
80 88 114
80 88 114
80 88 114
80 88 114
80 88 114
80 88 114
80 88 114
