P3
400 225
255
62 62 79
63 63 79
62 62 79
62 62 79
62 62 79
62 62 79
62 62 79
62 62 79
62 62 79
62 62 79
62 62 79
62 62 79
62 62 79
62 62 79
62 62 79
62 62 79
62 62 79
62 62 79
62 62 79
62 62 79
62 62 79
62 62 79
62 62 79
62 62 79
62 62 79
62 62 79
62 62 79
62 62 79
62 62 79
62 62 79
62 62 79
62 62 79
62 62 79
62 62 79
62 62 79
62 62 79
62 62 79
62 62 79
62 62 79
62 62 79
62 62 79
62 62 79
62 62 79
62 62 79
62 62 79
62 62 79
62 62 79
62 62 79
62 62 79
62 62 79
62 62 79
62 62 79
62 62 79
62 62 79
62 62 79
62 62 79
62 62 79
62 62 79
62 62 79
62 62 79
62 62 79
62 62 79
62 62 79
62 62 79
62 62 79
62 62 79
62 62 79
62 62 79
62 62 79
62 62 79
62 62 79
62 62 79
62 62 79
62 62 79
62 62 79
62 62 79
62 62 79
62 62 79
62 62 79
62 62 79
62 62 79
62 62 79
62 62 79
62 62 79
62 62 79
62 62 79
62 62 79
62 62 79
62 62 79
62 62 79
62 62 79
63 63 79
62 62 79
62 62 79
62 62 79
62 62 79
62 62 79
62 62 79
62 62 79
63 63 79
63 63 79
62 62 79
62 62 79
62 62 79
63 63 79
62 62 79
62 62 79
62 62 79
62 62 79
63 63 79
62 62 79
62 62 79
62 62 79
63 63 79
62 62 79
63 63 79
62 62 79
62 62 79
62 62 79
63 63 79
63 63 79
62 62 79
62 62 79
62 62 79
62 62 79
62 62 79
62 62 79
62 62 79
62 62 79
62 62 79
62 62 79
62 62 79
62 62 79
62 62 79
62 62 79
62 62 79
62 62 79
62 62 79
62 62 79
62 62 79
62 62 79
62 62 79
62 62 79
62 62 79
62 62 79
62 62 79
62 62 79
62 62 79
62 62 79
62 62 79
62 62 79
62 62 79
62 62 79
62 62 79
62 62 79
62 62 79
62 62 79
62 62 79
62 62 79
62 62 79
62 62 79
62 62 79
62 62 79
62 62 79
62 62 79
62 62 79
62 62 79
62 62 79
62 62 79
62 62 79
62 62 79
62 62 79
62 62 79
62 62 79
62 62 79
63 63 79
63 63 79
62 62 79
62 62 79
63 63 79
63 63 79
63 63 79
63 63 79
63 63 80
62 62 79
63 63 79
63 63 79
63 63 79
63 63 79
63 63 79
63 63 79
62 62 79
63 63 80
63 63 79
62 62 79
63 63 80
62 62 79
63 63 79
62 62 79
62 62 79
62 62 79
62 62 79
62 62 79
62 62 79
62 62 79
62 62 79
62 62 79
62 62 79
63 63 79
62 62 79
62 62 79
63 63 79
63 63 79
63 63 79
63 63 80
62 62 79
63 63 79
63 63 79
63 63 79
62 62 79
62 62 79
62 62 79
62 62 79
63 63 79
63 63 79
63 63 79
63 63 79
63 63 79
63 63 79
63 63 79
62 62 79
62 62 79
63 63 80
62 62 79
63 63 79
63 63 79
63 63 79
63 63 79
62 62 79
62 62 79
62 62 79
62 62 79
62 62 79
62 62 79
62 62 79
62 62 79
62 62 79
62 62 79
62 62 79
62 62 79
62 62 79
62 62 79
62 62 79
62 62 79
62 62 79
62 62 79
62 62 79
62 62 79
62 62 79
62 62 79
62 62 79
62 62 79
62 62 79
62 62 79
62 62 79
62 62 79
62 62 79
62 62 79
62 62 79
62 62 79
62 62 79
62 62 79
62 62 79
62 62 79
62 62 79
62 62 79
62 62 79
62 62 79
62 62 79
62 62 79
62 62 79
62 62 79
62 62 79
62 62 79
62 62 79
62 62 79
62 62 79
62 62 79
62 62 79
62 62 79
62 62 79
62 62 79
62 62 79
62 62 79
62 62 79
62 62 79
62 62 79
62 62 79
62 62 79
62 62 79
62 62 79
62 62 79
62 62 79
62 62 79
62 62 79
62 62 79
62 62 79
62 62 79
62 62 79
62 62 79
62 62 79
62 62 79
62 62 79
62 62 79
62 62 79
62 62 79
62 62 79
62 62 79
62 62 79
62 62 79
62 62 79
62 62 79
62 62 79
62 62 79
62 62 79
62 62 79
62 62 79
62 62 79
62 62 79
62 62 79
62 62 79
62 62 79
62 62 79
62 62 79
62 62 79
62 62 79
62 62 79
62 62 79
62 62 79
62 62 79
62 62 79
62 62 79
62 62 79
62 62 79
62 62 79
62 62 79
62 62 79
62 62 79
62 62 79
62 62 79
62 62 79
62 62 79
62 62 79
62 62 79
62 62 79
62 62 79
62 62 79
62 62 79
62 62 79
62 62 79
63 63 79
62 62 79
62 62 79
62 62 79
62 62 79
62 62 79
62 62 79
62 62 79
62 62 79
62 62 79
62 62 79
62 62 79
62 62 79
62 62 79
62 62 79
62 62 79
62 62 79
62 62 79
62 62 79
62 62 79
62 62 79
62 62 79
62 62 79
62 62 79
62 62 79
62 62 79
62 62 79
62 62 79
62 62 79
62 62 79
62 62 79
62 62 79
62 62 79
62 62 79
62 62 79
62 62 79
62 62 79
62 62 79
62 62 79
62 62 79
62 62 79
63 63 79
63 63 79
62 62 79
63 63 79
62 62 79
62 62 79
62 62 79
63 63 79
62 62 79
62 62 79
62 62 79
62 62 79
62 62 79
62 62 79
62 62 79
62 62 79
62 62 79
62 62 79
63 63 79
62 62 79
63 63 79
62 62 79
63 63 79
62 62 79
62 62 79
62 62 79
62 62 79
62 62 79
62 62 79
62 62 79
62 62 79
62 62 79
62 62 79
62 62 79
62 62 79
62 62 79
62 62 79
62 62 79
62 62 79
62 62 79
62 62 79
62 62 79
62 62 79
62 62 79
62 62 79
62 62 79
62 62 79
62 62 79
62 62 79
62 62 79
62 62 79
62 62 79
62 62 79
62 62 79
62 62 79
62 62 79
62 62 79
62 62 79
62 62 79
62 62 79
62 62 79
62 62 79
62 62 79
62 62 79
62 62 79
62 62 79
62 62 79
62 62 79
62 62 79
62 62 79
62 62 79
62 62 79
62 62 79
62 62 79
62 62 79
63 63 79
62 62 79
63 63 79
62 62 79
63 63 80
62 62 79
63 63 79
63 63 79
62 62 79
62 62 79
62 62 79
62 62 79
62 62 79
63 63 79
62 62 79
62 62 79
62 62 79
62 62 79
62 62 79
62 62 79
62 62 79
62 62 79
62 62 79
62 62 79
62 62 79
63 63 79
62 62 79
63 63 80
62 62 79
63 63 79
62 62 79
62 62 79
62 62 79
63 63 79
63 63 79
62 62 79
62 62 79
63 63 79
63 63 79
62 62 79
63 63 79
62 62 79
63 63 79
63 63 79
62 62 79
62 62 79
62 62 79
62 62 79
62 62 79
62 62 79
62 62 79
62 62 79
62 62 79
62 62 79
62 62 79
62 62 79
62 62 79
62 62 79
62 62 79
62 62 79
62 62 79
62 62 79
62 62 79
62 62 79
62 62 79
62 62 79
62 62 79
62 62 79
62 62 79
62 62 79
62 62 79
62 62 79
62 62 79
62 62 79
62 62 79
62 62 79
62 62 79
62 62 79
62 62 79
62 62 79
62 62 79
62 62 79
62 62 79
62 62 79
62 62 79
62 62 79
62 62 79
62 62 79
62 62 79
62 62 79
62 62 79
62 62 79
62 62 79
62 62 79
62 62 79
62 62 79
62 62 79
63 63 79
62 62 79
63 63 79
63 63 80
63 63 80
63 63 79
63 63 80
63 63 79
62 62 79
62 62 79
63 63 79
63 63 79
63 63 80
63 63 79
63 63 79
63 63 80
63 63 80
63 63 80
63 63 79
63 63 79
63 63 79
63 63 80
62 62 79
63 63 80
62 62 79
62 62 79
63 63 79
63 63 79
63 63 80
62 62 79
62 62 79
63 63 80
63 63 80
63 63 79
62 62 79
63 63 79
63 63 80
63 63 80
62 62 79
62 62 79
62 62 79
63 63 80
63 63 79
63 63 80
63 63 79
63 63 79
63 63 80
63 63 79
63 63 79
62 62 79
63 63 79
63 63 79
63 63 79
63 63 79
62 62 79
63 63 79
63 63 79
63 63 80
63 63 80
63 63 80
63 63 80
63 63 79
62 62 79
63 63 79
62 62 79
62 62 79
62 62 79
62 62 79
62 62 79
62 62 79
62 62 79
62 62 79
62 62 79
62 62 79
62 62 79
62 62 79
62 62 79
62 62 79
62 62 79
62 62 79
62 62 79
62 62 79
62 62 79
62 62 79
62 62 79
62 62 79
62 62 79
62 62 79
62 62 79
62 62 79
62 62 79
62 62 79
62 62 79
62 62 79
62 62 79
62 62 79
62 62 79
62 62 79
62 62 79
62 62 79
62 62 79
62 62 79
62 62 79
62 62 79
62 62 79
62 62 79
62 62 79
62 62 79
62 62 79
62 62 79
62 62 79
62 62 79
62 62 79
62 62 79
62 62 79
62 62 79
62 62 79
62 62 79
62 62 79
62 62 79
62 62 79
62 62 79
62 62 79
62 62 79
62 62 79
62 62 79
62 62 79
62 62 79
62 62 79
62 62 79
62 62 79
62 62 79
62 62 79
62 62 79
62 62 79
62 62 79
62 62 79
62 62 79
62 62 79
62 62 79
62 62 79
62 62 79
62 62 79
62 62 79
62 62 79
62 62 79
62 62 79
62 62 79
62 62 79
62 62 79
62 62 79
62 62 79
62 62 79
62 62 79
62 62 79
62 62 79
62 62 79
62 62 79
62 62 79
62 62 79
62 62 79
62 62 79
62 62 79
62 62 79
62 62 79
62 62 79
62 62 79
62 62 79
62 62 79
62 62 79
62 62 79
62 62 79
62 62 79
62 62 79
62 62 79
62 62 79
62 62 79
62 62 79
62 62 79
62 62 79
62 62 79
62 62 79
63 63 79
62 62 79
62 62 79
62 62 79
63 63 79
62 62 79
62 62 79
62 62 79
62 62 79
62 62 79
63 63 79
62 62 79
62 62 79
62 62 79
62 62 79
62 62 79
63 63 79
62 62 79
62 62 79
62 62 79
62 62 79
62 62 79
62 62 79
62 62 79
62 62 79
62 62 79
62 62 79
62 62 79
62 62 79
62 62 79
62 62 79
62 62 79
62 62 79
62 62 79
62 62 79
62 62 79
62 62 79
62 62 79
62 62 79
62 62 79
62 62 79
62 62 79
62 62 79
62 62 79
62 62 79
62 62 79
62 62 79
63 63 79
62 62 79
63 63 79
62 62 79
62 62 79
63 63 79
63 63 79
62 62 79
62 62 79
63 63 79
62 62 79
62 62 79
62 62 79
62 62 79
62 62 79
62 62 79
62 62 79
62 62 79
63 63 80
63 63 79
62 62 79
62 62 79
62 62 79
62 62 79
62 62 79
62 62 79
62 62 79
62 62 79
62 62 79
62 62 79
62 62 79
62 62 79
62 62 79
62 62 79
62 62 79
62 62 79
62 62 79
62 62 79
62 62 79
62 62 79
62 62 79
62 62 79
62 62 79
62 62 79
62 62 79
62 62 79
62 62 79
62 62 79
62 62 79
62 62 79
62 62 79
62 62 79
62 62 79
62 62 79
62 62 79
62 62 79
62 62 79
62 62 79
62 62 79
62 62 79
62 62 79
62 62 79
62 62 79
62 62 79
62 62 79
62 62 79
62 62 79
62 62 79
62 62 79
62 62 79
62 62 79
62 62 79
63 63 79
63 63 80
62 62 79
63 63 79
63 63 79
63 63 79
63 63 79
62 62 79
63 63 79
63 63 80
63 63 79
62 62 79
62 62 79
63 63 79
62 62 79
63 63 79
63 63 79
63 63 79
63 63 80
63 63 79
62 62 79
63 63 79
63 63 80
63 63 79
63 63 79
62 62 79
63 63 79
63 63 79
62 62 79
63 63 80
63 63 80
63 63 79
62 62 79
63 63 80
62 62 79
62 62 79
63 63 79
62 62 79
63 63 80
62 62 79
63 63 79
63 63 80
62 62 79
62 62 79
63 63 80
62 62 79
62 62 79
62 62 79
62 62 79
62 62 79
62 62 79
62 62 79
62 62 79
62 62 79
62 62 79
62 62 79
62 62 79
62 62 79
62 62 79
62 62 79
62 62 79
62 62 79
62 62 79
62 62 79
62 62 79
62 62 79
62 62 79
62 62 79
62 62 79
62 62 79
62 62 79
62 62 79
62 62 79
62 62 79
62 62 79
62 62 79
62 62 79
62 62 79
62 62 79
62 62 79
62 62 79
62 62 79
62 62 79
62 62 79
62 62 79
62 62 79
62 62 79
62 62 79
62 62 79
62 62 79
62 62 79
62 62 79
62 62 79
63 63 79
63 63 79
63 63 79
63 63 79
63 63 80
63 63 80
63 63 79
63 63 79
63 63 79
63 63 79
63 63 79
63 63 79
63 63 80
63 63 79
63 63 79
63 63 79
63 63 79
63 63 79
63 63 80
63 63 80
63 63 79
63 63 80
63 63 79
63 63 79
63 63 79
63 63 79
63 63 79
63 63 80
63 63 79
63 63 80
63 63 79
63 63 80
63 63 80
63 63 79
63 63 79
63 63 79
63 63 79
63 63 80
63 63 79
63 63 80
63 63 79
63 63 79
63 63 79
63 63 80
63 63 79
63 63 79
63 63 79
63 63 79
63 63 80
63 63 79
63 63 79
63 63 80
63 63 79
63 63 80
63 63 80
63 63 79
63 63 79
63 63 80
63 63 80
63 63 79
63 63 79
63 63 79
63 63 80
63 63 79
63 63 79
63 63 79
62 62 79
62 62 79
62 62 79
62 62 79
62 62 79
62 62 79
62 62 79
62 62 79
62 62 79
62 62 79
62 62 79
62 62 79
62 62 79
62 62 79
62 62 79
62 62 79
62 62 79
62 62 79
62 62 79
62 62 79
62 62 79
62 62 79
62 62 79
62 62 79
62 62 79
62 62 79
62 62 79
62 62 79
62 62 79
62 62 79
62 62 79
62 62 79
62 62 79
62 62 79
62 62 79
62 62 79
62 62 79
62 62 79
62 62 79
62 62 79
62 62 79
62 62 79
62 62 79
62 62 79
62 62 79
62 62 79
62 62 79
62 62 79
62 62 79
62 62 79
62 62 79
62 62 79
62 62 79
62 62 79
62 62 79
62 62 79
62 62 79
62 62 79
62 62 79
62 62 79
62 62 79
62 62 79
62 62 79
62 62 79
62 62 79
62 62 79
62 62 79
62 62 79
62 62 79
62 62 79
62 62 79
62 62 79
62 62 79
62 62 79
62 62 79
62 62 79
62 62 79
62 62 79
62 62 79
62 62 79
62 62 79
62 62 79
62 62 79
62 62 79
62 62 79
62 62 79
62 62 79
62 62 79
62 62 79
62 62 79
62 62 79
62 62 79
62 62 79
62 62 79
62 62 79
62 62 79
62 62 79
62 62 79
62 62 79
62 62 79
63 63 79
63 63 79
62 62 79
62 62 79
63 63 79
63 63 79
62 62 79
62 62 79
62 62 79
63 63 79
62 62 79
63 63 79
62 62 79
63 63 79
62 62 79
62 62 79
62 62 79
62 62 79
62 62 79
62 62 79
63 63 80
63 63 79
62 62 79
63 63 79
62 62 79
62 62 79
63 63 79
62 62 79
63 63 79
62 62 79
63 63 79
62 62 79
62 62 79
63 63 79
62 62 79
62 62 79
62 62 79
62 62 79
62 62 79
62 62 79
62 62 79
63 63 79
62 62 79
62 62 79
62 62 79
63 63 79
62 62 79
62 62 79
62 62 79
63 63 79
62 62 79
63 63 79
62 62 79
62 62 79
62 62 79
62 62 79
62 62 79
62 62 79
63 63 79
62 62 79
62 62 79
62 62 79
62 62 79
63 63 79
62 62 79
62 62 79
63 63 79
62 62 79
63 63 79
63 63 79
62 62 79
62 62 79
62 62 79
62 62 79
62 62 79
62 62 79
62 62 79
62 62 79
62 62 79
62 62 79
62 62 79
62 62 79
62 62 79
63 63 79
62 62 79
63 63 79
62 62 79
62 62 79
63 63 79
62 62 79
62 62 79
62 62 79
62 62 79
62 62 79
62 62 79
62 62 79
62 62 79
62 62 79
62 62 79
62 62 79
62 62 79
62 62 79
62 62 79
62 62 79
62 62 79
62 62 79
62 62 79
62 62 79
62 62 79
62 62 79
62 62 79
62 62 79
62 62 79
62 62 79
62 62 79
62 62 79
62 62 79
62 62 79
62 62 79
62 62 79
62 62 79
62 62 79
62 62 79
62 62 79
62 62 79
62 62 79
62 62 79
62 62 79
62 62 79
62 62 79
62 62 79
62 62 79
62 62 79
62 62 79
62 62 79
62 62 79
62 62 79
62 62 79
63 63 79
63 63 79
63 63 79
63 63 79
63 63 79
63 63 80
63 63 79
63 63 80
63 63 79
62 62 79
62 62 79
63 63 80
62 62 79
63 63 79
63 63 80
63 63 80
62 62 79
62 62 79
63 63 80
63 63 79
63 63 79
63 63 80
63 63 80
63 63 79
63 63 79
63 63 80
63 63 79
63 63 79
63 63 80
63 63 80
62 62 79
63 63 80
63 63 79
63 63 79
62 62 79
62 62 79
62 62 79
62 62 79
63 63 79
63 63 79
63 63 80
63 63 80
63 63 80
63 63 79
63 63 80
63 63 79
63 63 79
63 63 79
63 63 79
63 63 79
63 63 79
63 63 79
63 63 79
63 63 79
63 63 79
63 63 79
63 63 79
63 63 79
63 63 79
63 63 79
63 63 79
63 63 79
63 63 79
63 63 79
63 63 79
63 63 79
63 63 79
63 63 79
63 63 79
63 63 79
63 63 79
63 63 79
63 63 79
63 63 79
63 63 79
63 63 79
63 63 79
63 63 79
63 63 79
63 63 79
63 63 79
63 63 79
63 63 79
63 63 79
63 63 79
63 63 79
63 63 79
63 63 79
63 63 79
63 63 79
63 63 79
63 63 79
63 63 79
63 63 79
63 63 79
63 63 79
63 63 80
63 63 80
63 63 79
63 63 80
63 63 80
63 63 80
63 63 79
63 63 79
63 63 80
63 63 79
63 63 80
63 63 80
63 63 80
63 63 80
63 63 80
63 63 80
63 63 80
63 63 80
63 63 80
63 63 80
63 63 80
63 63 79
63 63 80
63 63 79
63 63 80
63 63 79
63 63 80
63 63 80
63 63 80
63 63 79
63 63 80
63 63 80
63 63 80
63 63 80
63 63 80
63 63 80
63 63 80
63 63 80
63 63 80
63 63 80
63 63 80
63 63 80
63 63 79
63 63 80
63 63 80
63 63 80
63 63 80
63 63 80
63 63 79
63 63 80
63 63 80
63 63 79
63 63 80
63 63 79
63 63 80
63 63 80
63 63 80
63 63 80
63 63 80
63 63 79
63 63 79
63 63 79
63 63 79
63 63 79
63 63 79
63 63 79
63 63 79
63 63 79
63 63 79
63 63 79
63 63 79
63 63 79
63 63 79
63 63 79
63 63 79
63 63 79
63 63 79
63 63 79
63 63 79
63 63 79
63 63 79
63 63 79
63 63 79
63 63 79
63 63 79
63 63 79
63 63 79
63 63 79
63 63 79
63 63 79
63 63 79
63 63 79
63 63 79
63 63 79
63 63 79
63 63 79
63 63 79
63 63 79
63 63 79
63 63 79
63 63 79
63 63 79
63 63 79
63 63 79
63 63 79
63 63 79
63 63 79
63 63 79
63 63 79
63 63 79
63 63 79
63 63 79
63 63 79
63 63 79
63 63 79
63 63 79
63 63 79
63 63 79
63 63 79
63 63 79
63 63 79
63 63 79
62 62 79
62 62 79
62 62 79
62 62 79
62 62 79
62 62 79
62 62 79
62 62 79
62 62 79
62 62 79
62 62 79
62 62 79
62 62 79
62 62 79
62 62 79
62 62 79
62 62 79
62 62 79
62 62 79
62 62 79
62 62 79
62 62 79
62 62 79
62 62 79
62 62 79
62 62 79
62 62 79
62 62 79
62 62 79
62 62 79
62 62 79
62 62 79
63 63 79
62 62 79
62 62 79
62 62 79
63 63 80
63 63 79
63 63 79
63 63 79
63 63 80
63 63 79
63 63 80
63 63 79
63 63 79
63 63 79
63 63 79
62 62 79
62 62 79
62 62 79
62 62 79
63 63 79
63 63 79
63 63 79
62 62 79
63 63 79
62 62 79
63 63 79
63 63 79
63 63 79
63 63 79
63 63 79
63 63 79
63 63 79
63 63 79
63 63 80
63 63 80
62 62 79
63 63 80
62 62 79
62 62 79
62 62 79
63 63 79
62 62 79
62 62 79
62 62 79
63 63 79
62 62 79
62 62 79
62 62 79
63 63 79
63 63 79
62 62 79
62 62 79
62 62 79
63 63 79
62 62 79
62 62 79
63 63 79
62 62 79
62 62 79
62 62 79
63 63 79
63 63 79
62 62 79
62 62 79
62 62 79
62 62 79
62 62 79
62 62 79
62 62 79
62 62 79
63 63 79
62 62 79
62 62 79
63 63 79
62 62 79
62 62 79
62 62 79
63 63 79
62 62 79
62 62 79
63 63 79
63 63 79
62 62 79
62 62 79
62 62 79
62 62 79
62 62 79
63 63 79
62 62 79
62 62 79
62 62 79
63 63 79
62 62 79
63 63 80
62 62 79
63 63 79
63 63 79
62 62 79
63 63 79
63 63 79
62 62 79
62 62 79
63 63 79
63 63 79
62 62 79
62 62 79
62 62 79
62 62 79
62 62 79
62 62 79
62 62 79
62 62 79
62 62 79
62 62 79
62 62 79
62 62 79
62 62 79
62 62 79
62 62 79
62 62 79
62 62 79
62 62 79
62 62 79
62 62 79
62 62 79
62 62 79
62 62 79
62 62 79
62 62 79
62 62 79
62 62 79
62 62 79
62 62 79
62 62 79
62 62 79
62 62 79
62 62 79
62 62 79
62 62 79
62 62 79
62 62 79
62 62 79
62 62 79
62 62 79
62 62 79
62 62 79
62 62 79
62 62 79
62 62 79
63 63 80
63 63 79
62 62 79
63 63 80
63 63 80
63 63 80
63 63 80
63 63 80
63 63 79
63 63 79
63 63 79
63 63 79
63 63 79
63 63 79
63 63 79
63 63 80
63 63 80
63 63 79
63 63 80
63 63 79
63 63 80
63 63 79
63 63 79
63 63 80
63 63 80
63 63 80
63 63 80
63 63 80
63 63 79
63 63 80
63 63 79
63 63 80
63 63 80
63 63 79
63 63 80
63 63 79
63 63 80
63 63 80
63 63 80
63 63 79
63 63 80
63 63 80
63 63 79
63 63 80
63 63 79
63 63 80
63 63 79
63 63 79
63 63 79
63 63 79
63 63 79
63 63 79
63 63 79
63 63 79
63 63 79
63 63 79
63 63 79
63 63 79
63 63 79
63 63 79
63 63 79
63 63 79
63 63 79
63 63 79
63 63 79
63 63 79
63 63 79
63 63 79
63 63 79
63 63 79
63 63 79
63 63 79
63 63 79
63 63 79
63 63 79
63 63 79
63 63 79
63 63 79
63 63 79
63 63 79
63 63 79
63 63 79
63 63 80
63 63 80
63 63 80
63 63 80
63 63 80
63 63 80
63 63 80
63 63 80
63 63 80
63 63 80
63 63 80
63 63 80
63 63 80
63 63 80
63 63 80
63 63 80
63 63 80
63 63 80
63 63 80
63 63 80
63 63 80
63 63 80
63 63 80
63 63 80
63 63 80
63 63 80
63 63 80
63 63 80
63 63 80
63 63 80
63 63 80
63 63 80
63 63 80
63 63 80
63 63 80
63 63 80
63 63 80
63 63 80
63 63 80
63 63 80
63 63 80
63 63 80
63 63 80
63 63 80
63 63 80
63 63 80
63 63 80
63 63 80
63 63 80
63 63 80
63 63 80
63 63 80
63 63 80
63 63 80
63 63 80
63 63 80
63 63 80
63 63 80
63 63 80
63 63 80
63 63 80
63 63 80
63 63 80
63 63 80
63 63 80
63 63 80
63 63 80
63 63 80
63 63 80
63 63 80
63 63 80
63 63 80
63 63 80
63 63 80
63 63 80
63 63 80
63 63 80
63 63 80
63 63 80
63 63 80
63 63 80
63 63 80
63 63 80
63 63 80
63 63 80
63 63 80
63 63 80
63 63 80
63 63 80
63 63 80
63 63 80
63 63 80
63 63 80
63 63 80
63 63 80
63 63 80
63 63 79
63 63 79
63 63 79
63 63 79
63 63 79
63 63 79
63 63 79
63 63 79
63 63 79
63 63 79
63 63 79
63 63 79
63 63 79
63 63 79
63 63 79
63 63 79
63 63 79
63 63 79
63 63 79
63 63 79
63 63 79
63 63 79
63 63 79
63 63 79
63 63 79
63 63 79
63 63 79
63 63 79
63 63 79
63 63 79
63 63 79
63 63 79
63 63 79
63 63 79
63 63 79
63 63 79
63 63 79
63 63 79
63 63 79
63 63 79
63 63 79
63 63 79
63 63 79
63 63 79
63 63 79
63 63 79
63 63 79
63 63 79
63 63 79
63 63 79
63 63 79
63 63 79
63 63 79
63 63 79
63 63 79
63 63 79
63 63 79
63 63 79
63 63 79
63 63 79
63 63 79
63 63 79
63 63 79
63 63 79
63 63 79
63 63 79
63 63 80
63 63 80
63 63 80
63 63 79
63 63 79
63 63 80
63 63 79
63 63 80
63 63 79
63 63 79
63 63 79
63 63 80
63 63 79
63 63 79
63 63 80
63 63 79
63 63 80
63 63 79
63 63 79
63 63 79
63 63 80
63 63 79
63 63 80
63 63 79
63 63 79
63 63 79
63 63 80
63 63 80
62 62 79
63 63 79
63 63 80
63 63 79
63 63 79
63 63 79
63 63 80
62 62 79
63 63 79
62 62 79
62 62 79
62 62 79
63 63 79
63 63 79
62 62 79
62 62 79
63 63 79
62 62 79
63 63 80
63 63 80
62 62 79
63 63 79
63 63 79
63 63 79
63 63 79
62 62 79
63 63 79
63 63 79
62 62 79
63 63 79
62 62 79
62 62 79
62 62 79
63 63 79
63 63 79
63 63 79
63 63 79
63 63 80
63 63 79
62 62 79
63 63 79
62 62 79
63 63 79
63 63 80
63 63 79
63 63 79
62 62 79
62 62 79
63 63 79
62 62 79
62 62 79
63 63 79
62 62 79
63 63 79
62 62 79
62 62 79
62 62 79
62 62 79
62 62 79
62 62 79
62 62 79
63 63 80
63 63 79
62 62 79
63 63 79
63 63 80
62 62 79
63 63 80
63 63 80
63 63 79
63 63 80
63 63 79
63 63 79
63 63 79
62 62 79
63 63 79
63 63 79
63 63 79
63 63 80
63 63 80
63 63 79
63 63 79
62 62 79
62 62 79
62 62 79
62 62 79
62 62 79
62 62 79
62 62 79
62 62 79
62 62 79
62 62 79
62 62 79
62 62 79
62 62 79
62 62 79
62 62 79
62 62 79
62 62 79
62 62 79
62 62 79
62 62 79
62 62 79
62 62 79
62 62 79
62 62 79
62 62 79
62 62 79
62 62 79
62 62 79
63 63 79
63 63 79
63 63 79
63 63 79
63 63 79
63 63 79
63 63 79
63 63 79
63 63 79
63 63 79
63 63 79
63 63 79
63 63 79
63 63 79
63 63 79
63 63 79
63 63 80
63 63 80
63 63 80
63 63 79
63 63 80
63 63 79
63 63 80
63 63 80
63 63 80
63 63 80
63 63 80
63 63 80
63 63 79
63 63 79
63 63 79
63 63 80
63 63 80
63 63 80
63 63 80
63 63 80
63 63 80
63 63 80
63 63 79
63 63 80
63 63 79
63 63 79
63 63 80
63 63 80
63 63 80
63 63 80
63 63 80
63 63 80
63 63 80
63 63 80
63 63 80
63 63 80
63 63 80
63 63 80
63 63 80
63 63 80
63 63 80
63 63 80
63 63 80
63 63 80
63 63 80
63 63 80
63 63 80
63 63 80
63 63 80
63 63 80
63 63 80
63 63 80
63 63 80
63 63 80
63 63 80
63 63 80
63 63 80
63 63 80
63 63 80
63 63 80
63 63 80
63 63 80
63 63 80
63 63 80
63 63 80
63 63 80
63 63 80
63 63 80
63 63 80
63 63 80
63 63 80
63 63 80
63 63 80
63 63 80
63 63 80
63 63 80
63 63 80
63 63 80
63 63 80
63 63 80
63 63 80
63 63 80
63 63 80
63 63 80
63 63 80
63 63 80
63 63 80
63 63 80
63 63 80
63 63 80
63 63 80
63 63 80
63 63 80
63 63 80
63 63 80
63 63 80
63 63 80
63 63 80
63 63 80
63 63 80
63 63 80
63 63 80
63 63 80
63 63 80
63 63 80
63 63 80
63 63 80
63 63 80
63 63 80
63 63 80
63 63 80
63 63 80
63 63 80
63 63 80
63 63 80
63 63 80
63 63 80
63 63 80
63 63 80
63 63 80
63 63 80
63 63 80
63 63 80
63 63 80
63 63 80
63 63 80
63 63 80
63 63 80
63 63 80
63 63 80
63 63 80
63 63 80
63 63 80
63 63 80
63 63 80
63 63 80
63 63 80
63 63 80
63 63 80
63 63 80
63 63 80
63 63 80
63 63 80
63 63 80
63 63 80
63 63 80
63 63 80
63 63 80
63 63 80
63 63 80
63 63 80
63 63 80
63 63 80
63 63 80
63 63 80
63 63 80
63 63 80
63 63 80
63 63 80
63 63 80
63 63 80
63 63 80
63 63 80
63 63 80
63 63 80
63 63 80
63 63 80
63 63 80
63 63 80
63 63 80
63 63 80
63 63 80
63 63 80
63 63 80
63 63 80
63 63 80
63 63 80
63 63 80
63 63 80
63 63 80
63 63 80
63 63 80
63 63 80
63 63 80
63 63 80
63 63 80
63 63 80
63 63 80
63 63 80
63 63 80
63 63 80
63 63 80
63 63 80
63 63 80
63 63 80
63 63 80
63 63 80
63 63 80
63 63 80
63 63 80
63 63 80
63 63 80
63 63 80
63 63 80
63 63 80
63 63 80
63 63 80
63 63 80
63 63 80
63 63 80
63 63 80
63 63 80
63 63 80
63 63 80
63 63 80
63 63 80
63 63 80
63 63 80
63 63 80
63 63 80
63 63 80
63 63 80
63 63 80
63 63 80
63 63 80
63 63 80
63 63 79
63 63 79
63 63 79
63 63 79
63 63 79
63 63 79
63 63 79
63 63 79
63 63 79
63 63 79
63 63 79
63 63 79
63 63 79
63 63 79
63 63 79
63 63 80
63 63 80
63 63 80
63 63 80
63 63 80
63 63 80
63 63 80
63 63 79
63 63 79
63 63 80
63 63 80
63 63 80
63 63 80
63 63 80
63 63 80
63 63 80
63 63 79
63 63 80
63 63 80
63 63 80
63 63 79
63 63 79
63 63 80
63 63 80
63 63 80
63 63 80
63 63 79
63 63 79
63 63 79
63 63 79
63 63 79
63 63 80
63 63 79
63 63 80
63 63 79
63 63 80
63 63 79
63 63 79
63 63 80
63 63 79
63 63 79
63 63 79
63 63 80
63 63 79
63 63 80
63 63 79
63 63 80
63 63 80
62 62 79
62 62 79
63 63 79
63 63 79
63 63 80
63 63 79
62 62 79
63 63 80
63 63 80
63 63 79
62 62 79
63 63 80
62 62 79
62 62 79
63 63 79
62 62 79
63 63 79
62 62 79
63 63 80
63 63 79
63 63 79
62 62 79
62 62 79
63 63 79
63 63 79
63 63 79
63 63 79
63 63 79
63 63 79
63 63 79
62 62 79
62 62 79
63 63 80
63 63 79
63 63 79
62 62 79
62 62 79
62 62 79
62 62 79
63 63 79
62 62 79
62 62 79
62 62 79
63 63 80
63 63 80
62 62 79
62 62 79
63 63 80
62 62 79
63 63 79
63 63 80
62 62 79
63 63 79
63 63 80
63 63 80
63 63 79
63 63 79
63 63 79
62 62 79
63 63 79
62 62 79
63 63 79
63 63 80
63 63 79
63 63 79
62 62 79
62 62 79
62 62 79
62 62 79
62 62 79
62 62 79
62 62 79
62 62 79
63 63 79
63 63 79
63 63 79
63 63 79
63 63 79
63 63 79
63 63 79
63 63 79
63 63 79
63 63 79
63 63 79
63 63 79
63 63 79
63 63 79
63 63 79
63 63 79
63 63 79
63 63 79
63 63 79
63 63 79
63 63 79
63 63 79
63 63 79
63 63 79
63 63 79
63 63 79
63 63 79
63 63 79
63 63 79
63 63 79
63 63 79
63 63 79
63 63 79
63 63 79
63 63 79
63 63 79
63 63 80
63 63 80
63 63 80
63 63 80
63 63 79
63 63 80
63 63 80
63 63 79
63 63 80
63 63 80
63 63 80
63 63 80
63 63 80
63 63 80
63 63 80
63 63 80
63 63 80
63 63 80
63 63 80
63 63 80
63 63 80
63 63 80
63 63 80
63 63 80
63 63 80
63 63 80
63 63 80
63 63 80
63 63 80
63 63 80
63 63 80
63 63 80
63 63 80
63 63 80
63 63 80
63 63 80
63 63 80
63 63 80
63 63 80
63 63 80
63 63 80
63 63 80
63 63 80
63 63 80
63 63 80
63 63 80
63 63 80
63 63 80
63 63 80
63 63 80
63 63 80
63 63 80
63 63 80
63 63 80
63 63 80
63 63 80
63 63 80
63 63 80
63 63 80
63 63 80
63 63 80
63 63 80
63 63 80
63 63 80
63 63 80
63 63 80
63 63 80
63 63 80
63 63 80
63 63 80
63 63 80
63 63 80
63 63 80
63 63 80
63 63 80
63 63 80
63 63 80
63 63 80
63 63 80
63 63 80
63 63 80
63 63 80
63 63 80
63 63 80
63 63 80
63 63 80
63 63 80
63 63 80
63 63 80
63 63 80
63 63 80
63 63 80
63 63 80
63 63 80
63 63 80
63 63 80
63 63 80
63 63 80
63 63 80
63 63 80
63 63 80
63 63 80
63 63 80
63 63 80
63 63 80
63 63 80
63 63 80
63 63 80
63 63 80
63 63 80
63 63 80
63 63 80
63 63 80
63 63 80
63 63 80
63 63 80
63 63 80
63 63 80
63 63 80
63 63 80
63 63 80
63 63 80
63 63 80
63 63 80
63 63 80
63 63 80
63 63 80
63 63 80
63 63 80
63 63 80
63 63 80
63 63 80
63 63 80
63 63 80
63 63 80
63 63 80
63 63 80
63 63 80
63 63 80
63 63 80
63 63 80
63 63 80
63 63 80
63 63 80
63 63 80
63 63 80
63 63 80
63 63 80
63 63 80
63 63 80
63 63 80
63 63 80
63 63 80
63 63 80
63 63 80
63 63 80
63 63 80
63 63 80
63 63 80
63 63 80
63 63 80
63 63 80
63 63 80
63 63 80
63 63 80
63 63 80
63 63 80
63 63 80
63 63 80
63 63 80
63 63 80
63 63 80
63 63 80
63 63 80
63 63 80
63 63 80
63 63 80
63 63 80
63 63 80
63 63 80
63 63 80
63 63 80
63 63 80
63 63 80
63 63 80
63 63 80
63 63 80
63 63 80
63 63 80
63 63 80
63 63 80
63 63 80
63 63 80
63 63 80
63 63 80
63 63 80
63 63 80
63 63 80
63 63 80
63 63 80
63 63 80
63 63 80
63 63 80
63 63 80
63 63 80
63 63 80
63 63 80
63 63 80
63 63 80
63 63 80
63 63 80
63 63 80
63 63 80
63 63 80
63 63 80
63 63 80
63 63 80
63 63 80
63 63 80
63 63 80
63 63 80
63 63 80
63 63 80
63 63 80
63 63 80
63 63 80
63 63 80
63 63 80
63 63 80
63 63 80
63 63 80
63 63 80
63 63 80
63 63 80
63 63 80
63 63 80
63 63 80
63 63 80
63 63 80
63 63 80
63 63 80
63 63 80
63 63 80
63 63 80
63 63 80
63 63 80
63 63 80
63 63 80
63 63 80
63 63 80
63 63 80
63 63 80
63 63 80
63 63 80
63 63 80
63 63 80
63 63 80
63 63 80
63 63 80
63 63 80
63 63 80
63 63 80
63 63 79
63 63 80
63 63 79
63 63 79
63 63 80
63 63 80
63 63 80
63 63 79
63 63 79
63 63 80
63 63 80
63 63 79
63 63 80
63 63 79
63 63 80
63 63 80
63 63 79
63 63 80
63 63 80
63 63 80
63 63 80
63 63 80
63 63 79
63 63 79
63 63 80
63 63 79
63 63 80
63 63 80
63 63 80
63 63 80
63 63 80
63 63 80
63 63 80
63 63 80
63 63 79
63 63 79
63 63 80
63 63 80
63 63 79
63 63 79
63 63 79
63 63 80
63 63 79
63 63 80
63 63 79
63 63 80
62 62 79
63 63 80
63 63 79
62 62 79
63 63 79
63 63 80
63 63 79
63 63 80
63 63 80
63 63 79
63 63 79
63 63 80
63 63 79
63 63 79
63 63 79
63 63 79
63 63 79
63 63 80
63 63 79
62 62 79
63 63 79
63 63 79
62 62 79
63 63 79
62 62 79
63 63 80
63 63 80
63 63 79
62 62 79
63 63 80
63 63 80
63 63 79
63 63 79
63 63 80
63 63 79
63 63 80
63 63 80
63 63 79
63 63 79
63 63 80
63 63 79
63 63 79
63 63 80
63 63 79
63 63 79
63 63 79
63 63 79
63 63 79
63 63 79
63 63 79
63 63 79
63 63 79
63 63 79
63 63 79
63 63 79
63 63 79
63 63 79
63 63 79
63 63 79
63 63 79
63 63 79
63 63 79
63 63 79
63 63 79
63 63 79
63 63 79
63 63 79
63 63 79
63 63 79
63 63 79
63 63 79
63 63 79
63 63 79
63 63 79
63 63 79
63 63 79
63 63 80
63 63 80
63 63 80
63 63 80
63 63 80
63 63 80
63 63 80
63 63 80
63 63 80
63 63 80
63 63 80
63 63 80
63 63 80
63 63 80
63 63 80
63 63 80
63 63 80
63 63 80
63 63 80
63 63 80
63 63 80
63 63 80
63 63 80
63 63 80
63 63 80
63 63 80
63 63 80
63 63 80
63 63 80
63 63 80
63 63 80
63 63 80
63 63 80
63 63 80
63 63 80
63 63 80
63 63 80
63 63 80
63 63 80
63 63 80
63 63 80
63 63 80
63 63 80
63 63 80
63 63 80
63 63 80
63 63 80
63 63 80
63 63 80
63 63 80
63 63 80
63 63 80
63 63 80
63 63 80
63 63 80
63 63 80
63 63 80
63 63 80
63 63 80
63 63 80
63 63 80
63 63 80
63 63 80
63 63 80
63 63 80
63 63 80
63 63 80
63 63 80
63 63 80
63 63 80
63 63 80
63 63 80
63 63 80
63 63 80
63 63 80
63 63 80
63 63 80
63 63 80
63 63 80
63 63 80
63 63 80
63 63 80
63 63 80
63 63 80
63 63 80
63 63 80
63 63 80
63 63 80
63 63 80
63 63 80
63 63 80
63 63 80
63 63 80
63 63 80
63 63 80
63 63 80
63 63 80
63 63 80
63 63 80
63 63 80
63 63 80
63 63 80
63 63 80
63 63 80
63 63 80
63 63 80
63 63 80
63 63 80
63 63 80
63 63 80
63 63 80
63 63 80
63 63 80
63 63 80
63 63 80
63 63 80
63 63 80
63 63 80
63 63 80
63 63 80
63 63 80
63 63 80
63 63 80
63 63 80
63 63 80
63 63 80
63 63 80
63 63 80
63 63 80
63 63 80
63 63 80
63 63 80
63 63 80
63 63 80
63 63 80
63 63 80
63 63 80
63 63 80
63 63 80
63 63 80
63 63 80
63 63 80
63 63 80
63 63 80
63 63 80
63 63 80
63 63 80
63 63 80
63 63 80
63 63 80
63 63 80
63 63 80
63 63 80
63 63 80
63 63 80
63 63 80
63 63 80
63 63 80
63 63 80
63 63 80
63 63 80
63 63 80
63 63 80
63 63 80
63 63 80
63 63 80
63 63 80
63 63 80
63 63 80
63 63 80
63 63 80
63 63 80
63 63 80
63 63 80
63 63 80
63 63 80
63 63 80
63 63 80
63 63 80
63 63 80
63 63 80
63 63 80
63 63 80
63 63 80
63 63 80
63 63 80
63 63 80
63 63 80
63 63 80
63 63 80
63 63 80
63 63 80
63 63 80
63 63 80
63 63 80
63 63 80
63 63 80
63 63 80
63 63 80
63 63 80
63 63 80
63 63 80
63 63 80
63 63 80
63 63 80
63 63 80
63 63 80
63 63 80
63 63 80
63 63 80
63 63 80
63 63 80
63 63 80
63 63 80
63 63 80
63 63 80
63 63 80
63 63 80
63 63 80
63 63 80
63 63 80
63 63 80
63 63 80
63 63 80
63 63 80
63 63 80
63 63 80
63 63 80
63 63 80
63 63 80
63 63 80
63 63 80
63 63 80
63 63 80
63 63 80
63 63 80
63 63 80
63 63 80
63 63 80
63 63 80
63 63 80
63 63 80
63 63 80
63 63 80
63 63 80
63 63 80
63 63 80
63 63 80
63 63 80
63 63 80
63 63 80
63 63 80
63 63 80
63 63 80
63 63 80
63 63 80
63 63 80
63 63 80
63 63 80
63 63 80
63 63 80
63 63 80
63 63 80
63 63 80
63 63 80
63 63 80
63 63 80
63 63 80
63 63 80
63 63 80
63 63 80
63 63 80
63 63 80
63 63 80
63 63 80
63 63 80
63 63 80
63 63 80
63 63 80
63 63 80
63 63 80
63 63 80
63 63 80
63 63 80
63 63 80
63 63 80
63 63 80
63 63 80
63 63 80
63 63 80
63 63 80
63 63 80
63 63 80
63 63 80
63 63 80
63 63 80
63 63 80
63 63 80
63 63 80
63 63 80
63 63 79
63 63 80
63 63 80
63 63 80
63 63 80
63 63 79
63 63 80
63 63 80
63 63 80
63 63 80
63 63 80
63 63 80
63 63 80
63 63 80
63 63 80
63 63 80
63 63 80
63 63 80
63 63 80
63 63 80
63 63 79
63 63 80
63 63 80
63 63 80
63 63 80
63 63 80
63 63 80
63 63 80
63 63 80
63 63 80
63 63 79
63 63 80
63 63 79
63 63 80
63 63 79
63 63 80
63 63 80
63 63 79
63 63 79
63 63 80
63 63 80
63 63 80
63 63 79
63 63 79
63 63 80
63 63 80
63 63 79
63 63 80
62 62 79
63 63 80
63 63 79
63 63 79
63 63 80
63 63 79
63 63 80
63 63 79
63 63 80
63 63 80
63 63 80
63 63 79
63 63 80
63 63 79
63 63 80
63 63 80
63 63 80
63 63 79
63 63 79
63 63 80
63 63 79
63 63 79
63 63 79
63 63 79
63 63 79
63 63 79
63 63 79
63 63 79
63 63 79
63 63 79
63 63 79
63 63 80
63 63 80
63 63 80
63 63 80
63 63 80
63 63 80
63 63 80
63 63 80
63 63 80
63 63 80
63 63 80
63 63 80
63 63 80
63 63 80
63 63 80
63 63 80
63 63 80
63 63 80
63 63 80
63 63 80
63 63 80
63 63 80
63 63 80
63 63 80
63 63 80
63 63 80
63 63 80
63 63 80
63 63 80
63 63 80
63 63 80
63 63 80
63 63 80
63 63 80
63 63 80
63 63 80
63 63 80
63 63 80
63 63 80
63 63 80
63 63 80
63 63 80
63 63 80
63 63 80
63 63 80
63 63 80
63 63 80
63 63 80
63 63 80
63 63 80
63 63 80
63 63 80
63 63 80
63 63 80
63 63 80
63 63 80
63 63 80
63 63 80
63 63 80
63 63 80
63 63 80
63 63 80
63 63 80
63 63 80
63 63 80
63 63 80
63 63 80
63 63 80
63 63 80
63 63 80
63 63 80
63 63 80
63 63 80
63 63 80
63 63 80
63 63 80
63 63 80
63 63 80
63 63 80
63 63 80
63 63 80
63 63 80
63 63 80
63 63 80
63 63 80
63 63 80
63 63 80
63 63 80
63 63 80
63 63 80
63 63 80
63 63 80
63 63 80
63 63 80
63 63 80
63 63 80
63 63 80
63 63 80
63 63 80
63 63 80
63 63 80
63 63 80
63 63 80
63 63 80
63 63 80
63 63 80
63 63 80
63 63 80
63 63 80
63 63 80
63 63 80
63 63 80
63 63 80
63 63 80
63 63 80
63 63 80
63 63 80
63 63 80
63 63 80
63 63 80
63 63 80
63 63 80
63 63 80
63 63 80
63 63 80
63 63 80
63 63 80
63 63 80
63 63 80
63 63 80
63 63 80
63 63 80
63 63 80
63 63 80
63 63 80
63 63 80
63 63 80
63 63 80
63 63 80
63 63 80
63 63 80
63 63 80
63 63 80
63 63 80
63 63 80
63 63 80
63 63 80
63 63 80
63 63 80
63 63 80
63 63 80
63 63 80
63 63 80
63 63 80
63 63 80
63 63 80
63 63 80
63 63 80
63 63 80
63 63 80
63 63 80
63 63 80
63 63 80
63 63 80
63 63 80
63 63 80
63 63 80
63 63 80
63 63 80
63 63 80
63 63 80
63 63 80
63 63 80
63 63 80
63 63 80
63 63 80
63 63 80
63 63 80
63 63 80
63 63 80
63 63 80
63 63 80
63 63 80
63 63 80
63 63 80
63 63 80
63 63 80
63 63 80
63 63 80
63 63 80
63 63 80
63 63 80
63 63 80
63 63 80
63 63 80
63 63 80
63 63 80
63 63 80
63 63 80
63 63 80
63 63 80
63 63 80
63 63 80
63 63 80
63 63 80
63 63 80
63 63 80
63 63 80
63 63 80
63 63 80
63 63 80
63 63 80
63 63 80
63 63 80
63 63 80
63 63 80
63 63 80
63 63 80
63 63 80
63 63 80
63 63 80
63 63 80
63 63 80
63 63 80
63 63 80
63 63 80
63 63 80
63 63 80
63 63 80
63 63 80
63 63 80
63 63 80
63 63 80
63 63 80
63 63 80
63 63 80
63 63 80
63 63 80
63 63 80
63 63 80
63 63 80
63 63 80
63 63 80
63 63 80
63 63 80
63 63 80
63 63 80
63 63 80
63 63 80
63 63 80
63 63 80
63 63 80
63 63 80
63 63 80
63 63 80
63 63 80
63 63 80
63 63 80
63 63 80
63 63 80
63 63 80
63 63 80
63 63 80
63 63 80
63 63 80
63 63 80
63 63 80
63 63 80
63 63 80
63 63 80
63 63 80
63 63 80
63 63 80
63 63 80
63 63 80
63 63 80
63 63 80
63 63 80
63 63 80
63 63 80
63 63 80
63 63 80
63 63 80
63 63 80
63 63 80
63 63 80
63 63 80
63 63 80
63 63 80
63 63 80
63 63 80
63 63 80
63 63 80
63 63 80
63 63 80
63 63 80
63 63 80
63 63 80
63 63 80
63 63 80
63 63 80
63 63 80
63 63 80
63 63 80
63 63 80
63 63 80
63 63 80
63 63 80
63 63 80
63 63 80
63 63 80
63 63 80
63 63 80
63 63 80
63 63 80
63 63 80
63 63 80
63 63 80
63 63 80
63 63 80
63 63 80
63 63 80
63 63 80
63 63 80
63 63 80
63 63 80
63 63 80
63 63 80
63 63 80
63 63 80
63 63 80
63 63 80
63 63 80
63 63 80
63 63 80
63 63 80
63 63 80
63 63 80
63 63 80
63 63 80
63 63 80
63 63 80
63 63 80
63 63 79
63 63 80
63 63 80
63 63 80
63 63 80
63 63 80
63 63 80
63 63 80
63 63 80
63 63 80
63 63 80
63 63 80
63 63 80
63 63 80
63 63 80
63 63 80
63 63 79
63 63 80
63 63 80
63 63 80
63 63 80
63 63 80
63 63 80
63 63 79
63 63 79
63 63 80
63 63 80
63 63 79
63 63 80
63 63 80
63 63 80
63 63 80
63 63 80
63 63 80
63 63 79
63 63 80
63 63 80
63 63 80
63 63 80
63 63 80
63 63 80
63 63 80
63 63 80
63 63 80
63 63 80
63 63 80
63 63 80
63 63 80
63 63 80
63 63 80
63 63 80
63 63 80
63 63 80
63 63 80
63 63 80
63 63 80
63 63 80
63 63 80
63 63 80
63 63 80
63 63 80
63 63 80
63 63 80
63 63 80
63 63 80
63 63 80
63 63 80
63 63 80
63 63 80
63 63 80
63 63 80
63 63 80
63 63 80
63 63 80
63 63 80
63 63 80
63 63 80
63 63 80
63 63 80
63 63 80
63 63 80
63 63 80
63 63 80
63 63 80
63 63 80
63 63 80
63 63 80
63 63 80
63 63 80
63 63 80
63 63 80
63 63 80
63 63 80
63 63 80
63 63 80
63 63 80
63 63 80
63 63 80
63 63 80
63 63 80
63 63 80
63 63 80
63 63 80
63 63 80
63 63 80
63 63 80
63 63 80
63 63 80
63 63 80
63 63 80
63 63 80
63 63 80
63 63 80
63 63 80
63 63 80
63 63 80
63 63 80
63 63 80
63 63 80
63 63 80
63 63 80
63 63 80
63 63 80
63 63 80
63 63 80
63 63 80
63 63 80
63 63 80
63 63 80
63 63 80
63 63 80
63 63 80
63 63 80
63 63 80
63 63 80
63 63 80
63 63 80
63 63 80
63 63 80
63 63 80
63 63 80
63 63 80
63 63 80
63 63 80
63 63 80
63 63 80
63 63 80
63 63 80
63 63 80
63 63 80
63 63 80
63 63 80
63 63 80
63 63 80
63 63 80
63 63 80
63 63 80
63 63 80
63 63 80
63 63 80
63 63 80
63 63 80
63 63 80
63 63 80
63 63 80
63 63 80
63 63 80
63 63 80
63 63 80
63 63 80
63 63 80
63 63 80
63 63 80
63 63 80
63 63 80
63 63 80
63 63 80
63 63 80
63 63 80
63 63 80
63 63 80
63 63 80
63 63 80
63 63 80
63 63 80
63 63 80
63 63 80
63 63 80
63 63 80
63 63 80
63 63 80
63 63 80
63 63 80
63 63 80
63 63 80
63 63 80
63 63 80
63 63 80
63 63 80
63 63 80
63 63 80
63 63 80
63 63 80
63 63 80
63 63 80
63 63 80
63 63 80
63 63 80
63 63 80
63 63 80
63 63 80
63 63 80
63 63 80
63 63 80
63 63 80
63 63 80
63 63 80
63 63 80
63 63 80
63 63 80
63 63 80
63 63 80
63 63 80
63 63 80
63 63 80
63 63 80
63 63 80
63 63 80
63 63 80
63 63 80
63 63 80
63 63 80
63 63 80
63 63 80
63 63 80
63 63 80
63 63 80
63 63 80
63 63 80
63 63 80
63 63 80
63 63 80
63 63 80
63 63 80
63 63 80
63 63 80
63 63 80
63 63 80
63 63 80
63 63 80
63 63 80
63 63 80
63 63 80
63 63 80
63 63 80
63 63 80
63 63 80
63 63 80
63 63 80
63 63 80
63 63 80
63 63 80
63 63 80
63 63 80
63 63 80
63 63 80
63 63 80
63 63 80
63 63 80
63 63 80
63 63 80
63 63 80
63 63 80
63 63 80
63 63 80
63 63 80
63 63 80
63 63 80
63 63 80
63 63 80
63 63 80
63 63 80
63 63 80
63 63 80
63 63 80
63 63 80
63 63 80
63 63 80
63 63 80
63 63 80
63 63 80
63 63 80
63 63 80
63 63 80
63 63 80
63 63 80
63 63 80
63 63 80
63 63 80
63 63 80
63 63 80
63 63 80
63 63 80
63 63 80
63 63 80
63 63 80
63 63 80
63 63 80
63 63 80
63 63 80
63 63 80
63 63 80
63 63 80
63 63 80
63 63 80
63 63 80
63 63 80
63 63 80
63 63 80
63 63 80
63 63 80
63 63 80
63 63 80
63 63 80
63 63 80
63 63 80
63 63 80
63 63 80
63 63 80
63 63 80
63 63 80
63 63 80
63 63 80
63 63 80
63 63 80
63 63 80
63 63 80
63 63 80
63 63 80
63 63 80
63 63 80
63 63 80
63 63 80
63 63 80
63 63 80
63 63 80
63 63 80
63 63 80
63 63 80
63 63 80
63 63 80
63 63 80
63 63 80
63 63 80
63 63 80
63 63 80
63 63 80
63 63 80
63 63 80
63 63 80
63 63 80
63 63 80
63 63 80
63 63 80
63 63 80
63 63 80
63 63 80
63 63 80
63 63 80
63 63 80
63 63 80
63 63 80
63 63 80
63 63 80
63 63 80
63 63 80
63 63 80
63 63 80
63 63 80
63 63 80
63 63 80
63 63 80
63 63 80
63 63 80
63 63 80
63 63 80
63 63 80
63 63 80
63 63 80
63 63 80
63 63 80
63 63 80
63 63 80
63 63 80
63 63 80
63 63 80
63 63 80
63 63 80
63 63 80
63 63 80
63 63 80
63 63 80
63 63 80
63 63 80
63 63 80
63 63 80
63 63 80
63 63 80
63 63 80
63 63 80
63 63 80
63 63 80
63 63 80
63 63 80
63 63 80
63 63 80
63 63 80
63 63 80
63 63 80
63 63 80
63 63 79
63 63 80
63 63 80
63 63 80
63 63 80
63 63 80
63 63 80
63 63 80
63 63 80
63 63 80
63 63 80
63 63 80
63 63 80
63 63 80
63 63 80
63 63 80
63 63 80
63 63 80
63 63 80
63 63 80
63 63 80
63 63 80
63 63 80
63 63 80
63 63 80
63 63 80
63 63 80
63 63 80
63 63 80
63 63 80
63 63 80
63 63 80
63 63 80
63 63 80
63 63 80
63 63 80
63 63 80
63 63 80
63 63 80
63 63 80
63 63 80
63 63 80
63 63 80
63 63 80
63 63 80
63 63 80
63 63 80
63 63 80
63 63 80
63 63 80
63 63 80
63 63 80
63 63 80
63 63 80
63 63 80
63 63 80
63 63 80
63 63 80
63 63 80
63 63 80
63 63 80
63 63 80
63 63 80
63 63 80
63 63 80
63 63 80
63 63 80
63 63 80
63 63 80
63 63 80
63 63 80
63 63 80
63 63 80
63 63 80
63 63 80
63 63 80
63 63 80
63 63 80
63 63 80
63 63 80
63 63 80
63 63 80
63 63 80
63 63 80
63 63 80
63 63 80
63 63 80
63 63 80
63 63 80
63 63 80
63 63 80
63 63 80
63 63 80
63 63 80
63 63 80
63 63 80
63 63 80
63 63 80
63 63 80
63 63 80
63 63 80
63 63 80
63 63 80
63 63 80
63 63 80
63 63 80
63 63 80
63 63 80
63 63 80
63 63 80
63 63 80
63 63 80
63 63 80
63 63 80
63 63 80
63 63 80
63 63 80
63 63 80
63 63 80
63 63 80
63 63 80
63 63 80
63 63 80
63 63 80
63 63 80
63 63 80
63 63 80
63 63 80
63 63 80
63 63 80
63 63 80
63 63 80
63 63 80
63 63 80
63 63 80
63 63 80
63 63 80
63 63 80
63 63 80
63 63 80
63 63 80
63 63 80
63 63 80
63 63 80
63 63 80
63 63 80
63 63 80
63 63 80
63 63 80
63 63 80
63 63 80
63 63 80
63 63 80
63 63 80
63 63 80
63 63 80
63 63 80
63 63 80
63 63 80
63 63 80
63 63 80
63 63 80
63 63 80
63 63 80
63 63 80
63 63 80
63 63 80
63 63 80
63 63 80
63 63 80
63 63 80
63 63 80
63 63 80
63 63 80
63 63 80
63 63 80
63 63 80
63 63 80
63 63 80
63 63 80
63 63 80
63 63 80
63 63 80
63 63 80
63 63 80
63 63 80
63 63 80
63 63 80
63 63 80
63 63 80
63 63 80
63 63 80
63 63 80
63 63 80
63 63 80
63 63 80
63 63 80
63 63 80
63 63 80
63 63 80
63 63 80
63 63 80
63 63 80
63 63 80
63 63 80
63 63 80
63 63 80
63 63 80
63 63 80
63 63 80
63 63 80
63 63 80
63 63 80
63 63 80
63 63 80
63 63 80
63 63 80
63 63 80
63 63 80
63 63 80
63 63 80
63 63 80
63 63 80
63 63 80
63 63 80
63 63 80
63 63 80
63 63 80
63 63 80
63 63 80
63 63 80
63 63 80
63 63 80
63 63 80
63 63 80
63 63 80
63 63 80
63 63 80
63 63 80
63 63 80
63 63 80
63 63 80
63 63 80
63 63 80
63 63 80
63 63 80
63 63 80
63 63 80
63 63 80
63 63 80
63 63 80
63 63 80
63 63 80
63 63 80
63 63 80
63 63 80
63 63 80
63 63 80
63 63 80
63 63 80
63 63 80
63 63 80
63 63 80
63 63 80
63 63 80
63 63 80
63 63 80
63 63 80
63 63 80
63 63 80
63 63 80
63 63 80
63 63 80
63 63 80
63 63 80
63 63 80
63 63 80
63 63 80
63 63 80
63 63 80
63 63 80
63 63 80
63 63 80
63 63 80
63 63 80
63 63 80
63 63 80
63 63 80
63 63 80
63 63 80
63 63 80
63 63 80
63 63 80
63 63 80
63 63 80
63 63 80
63 63 80
63 63 80
63 63 80
63 63 80
63 63 80
63 63 80
63 63 80
63 63 80
63 63 80
63 63 80
63 63 80
63 63 80
63 63 80
63 63 80
63 63 80
63 63 80
63 63 80
63 63 80
63 63 80
63 63 80
63 63 80
63 63 80
63 63 80
63 63 80
63 63 80
63 63 80
63 63 80
63 63 80
63 63 80
63 63 80
63 63 80
63 63 80
63 63 80
63 63 80
63 63 80
63 63 80
63 63 80
63 63 80
63 63 80
63 63 80
63 63 80
63 63 80
63 63 80
63 63 80
63 63 80
63 63 80
63 63 80
63 63 80
63 63 80
63 63 80
63 63 80
63 63 80
63 63 80
63 63 80
63 63 80
63 63 80
63 63 80
63 63 80
63 63 80
63 63 80
63 63 80
63 63 80
63 63 80
63 63 80
63 63 80
63 63 80
63 63 80
63 63 80
63 63 80
63 63 80
63 63 80
63 63 80
63 63 80
63 63 80
63 63 80
63 63 80
63 63 80
63 63 80
63 63 80
63 63 80
63 63 80
63 63 80
63 63 80
63 63 80
63 63 80
63 63 80
63 63 80
63 63 80
63 63 80
63 63 80
63 63 80
63 63 80
63 63 80
63 63 80
63 63 80
63 63 80
63 63 80
63 63 80
63 63 80
63 63 80
63 63 80
63 63 80
63 63 80
63 63 80
63 63 80
63 63 80
63 63 80
63 63 80
63 63 80
63 63 80
63 63 80
63 63 80
63 63 80
63 63 80
63 63 80
63 63 80
63 63 80
63 63 80
63 63 80
63 63 80
63 63 80
63 63 80
63 63 80
63 63 80
63 63 80
63 63 80
63 63 80
63 63 80
63 63 80
63 63 80
63 63 80
63 63 80
63 63 80
63 63 80
63 63 80
63 63 80
63 63 80
63 63 80
63 63 80
63 63 80
63 63 80
63 63 80
63 63 80
63 63 80
63 63 80
63 63 80
63 63 80
63 63 80
63 63 80
63 63 80
63 63 80
63 63 80
63 63 80
63 63 80
63 63 80
63 63 80
63 63 80
63 63 80
63 63 80
63 63 80
63 63 80
63 63 80
63 63 80
63 63 80
63 63 80
63 63 80
63 63 80
63 63 80
63 63 80
63 63 80
63 63 80
63 63 80
63 63 80
63 63 80
63 63 80
63 63 80
63 63 80
63 63 80
63 63 80
63 63 80
63 63 80
63 63 80
63 63 80
63 63 80
63 63 80
63 63 80
63 63 80
63 63 80
63 63 80
63 63 80
63 63 80
63 63 80
63 63 80
63 63 80
63 63 80
63 63 80
63 63 80
63 63 80
63 63 80
63 63 80
63 63 80
63 63 80
63 63 80
63 63 80
63 63 80
63 63 80
63 63 80
63 63 80
63 63 80
63 63 80
63 63 80
63 63 80
63 63 80
63 63 80
63 63 80
63 63 80
63 63 80
63 63 80
63 63 80
63 63 80
63 63 80
63 63 80
63 63 80
63 63 80
63 63 80
63 63 80
63 63 80
63 63 80
63 63 80
63 63 80
63 63 80
63 63 80
63 63 80
63 63 80
63 63 80
63 63 80
63 63 80
63 63 80
63 63 80
63 63 80
63 63 80
63 63 80
63 63 80
63 63 80
63 63 80
63 63 80
63 63 80
63 63 80
63 63 80
63 63 80
63 63 80
63 63 80
63 63 80
63 63 80
63 63 80
63 63 80
63 63 80
63 63 80
63 63 80
63 63 80
63 63 80
63 63 80
63 63 80
63 63 80
63 63 80
63 63 80
63 63 80
63 63 80
63 63 80
63 63 80
63 63 80
63 63 80
63 63 80
63 63 80
63 63 80
63 63 80
63 63 80
63 63 80
63 63 80
63 63 80
63 63 80
63 63 80
63 63 80
63 63 80
63 63 80
63 63 80
63 63 80
63 63 80
63 63 80
63 63 80
63 63 80
63 63 80
63 63 80
63 63 80
63 63 80
63 63 80
63 63 80
63 63 80
63 63 80
63 63 80
63 63 80
63 63 80
63 63 80
63 63 80
63 63 80
63 63 80
63 63 80
63 63 80
63 63 80
63 63 80
63 63 80
63 63 80
63 63 80
63 63 80
63 63 80
63 63 80
63 63 80
63 63 80
63 63 80
63 63 80
63 63 80
63 63 80
63 63 80
63 63 80
63 63 80
63 63 80
63 63 80
63 63 80
63 63 80
63 63 80
63 63 80
63 63 80
63 63 80
63 63 80
63 63 80
63 63 80
63 63 80
63 63 80
63 63 80
63 63 80
63 63 80
63 63 80
63 63 80
63 63 80
63 63 80
63 63 80
63 63 80
63 63 80
63 63 80
63 63 80
63 63 80
63 63 80
63 63 80
63 63 80
63 63 80
63 63 80
63 63 80
63 63 80
63 63 80
63 63 80
63 63 80
63 63 80
63 63 80
63 63 80
63 63 80
63 63 80
63 63 80
63 63 80
63 63 80
63 63 80
63 63 80
63 63 80
63 63 80
63 63 80
63 63 80
63 63 80
63 63 80
63 63 80
63 63 80
63 63 80
63 63 80
63 63 80
63 63 80
63 63 80
63 63 80
63 63 80
63 63 80
63 63 80
63 63 80
63 63 80
63 63 80
63 63 80
63 63 80
63 63 80
63 63 80
63 63 80
63 63 80
63 63 80
63 63 80
63 63 80
63 63 80
63 63 80
63 63 80
63 63 80
63 63 80
63 63 80
63 63 80
63 63 80
63 63 80
63 63 80
63 63 80
63 63 80
63 63 80
63 63 80
63 63 80
63 63 80
63 63 80
63 63 80
63 63 80
63 63 80
63 63 80
63 63 80
63 63 80
63 63 80
63 63 80
63 63 80
63 63 80
63 63 80
63 63 80
63 63 80
63 63 80
63 63 80
63 63 80
63 63 80
63 63 80
63 63 80
63 63 80
63 63 80
63 63 80
63 63 80
63 63 80
63 63 80
63 63 80
63 63 80
63 63 80
63 63 80
63 63 80
63 63 80
63 63 80
63 63 80
63 63 80
63 63 80
63 63 80
63 63 80
63 63 80
63 63 80
63 63 80
63 63 80
63 63 80
63 63 80
63 63 80
63 63 80
63 63 80
63 63 80
63 63 80
63 63 80
63 63 80
63 63 80
63 63 80
63 63 80
63 63 80
63 63 80
63 63 80
63 63 80
63 63 80
63 63 80
63 63 80
63 63 80
63 63 80
63 63 80
63 63 80
63 63 80
63 63 80
63 63 80
63 63 80
63 63 80
63 63 80
63 63 80
63 63 80
63 63 80
63 63 80
63 63 80
63 63 80
63 63 80
63 63 80
63 63 80
63 63 80
63 63 80
63 63 80
63 63 80
63 63 80
63 63 80
63 63 80
63 63 80
63 63 80
63 63 80
63 63 80
63 63 80
63 63 80
63 63 80
63 63 80
63 63 80
63 63 80
63 63 80
63 63 80
63 63 80
63 63 80
63 63 80
63 63 80
63 63 80
63 63 80
63 63 80
63 63 80
63 63 80
63 63 80
63 63 80
63 63 80
63 63 80
63 63 80
63 63 80
63 63 80
63 63 80
63 63 80
63 63 80
63 63 80
63 63 80
63 63 80
63 63 80
63 63 80
63 63 80
63 63 80
63 63 80
63 63 80
63 63 80
63 63 80
63 63 80
63 63 80
63 63 80
63 63 80
63 63 80
63 63 80
63 63 80
63 63 80
63 63 80
63 63 80
63 63 80
63 63 80
63 63 80
63 63 80
63 63 80
63 63 80
63 63 80
63 63 80
63 63 80
63 63 80
63 63 80
63 63 80
63 63 80
63 63 80
63 63 80
63 63 80
63 63 80
63 63 80
63 63 80
63 63 80
63 63 80
63 63 80
63 63 80
63 63 80
63 63 80
63 63 80
63 63 80
63 63 80
63 63 80
63 63 80
63 63 80
63 63 80
63 63 80
63 63 80
63 63 80
63 63 80
63 63 80
63 63 80
63 63 80
63 63 80
63 63 80
63 63 80
63 63 80
63 63 80
63 63 80
63 63 80
63 63 80
63 63 80
63 63 80
63 63 80
63 63 80
63 63 80
63 63 80
63 63 80
63 63 80
63 63 80
63 63 80
63 63 80
63 63 80
63 63 80
63 63 80
63 63 80
63 63 80
63 63 80
63 63 80
63 63 80
63 63 80
63 63 80
63 63 80
63 63 80
63 63 80
63 63 80
63 63 80
63 63 80
63 63 80
63 63 80
63 63 80
63 63 80
63 63 80
63 63 80
63 63 80
63 63 80
63 63 80
63 63 80
63 63 80
63 63 80
63 63 80
63 63 80
63 63 80
63 63 80
63 63 80
63 63 80
63 63 80
63 63 80
63 63 80
63 63 80
63 63 80
63 63 80
63 63 80
63 63 80
63 63 80
63 63 80
63 63 80
63 63 80
63 63 80
63 63 80
63 63 80
63 63 80
63 63 80
63 63 80
63 63 80
63 63 80
63 63 80
63 63 80
63 63 80
63 63 80
63 63 80
63 63 80
63 63 80
63 63 80
63 63 80
63 63 80
63 63 80
63 63 80
63 63 80
63 63 80
63 63 80
63 63 80
63 63 80
63 63 80
63 63 80
63 63 80
63 63 80
63 63 80
63 63 80
63 63 80
63 63 80
63 63 80
63 63 80
63 63 80
63 63 80
63 63 80
63 63 80
63 63 80
63 63 80
63 63 80
63 63 80
63 63 80
63 63 80
63 63 80
63 63 80
63 63 80
63 63 80
63 63 80
63 63 80
63 63 80
63 63 80
63 63 80
63 63 80
63 63 80
63 63 80
63 63 80
63 63 80
63 63 80
63 63 80
63 63 80
63 63 80
63 63 80
63 63 80
63 63 80
63 63 80
63 63 80
63 63 80
63 63 80
63 63 80
63 63 80
63 63 80
63 63 80
63 63 80
63 63 80
63 63 80
63 63 80
63 63 80
63 63 80
63 63 80
63 63 80
63 63 80
63 63 80
63 63 80
63 63 80
63 63 80
63 63 80
63 63 80
63 63 80
63 63 80
63 63 80
63 63 80
63 63 80
63 63 80
63 63 80
63 63 80
63 63 80
63 63 80
63 63 80
63 63 80
63 63 80
63 63 80
63 63 80
63 63 80
63 63 80
63 63 80
63 63 80
63 63 80
63 63 80
63 63 80
63 63 80
63 63 80
63 63 80
63 63 80
63 63 80
63 63 80
63 63 80
63 63 80
63 63 80
63 63 80
63 63 80
63 63 80
63 63 80
63 63 80
63 63 80
63 63 80
63 63 80
63 63 80
63 63 80
63 63 80
63 63 80
63 63 80
63 63 80
63 63 80
63 63 80
63 63 80
63 63 80
63 63 80
63 63 80
63 63 80
63 63 80
63 63 80
63 63 80
63 63 80
63 63 80
63 63 80
63 63 80
63 63 80
63 63 80
63 63 80
63 63 80
63 63 80
63 63 80
63 63 80
63 63 80
63 63 80
63 63 80
63 63 80
63 63 80
63 63 80
63 63 80
63 63 80
63 63 80
63 63 80
63 63 80
63 63 80
63 63 80
63 63 80
63 63 80
63 63 80
63 63 80
63 63 80
63 63 80
63 63 80
63 63 80
63 63 80
63 63 80
63 63 80
63 63 80
63 63 80
63 63 80
63 63 80
63 63 80
63 63 80
63 63 80
63 63 80
63 63 80
63 63 80
63 63 80
63 63 80
63 63 80
63 63 80
63 63 80
63 63 80
63 63 80
63 63 80
63 63 80
63 63 80
63 63 80
63 63 80
63 63 80
63 63 80
63 63 80
63 63 80
63 63 80
63 63 80
63 63 80
63 63 80
63 63 80
63 63 80
63 63 80
63 63 80
63 63 80
63 63 80
63 63 80
63 63 80
63 63 80
63 63 80
63 63 80
63 63 80
63 63 80
63 63 80
63 63 80
63 63 80
63 63 80
63 63 80
63 63 80
63 63 80
63 63 80
63 63 80
63 63 80
63 63 80
63 63 80
63 63 80
63 63 80
63 63 80
63 63 80
63 63 80
63 63 80
63 63 80
63 63 80
63 63 80
63 63 80
63 63 80
63 63 80
63 63 80
63 63 80
63 63 80
63 63 80
63 63 80
63 63 80
63 63 80
63 63 80
63 63 80
63 63 80
63 63 80
63 63 80
63 63 80
63 63 80
63 63 80
63 63 80
63 63 80
63 63 80
63 63 80
63 63 80
63 63 80
63 63 80
63 63 80
63 63 80
63 63 80
63 63 80
63 63 80
63 63 80
63 63 80
63 63 80
63 63 80
63 63 80
63 63 80
63 63 80
63 63 80
63 63 80
63 63 80
63 63 80
63 63 80
63 63 80
63 63 80
63 63 80
63 63 80
63 63 80
63 63 80
63 63 80
63 63 80
63 63 80
63 63 80
63 63 80
63 63 80
63 63 80
63 63 80
63 63 80
63 63 80
63 63 80
63 63 80
63 63 80
63 63 80
63 63 80
63 63 80
63 63 80
63 63 80
63 63 80
63 63 80
63 63 80
63 63 80
63 63 80
63 63 80
63 63 80
63 63 80
63 63 80
63 63 80
63 63 80
63 63 80
63 63 80
63 63 80
63 63 80
63 63 80
63 63 80
63 63 80
63 63 80
63 63 80
63 63 80
63 63 80
63 63 80
63 63 80
63 63 80
63 63 80
63 63 80
63 63 80
63 63 80
63 63 80
63 63 80
63 63 80
63 63 80
63 63 80
63 63 80
63 63 80
63 63 80
63 63 80
63 63 80
63 63 80
63 63 80
63 63 80
63 63 80
63 63 80
63 63 80
63 63 80
63 63 80
63 63 80
63 63 80
63 63 80
63 63 80
63 63 80
63 63 80
63 63 80
63 63 80
63 63 80
63 63 80
63 63 80
63 63 80
63 63 80
63 63 80
63 63 80
63 63 80
63 63 80
63 63 80
63 63 80
63 63 80
63 63 80
63 63 80
63 63 80
63 63 80
63 63 80
63 63 80
63 63 80
63 63 80
63 63 80
63 63 80
63 63 80
63 63 80
63 63 80
63 63 80
63 63 80
63 63 80
63 63 80
63 63 80
63 63 80
63 63 80
63 63 80
63 63 80
63 63 80
63 63 80
63 63 80
63 63 80
63 63 80
63 63 80
63 63 80
63 63 80
63 63 80
63 63 80
63 63 80
63 63 80
63 63 80
63 63 80
63 63 80
63 63 80
63 63 80
63 63 80
63 63 80
63 63 80
63 63 80
63 63 80
63 63 80
63 63 80
63 63 80
63 63 80
64 64 80
63 63 80
63 63 80
63 63 80
63 63 80
63 63 80
63 63 80
63 63 80
63 63 80
63 63 80
63 63 80
63 63 80
63 63 80
63 63 80
63 63 80
63 63 80
63 63 80
63 63 80
63 63 80
63 63 80
63 63 80
63 63 80
63 63 80
63 63 80
63 63 80
63 63 80
63 63 80
63 63 80
63 63 80
63 63 80
63 63 80
63 63 80
63 63 80
63 63 80
63 63 80
63 63 80
63 63 80
63 63 80
63 63 80
63 63 80
63 63 80
63 63 80
63 63 80
63 63 80
63 63 80
63 63 80
63 63 80
63 63 80
63 63 80
63 63 80
63 63 80
63 63 80
63 63 80
63 63 80
63 63 80
63 63 80
63 63 80
63 63 80
63 63 80
63 63 80
63 63 80
63 63 80
63 63 80
63 63 80
63 63 80
63 63 80
63 63 80
63 63 80
63 63 80
63 63 80
63 63 80
63 63 80
63 63 80
63 63 80
63 63 80
63 63 80
63 63 80
63 63 80
63 63 80
63 63 80
63 63 80
63 63 80
63 63 80
63 63 80
63 63 80
63 63 80
63 63 80
63 63 80
63 63 80
63 63 80
63 63 80
63 63 80
63 63 80
63 63 80
63 63 80
63 63 80
63 63 80
63 63 80
63 63 80
63 63 80
63 63 80
63 63 80
63 63 80
63 63 80
63 63 80
63 63 80
63 63 80
63 63 80
63 63 80
63 63 80
63 63 80
63 63 80
63 63 80
63 63 80
63 63 80
63 63 80
63 63 80
63 63 80
63 63 80
63 63 80
63 63 80
63 63 80
63 63 80
63 63 80
63 63 80
63 63 80
63 63 80
63 63 80
63 63 80
63 63 80
63 63 80
63 63 80
63 63 80
63 63 80
63 63 80
63 63 80
63 63 80
63 63 80
63 63 80
63 63 80
63 63 80
63 63 80
63 63 80
63 63 80
63 63 80
63 63 80
63 63 80
63 63 80
63 63 80
63 63 80
63 63 80
63 63 80
63 63 80
63 63 80
63 63 80
63 63 80
63 63 80
63 63 80
63 63 80
63 63 80
63 63 80
63 63 80
63 63 80
63 63 80
63 63 80
63 63 80
63 63 80
63 63 80
63 63 80
63 63 80
63 63 80
63 63 80
63 63 80
63 63 80
63 63 80
63 63 80
63 63 80
63 63 80
63 63 80
63 63 80
63 63 80
63 63 80
63 63 80
63 63 80
63 63 80
63 63 80
63 63 80
63 63 80
63 63 80
63 63 80
63 63 80
63 63 80
63 63 80
63 63 80
63 63 80
63 63 80
63 63 80
63 63 80
63 63 80
63 63 80
63 63 80
63 63 80
63 63 80
63 63 80
63 63 80
63 63 80
63 63 80
63 63 80
63 63 80
63 63 80
63 63 80
63 63 80
63 63 80
63 63 80
63 63 80
63 63 80
63 63 80
63 63 80
63 63 80
63 63 80
63 63 80
63 63 80
63 63 80
63 63 80
63 63 80
63 63 80
63 63 80
63 63 80
63 63 80
63 63 80
63 63 80
63 63 80
63 63 80
63 63 80
63 63 80
63 63 80
63 63 80
63 63 80
63 63 80
63 63 80
63 63 80
63 63 80
63 63 80
63 63 80
63 63 80
63 63 80
63 63 80
63 63 80
63 63 80
63 63 80
63 63 80
63 63 80
63 63 80
63 63 80
63 63 80
63 63 80
63 63 80
63 63 80
63 63 80
63 63 80
63 63 80
63 63 80
63 63 80
63 63 80
63 63 80
63 63 80
63 63 80
63 63 80
63 63 80
63 63 80
63 63 80
63 63 80
63 63 80
63 63 80
63 63 80
63 63 80
63 63 80
63 63 80
63 63 80
63 63 80
63 63 80
63 63 80
63 63 80
63 63 80
63 63 80
63 63 80
63 63 80
63 63 80
63 63 80
63 63 80
63 63 80
63 63 80
63 63 80
63 63 80
63 63 80
63 63 80
63 63 80
63 63 80
63 63 80
63 63 80
63 63 80
63 63 80
63 63 80
63 63 80
63 63 80
63 63 80
63 63 80
63 63 80
63 63 80
63 63 80
63 63 80
63 63 80
63 63 80
63 63 80
63 63 80
63 63 80
63 63 80
63 63 80
63 63 80
63 63 80
63 63 80
63 63 80
63 63 80
63 63 80
63 63 80
63 63 80
63 63 80
63 63 80
63 63 80
63 63 80
63 63 80
63 63 80
63 63 80
63 63 80
63 63 80
63 63 80
63 63 80
63 63 80
63 63 80
63 63 80
63 63 80
63 63 80
63 63 80
63 63 80
63 63 80
63 63 80
63 63 80
63 63 80
63 63 80
63 63 80
63 63 80
63 63 80
63 63 80
63 63 80
63 63 80
63 63 80
63 63 80
63 63 80
63 63 80
63 63 80
63 63 80
63 63 80
63 63 80
63 63 80
63 63 80
63 63 80
63 63 80
63 63 80
63 63 80
63 63 80
63 63 80
63 63 80
63 63 80
63 63 80
64 64 80
63 63 80
63 63 80
63 63 80
63 63 80
63 63 80
63 63 80
63 63 80
63 63 80
63 63 80
63 63 80
63 63 80
63 63 80
63 63 80
63 63 80
63 63 80
63 63 80
63 63 80
63 63 80
63 63 80
63 63 80
63 63 80
63 63 80
63 63 80
63 63 80
63 63 80
63 63 80
63 63 80
63 63 80
63 63 80
63 63 80
63 63 80
63 63 80
63 63 80
63 63 80
63 63 80
63 63 80
63 63 80
63 63 80
63 63 80
63 63 80
63 63 80
63 63 80
63 63 80
63 63 80
63 63 80
63 63 80
63 63 80
63 63 80
63 63 80
63 63 80
63 63 80
63 63 80
63 63 80
63 63 80
63 63 80
63 63 80
63 63 80
63 63 80
63 63 80
63 63 80
63 63 80
63 63 80
63 63 80
63 63 80
63 63 80
63 63 80
63 63 80
63 63 80
63 63 80
63 63 80
63 63 80
63 63 80
63 63 80
63 63 80
63 63 80
63 63 80
63 63 80
63 63 80
63 63 80
63 63 80
63 63 80
63 63 80
63 63 80
63 63 80
63 63 80
63 63 80
63 63 80
63 63 80
63 63 80
63 63 80
63 63 80
63 63 80
63 63 80
63 63 80
63 63 80
63 63 80
63 63 80
63 63 80
63 63 80
63 63 80
63 63 80
63 63 80
63 63 80
63 63 80
63 63 80
63 63 80
63 63 80
63 63 80
63 63 80
63 63 80
63 63 80
63 63 80
63 63 80
63 63 80
63 63 80
63 63 80
63 63 80
63 63 80
63 63 80
63 63 80
63 63 80
63 63 80
63 63 80
63 63 80
63 63 80
63 63 80
63 63 80
63 63 80
63 63 80
63 63 80
63 63 80
63 63 80
63 63 80
63 63 80
63 63 80
63 63 80
63 63 80
63 63 80
63 63 80
63 63 80
63 63 80
63 63 80
63 63 80
63 63 80
63 63 80
63 63 80
63 63 80
63 63 80
63 63 80
63 63 80
63 63 80
63 63 80
63 63 80
63 63 80
63 63 80
63 63 80
63 63 80
63 63 80
63 63 80
63 63 80
63 63 80
63 63 80
63 63 80
63 63 80
63 63 80
63 63 80
63 63 80
63 63 80
63 63 80
63 63 80
63 63 80
63 63 80
63 63 80
63 63 80
63 63 80
63 63 80
63 63 80
63 63 80
63 63 80
63 63 80
63 63 80
63 63 80
63 63 80
63 63 80
63 63 80
63 63 80
63 63 80
63 63 80
63 63 80
63 63 80
63 63 80
63 63 80
63 63 80
63 63 80
63 63 80
63 63 80
63 63 80
63 63 80
63 63 80
63 63 80
63 63 80
63 63 80
63 63 80
63 63 80
63 63 80
63 63 80
63 63 80
63 63 80
63 63 80
63 63 80
63 63 80
63 63 80
63 63 80
63 63 80
63 63 80
63 63 80
63 63 80
63 63 80
63 63 80
63 63 80
63 63 80
63 63 80
63 63 80
63 63 80
63 63 80
63 63 80
63 63 80
63 63 80
63 63 80
63 63 80
63 63 80
63 63 80
63 63 80
63 63 80
63 63 80
63 63 80
63 63 80
63 63 80
63 63 80
63 63 80
63 63 80
63 63 80
63 63 80
63 63 80
63 63 80
63 63 80
63 63 80
63 63 80
63 63 80
63 63 80
63 63 80
63 63 80
63 63 80
63 63 80
63 63 80
63 63 80
63 63 80
63 63 80
63 63 80
63 63 80
63 63 80
63 63 80
63 63 80
63 63 80
63 63 80
63 63 80
63 63 80
63 63 80
63 63 80
63 63 80
63 63 80
63 63 80
63 63 80
63 63 80
63 63 80
63 63 80
63 63 80
63 63 80
63 63 80
63 63 80
63 63 80
63 63 80
63 63 80
63 63 80
63 63 80
63 63 80
63 63 80
63 63 80
63 63 80
63 63 80
63 63 80
63 63 80
63 63 80
63 63 80
63 63 80
63 63 80
63 63 80
63 63 80
63 63 80
63 63 80
63 63 80
63 63 80
63 63 80
63 63 80
63 63 80
63 63 80
63 63 80
63 63 80
63 63 80
63 63 80
63 63 80
63 63 80
63 63 80
63 63 80
63 63 80
63 63 80
63 63 80
63 63 80
63 63 80
63 63 80
63 63 80
63 63 80
63 63 80
63 63 80
63 63 80
63 63 80
63 63 80
63 63 80
63 63 80
63 63 80
63 63 80
63 63 80
63 63 80
63 63 80
63 63 80
63 63 80
63 63 80
63 63 80
63 63 80
63 63 80
63 63 80
63 63 80
63 63 80
63 63 80
63 63 80
63 63 80
63 63 80
63 63 80
63 63 80
63 63 80
63 63 80
63 63 80
63 63 80
63 63 80
63 63 80
63 63 80
63 63 80
63 63 80
63 63 80
63 63 80
63 63 80
63 63 80
63 63 80
63 63 80
63 63 80
63 63 80
63 63 80
63 63 80
63 63 80
63 63 80
63 63 80
63 63 80
63 63 80
63 63 80
63 63 80
63 63 80
63 63 80
63 63 80
63 63 80
63 63 80
63 63 80
63 63 80
63 63 80
63 63 80
63 63 80
63 63 80
63 63 80
63 63 80
63 63 80
63 63 80
63 63 80
63 63 80
63 63 80
63 63 80
63 63 80
64 64 81
63 63 80
63 63 80
63 63 80
63 63 80
63 63 80
63 63 80
63 63 80
63 63 80
63 63 80
63 63 80
63 63 80
63 63 80
63 63 80
63 63 80
63 63 80
63 63 80
63 63 80
63 63 80
63 63 80
63 63 80
63 63 80
63 63 80
63 63 80
63 63 80
63 63 80
63 63 80
63 63 80
63 63 80
63 63 80
63 63 80
63 63 80
63 63 80
63 63 80
63 63 80
63 63 80
63 63 80
63 63 80
63 63 80
63 63 80
63 63 80
63 63 80
63 63 80
63 63 80
63 63 80
63 63 80
63 63 80
63 63 80
63 63 80
63 63 80
63 63 80
63 63 80
63 63 80
63 63 80
63 63 80
63 63 80
63 63 80
63 63 80
63 63 80
63 63 80
63 63 80
63 63 80
63 63 80
63 63 80
63 63 80
63 63 80
63 63 80
63 63 80
63 63 80
63 63 80
63 63 80
63 63 80
63 63 80
63 63 80
63 63 80
63 63 80
63 63 80
63 63 80
63 63 80
63 63 80
63 63 80
63 63 80
63 63 80
63 63 80
63 63 80
63 63 80
63 63 80
63 63 80
63 63 80
63 63 80
63 63 80
63 63 80
63 63 80
63 63 80
63 63 80
63 63 80
63 63 80
63 63 80
63 63 80
63 63 80
63 63 80
63 63 80
63 63 80
63 63 80
63 63 80
63 63 80
63 63 80
63 63 80
63 63 80
63 63 80
63 63 80
63 63 80
63 63 80
63 63 80
63 63 80
63 63 80
63 63 80
63 63 80
63 63 80
63 63 80
63 63 80
63 63 80
63 63 80
63 63 80
63 63 80
63 63 80
63 63 80
63 63 80
63 63 80
63 63 80
63 63 80
63 63 80
64 64 80
63 63 80
63 63 80
63 63 80
63 63 80
63 63 80
63 63 80
63 63 80
63 63 80
63 63 80
63 63 80
63 63 80
63 63 80
63 63 80
63 63 80
63 63 80
63 63 80
63 63 80
63 63 80
63 63 80
63 63 80
63 63 80
63 63 80
63 63 80
63 63 80
63 63 80
63 63 80
63 63 80
63 63 80
63 63 80
63 63 80
63 63 80
63 63 80
63 63 80
63 63 80
63 63 80
63 63 80
63 63 80
63 63 80
63 63 80
63 63 80
63 63 80
63 63 80
63 63 80
63 63 80
63 63 80
63 63 80
63 63 80
63 63 80
63 63 80
63 63 80
63 63 80
63 63 80
63 63 80
63 63 80
63 63 80
63 63 80
63 63 80
63 63 80
63 63 80
63 63 80
63 63 80
63 63 80
63 63 80
63 63 80
63 63 80
63 63 80
63 63 80
63 63 80
63 63 80
63 63 80
63 63 80
63 63 80
63 63 80
63 63 80
63 63 80
63 63 80
63 63 80
63 63 80
63 63 80
63 63 80
63 63 80
63 63 80
63 63 80
63 63 80
63 63 80
63 63 80
63 63 80
63 63 80
63 63 80
63 63 80
63 63 80
63 63 80
63 63 80
63 63 80
63 63 80
63 63 80
63 63 80
63 63 80
63 63 80
63 63 80
63 63 80
63 63 80
63 63 80
63 63 80
63 63 80
63 63 80
63 63 80
63 63 80
63 63 80
63 63 80
63 63 80
63 63 80
63 63 80
63 63 80
63 63 80
63 63 80
63 63 80
63 63 80
63 63 80
63 63 80
63 63 80
63 63 80
63 63 80
63 63 80
63 63 80
63 63 80
63 63 80
63 63 80
63 63 80
63 63 80
63 63 80
63 63 80
63 63 80
63 63 80
63 63 80
63 63 80
63 63 80
63 63 80
63 63 80
63 63 80
63 63 80
63 63 80
63 63 80
63 63 80
63 63 80
63 63 80
63 63 80
63 63 80
63 63 80
63 63 80
63 63 80
63 63 80
63 63 80
63 63 80
63 63 80
63 63 80
63 63 80
63 63 80
63 63 80
63 63 80
63 63 80
63 63 80
63 63 80
63 63 80
63 63 80
63 63 80
63 63 80
63 63 80
63 63 80
63 63 80
63 63 80
63 63 80
63 63 80
63 63 80
63 63 80
63 63 80
63 63 80
63 63 80
63 63 80
63 63 80
63 63 80
63 63 80
63 63 80
63 63 80
63 63 80
63 63 80
63 63 80
63 63 80
63 63 80
63 63 80
63 63 80
63 63 80
63 63 80
63 63 80
63 63 80
63 63 80
63 63 80
63 63 80
64 64 80
63 63 80
63 63 80
63 63 80
63 63 80
63 63 80
63 63 80
63 63 80
63 63 80
63 63 80
63 63 80
63 63 80
63 63 80
63 63 80
63 63 80
63 63 80
63 63 80
63 63 80
63 63 80
63 63 80
63 63 80
63 63 80
63 63 80
63 63 80
63 63 80
63 63 80
63 63 80
63 63 80
63 63 80
63 63 80
63 63 80
63 63 80
63 63 80
63 63 80
63 63 80
63 63 80
63 63 80
63 63 80
63 63 80
63 63 80
63 63 80
63 63 80
63 63 80
63 63 80
63 63 80
63 63 80
63 63 80
63 63 80
63 63 80
63 63 80
63 63 80
63 63 80
63 63 80
63 63 80
63 63 80
63 63 80
63 63 80
63 63 80
63 63 80
63 63 80
63 63 80
63 63 80
63 63 80
63 63 80
63 63 80
63 63 80
63 63 80
63 63 80
63 63 80
63 63 80
63 63 80
63 63 80
64 64 80
63 63 80
63 63 80
63 63 80
63 63 80
63 63 80
63 63 80
63 63 80
63 63 80
63 63 80
63 63 80
63 63 80
63 63 80
63 63 80
63 63 80
63 63 80
63 63 80
63 63 80
63 63 80
63 63 80
63 63 80
63 63 80
63 63 80
63 63 80
63 63 80
63 63 80
64 64 80
63 63 80
63 63 80
63 63 80
63 63 80
63 63 80
63 63 80
63 63 80
63 63 80
63 63 80
63 63 80
63 63 80
63 63 80
63 63 80
63 63 80
63 63 80
63 63 80
63 63 80
63 63 80
63 63 80
63 63 80
63 63 80
63 63 80
63 63 80
63 63 80
63 63 80
63 63 80
63 63 80
63 63 80
63 63 80
63 63 80
63 63 80
63 63 80
63 63 80
63 63 80
63 63 80
63 63 80
63 63 80
63 63 80
63 63 80
63 63 80
63 63 80
63 63 80
63 63 80
63 63 80
63 63 80
63 63 80
63 63 80
63 63 80
63 63 80
63 63 80
63 63 80
63 63 80
63 63 80
63 63 80
63 63 80
63 63 80
63 63 80
63 63 80
63 63 80
63 63 80
63 63 80
63 63 80
63 63 80
63 63 80
63 63 80
63 63 80
63 63 80
63 63 80
63 63 80
63 63 80
63 63 80
63 63 80
63 63 80
63 63 80
63 63 80
63 63 80
63 63 80
63 63 80
63 63 80
63 63 80
63 63 80
63 63 80
63 63 80
63 63 80
63 63 80
63 63 80
63 63 80
63 63 80
63 63 80
63 63 80
63 63 80
63 63 80
63 63 80
63 63 80
63 63 80
63 63 80
64 64 80
64 64 80
63 63 80
63 63 80
63 63 80
63 63 80
63 63 80
63 63 80
63 63 80
63 63 80
63 63 80
63 63 80
63 63 80
63 63 80
63 63 80
63 63 80
63 63 80
63 63 80
63 63 80
63 63 80
63 63 80
63 63 80
63 63 80
63 63 80
63 63 80
63 63 80
63 63 80
63 63 80
63 63 80
63 63 80
63 63 80
63 63 80
63 63 80
63 63 80
63 63 80
63 63 80
63 63 80
63 63 80
63 63 80
63 63 80
63 63 80
63 63 80
63 63 80
63 63 80
63 63 80
63 63 80
63 63 80
63 63 80
63 63 80
63 63 80
63 63 80
63 63 80
63 63 80
63 63 80
63 63 80
63 63 80
63 63 80
63 63 80
63 63 80
63 63 80
63 63 80
63 63 80
63 63 80
63 63 80
63 63 80
63 63 80
63 63 80
63 63 80
63 63 80
63 63 80
63 63 80
63 63 80
63 63 80
63 63 80
63 63 80
63 63 80
63 63 80
63 63 80
63 63 80
63 63 80
63 63 80
63 63 80
63 63 80
63 63 80
63 63 80
63 63 80
63 63 80
63 63 80
63 63 80
63 63 80
63 63 80
63 63 80
63 63 80
63 63 80
63 63 80
63 63 80
63 63 80
63 63 80
63 63 80
63 63 80
63 63 80
63 63 80
63 63 80
63 63 80
63 63 80
63 63 80
63 63 80
63 63 80
63 63 80
63 63 80
63 63 80
63 63 80
63 63 80
63 63 80
63 63 80
63 63 80
63 63 80
63 63 80
63 63 80
63 63 80
63 63 80
63 63 80
63 63 80
63 63 80
63 63 80
63 63 80
63 63 80
63 63 80
63 63 80
63 63 80
63 63 80
63 63 80
63 63 80
63 63 80
63 63 80
63 63 80
63 63 80
63 63 80
63 63 80
63 63 80
63 63 80
63 63 80
63 63 80
63 63 80
63 63 80
63 63 80
63 63 80
63 63 80
63 63 80
63 63 80
63 63 80
63 63 80
63 63 80
63 63 80
63 63 80
63 63 80
63 63 80
63 63 80
63 63 80
63 63 80
63 63 80
63 63 80
63 63 80
63 63 80
63 63 80
63 63 80
63 63 80
63 63 80
63 63 80
63 63 80
63 63 80
63 63 80
63 63 80
63 63 80
63 63 80
63 63 80
63 63 80
63 63 80
63 63 80
63 63 80
63 63 80
63 63 80
63 63 80
63 63 80
63 63 80
63 63 80
63 63 80
63 63 80
63 63 80
63 63 80
63 63 80
63 63 80
63 63 80
63 63 80
63 63 80
63 63 80
63 63 80
63 63 80
63 63 80
63 63 80
63 63 80
63 63 80
63 63 80
63 63 80
63 63 80
63 63 80
63 63 80
63 63 80
64 64 80
63 63 80
63 63 80
63 63 80
63 63 80
63 63 80
63 63 80
63 63 80
63 63 80
63 63 80
63 63 80
63 63 80
63 63 80
63 63 80
63 63 80
63 63 80
63 63 80
63 63 80
63 63 80
63 63 80
63 63 80
63 63 80
63 63 80
63 63 80
63 63 80
63 63 80
63 63 80
63 63 80
63 63 80
63 63 80
63 63 80
63 63 80
63 63 80
63 63 80
63 63 80
63 63 80
63 63 80
63 63 80
63 63 80
63 63 80
63 63 80
63 63 80
63 63 80
63 63 80
63 63 80
63 63 80
63 63 80
63 63 80
63 63 80
63 63 80
63 63 80
63 63 80
63 63 80
63 63 80
63 63 80
63 63 80
63 63 80
63 63 80
63 63 80
63 63 80
63 63 80
63 63 80
63 63 80
63 63 80
63 63 80
63 63 80
63 63 80
63 63 80
64 64 80
64 64 80
63 63 80
63 63 80
63 63 80
63 63 80
63 63 80
63 63 80
63 63 80
63 63 80
63 63 80
63 63 80
63 63 80
63 63 80
63 63 80
63 63 80
63 63 80
63 63 80
63 63 80
64 64 80
63 63 80
63 63 80
63 63 80
64 64 80
63 63 80
63 63 80
63 63 80
64 64 80
63 63 80
64 64 80
63 63 80
63 63 80
64 64 80
63 63 80
64 64 81
63 63 80
63 63 80
63 63 80
63 63 80
63 63 80
63 63 80
63 63 80
63 63 80
63 63 80
63 63 80
63 63 80
63 63 80
63 63 80
63 63 80
63 63 80
63 63 80
63 63 80
63 63 80
63 63 80
63 63 80
63 63 80
63 63 80
63 63 80
63 63 80
63 63 80
63 63 80
63 63 80
63 63 80
63 63 80
63 63 80
63 63 80
63 63 80
63 63 80
63 63 80
63 63 80
63 63 80
63 63 80
63 63 80
63 63 80
63 63 80
63 63 80
63 63 80
63 63 80
63 63 80
63 63 80
63 63 80
63 63 80
63 63 80
63 63 80
63 63 80
63 63 80
63 63 80
63 63 80
63 63 80
63 63 80
63 63 80
63 63 80
63 63 80
63 63 80
63 63 80
63 63 80
63 63 80
63 63 80
63 63 80
63 63 80
63 63 80
63 63 80
63 63 80
63 63 80
63 63 80
63 63 80
63 63 80
63 63 80
63 63 80
63 63 80
63 63 80
64 64 80
63 63 80
63 63 80
63 63 80
63 63 80
64 64 80
63 63 80
63 63 80
63 63 80
63 63 80
63 63 80
64 64 80
64 64 80
63 63 80
64 64 81
63 63 80
63 63 80
63 63 80
63 63 80
63 63 80
63 63 80
63 63 80
63 63 80
63 63 80
63 63 80
64 64 80
63 63 80
63 63 80
63 63 80
64 64 80
63 63 80
63 63 80
63 63 80
63 63 80
63 63 80
63 63 80
63 63 80
63 63 80
63 63 80
63 63 80
63 63 80
63 63 80
63 63 80
63 63 80
63 63 80
63 63 80
63 63 80
63 63 80
63 63 80
63 63 80
63 63 80
63 63 80
63 63 80
63 63 80
63 63 80
63 63 80
63 63 80
63 63 80
63 63 80
63 63 80
63 63 80
63 63 80
63 63 80
63 63 80
63 63 80
63 63 80
63 63 80
63 63 80
63 63 80
63 63 80
63 63 80
63 63 80
63 63 80
63 63 80
63 63 80
63 63 80
63 63 80
63 63 80
63 63 80
63 63 80
63 63 80
63 63 80
63 63 80
63 63 80
63 63 80
63 63 80
63 63 80
63 63 80
63 63 80
63 63 80
63 63 80
63 63 80
63 63 80
63 63 80
63 63 80
63 63 80
63 63 80
63 63 80
63 63 80
63 63 80
63 63 80
63 63 80
63 63 80
63 63 80
64 64 80
63 63 80
63 63 80
63 63 80
63 63 80
63 63 80
63 63 80
63 63 80
63 63 80
63 63 80
63 63 80
63 63 80
63 63 80
63 63 80
63 63 80
63 63 80
63 63 80
63 63 80
63 63 80
63 63 80
63 63 80
63 63 80
63 63 80
63 63 80
63 63 80
63 63 80
63 63 80
63 63 80
63 63 80
63 63 80
63 63 80
63 63 80
63 63 80
63 63 80
63 63 80
63 63 80
63 63 80
63 63 80
63 63 80
63 63 80
63 63 80
63 63 80
63 63 80
63 63 80
63 63 80
63 63 80
63 63 80
63 63 80
63 63 80
63 63 80
63 63 80
63 63 80
63 63 80
63 63 80
63 63 80
63 63 80
63 63 80
63 63 80
63 63 80
63 63 80
63 63 80
63 63 80
63 63 80
63 63 80
63 63 80
63 63 80
63 63 80
63 63 80
63 63 80
63 63 80
63 63 80
63 63 80
63 63 80
63 63 80
63 63 80
63 63 80
63 63 80
63 63 80
63 63 80
63 63 80
63 63 80
63 63 80
63 63 80
63 63 80
63 63 80
63 63 80
63 63 80
63 63 80
63 63 80
64 64 80
63 63 80
63 63 80
63 63 80
63 63 80
63 63 80
63 63 80
63 63 80
63 63 80
63 63 80
63 63 80
63 63 80
63 63 80
63 63 80
63 63 80
63 63 80
63 63 80
63 63 80
63 63 80
63 63 80
63 63 80
63 63 80
63 63 80
63 63 80
63 63 80
63 63 80
63 63 80
63 63 80
63 63 80
63 63 80
63 63 80
63 63 80
63 63 80
63 63 80
63 63 80
63 63 80
63 63 80
63 63 80
63 63 80
63 63 80
63 63 80
63 63 80
63 63 80
63 63 80
63 63 80
63 63 80
63 63 80
63 63 80
63 63 80
63 63 80
63 63 80
63 63 80
63 63 80
63 63 80
63 63 80
63 63 80
63 63 80
63 63 80
63 63 80
63 63 80
63 63 80
63 63 80
63 63 80
63 63 80
63 63 80
63 63 80
63 63 80
63 63 80
63 63 80
63 63 80
63 63 80
63 63 80
63 63 80
63 63 80
63 63 80
63 63 80
63 63 80
63 63 80
63 63 80
63 63 80
63 63 80
63 63 80
63 63 80
63 63 80
63 63 80
63 63 80
63 63 80
63 63 80
63 63 80
63 63 80
63 63 80
63 63 80
63 63 80
63 63 80
63 63 80
63 63 80
63 63 80
63 63 80
64 64 80
63 63 80
63 63 80
64 64 80
64 64 81
64 64 81
63 63 80
64 64 80
63 63 80
64 64 80
64 64 80
63 63 80
64 64 81
63 63 80
63 63 80
63 63 80
63 63 80
64 64 80
64 64 80
64 64 80
64 64 80
63 63 80
63 63 80
63 63 80
63 63 80
64 64 80
63 63 80
64 64 80
63 63 80
64 64 80
64 64 80
63 63 80
63 63 80
63 63 80
63 63 80
63 63 80
63 63 80
63 63 80
63 63 80
63 63 80
63 63 80
63 63 80
63 63 80
63 63 80
63 63 80
63 63 80
63 63 80
63 63 80
63 63 80
63 63 80
63 63 80
63 63 80
63 63 80
63 63 80
63 63 80
63 63 80
63 63 80
63 63 80
63 63 80
63 63 80
63 63 80
63 63 80
63 63 80
63 63 80
63 63 80
63 63 80
63 63 80
63 63 80
63 63 80
63 63 80
63 63 80
63 63 80
63 63 80
63 63 80
63 63 80
63 63 80
63 63 80
63 63 80
63 63 80
63 63 80
63 63 80
63 63 80
63 63 80
63 63 80
63 63 80
63 63 80
63 63 80
63 63 80
63 63 80
63 63 80
63 63 80
63 63 80
63 63 80
63 63 80
63 63 80
63 63 80
63 63 80
63 63 80
64 64 80
63 63 80
63 63 80
64 64 80
63 63 80
63 63 80
63 63 80
64 64 80
63 63 80
63 63 80
63 63 80
63 63 80
64 64 80
63 63 80
63 63 80
63 63 80
63 63 80
63 63 80
63 63 80
63 63 80
63 63 80
63 63 80
64 64 80
64 64 80
63 63 80
63 63 80
63 63 80
63 63 80
63 63 80
63 63 80
63 63 80
63 63 80
64 64 80
63 63 80
63 63 80
63 63 80
63 63 80
63 63 80
64 64 80
63 63 80
63 63 80
63 63 80
63 63 80
63 63 80
63 63 80
63 63 80
64 64 80
63 63 80
63 63 80
63 63 80
63 63 80
64 64 80
63 63 80
63 63 80
63 63 80
63 63 80
63 63 80
63 63 80
63 63 80
63 63 80
63 63 80
63 63 80
63 63 80
64 64 81
63 63 80
63 63 80
63 63 80
63 63 80
63 63 80
63 63 80
64 64 81
63 63 80
63 63 80
63 63 80
63 63 80
63 63 80
63 63 80
63 63 80
63 63 80
63 63 80
63 63 80
63 63 80
63 63 80
63 63 80
63 63 80
63 63 80
63 63 80
63 63 80
63 63 80
63 63 80
63 63 80
63 63 80
63 63 80
63 63 80
63 63 80
63 63 80
63 63 80
63 63 80
63 63 80
63 63 80
63 63 80
63 63 80
64 64 80
63 63 80
64 64 81
63 63 80
63 63 80
63 63 80
63 63 80
63 63 80
63 63 80
63 63 80
63 63 80
63 63 80
63 63 80
63 63 80
63 63 80
63 63 80
63 63 80
63 63 80
63 63 80
63 63 80
63 63 80
63 63 80
63 63 80
63 63 80
63 63 80
63 63 80
63 63 80
63 63 80
63 63 80
63 63 80
63 63 80
63 63 80
63 63 80
63 63 80
63 63 80
63 63 80
63 63 80
63 63 80
63 63 80
63 63 80
63 63 80
63 63 80
63 63 80
63 63 80
63 63 80
63 63 80
63 63 80
63 63 80
63 63 80
63 63 80
63 63 80
63 63 80
63 63 80
63 63 80
63 63 80
63 63 80
63 63 80
63 63 80
63 63 80
63 63 80
63 63 80
63 63 80
63 63 80
63 63 80
63 63 80
63 63 80
63 63 80
63 63 80
63 63 80
63 63 80
63 63 80
63 63 80
63 63 80
63 63 80
63 63 80
63 63 80
63 63 80
63 63 80
63 63 80
63 63 80
63 63 80
63 63 80
63 63 80
63 63 80
63 63 80
63 63 80
63 63 80
63 63 80
63 63 80
63 63 80
63 63 80
63 63 80
63 63 80
63 63 80
63 63 80
63 63 80
63 63 80
63 63 80
63 63 80
63 63 80
63 63 80
63 63 80
63 63 80
63 63 80
63 63 80
63 63 80
63 63 80
63 63 80
63 63 80
63 63 80
63 63 80
63 63 80
63 63 80
63 63 80
63 63 80
63 63 80
63 63 80
63 63 80
63 63 80
63 63 80
63 63 80
63 63 80
63 63 80
63 63 80
63 63 80
63 63 80
63 63 80
63 63 80
63 63 80
63 63 80
63 63 80
63 63 80
63 63 80
63 63 80
63 63 80
63 63 80
63 63 80
63 63 80
63 63 80
63 63 80
63 63 80
63 63 80
63 63 80
63 63 80
63 63 80
63 63 80
63 63 80
63 63 80
63 63 80
63 63 80
63 63 80
63 63 80
63 63 80
63 63 80
63 63 80
63 63 80
63 63 80
63 63 80
63 63 80
63 63 80
63 63 80
63 63 80
63 63 80
63 63 80
63 63 80
63 63 80
63 63 80
63 63 80
63 63 80
63 63 80
63 63 80
63 63 80
63 63 80
63 63 80
63 63 80
63 63 80
63 63 80
63 63 80
63 63 80
63 63 80
63 63 80
63 63 80
63 63 80
64 64 80
63 63 80
63 63 80
64 64 80
64 64 80
63 63 80
64 64 80
63 63 80
63 63 80
64 64 80
63 63 80
64 64 81
63 63 80
63 63 80
63 63 80
63 63 80
64 64 81
64 64 80
63 63 80
64 64 81
63 63 80
64 64 80
63 63 80
64 64 80
64 64 81
64 64 80
64 64 80
64 64 81
63 63 80
63 63 80
63 63 80
64 64 80
64 64 80
64 64 81
63 63 80
64 64 81
63 63 80
64 64 80
64 64 80
63 63 80
63 63 80
64 64 81
63 63 80
63 63 80
64 64 80
63 63 80
64 64 80
64 64 80
63 63 80
63 63 80
63 63 80
63 63 80
63 63 80
63 63 80
63 63 80
63 63 80
63 63 80
63 63 80
63 63 80
63 63 80
63 63 80
63 63 80
63 63 80
63 63 80
63 63 80
63 63 80
63 63 80
63 63 80
63 63 80
63 63 80
63 63 80
63 63 80
63 63 80
63 63 80
63 63 80
63 63 80
63 63 80
63 63 80
63 63 80
63 63 80
63 63 80
63 63 80
63 63 80
63 63 80
63 63 80
63 63 80
63 63 80
63 63 80
63 63 80
63 63 80
63 63 80
63 63 80
63 63 80
63 63 80
63 63 80
63 63 80
63 63 80
63 63 80
63 63 80
63 63 80
63 63 80
63 63 80
63 63 80
63 63 80
63 63 80
63 63 80
63 63 80
63 63 80
63 63 80
63 63 80
63 63 80
63 63 80
63 63 80
63 63 80
63 63 80
64 64 80
63 63 80
63 63 80
63 63 80
64 64 80
64 64 80
64 64 80
64 64 80
64 64 80
63 63 80
63 63 80
64 64 81
64 64 80
63 63 80
63 63 80
63 63 80
64 64 80
64 64 80
63 63 80
63 63 80
64 64 80
64 64 81
63 63 80
63 63 80
64 64 81
63 63 80
64 64 81
63 63 80
63 63 80
63 63 80
63 63 80
64 64 80
63 63 80
63 63 80
64 64 80
63 63 80
63 63 80
63 63 80
63 63 80
63 63 80
63 63 80
63 63 80
64 64 80
63 63 80
63 63 80
63 63 80
63 63 80
64 64 81
63 63 80
64 64 80
63 63 80
63 63 80
63 63 80
63 63 80
63 63 80
63 63 80
63 63 80
64 64 80
63 63 80
63 63 80
63 63 80
64 64 81
63 63 80
63 63 80
64 64 81
63 63 80
64 64 81
64 64 81
63 63 80
63 63 80
63 63 80
63 63 80
63 63 80
64 64 80
64 64 80
63 63 80
64 64 80
64 64 80
64 64 80
64 64 80
63 63 80
63 63 80
63 63 80
64 64 81
63 63 80
63 63 80
64 64 80
63 63 80
63 63 80
63 63 80
63 63 80
63 63 80
63 63 80
63 63 80
63 63 80
63 63 80
63 63 80
63 63 80
63 63 80
63 63 80
63 63 80
64 64 80
63 63 80
63 63 80
63 63 80
63 63 80
63 63 80
64 64 80
63 63 80
63 63 80
63 63 80
63 63 80
63 63 80
63 63 80
63 63 80
63 63 80
63 63 80
63 63 80
63 63 80
63 63 80
63 63 80
63 63 80
63 63 80
63 63 80
63 63 80
63 63 80
63 63 80
63 63 80
63 63 80
63 63 80
63 63 80
63 63 80
63 63 80
63 63 80
63 63 80
63 63 80
63 63 80
63 63 80
63 63 80
63 63 80
63 63 80
63 63 80
63 63 80
63 63 80
63 63 80
63 63 80
63 63 80
63 63 80
63 63 80
63 63 80
63 63 80
63 63 80
63 63 80
63 63 80
63 63 80
63 63 80
63 63 80
63 63 80
63 63 80
63 63 80
63 63 80
63 63 80
63 63 80
63 63 80
63 63 80
63 63 80
63 63 80
63 63 80
63 63 80
63 63 80
63 63 80
63 63 80
63 63 80
63 63 80
63 63 80
63 63 80
63 63 80
63 63 80
63 63 80
63 63 80
63 63 80
63 63 80
63 63 80
63 63 80
63 63 80
63 63 80
63 63 80
63 63 80
63 63 80
63 63 80
63 63 80
63 63 80
63 63 80
63 63 80
63 63 80
63 63 80
63 63 80
63 63 80
63 63 80
63 63 80
63 63 80
63 63 80
63 63 80
63 63 80
63 63 80
63 63 80
63 63 80
63 63 80
63 63 80
63 63 80
63 63 80
63 63 80
63 63 80
63 63 80
63 63 80
63 63 80
63 63 80
64 64 81
63 63 80
63 63 80
63 63 80
63 63 80
64 64 80
63 63 80
63 63 80
63 63 80
63 63 80
63 63 80
63 63 80
63 63 80
63 63 80
63 63 80
63 63 80
63 63 80
63 63 80
63 63 80
63 63 80
63 63 80
63 63 80
63 63 80
63 63 80
63 63 80
63 63 80
63 63 80
63 63 80
63 63 80
63 63 80
63 63 80
63 63 80
63 63 80
63 63 80
63 63 80
63 63 80
63 63 80
63 63 80
63 63 80
63 63 80
63 63 80
63 63 80
63 63 80
63 63 80
63 63 80
63 63 80
63 63 80
63 63 80
63 63 80
63 63 80
63 63 80
63 63 80
63 63 80
63 63 80
63 63 80
63 63 80
63 63 80
63 63 80
63 63 80
63 63 80
63 63 80
63 63 80
63 63 80
63 63 80
64 64 81
64 64 80
64 64 81
63 63 80
63 63 80
64 64 81
63 63 80
63 63 80
64 64 81
63 63 80
64 64 81
64 64 80
63 63 80
64 64 80
63 63 80
63 63 80
63 63 80
63 63 80
64 64 81
64 64 80
64 64 81
63 63 80
63 63 80
64 64 80
64 64 80
63 63 80
64 64 81
63 63 80
64 64 80
64 64 81
64 64 80
64 64 81
63 63 80
64 64 80
64 64 81
64 64 81
63 63 80
64 64 81
63 63 80
64 64 80
63 63 80
64 64 81
64 64 80
64 64 81
64 64 80
64 64 81
63 63 80
64 64 80
64 64 81
64 64 81
63 63 80
63 63 80
63 63 80
63 63 80
63 63 80
63 63 80
63 63 80
63 63 80
63 63 80
63 63 80
63 63 80
63 63 80
63 63 80
63 63 80
63 63 80
63 63 80
63 63 80
63 63 80
63 63 80
63 63 80
63 63 80
63 63 80
63 63 80
63 63 80
63 63 80
63 63 80
63 63 80
63 63 80
63 63 80
63 63 80
63 63 80
63 63 80
63 63 80
63 63 80
63 63 80
63 63 80
63 63 80
63 63 80
63 63 80
63 63 80
63 63 80
63 63 80
63 63 80
63 63 80
63 63 80
63 63 80
63 63 80
63 63 80
63 63 80
63 63 80
63 63 80
63 63 80
63 63 80
63 63 80
63 63 80
63 63 80
63 63 80
63 63 80
63 63 80
63 63 80
63 63 80
64 64 80
63 63 80
63 63 80
64 64 81
64 64 80
64 64 80
64 64 80
63 63 80
64 64 80
64 64 81
64 64 81
63 63 80
64 64 81
64 64 80
64 64 81
63 63 80
64 64 80
64 64 81
64 64 80
64 64 80
64 64 80
63 63 80
63 63 80
63 63 80
64 64 81
64 64 80
63 63 80
64 64 81
63 63 80
63 63 80
63 63 80
64 64 80
63 63 80
63 63 80
63 63 80
64 64 80
63 63 80
64 64 80
63 63 80
63 63 80
64 64 80
64 64 80
64 64 80
64 64 80
63 63 80
64 64 81
63 63 80
64 64 80
63 63 80
63 63 80
63 63 80
64 64 81
63 63 80
64 64 80
63 63 80
64 64 80
64 64 80
63 63 80
63 63 80
64 64 80
64 64 80
64 64 80
64 64 80
63 63 80
63 63 80
64 64 80
63 63 80
63 63 80
63 63 80
63 63 80
63 63 80
63 63 80
64 64 81
63 63 80
64 64 81
63 63 80
64 64 80
64 64 80
63 63 80
63 63 80
63 63 80
64 64 80
63 63 80
63 63 80
63 63 80
63 63 80
63 63 80
63 63 80
64 64 80
63 63 80
63 63 80
63 63 80
63 63 80
63 63 80
63 63 80
63 63 80
63 63 80
63 63 80
63 63 80
63 63 80
64 64 80
63 63 80
63 63 80
63 63 80
63 63 80
63 63 80
63 63 80
63 63 80
64 64 80
63 63 80
63 63 80
63 63 80
63 63 80
63 63 80
63 63 80
63 63 80
63 63 80
63 63 80
63 63 80
63 63 80
63 63 80
63 63 80
63 63 80
63 63 80
63 63 80
63 63 80
63 63 80
63 63 80
63 63 80
63 63 80
63 63 80
63 63 80
63 63 80
63 63 80
63 63 80
63 63 80
63 63 80
63 63 80
63 63 80
63 63 80
63 63 80
63 63 80
63 63 80
63 63 80
63 63 80
63 63 80
63 63 80
63 63 80
63 63 80
63 63 80
63 63 80
63 63 80
63 63 80
63 63 80
63 63 80
63 63 80
63 63 80
63 63 80
63 63 80
63 63 80
63 63 80
63 63 80
63 63 80
63 63 80
63 63 80
63 63 80
63 63 80
63 63 80
63 63 80
63 63 80
63 63 80
63 63 80
63 63 80
63 63 80
63 63 80
63 63 80
63 63 80
63 63 80
63 63 80
63 63 80
63 63 80
63 63 80
63 63 80
63 63 80
63 63 80
63 63 80
63 63 80
63 63 80
63 63 80
63 63 80
63 63 80
63 63 80
63 63 80
63 63 80
63 63 80
63 63 80
63 63 80
63 63 80
63 63 80
63 63 80
63 63 80
63 63 80
63 63 80
63 63 80
64 64 80
63 63 80
64 64 80
63 63 80
63 63 80
63 63 80
64 64 81
63 63 80
63 63 80
63 63 80
63 63 80
63 63 80
63 63 80
63 63 80
64 64 80
63 63 80
63 63 80
63 63 80
63 63 80
64 64 80
64 64 80
63 63 80
63 63 80
63 63 80
64 64 81
63 63 80
64 64 81
64 64 80
63 63 80
64 64 80
63 63 80
63 63 80
63 63 80
63 63 80
63 63 80
63 63 80
63 63 80
64 64 81
63 63 80
63 63 80
63 63 80
63 63 80
63 63 80
63 63 80
63 63 80
63 63 80
63 63 80
63 63 80
63 63 80
63 63 80
63 63 80
63 63 80
63 63 80
63 63 80
63 63 80
63 63 80
63 63 80
63 63 80
63 63 80
63 63 80
63 63 80
63 63 80
63 63 80
63 63 80
63 63 80
63 63 80
63 63 80
63 63 80
63 63 80
63 63 80
63 63 80
63 63 80
63 63 80
63 63 80
63 63 80
63 63 80
63 63 80
63 63 80
63 63 80
63 63 80
63 63 80
63 63 80
63 63 80
64 64 81
64 64 80
64 64 80
64 64 80
64 64 81
64 64 81
63 63 80
64 64 80
64 64 80
64 64 80
63 63 80
63 63 80
63 63 80
63 63 80
64 64 80
64 64 81
63 63 80
64 64 80
64 64 81
63 63 80
63 63 80
64 64 80
64 64 81
64 64 80
64 64 80
64 64 81
64 64 80
64 64 81
64 64 81
64 64 80
63 63 80
63 63 80
63 63 80
64 64 81
64 64 81
64 64 81
64 64 80
64 64 81
64 64 81
64 64 81
64 64 81
64 64 81
64 64 81
64 64 81
64 64 80
64 64 81
64 64 80
64 64 81
64 64 80
64 64 80
63 63 80
63 63 80
63 63 80
63 63 80
63 63 80
63 63 80
63 63 80
63 63 80
63 63 80
63 63 80
63 63 80
63 63 80
63 63 80
63 63 80
63 63 80
63 63 80
63 63 80
63 63 80
63 63 80
63 63 80
63 63 80
63 63 80
63 63 80
63 63 80
63 63 80
63 63 80
63 63 80
63 63 80
63 63 80
63 63 80
63 63 80
63 63 80
63 63 80
63 63 80
63 63 80
63 63 80
63 63 80
63 63 80
63 63 80
63 63 80
63 63 80
63 63 80
63 63 80
63 63 80
63 63 80
63 63 80
63 63 80
63 63 80
63 63 80
63 63 80
63 63 80
63 63 80
63 63 80
63 63 80
63 63 80
63 63 80
63 63 80
63 63 80
63 63 80
63 63 80
64 64 80
63 63 80
64 64 80
64 64 81
64 64 80
63 63 80
64 64 81
64 64 80
63 63 80
64 64 81
64 64 81
64 64 81
64 64 80
64 64 81
64 64 81
63 63 80
64 64 81
63 63 80
64 64 81
64 64 81
63 63 80
63 63 80
64 64 81
63 63 80
64 64 81
64 64 81
64 64 81
64 64 81
63 63 80
64 64 81
64 64 80
63 63 80
64 64 81
63 63 80
63 63 80
64 64 80
63 63 80
64 64 81
64 64 81
63 63 80
64 64 80
64 64 81
64 64 80
63 63 80
63 63 80
64 64 81
64 64 81
64 64 81
63 63 80
64 64 81
64 64 81
63 63 80
63 63 80
63 63 80
63 63 80
64 64 81
64 64 80
63 63 80
64 64 80
64 64 81
64 64 80
64 64 81
64 64 80
64 64 80
64 64 80
64 64 80
63 63 80
63 63 80
64 64 80
64 64 81
64 64 80
64 64 80
63 63 80
64 64 81
63 63 80
63 63 80
63 63 80
64 64 80
63 63 80
64 64 81
63 63 80
63 63 80
64 64 80
64 64 80
63 63 80
64 64 80
64 64 81
64 64 80
63 63 80
63 63 80
63 63 80
64 64 80
64 64 80
63 63 80
64 64 80
64 64 81
64 64 80
64 64 80
63 63 80
63 63 80
63 63 80
63 63 80
63 63 80
63 63 80
63 63 80
63 63 80
63 63 80
63 63 80
63 63 80
63 63 80
63 63 80
63 63 80
63 63 80
63 63 80
63 63 80
63 63 80
63 63 80
63 63 80
63 63 80
63 63 80
63 63 80
63 63 80
63 63 80
63 63 80
63 63 80
63 63 80
63 63 80
63 63 80
63 63 80
63 63 80
63 63 80
63 63 80
63 63 80
63 63 80
63 63 80
63 63 80
63 63 80
63 63 80
63 63 80
63 63 80
63 63 80
63 63 80
63 63 80
63 63 80
63 63 80
63 63 80
63 63 80
63 63 80
63 63 80
63 63 80
63 63 80
63 63 80
63 63 80
63 63 80
63 63 80
63 63 80
63 63 80
63 63 80
63 63 80
63 63 80
63 63 80
63 63 80
63 63 80
63 63 80
63 63 80
63 63 80
63 63 80
63 63 80
63 63 80
63 63 80
63 63 80
63 63 80
63 63 80
63 63 80
63 63 80
63 63 80
63 63 80
63 63 80
63 63 80
63 63 80
63 63 80
63 63 80
63 63 80
63 63 80
63 63 80
63 63 80
63 63 80
63 63 80
63 63 80
63 63 80
63 63 80
63 63 80
63 63 80
63 63 80
63 63 80
63 63 80
63 63 80
63 63 80
63 63 80
63 63 80
63 63 80
63 63 80
63 63 80
64 64 80
64 64 80
63 63 80
63 63 80
63 63 80
64 64 80
63 63 80
63 63 80
64 64 80
63 63 80
64 64 81
64 64 80
63 63 80
63 63 80
63 63 80
64 64 80
63 63 80
64 64 80
64 64 80
63 63 80
64 64 80
64 64 81
63 63 80
63 63 80
63 63 80
64 64 80
63 63 80
63 63 80
63 63 80
63 63 80
64 64 80
64 64 80
64 64 80
63 63 80
64 64 81
64 64 80
63 63 80
63 63 80
63 63 80
63 63 80
63 63 80
63 63 80
63 63 80
63 63 80
63 63 80
63 63 80
63 63 80
63 63 80
63 63 80
63 63 80
63 63 80
63 63 80
63 63 80
63 63 80
63 63 80
63 63 80
63 63 80
63 63 80
63 63 80
63 63 80
63 63 80
63 63 80
63 63 80
63 63 80
63 63 80
63 63 80
63 63 80
63 63 80
63 63 80
63 63 80
63 63 80
63 63 80
63 63 80
63 63 80
63 63 80
63 63 80
63 63 80
63 63 80
63 63 80
63 63 80
63 63 80
63 63 80
63 63 80
63 63 80
64 64 80
63 63 80
64 64 81
64 64 80
64 64 81
63 63 80
64 64 81
64 64 81
63 63 80
64 64 81
63 63 80
64 64 81
63 63 80
64 64 81
64 64 81
64 64 81
64 64 81
64 64 81
64 64 81
64 64 80
64 64 81
64 64 81
64 64 81
64 64 81
64 64 81
64 64 81
64 64 80
64 64 81
64 64 80
64 64 81
64 64 80
64 64 81
64 64 80
64 64 80
64 64 81
64 64 80
64 64 81
64 64 81
64 64 81
64 64 81
64 64 81
64 64 81
64 64 81
64 64 81
64 64 81
64 64 81
64 64 81
64 64 81
64 64 81
64 64 81
64 64 80
64 64 80
64 64 80
64 64 80
64 64 80
64 64 80
64 64 80
64 64 80
64 64 80
64 64 80
64 64 80
64 64 80
64 64 80
64 64 80
64 64 80
64 64 80
64 64 80
64 64 80
64 64 80
64 64 80
64 64 80
64 64 80
64 64 80
64 64 80
64 64 80
64 64 80
64 64 80
64 64 80
64 64 80
64 64 80
64 64 80
64 64 80
64 64 80
64 64 80
64 64 80
64 64 80
64 64 80
64 64 80
64 64 80
64 64 80
64 64 80
64 64 80
64 64 80
64 64 80
64 64 80
64 64 80
64 64 80
64 64 80
64 64 80
64 64 80
64 64 80
64 64 80
64 64 80
64 64 80
64 64 80
64 64 80
64 64 80
64 64 80
64 64 80
64 64 80
64 64 81
64 64 81
64 64 81
64 64 81
64 64 81
64 64 81
64 64 81
64 64 80
64 64 81
64 64 81
64 64 81
64 64 81
64 64 80
64 64 80
64 64 81
64 64 81
64 64 81
64 64 81
64 64 81
64 64 80
64 64 81
64 64 81
64 64 81
64 64 80
64 64 80
64 64 81
64 64 81
64 64 81
64 64 81
64 64 81
64 64 81
64 64 80
64 64 81
64 64 81
64 64 81
64 64 81
64 64 80
64 64 81
64 64 80
64 64 81
64 64 81
64 64 81
64 64 81
64 64 81
63 63 80
64 64 81
64 64 81
64 64 81
64 64 81
64 64 80
64 64 81
64 64 80
64 64 81
64 64 81
64 64 81
64 64 80
63 63 80
64 64 81
64 64 81
64 64 81
63 63 80
63 63 80
64 64 80
64 64 81
63 63 80
64 64 81
63 63 80
64 64 80
64 64 81
64 64 81
64 64 81
64 64 80
64 64 81
64 64 80
63 63 80
64 64 80
64 64 80
64 64 80
64 64 81
64 64 80
63 63 80
64 64 81
64 64 80
64 64 80
64 64 81
64 64 80
63 63 80
64 64 80
63 63 80
63 63 80
64 64 80
63 63 80
64 64 80
63 63 80
64 64 80
63 63 80
64 64 80
63 63 80
63 63 80
63 63 80
63 63 80
63 63 80
64 64 81
63 63 80
63 63 80
63 63 80
63 63 80
63 63 80
63 63 80
63 63 80
63 63 80
63 63 80
63 63 80
63 63 80
63 63 80
63 63 80
63 63 80
63 63 80
63 63 80
63 63 80
63 63 80
63 63 80
63 63 80
63 63 80
63 63 80
63 63 80
63 63 80
63 63 80
63 63 80
63 63 80
63 63 80
63 63 80
63 63 80
63 63 80
63 63 80
63 63 80
63 63 80
63 63 80
63 63 80
63 63 80
63 63 80
63 63 80
63 63 80
63 63 80
63 63 80
63 63 80
63 63 80
63 63 80
63 63 80
63 63 80
63 63 80
63 63 80
63 63 80
63 63 80
63 63 80
63 63 80
63 63 80
63 63 80
63 63 80
63 63 80
63 63 80
63 63 80
63 63 80
63 63 80
63 63 80
63 63 80
63 63 80
63 63 80
63 63 80
63 63 80
63 63 80
63 63 80
63 63 80
63 63 80
63 63 80
63 63 80
63 63 80
63 63 80
63 63 80
63 63 80
63 63 80
63 63 80
63 63 80
63 63 80
63 63 80
63 63 80
63 63 80
63 63 80
63 63 80
63 63 80
63 63 80
63 63 80
63 63 80
63 63 80
63 63 80
63 63 80
63 63 80
63 63 80
63 63 80
63 63 80
63 63 80
63 63 80
63 63 80
63 63 80
64 64 81
64 64 81
64 64 80
63 63 80
63 63 80
64 64 80
64 64 80
63 63 80
64 64 80
63 63 80
63 63 80
63 63 80
63 63 80
63 63 80
64 64 80
63 63 80
63 63 80
64 64 80
63 63 80
64 64 80
64 64 80
63 63 80
63 63 80
64 64 80
63 63 80
64 64 81
64 64 81
63 63 80
64 64 81
63 63 80
64 64 81
64 64 81
64 64 80
64 64 80
64 64 81
64 64 81
64 64 80
63 63 80
63 63 80
63 63 80
63 63 80
64 64 80
63 63 80
63 63 80
63 63 80
63 63 80
63 63 80
63 63 80
63 63 80
63 63 80
63 63 80
63 63 80
63 63 80
63 63 80
63 63 80
63 63 80
63 63 80
63 63 80
63 63 80
63 63 80
63 63 80
63 63 80
63 63 80
63 63 80
63 63 80
63 63 80
63 63 80
63 63 80
63 63 80
63 63 80
63 63 80
64 64 80
64 64 80
64 64 80
64 64 80
64 64 80
64 64 80
64 64 80
64 64 80
64 64 80
64 64 80
64 64 80
64 64 80
64 64 80
64 64 80
64 64 80
64 64 81
64 64 81
64 64 81
64 64 81
64 64 81
64 64 81
64 64 81
64 64 81
64 64 81
64 64 81
64 64 81
64 64 81
64 64 81
64 64 81
64 64 81
64 64 81
64 64 81
64 64 81
64 64 81
64 64 81
64 64 81
64 64 81
64 64 81
64 64 81
64 64 81
64 64 81
64 64 81
64 64 81
64 64 81
64 64 81
64 64 81
64 64 81
64 64 81
64 64 81
64 64 81
64 64 81
64 64 81
64 64 81
64 64 81
64 64 81
64 64 81
64 64 81
64 64 81
64 64 81
64 64 81
64 64 81
64 64 81
64 64 81
64 64 81
64 64 81
64 64 81
64 64 81
64 64 81
64 64 81
64 64 81
64 64 81
64 64 81
64 64 81
64 64 81
64 64 81
64 64 81
64 64 81
64 64 81
64 64 81
64 64 81
64 64 81
64 64 81
64 64 81
64 64 81
64 64 81
64 64 81
64 64 81
64 64 81
64 64 81
64 64 81
64 64 81
64 64 81
64 64 81
64 64 81
64 64 81
64 64 81
64 64 81
64 64 81
64 64 81
64 64 81
64 64 81
64 64 81
64 64 81
64 64 81
64 64 81
64 64 81
64 64 81
64 64 81
64 64 81
64 64 81
64 64 81
64 64 81
64 64 81
64 64 81
64 64 81
64 64 81
64 64 81
64 64 81
64 64 81
64 64 81
64 64 81
64 64 81
64 64 81
64 64 81
64 64 81
64 64 81
64 64 81
64 64 81
64 64 81
64 64 81
64 64 81
64 64 81
64 64 81
64 64 81
64 64 81
64 64 81
64 64 81
64 64 81
64 64 81
64 64 81
64 64 81
64 64 81
64 64 81
64 64 81
64 64 81
64 64 81
64 64 81
64 64 81
64 64 81
64 64 81
64 64 81
64 64 81
64 64 81
64 64 81
64 64 81
64 64 81
64 64 81
64 64 81
64 64 81
64 64 81
64 64 81
64 64 81
64 64 81
64 64 81
64 64 81
64 64 81
64 64 81
64 64 81
64 64 81
64 64 80
64 64 80
64 64 81
64 64 81
64 64 81
64 64 81
64 64 81
64 64 81
64 64 81
64 64 81
64 64 81
64 64 81
64 64 81
64 64 81
64 64 81
64 64 81
64 64 81
64 64 81
64 64 81
64 64 81
64 64 81
64 64 81
64 64 81
64 64 81
64 64 81
64 64 81
63 63 80
64 64 81
64 64 81
64 64 81
64 64 81
64 64 81
64 64 81
64 64 81
63 63 80
64 64 80
64 64 81
63 63 80
64 64 81
64 64 80
63 63 80
63 63 80
63 63 80
63 63 80
64 64 81
64 64 80
63 63 80
63 63 80
63 63 80
63 63 80
63 63 80
63 63 80
63 63 80
63 63 80
63 63 80
63 63 80
63 63 80
63 63 80
63 63 80
63 63 80
63 63 80
63 63 80
63 63 80
63 63 80
63 63 80
63 63 80
63 63 80
63 63 80
63 63 80
63 63 80
63 63 80
63 63 80
63 63 80
63 63 80
63 63 80
63 63 80
63 63 80
63 63 80
63 63 80
63 63 80
63 63 80
63 63 80
63 63 80
63 63 80
63 63 80
63 63 80
63 63 80
63 63 80
63 63 80
63 63 80
63 63 80
63 63 80
63 63 80
63 63 80
63 63 80
63 63 80
63 63 80
63 63 80
63 63 80
63 63 80
63 63 80
63 63 80
63 63 80
63 63 80
63 63 80
63 63 80
63 63 80
63 63 80
63 63 80
63 63 80
63 63 80
63 63 80
63 63 80
63 63 80
63 63 80
63 63 80
63 63 80
63 63 80
63 63 80
63 63 80
63 63 80
63 63 80
63 63 80
63 63 80
63 63 80
63 63 80
63 63 80
63 63 80
63 63 80
63 63 80
63 63 80
63 63 80
63 63 80
63 63 80
63 63 80
63 63 80
63 63 80
63 63 80
63 63 80
63 63 80
63 63 80
63 63 80
63 63 80
63 63 80
63 63 80
63 63 80
63 63 80
63 63 80
63 63 80
63 63 80
63 63 80
63 63 80
63 63 80
63 63 80
63 63 80
63 63 80
63 63 80
64 64 81
64 64 80
63 63 80
64 64 80
63 63 80
63 63 80
64 64 81
63 63 80
63 63 80
64 64 80
64 64 81
64 64 80
63 63 80
64 64 81
63 63 80
64 64 81
63 63 80
64 64 80
64 64 80
64 64 80
64 64 81
63 63 80
64 64 81
63 63 80
64 64 81
64 64 81
64 64 81
63 63 80
64 64 81
64 64 81
64 64 81
64 64 80
63 63 80
64 64 81
64 64 81
64 64 81
64 64 81
64 64 81
64 64 81
64 64 81
64 64 81
64 64 81
63 63 80
63 63 80
63 63 80
63 63 80
63 63 80
63 63 80
63 63 80
63 63 80
64 64 80
64 64 80
64 64 80
64 64 80
64 64 80
64 64 80
64 64 80
64 64 80
64 64 80
64 64 80
64 64 80
64 64 80
64 64 80
64 64 80
64 64 80
64 64 80
64 64 80
64 64 80
64 64 80
64 64 80
64 64 81
64 64 81
64 64 81
64 64 81
64 64 81
64 64 81
64 64 81
64 64 81
64 64 81
64 64 81
64 64 81
64 64 81
64 64 81
64 64 81
64 64 81
64 64 81
64 64 81
64 64 81
64 64 81
64 64 81
64 64 81
64 64 81
64 64 81
64 64 81
64 64 81
64 64 81
64 64 81
64 64 81
64 64 81
64 64 81
64 64 81
64 64 81
64 64 81
64 64 81
64 64 81
64 64 81
64 64 81
64 64 81
64 64 81
64 64 81
64 64 81
64 64 81
64 64 81
64 64 81
64 64 81
64 64 81
64 64 81
64 64 81
64 64 81
64 64 81
64 64 81
64 64 81
64 64 81
64 64 81
64 64 81
64 64 81
64 64 81
64 64 81
64 64 81
64 64 81
64 64 81
64 64 81
64 64 81
64 64 81
64 64 81
64 64 81
64 64 81
64 64 81
64 64 81
64 64 81
64 64 81
64 64 81
64 64 81
64 64 81
64 64 81
64 64 81
64 64 81
64 64 81
64 64 81
64 64 81
64 64 81
64 64 81
64 64 81
64 64 81
64 64 81
64 64 81
64 64 81
64 64 81
64 64 81
64 64 81
64 64 81
64 64 81
64 64 81
64 64 81
64 64 81
64 64 81
64 64 81
64 64 81
64 64 81
64 64 81
64 64 81
64 64 81
64 64 81
64 64 81
64 64 81
64 64 81
64 64 81
64 64 81
64 64 81
64 64 81
64 64 81
64 64 81
64 64 81
64 64 81
64 64 81
64 64 81
64 64 81
64 64 81
64 64 81
64 64 81
64 64 81
64 64 81
64 64 81
64 64 81
64 64 81
64 64 81
64 64 81
64 64 81
64 64 81
64 64 81
64 64 81
64 64 81
64 64 81
64 64 81
64 64 81
64 64 81
64 64 81
64 64 81
64 64 81
64 64 81
64 64 81
64 64 81
64 64 81
64 64 81
64 64 81
64 64 81
64 64 81
64 64 81
64 64 81
64 64 81
64 64 81
64 64 81
64 64 81
64 64 81
64 64 81
64 64 81
64 64 81
64 64 81
64 64 81
64 64 81
64 64 81
64 64 81
64 64 81
64 64 81
64 64 81
64 64 81
64 64 81
64 64 81
64 64 81
64 64 81
64 64 81
64 64 81
64 64 81
64 64 81
64 64 81
64 64 81
64 64 81
64 64 81
64 64 81
64 64 81
64 64 81
64 64 81
64 64 81
64 64 81
64 64 81
64 64 81
64 64 81
64 64 81
64 64 81
64 64 81
64 64 81
64 64 81
64 64 81
64 64 81
64 64 81
64 64 81
64 64 81
64 64 81
64 64 81
64 64 81
64 64 80
64 64 80
64 64 81
64 64 81
64 64 81
64 64 81
64 64 81
64 64 81
64 64 81
64 64 80
64 64 81
64 64 81
64 64 80
64 64 80
64 64 80
64 64 81
64 64 80
64 64 80
64 64 80
64 64 80
63 63 80
63 63 80
63 63 80
63 63 80
63 63 80
63 63 80
63 63 80
63 63 80
63 63 80
63 63 80
63 63 80
63 63 80
63 63 80
63 63 80
63 63 80
63 63 80
63 63 80
63 63 80
63 63 80
63 63 80
63 63 80
63 63 80
63 63 80
63 63 80
63 63 80
63 63 80
63 63 80
63 63 80
63 63 80
63 63 80
63 63 80
63 63 80
63 63 80
63 63 80
63 63 80
63 63 80
63 63 80
63 63 80
63 63 80
63 63 80
63 63 80
63 63 80
63 63 80
63 63 80
63 63 80
63 63 80
63 63 80
63 63 80
63 63 80
63 63 80
63 63 80
63 63 80
63 63 80
63 63 80
63 63 80
63 63 80
63 63 80
63 63 80
63 63 80
63 63 80
63 63 80
63 63 80
63 63 80
63 63 80
63 63 80
63 63 80
63 63 80
63 63 80
63 63 80
63 63 80
63 63 80
63 63 80
63 63 80
63 63 80
63 63 80
63 63 80
63 63 80
63 63 80
63 63 80
63 63 80
63 63 80
63 63 80
63 63 80
63 63 80
63 63 80
63 63 80
63 63 80
63 63 80
63 63 80
63 63 80
63 63 80
63 63 80
63 63 80
63 63 80
63 63 80
63 63 80
63 63 80
63 63 80
63 63 80
63 63 80
63 63 80
63 63 80
63 63 80
63 63 80
63 63 80
63 63 80
63 63 80
63 63 80
64 64 81
64 64 81
64 64 80
63 63 80
63 63 80
64 64 81
64 64 80
63 63 80
64 64 81
64 64 81
63 63 80
64 64 80
64 64 81
64 64 81
64 64 81
63 63 80
64 64 80
64 64 80
64 64 81
64 64 80
64 64 80
64 64 80
63 63 80
63 63 80
64 64 80
64 64 81
63 63 80
64 64 81
64 64 81
63 63 80
64 64 81
64 64 81
64 64 81
64 64 80
64 64 81
64 64 81
64 64 81
64 64 81
64 64 81
64 64 81
64 64 81
64 64 81
64 64 80
64 64 80
64 64 80
64 64 80
64 64 80
64 64 80
64 64 80
64 64 80
64 64 81
64 64 81
64 64 81
64 64 81
64 64 81
64 64 81
64 64 81
64 64 81
64 64 81
64 64 81
64 64 81
64 64 81
64 64 81
64 64 81
64 64 81
64 64 81
64 64 81
64 64 81
64 64 81
64 64 81
64 64 81
64 64 81
64 64 81
64 64 81
64 64 81
64 64 81
64 64 81
64 64 81
64 64 81
64 64 81
64 64 81
64 64 81
64 64 81
64 64 81
64 64 81
64 64 81
64 64 81
64 64 81
64 64 81
64 64 81
64 64 81
64 64 81
64 64 81
64 64 81
64 64 81
64 64 81
64 64 81
64 64 81
64 64 81
64 64 81
64 64 81
64 64 81
64 64 81
64 64 81
64 64 81
64 64 81
64 64 81
64 64 81
64 64 81
64 64 81
64 64 81
64 64 81
64 64 81
64 64 81
64 64 81
64 64 81
64 64 81
64 64 81
64 64 81
64 64 81
64 64 81
64 64 81
64 64 81
64 64 81
64 64 81
64 64 81
64 64 81
64 64 81
64 64 81
64 64 81
64 64 81
64 64 81
64 64 81
64 64 81
64 64 81
64 64 81
64 64 81
64 64 81
64 64 81
64 64 81
64 64 81
64 64 81
64 64 81
64 64 81
64 64 81
64 64 81
64 64 81
64 64 81
64 64 81
64 64 81
64 64 81
64 64 81
64 64 81
64 64 81
64 64 81
64 64 81
64 64 81
64 64 81
64 64 81
64 64 81
64 64 81
64 64 81
64 64 81
64 64 81
64 64 81
64 64 81
64 64 81
64 64 81
64 64 81
64 64 81
64 64 81
64 64 81
64 64 81
64 64 81
64 64 81
64 64 81
64 64 81
64 64 81
64 64 81
64 64 81
64 64 81
64 64 81
64 64 81
64 64 81
64 64 81
64 64 81
64 64 81
64 64 81
64 64 81
64 64 81
64 64 81
64 64 81
64 64 81
64 64 81
64 64 81
64 64 81
64 64 81
64 64 81
64 64 81
64 64 81
64 64 81
64 64 81
64 64 81
64 64 81
64 64 81
64 64 81
64 64 81
64 64 81
64 64 81
64 64 81
64 64 81
64 64 81
64 64 81
64 64 81
64 64 81
64 64 81
64 64 81
64 64 81
64 64 81
64 64 81
64 64 81
64 64 81
64 64 81
64 64 81
64 64 81
64 64 81
64 64 81
64 64 81
64 64 81
64 64 81
64 64 81
64 64 81
64 64 81
64 64 81
64 64 81
64 64 81
64 64 81
64 64 81
64 64 81
64 64 81
64 64 81
64 64 81
64 64 81
64 64 81
64 64 81
64 64 81
64 64 81
64 64 81
64 64 81
64 64 81
64 64 81
64 64 81
64 64 81
64 64 81
64 64 81
64 64 81
64 64 81
64 64 81
64 64 81
64 64 81
64 64 81
64 64 81
64 64 81
64 64 81
64 64 81
64 64 81
64 64 81
64 64 81
64 64 81
64 64 81
64 64 81
64 64 81
64 64 81
64 64 81
64 64 81
64 64 81
64 64 81
64 64 81
64 64 81
64 64 81
64 64 81
64 64 81
64 64 81
64 64 81
64 64 81
64 64 81
64 64 81
64 64 81
64 64 81
64 64 81
64 64 81
64 64 81
64 64 81
64 64 81
64 64 80
64 64 80
64 64 80
64 64 80
64 64 80
64 64 80
64 64 80
64 64 80
64 64 80
64 64 80
64 64 80
64 64 80
64 64 80
64 64 80
64 64 80
64 64 80
64 64 80
64 64 80
63 63 80
63 63 80
63 63 80
63 63 80
63 63 80
63 63 80
63 63 80
63 63 80
63 63 80
63 63 80
63 63 80
63 63 80
63 63 80
63 63 80
63 63 80
63 63 80
63 63 80
63 63 80
63 63 80
63 63 80
63 63 80
63 63 80
63 63 80
63 63 80
63 63 80
63 63 80
63 63 80
63 63 80
63 63 80
63 63 80
63 63 80
63 63 80
63 63 80
63 63 80
63 63 80
63 63 80
63 63 80
63 63 80
63 63 80
63 63 80
63 63 80
63 63 80
63 63 80
63 63 80
63 63 80
63 63 80
63 63 80
63 63 80
63 63 80
63 63 80
63 63 80
63 63 80
63 63 80
63 63 80
63 63 80
63 63 80
63 63 80
63 63 80
63 63 80
63 63 80
63 63 80
63 63 80
63 63 80
63 63 80
63 63 80
63 63 80
63 63 80
63 63 80
63 63 80
63 63 80
63 63 80
63 63 80
63 63 80
63 63 80
63 63 80
63 63 80
63 63 80
63 63 80
63 63 80
63 63 80
63 63 80
63 63 80
63 63 80
63 63 80
63 63 80
63 63 80
64 64 81
64 64 81
63 63 80
63 63 80
64 64 80
64 64 80
63 63 80
64 64 81
63 63 80
64 64 80
63 63 80
63 63 80
64 64 81
64 64 81
64 64 80
63 63 80
64 64 81
64 64 81
64 64 80
64 64 81
64 64 81
64 64 81
64 64 81
64 64 81
64 64 81
64 64 80
64 64 81
64 64 81
64 64 81
64 64 81
64 64 81
64 64 81
64 64 81
64 64 81
64 64 81
64 64 81
64 64 81
64 64 81
64 64 81
64 64 81
64 64 81
64 64 81
64 64 81
64 64 81
64 64 81
64 64 81
64 64 81
64 64 81
64 64 81
64 64 81
64 64 81
64 64 81
64 64 81
64 64 81
64 64 81
64 64 81
64 64 81
64 64 81
64 64 81
64 64 81
64 64 81
64 64 81
64 64 81
64 64 81
64 64 81
64 64 81
64 64 81
64 64 81
64 64 81
64 64 81
64 64 81
64 64 81
64 64 81
64 64 81
64 64 81
64 64 81
64 64 81
64 64 81
64 64 81
64 64 81
64 64 81
64 64 81
64 64 81
64 64 81
64 64 81
64 64 81
64 64 81
64 64 81
64 64 81
64 64 81
64 64 81
64 64 81
64 64 81
64 64 81
64 64 81
64 64 81
64 64 81
64 64 81
64 64 81
64 64 81
64 64 81
64 64 81
64 64 81
64 64 81
64 64 81
64 64 81
64 64 81
64 64 81
64 64 81
64 64 81
64 64 81
64 64 81
64 64 81
64 64 81
64 64 81
64 64 81
64 64 81
64 64 81
64 64 81
64 64 81
64 64 81
64 64 81
64 64 81
64 64 81
64 64 81
64 64 81
64 64 81
64 64 81
64 64 81
64 64 81
64 64 81
64 64 81
64 64 81
64 64 81
64 64 81
64 64 81
64 64 81
64 64 81
64 64 81
64 64 81
64 64 81
64 64 81
64 64 81
64 64 81
64 64 81
64 64 81
64 64 81
64 64 81
64 64 81
64 64 81
64 64 81
64 64 81
64 64 81
64 64 81
64 64 81
64 64 81
64 64 81
64 64 81
64 64 81
64 64 81
64 64 81
64 64 81
64 64 81
64 64 81
64 64 81
64 64 81
64 64 81
64 64 81
64 64 81
64 64 81
64 64 81
64 64 81
64 64 81
64 64 81
64 64 81
64 64 81
64 64 81
64 64 81
64 64 81
64 64 81
64 64 81
64 64 81
64 64 81
64 64 81
64 64 81
64 64 81
64 64 81
64 64 81
64 64 81
64 64 81
64 64 81
64 64 81
64 64 81
64 64 81
64 64 81
64 64 81
64 64 81
64 64 81
64 64 81
64 64 81
64 64 81
64 64 81
64 64 81
64 64 81
64 64 81
64 64 81
64 64 81
64 64 81
64 64 81
64 64 81
64 64 81
64 64 81
64 64 81
64 64 81
64 64 81
64 64 81
64 64 81
64 64 81
64 64 81
64 64 81
64 64 81
64 64 81
64 64 81
64 64 81
64 64 81
64 64 81
64 64 81
64 64 81
64 64 81
64 64 81
64 64 81
64 64 81
64 64 81
64 64 81
64 64 81
64 64 81
64 64 81
64 64 81
64 64 81
64 64 81
64 64 81
64 64 81
64 64 81
64 64 81
64 64 81
64 64 81
64 64 81
64 64 81
64 64 81
64 64 81
64 64 81
64 64 81
64 64 81
64 64 81
64 64 81
64 64 81
64 64 81
64 64 81
64 64 81
64 64 81
64 64 81
64 64 81
64 64 81
64 64 81
64 64 81
64 64 81
64 64 81
64 64 81
64 64 81
64 64 81
64 64 81
64 64 81
64 64 81
64 64 81
64 64 81
64 64 81
64 64 81
64 64 81
64 64 81
64 64 81
64 64 81
64 64 81
64 64 81
64 64 81
64 64 81
64 64 81
64 64 81
64 64 81
64 64 81
64 64 81
64 64 81
64 64 81
64 64 81
64 64 81
64 64 81
64 64 81
64 64 81
64 64 81
64 64 81
64 64 81
64 64 81
64 64 81
64 64 81
64 64 81
64 64 81
64 64 81
64 64 81
64 64 81
64 64 81
64 64 81
64 64 81
64 64 81
64 64 81
64 64 81
64 64 81
64 64 81
64 64 80
64 64 80
64 64 80
64 64 80
64 64 80
64 64 80
64 64 80
64 64 80
64 64 80
64 64 80
64 64 80
64 64 80
64 64 80
64 64 80
64 64 80
63 63 80
63 63 80
63 63 80
63 63 80
63 63 80
63 63 80
63 63 80
63 63 80
63 63 80
63 63 80
63 63 80
63 63 80
63 63 80
63 63 80
63 63 80
63 63 80
63 63 80
63 63 80
63 63 80
63 63 80
63 63 80
63 63 80
63 63 80
63 63 80
63 63 80
63 63 80
63 63 80
63 63 80
63 63 80
63 63 80
63 63 80
63 63 80
63 63 80
63 63 80
63 63 80
63 63 80
63 63 80
63 63 80
63 63 80
63 63 80
63 63 80
63 63 80
63 63 80
63 63 80
63 63 80
63 63 80
63 63 80
63 63 80
63 63 80
63 63 80
63 63 80
63 63 80
63 63 80
63 63 80
63 63 80
63 63 80
63 63 80
63 63 80
63 63 80
63 63 80
63 63 80
63 63 80
63 63 80
63 63 80
63 63 80
63 63 80
63 63 80
64 64 81
64 64 81
64 64 81
64 64 80
64 64 80
64 64 80
64 64 81
64 64 80
64 64 81
64 64 81
64 64 81
64 64 81
64 64 81
64 64 81
64 64 81
64 64 81
64 64 81
64 64 81
64 64 81
64 64 81
64 64 81
64 64 81
64 64 81
64 64 81
64 64 81
64 64 81
64 64 81
64 64 81
64 64 81
64 64 81
64 64 81
64 64 81
64 64 81
64 64 81
64 64 81
64 64 81
64 64 81
64 64 81
64 64 81
64 64 81
64 64 81
64 64 81
64 64 81
64 64 81
64 64 81
64 64 81
64 64 81
64 64 81
64 64 81
64 64 81
64 64 81
64 64 81
64 64 81
64 64 81
64 64 81
64 64 81
64 64 81
64 64 81
64 64 81
64 64 81
64 64 81
64 64 81
64 64 81
64 64 81
64 64 81
64 64 81
64 64 81
64 64 81
64 64 81
64 64 81
64 64 81
64 64 81
64 64 81
64 64 81
64 64 81
64 64 81
64 64 81
64 64 81
64 64 81
64 64 81
64 64 81
64 64 81
64 64 81
64 64 81
64 64 81
64 64 81
64 64 81
64 64 81
64 64 81
64 64 81
64 64 81
64 64 81
64 64 81
64 64 81
64 64 81
64 64 81
64 64 81
64 64 81
64 64 81
64 64 81
64 64 81
64 64 81
64 64 81
64 64 81
64 64 81
64 64 81
64 64 81
64 64 81
64 64 81
64 64 81
64 64 81
64 64 81
64 64 81
64 64 81
64 64 81
64 64 81
64 64 81
64 64 81
64 64 81
64 64 81
64 64 81
64 64 81
64 64 81
64 64 81
64 64 81
64 64 81
64 64 81
64 64 81
64 64 81
64 64 81
64 64 81
64 64 81
64 64 81
64 64 81
64 64 81
64 64 81
64 64 81
64 64 81
64 64 81
64 64 81
64 64 81
64 64 81
64 64 81
64 64 81
64 64 81
64 64 81
64 64 81
64 64 81
64 64 81
64 64 81
64 64 81
64 64 81
64 64 81
64 64 81
64 64 81
64 64 81
64 64 81
64 64 81
64 64 81
64 64 81
64 64 81
64 64 81
64 64 81
64 64 81
64 64 81
64 64 81
64 64 81
64 64 81
64 64 81
64 64 81
64 64 81
64 64 81
64 64 81
64 64 81
64 64 81
64 64 81
64 64 81
64 64 81
64 64 81
64 64 81
64 64 81
64 64 81
64 64 81
64 64 81
64 64 81
64 64 81
64 64 81
64 64 81
64 64 81
64 64 81
64 64 81
64 64 81
64 64 81
64 64 81
64 64 81
64 64 81
64 64 81
64 64 81
64 64 81
64 64 81
64 64 81
64 64 81
64 64 81
64 64 81
64 64 81
64 64 81
64 64 81
64 64 81
64 64 81
64 64 81
64 64 81
64 64 81
64 64 81
64 64 81
64 64 81
64 64 81
64 64 81
64 64 81
64 64 81
64 64 81
64 64 81
64 64 81
64 64 81
64 64 81
64 64 81
64 64 81
64 64 81
64 64 81
64 64 81
64 64 81
64 64 81
64 64 81
64 64 81
64 64 81
64 64 81
64 64 81
64 64 81
64 64 81
64 64 81
64 64 81
64 64 81
64 64 81
64 64 81
64 64 81
64 64 81
64 64 81
64 64 81
64 64 81
64 64 81
64 64 81
64 64 81
64 64 81
64 64 81
64 64 81
64 64 81
64 64 81
64 64 81
64 64 81
64 64 81
64 64 81
64 64 81
64 64 81
64 64 81
64 64 81
64 64 81
64 64 81
64 64 81
64 64 81
64 64 81
64 64 81
64 64 81
64 64 81
64 64 81
64 64 81
64 64 81
64 64 81
64 64 81
64 64 81
64 64 81
64 64 81
64 64 81
64 64 81
64 64 81
64 64 81
64 64 81
64 64 81
64 64 81
64 64 81
64 64 81
64 64 81
64 64 81
64 64 81
64 64 81
64 64 81
64 64 81
64 64 81
64 64 81
64 64 81
64 64 81
64 64 81
64 64 81
64 64 81
64 64 81
64 64 81
64 64 81
64 64 81
64 64 81
64 64 81
64 64 81
64 64 81
64 64 81
64 64 81
64 64 81
64 64 81
64 64 81
64 64 81
64 64 81
64 64 81
64 64 81
64 64 81
64 64 81
64 64 81
64 64 81
64 64 81
64 64 81
64 64 81
64 64 81
64 64 81
64 64 81
64 64 81
64 64 81
64 64 81
64 64 81
64 64 81
64 64 81
64 64 80
64 64 80
64 64 80
64 64 80
64 64 80
64 64 80
64 64 80
64 64 80
64 64 80
64 64 80
64 64 80
64 64 80
64 64 80
64 64 80
63 63 80
63 63 80
63 63 80
63 63 80
63 63 80
63 63 80
63 63 80
63 63 80
63 63 80
63 63 80
63 63 80
63 63 80
63 63 80
63 63 80
63 63 80
63 63 80
63 63 80
63 63 80
63 63 80
63 63 80
63 63 80
63 63 80
63 63 80
63 63 80
63 63 80
63 63 80
63 63 80
63 63 80
63 63 80
63 63 80
63 63 80
63 63 80
63 63 80
63 63 80
63 63 80
63 63 80
63 63 80
63 63 80
63 63 80
64 64 80
64 64 80
64 64 80
64 64 80
64 64 80
64 64 80
64 64 80
64 64 80
64 64 80
64 64 80
64 64 81
64 64 80
64 64 81
64 64 81
64 64 81
64 64 81
64 64 81
64 64 81
64 64 81
64 64 81
64 64 81
64 64 81
64 64 81
64 64 81
64 64 81
64 64 81
64 64 81
64 64 81
64 64 81
64 64 81
64 64 81
64 64 81
64 64 81
64 64 81
64 64 81
64 64 81
64 64 81
64 64 81
64 64 81
64 64 81
64 64 81
64 64 81
64 64 81
64 64 81
64 64 81
64 64 81
64 64 81
64 64 81
64 64 81
64 64 81
64 64 81
64 64 81
64 64 81
64 64 81
64 64 81
64 64 81
64 64 81
64 64 81
64 64 81
64 64 81
64 64 81
64 64 81
64 64 81
64 64 81
64 64 81
64 64 81
64 64 81
64 64 81
64 64 81
64 64 81
64 64 81
64 64 81
64 64 81
64 64 81
64 64 81
64 64 81
64 64 81
64 64 81
64 64 81
64 64 81
64 64 81
64 64 81
64 64 81
64 64 81
64 64 81
64 64 81
64 64 81
64 64 81
64 64 81
64 64 81
64 64 81
64 64 81
64 64 81
64 64 81
64 64 81
64 64 81
64 64 81
64 64 81
64 64 81
64 64 81
64 64 81
64 64 81
64 64 81
64 64 81
64 64 81
64 64 81
64 64 81
64 64 81
64 64 81
64 64 81
64 64 81
64 64 81
64 64 81
64 64 81
64 64 81
64 64 81
64 64 81
64 64 81
64 64 81
64 64 81
64 64 81
64 64 81
64 64 81
64 64 81
64 64 81
64 64 81
64 64 81
64 64 81
64 64 81
64 64 81
64 64 81
64 64 81
64 64 81
64 64 81
64 64 81
64 64 81
64 64 81
64 64 81
64 64 81
64 64 81
64 64 81
64 64 81
64 64 81
64 64 81
64 64 81
64 64 81
64 64 81
64 64 81
64 64 81
64 64 81
64 64 81
64 64 81
64 64 81
64 64 81
64 64 81
64 64 81
64 64 81
64 64 81
64 64 81
64 64 81
64 64 81
64 64 81
64 64 81
64 64 81
64 64 81
64 64 81
64 64 81
64 64 81
64 64 81
64 64 81
64 64 81
64 64 81
64 64 81
64 64 81
64 64 81
64 64 81
64 64 81
64 64 81
64 64 81
64 64 81
64 64 81
64 64 81
64 64 81
64 64 81
64 64 81
64 64 81
64 64 81
64 64 81
64 64 81
64 64 81
64 64 81
64 64 81
64 64 81
64 64 81
64 64 81
64 64 81
64 64 81
64 64 81
64 64 81
64 64 81
64 64 81
64 64 81
64 64 81
64 64 81
64 64 81
64 64 81
64 64 81
64 64 81
64 64 81
64 64 81
64 64 81
64 64 81
64 64 81
64 64 81
64 64 81
64 64 81
64 64 81
64 64 81
64 64 81
64 64 81
64 64 81
64 64 81
64 64 81
64 64 81
64 64 81
64 64 81
64 64 81
64 64 81
64 64 81
64 64 81
64 64 81
64 64 81
64 64 81
64 64 81
64 64 81
64 64 81
64 64 81
64 64 81
64 64 81
64 64 81
64 64 81
64 64 81
64 64 81
64 64 81
64 64 81
64 64 81
64 64 81
64 64 81
64 64 81
64 64 81
64 64 81
64 64 81
64 64 81
64 64 81
64 64 81
64 64 81
64 64 81
64 64 81
64 64 81
64 64 81
64 64 81
64 64 81
64 64 81
64 64 81
64 64 81
64 64 81
64 64 81
64 64 81
64 64 81
64 64 81
64 64 81
64 64 81
64 64 81
64 64 81
64 64 81
64 64 81
64 64 81
64 64 81
64 64 81
64 64 81
64 64 81
64 64 81
64 64 81
64 64 81
64 64 81
64 64 81
64 64 81
64 64 81
64 64 81
64 64 81
64 64 81
64 64 81
64 64 81
64 64 81
64 64 81
64 64 81
64 64 81
64 64 81
64 64 81
64 64 81
64 64 81
64 64 81
64 64 81
64 64 81
64 64 81
64 64 81
64 64 81
64 64 81
64 64 81
64 64 81
64 64 81
64 64 81
64 64 81
64 64 81
64 64 81
64 64 81
64 64 81
64 64 81
64 64 81
64 64 81
64 64 81
64 64 81
64 64 81
64 64 81
64 64 81
64 64 81
64 64 81
64 64 81
64 64 81
64 64 81
64 64 81
64 64 81
64 64 81
64 64 81
64 64 81
64 64 81
64 64 81
64 64 81
64 64 81
64 64 81
64 64 81
64 64 81
64 64 81
64 64 81
64 64 81
64 64 81
64 64 81
64 64 81
64 64 81
64 64 81
64 64 81
64 64 81
64 64 81
64 64 81
64 64 81
64 64 81
64 64 81
64 64 81
64 64 81
64 64 81
64 64 81
64 64 81
64 64 81
64 64 80
64 64 80
64 64 80
64 64 80
64 64 80
64 64 80
64 64 80
64 64 80
64 64 80
64 64 80
64 64 80
64 64 80
64 64 80
63 63 80
63 63 80
63 63 80
63 63 80
63 63 80
63 63 80
63 63 80
63 63 80
63 63 80
63 63 80
63 63 80
63 63 80
64 64 80
64 64 80
64 64 80
64 64 80
64 64 80
64 64 80
64 64 80
64 64 80
64 64 80
64 64 80
64 64 80
64 64 81
64 64 81
64 64 81
64 64 81
64 64 81
64 64 81
64 64 81
64 64 81
64 64 81
64 64 81
64 64 81
64 64 81
64 64 81
64 64 81
64 64 81
64 64 81
64 64 81
64 64 81
64 64 81
64 64 81
64 64 81
64 64 81
64 64 81
64 64 81
64 64 81
64 64 81
64 64 81
64 64 81
64 64 81
64 64 81
64 64 81
64 64 81
64 64 81
64 64 81
64 64 81
64 64 81
64 64 81
64 64 81
64 64 81
64 64 81
64 64 81
64 64 81
64 64 81
64 64 81
64 64 81
64 64 81
64 64 81
64 64 81
64 64 81
64 64 81
64 64 81
64 64 81
64 64 81
64 64 81
64 64 81
64 64 81
64 64 81
64 64 81
64 64 81
64 64 81
64 64 81
64 64 81
64 64 81
64 64 81
64 64 81
64 64 81
64 64 81
64 64 81
64 64 81
64 64 81
64 64 81
64 64 81
64 64 81
64 64 81
64 64 81
64 64 81
64 64 81
64 64 81
64 64 81
64 64 81
64 64 81
64 64 81
64 64 81
64 64 81
64 64 81
64 64 81
64 64 81
64 64 81
64 64 81
64 64 81
64 64 81
64 64 81
64 64 81
64 64 81
64 64 81
64 64 81
64 64 81
64 64 81
64 64 81
64 64 81
64 64 81
64 64 81
64 64 81
64 64 81
64 64 81
64 64 81
64 64 81
64 64 81
64 64 81
64 64 81
64 64 81
64 64 81
64 64 81
64 64 81
64 64 81
64 64 81
64 64 81
64 64 81
64 64 81
64 64 81
64 64 81
64 64 81
64 64 81
64 64 81
64 64 81
64 64 81
64 64 81
64 64 81
64 64 81
64 64 81
64 64 81
64 64 81
64 64 81
64 64 81
64 64 81
64 64 81
64 64 81
64 64 81
64 64 81
64 64 81
64 64 81
64 64 81
64 64 81
64 64 81
64 64 81
64 64 81
64 64 81
64 64 81
64 64 81
64 64 81
64 64 81
64 64 81
64 64 81
64 64 81
64 64 81
64 64 81
64 64 81
64 64 81
64 64 81
64 64 81
64 64 81
64 64 81
64 64 81
64 64 81
64 64 81
64 64 81
64 64 81
64 64 81
64 64 81
64 64 81
64 64 81
64 64 81
64 64 81
64 64 81
64 64 81
64 64 81
64 64 81
64 64 81
64 64 81
64 64 81
64 64 81
64 64 81
64 64 81
64 64 81
64 64 81
64 64 81
64 64 81
64 64 81
64 64 81
64 64 81
64 64 81
64 64 81
64 64 81
64 64 81
64 64 81
64 64 81
64 64 81
64 64 81
64 64 81
64 64 81
64 64 81
64 64 81
64 64 81
64 64 81
64 64 81
64 64 81
64 64 81
64 64 81
64 64 81
64 64 81
64 64 81
64 64 81
64 64 81
64 64 81
64 64 81
64 64 81
64 64 81
64 64 81
64 64 81
64 64 81
64 64 81
64 64 81
64 64 81
64 64 81
64 64 81
64 64 81
64 64 81
64 64 81
64 64 81
64 64 81
64 64 81
64 64 81
64 64 81
64 64 81
64 64 81
64 64 81
64 64 81
64 64 81
64 64 81
64 64 81
64 64 81
64 64 81
64 64 81
64 64 81
64 64 81
64 64 81
64 64 81
64 64 81
64 64 81
64 64 81
64 64 81
64 64 81
64 64 81
64 64 81
64 64 81
64 64 81
64 64 81
64 64 81
64 64 81
64 64 81
64 64 81
64 64 81
64 64 81
64 64 81
64 64 81
64 64 81
64 64 81
64 64 81
64 64 81
64 64 81
64 64 81
64 64 81
64 64 81
64 64 81
64 64 81
64 64 81
64 64 81
64 64 81
64 64 81
64 64 81
64 64 81
64 64 81
64 64 81
64 64 81
64 64 81
64 64 81
64 64 81
64 64 81
64 64 81
64 64 81
64 64 81
64 64 81
64 64 81
64 64 81
64 64 81
64 64 81
64 64 81
64 64 81
64 64 81
64 64 81
64 64 81
64 64 81
64 64 81
64 64 81
64 64 81
64 64 81
64 64 81
64 64 81
64 64 81
64 64 81
64 64 81
64 64 81
64 64 81
64 64 81
64 64 81
64 64 81
64 64 81
64 64 81
64 64 81
64 64 81
64 64 81
64 64 81
64 64 81
64 64 81
64 64 81
64 64 81
64 64 81
64 64 81
64 64 81
64 64 81
64 64 81
64 64 81
64 64 81
64 64 81
64 64 81
64 64 81
64 64 81
64 64 81
64 64 81
64 64 81
64 64 81
64 64 81
64 64 81
64 64 81
64 64 81
64 64 81
64 64 81
64 64 81
64 64 81
64 64 81
64 64 81
64 64 81
64 64 81
64 64 81
64 64 81
64 64 81
64 64 81
64 64 81
64 64 81
64 64 81
64 64 81
64 64 81
64 64 81
64 64 81
64 64 81
64 64 81
64 64 81
64 64 81
64 64 81
64 64 81
64 64 81
64 64 81
64 64 81
64 64 81
64 64 81
64 64 81
64 64 81
64 64 81
64 64 80
64 64 80
64 64 80
64 64 80
64 64 80
64 64 80
64 64 80
64 64 80
64 64 80
64 64 80
64 64 80
64 64 81
64 64 81
64 64 81
64 64 81
64 64 81
64 64 81
64 64 81
64 64 81
64 64 81
64 64 81
64 64 81
64 64 81
64 64 81
64 64 81
64 64 81
64 64 81
64 64 81
64 64 81
64 64 81
64 64 81
64 64 81
64 64 81
64 64 81
64 64 81
64 64 81
64 64 81
64 64 81
64 64 81
64 64 81
64 64 81
64 64 81
64 64 81
64 64 81
64 64 81
64 64 81
64 64 81
64 64 81
64 64 81
64 64 81
64 64 81
64 64 81
64 64 81
64 64 81
64 64 81
64 64 81
64 64 81
64 64 81
64 64 81
64 64 81
64 64 81
64 64 81
64 64 81
64 64 81
64 64 81
64 64 81
64 64 81
64 64 81
64 64 81
64 64 81
64 64 81
64 64 81
64 64 81
64 64 81
64 64 81
64 64 81
64 64 81
64 64 81
64 64 81
64 64 81
64 64 81
64 64 81
64 64 81
64 64 81
64 64 81
64 64 81
64 64 81
64 64 81
64 64 81
64 64 81
64 64 81
64 64 81
64 64 81
64 64 81
64 64 81
64 64 81
64 64 81
64 64 81
64 64 81
64 64 81
64 64 81
64 64 81
64 64 81
64 64 81
64 64 81
64 64 81
64 64 81
64 64 81
64 64 81
64 64 81
64 64 81
64 64 81
64 64 81
64 64 81
64 64 81
64 64 81
64 64 81
64 64 81
64 64 81
64 64 81
64 64 81
64 64 81
64 64 81
64 64 81
64 64 81
64 64 81
64 64 81
64 64 81
64 64 81
64 64 81
64 64 81
64 64 81
64 64 81
64 64 81
64 64 81
64 64 81
64 64 81
64 64 81
64 64 81
64 64 81
64 64 81
64 64 81
64 64 81
64 64 81
64 64 81
64 64 81
64 64 81
64 64 81
64 64 81
64 64 81
64 64 81
64 64 81
64 64 81
64 64 81
64 64 81
64 64 81
64 64 81
64 64 81
64 64 81
64 64 81
64 64 81
64 64 81
64 64 81
64 64 81
64 64 81
64 64 81
64 64 81
64 64 81
64 64 81
64 64 81
64 64 81
64 64 81
64 64 81
64 64 81
64 64 81
64 64 81
64 64 81
64 64 81
64 64 81
64 64 81
64 64 81
64 64 81
64 64 81
64 64 81
64 64 81
64 64 81
64 64 81
64 64 81
64 64 81
64 64 81
64 64 81
64 64 81
64 64 81
64 64 81
64 64 81
64 64 81
64 64 81
64 64 81
64 64 81
64 64 81
64 64 81
64 64 81
64 64 81
64 64 81
64 64 81
64 64 81
64 64 81
64 64 81
64 64 81
64 64 81
64 64 81
64 64 81
64 64 81
64 64 81
64 64 81
64 64 81
64 64 81
64 64 81
64 64 81
64 64 81
64 64 81
64 64 81
64 64 81
64 64 81
64 64 81
64 64 81
64 64 81
64 64 81
64 64 81
64 64 81
64 64 81
64 64 81
64 64 81
64 64 81
64 64 81
64 64 81
64 64 81
64 64 81
64 64 81
64 64 81
64 64 81
64 64 81
64 64 81
64 64 81
64 64 81
64 64 81
64 64 81
64 64 81
64 64 81
64 64 81
64 64 81
64 64 81
64 64 81
64 64 81
64 64 81
64 64 81
64 64 81
64 64 81
64 64 81
64 64 81
64 64 81
64 64 81
64 64 81
64 64 81
64 64 81
64 64 81
64 64 81
64 64 81
64 64 81
64 64 81
64 64 81
64 64 81
64 64 81
64 64 81
64 64 81
64 64 81
64 64 81
64 64 81
64 64 81
64 64 81
64 64 81
64 64 81
64 64 81
64 64 81
64 64 81
64 64 81
64 64 81
64 64 81
64 64 81
64 64 81
64 64 81
64 64 81
64 64 81
64 64 81
64 64 81
64 64 81
64 64 81
64 64 81
64 64 81
64 64 81
64 64 81
64 64 81
64 64 81
64 64 81
64 64 81
64 64 81
64 64 81
64 64 81
64 64 81
64 64 81
64 64 81
64 64 81
64 64 81
64 64 81
64 64 81
64 64 81
64 64 81
64 64 81
64 64 81
64 64 81
64 64 81
64 64 81
64 64 81
64 64 81
64 64 81
64 64 81
64 64 81
64 64 81
64 64 81
64 64 81
64 64 81
64 64 81
64 64 81
64 64 81
64 64 81
64 64 81
64 64 81
64 64 81
64 64 81
64 64 81
64 64 81
64 64 81
64 64 81
64 64 81
64 64 81
64 64 81
64 64 81
64 64 81
64 64 81
64 64 81
64 64 81
64 64 81
64 64 81
64 64 81
64 64 81
64 64 81
64 64 81
64 64 81
64 64 81
64 64 81
64 64 81
64 64 81
64 64 81
64 64 81
64 64 81
64 64 81
64 64 81
64 64 81
64 64 81
64 64 81
64 64 81
64 64 81
64 64 81
64 64 81
64 64 81
64 64 81
64 64 81
64 64 81
64 64 81
64 64 81
64 64 81
64 64 81
64 64 81
64 64 81
64 64 81
64 64 81
64 64 81
64 64 81
64 64 81
64 64 81
64 64 81
64 64 81
64 64 81
64 64 81
64 64 81
64 64 81
64 64 81
64 64 81
64 64 81
64 64 81
64 64 81
64 64 81
64 64 81
64 64 81
64 64 81
64 64 81
64 64 81
64 64 81
64 64 81
64 64 81
64 64 81
64 64 81
64 64 81
64 64 81
64 64 81
64 64 81
64 64 81
64 64 81
64 64 81
64 64 81
64 64 81
64 64 81
64 64 81
64 64 81
64 64 81
64 64 81
64 64 81
64 64 81
64 64 81
64 64 81
64 64 81
64 64 81
64 64 81
64 64 81
64 64 81
64 64 81
64 64 81
64 64 81
64 64 81
64 64 81
64 64 81
64 64 81
64 64 81
64 64 81
64 64 81
64 64 81
64 64 81
64 64 81
64 64 81
64 64 81
64 64 81
64 64 81
64 64 81
64 64 81
64 64 81
64 64 81
64 64 81
64 64 81
64 64 81
64 64 81
64 64 81
64 64 81
64 64 81
64 64 81
64 64 81
64 64 81
64 64 81
64 64 81
64 64 81
64 64 81
64 64 81
64 64 81
64 64 81
64 64 81
64 64 81
64 64 81
64 64 81
64 64 81
64 64 81
64 64 81
64 64 81
64 64 81
64 64 81
64 64 81
64 64 81
64 64 81
64 64 81
64 64 81
64 64 81
64 64 81
64 64 81
64 64 81
64 64 81
64 64 81
64 64 81
64 64 81
64 64 81
64 64 81
64 64 81
64 64 81
64 64 81
64 64 81
64 64 81
64 64 81
64 64 81
64 64 81
64 64 81
64 64 81
64 64 81
64 64 81
64 64 81
64 64 81
64 64 81
64 64 81
64 64 81
64 64 81
64 64 81
64 64 81
64 64 81
64 64 81
64 64 81
64 64 81
64 64 81
64 64 81
64 64 81
64 64 81
64 64 81
64 64 81
64 64 81
64 64 81
64 64 81
64 64 81
64 64 81
64 64 81
64 64 81
64 64 81
64 64 81
64 64 81
64 64 81
64 64 81
64 64 81
64 64 81
64 64 81
64 64 81
64 64 81
64 64 81
64 64 81
64 64 81
64 64 81
64 64 81
64 64 81
64 64 81
64 64 81
64 64 81
64 64 81
64 64 81
64 64 81
64 64 81
64 64 81
64 64 81
64 64 81
64 64 81
64 64 81
64 64 81
64 64 81
64 64 81
64 64 81
64 64 81
64 64 81
64 64 81
64 64 81
64 64 81
64 64 81
64 64 81
64 64 81
64 64 81
64 64 81
64 64 81
64 64 81
64 64 81
64 64 81
64 64 81
64 64 81
64 64 81
64 64 81
64 64 81
64 64 81
64 64 81
64 64 81
64 64 81
64 64 81
64 64 81
64 64 81
64 64 81
64 64 81
64 64 81
64 64 81
64 64 81
64 64 81
64 64 81
64 64 81
64 64 81
64 64 81
64 64 81
64 64 81
64 64 81
64 64 81
64 64 81
64 64 81
64 64 81
64 64 81
64 64 81
64 64 81
64 64 81
64 64 81
64 64 81
64 64 81
64 64 81
64 64 81
64 64 81
64 64 81
64 64 81
64 64 81
64 64 81
64 64 81
64 64 81
64 64 81
64 64 81
64 64 81
64 64 81
64 64 81
64 64 81
64 64 81
64 64 81
64 64 81
64 64 81
64 64 81
64 64 81
64 64 81
64 64 81
64 64 81
64 64 81
64 64 81
64 64 81
64 64 81
64 64 81
64 64 81
64 64 81
64 64 81
64 64 81
64 64 81
64 64 81
64 64 81
64 64 81
64 64 81
64 64 81
64 64 81
64 64 81
64 64 81
64 64 81
64 64 81
64 64 81
64 64 81
64 64 81
64 64 81
64 64 81
64 64 81
64 64 81
64 64 81
64 64 81
64 64 81
64 64 81
64 64 81
64 64 81
64 64 81
64 64 81
64 64 81
64 64 81
64 64 81
64 64 81
64 64 81
64 64 81
64 64 81
64 64 81
64 64 81
64 64 81
64 64 81
64 64 81
64 64 81
64 64 81
64 64 81
64 64 81
64 64 81
64 64 81
64 64 81
64 64 81
64 64 81
64 64 81
64 64 81
64 64 81
64 64 81
64 64 81
64 64 81
64 64 81
64 64 81
64 64 81
64 64 81
64 64 81
64 64 81
64 64 81
64 64 81
64 64 81
64 64 81
64 64 81
64 64 81
64 64 81
64 64 81
64 64 81
64 64 81
64 64 81
64 64 81
64 64 81
64 64 81
64 64 81
64 64 81
64 64 81
64 64 81
64 64 81
64 64 81
64 64 81
64 64 81
64 64 81
64 64 81
64 64 81
64 64 81
64 64 81
64 64 81
64 64 81
64 64 81
64 64 81
64 64 81
64 64 81
64 64 81
64 64 81
64 64 81
64 64 81
64 64 81
64 64 81
64 64 81
64 64 81
64 64 81
64 64 81
64 64 81
64 64 81
64 64 81
64 64 81
64 64 81
64 64 81
64 64 81
64 64 81
64 64 81
64 64 81
64 64 81
64 64 81
64 64 81
64 64 81
64 64 81
64 64 81
64 64 81
64 64 81
64 64 81
64 64 81
64 64 81
64 64 81
64 64 81
64 64 81
64 64 81
64 64 81
64 64 81
64 64 81
64 64 81
64 64 81
64 64 81
64 64 81
64 64 81
64 64 81
64 64 81
64 64 81
64 64 81
64 64 81
64 64 81
64 64 81
64 64 81
64 64 81
64 64 81
64 64 81
64 64 81
64 64 81
64 64 81
64 64 81
64 64 81
64 64 81
64 64 81
64 64 81
64 64 81
64 64 81
64 64 81
64 64 81
64 64 81
64 64 81
64 64 81
64 64 81
64 64 81
64 64 81
64 64 81
64 64 81
64 64 81
64 64 81
64 64 81
64 64 81
64 64 81
64 64 81
64 64 81
64 64 81
64 64 81
64 64 81
64 64 81
64 64 81
64 64 81
64 64 81
64 64 81
64 64 81
64 64 81
64 64 81
64 64 81
64 64 81
64 64 81
64 64 81
64 64 81
64 64 81
64 64 81
64 64 81
64 64 81
64 64 81
64 64 81
64 64 81
64 64 81
64 64 81
64 64 81
64 64 81
64 64 81
64 64 81
64 64 81
64 64 81
64 64 81
64 64 81
64 64 81
64 64 81
64 64 81
64 64 81
64 64 81
64 64 81
64 64 81
64 64 81
64 64 81
64 64 81
64 64 81
64 64 81
64 64 81
64 64 81
64 64 81
64 64 81
64 64 81
64 64 81
64 64 81
64 64 81
64 64 81
64 64 81
64 64 81
64 64 81
64 64 81
64 64 81
64 64 81
64 64 81
64 64 81
64 64 81
64 64 81
64 64 81
64 64 81
64 64 81
64 64 81
64 64 81
64 64 81
64 64 81
64 64 81
64 64 81
64 64 81
64 64 81
64 64 81
64 64 81
64 64 81
64 64 81
64 64 81
64 64 81
64 64 81
64 64 81
64 64 81
64 64 81
64 64 81
64 64 81
64 64 81
64 64 81
64 64 81
64 64 81
64 64 81
64 64 81
64 64 81
64 64 81
64 64 81
64 64 81
64 64 81
64 64 81
64 64 81
64 64 81
64 64 81
64 64 81
64 64 81
64 64 81
64 64 81
64 64 81
64 64 81
64 64 81
64 64 81
64 64 81
64 64 81
64 64 81
64 64 81
64 64 81
64 64 81
64 64 81
64 64 81
64 64 81
64 64 81
64 64 81
64 64 81
64 64 81
64 64 81
64 64 81
64 64 81
64 64 81
64 64 81
64 64 81
64 64 81
64 64 81
64 64 81
64 64 81
64 64 81
64 64 81
64 64 81
64 64 81
64 64 81
64 64 81
64 64 81
64 64 81
64 64 81
64 64 81
64 64 81
64 64 81
64 64 81
64 64 81
64 64 81
64 64 81
64 64 81
64 64 81
64 64 81
64 64 81
64 64 81
64 64 81
64 64 81
64 64 81
64 64 81
64 64 81
64 64 81
64 64 81
64 64 81
64 64 81
64 64 81
64 64 81
64 64 81
64 64 81
64 64 81
64 64 81
64 64 81
64 64 81
64 64 81
64 64 81
64 64 81
64 64 81
64 64 81
64 64 81
64 64 81
64 64 81
64 64 81
64 64 81
64 64 81
64 64 81
64 64 81
64 64 81
64 64 81
64 64 81
64 64 81
64 64 81
64 64 81
64 64 81
64 64 81
64 64 81
64 64 81
64 64 81
64 64 81
64 64 81
64 64 81
64 64 81
64 64 81
64 64 81
64 64 81
64 64 81
64 64 81
64 64 81
64 64 81
64 64 81
64 64 81
64 64 81
64 64 81
64 64 81
64 64 81
64 64 81
64 64 81
64 64 81
64 64 81
64 64 81
64 64 81
64 64 81
64 64 81
64 64 81
64 64 81
64 64 81
64 64 81
64 64 81
64 64 81
64 64 81
64 64 81
64 64 81
64 64 81
64 64 81
64 64 81
64 64 81
64 64 81
64 64 81
64 64 81
64 64 81
64 64 81
64 64 81
64 64 81
64 64 81
64 64 81
64 64 81
64 64 81
64 64 81
64 64 81
64 64 81
64 64 81
64 64 81
64 64 81
64 64 81
64 64 81
64 64 81
64 64 81
64 64 81
64 64 81
64 64 81
64 64 81
64 64 81
64 64 81
64 64 81
64 64 81
64 64 81
64 64 81
64 64 81
64 64 81
64 64 81
64 64 81
64 64 81
64 64 81
64 64 81
64 64 81
64 64 81
64 64 81
64 64 81
64 64 81
64 64 81
64 64 81
64 64 81
64 64 81
64 64 81
64 64 81
64 64 81
64 64 81
64 64 81
64 64 81
64 64 81
64 64 81
64 64 81
64 64 81
64 64 81
64 64 81
64 64 81
64 64 81
64 64 81
64 64 81
64 64 81
64 64 81
64 64 81
64 64 81
64 64 81
64 64 81
64 64 81
64 64 81
64 64 81
64 64 81
64 64 81
64 64 81
64 64 81
64 64 81
64 64 81
64 64 81
64 64 81
64 64 81
64 64 81
64 64 81
64 64 81
64 64 81
64 64 81
64 64 81
64 64 81
64 64 81
64 64 81
64 64 81
64 64 81
64 64 81
64 64 81
64 64 81
64 64 81
64 64 81
64 64 81
64 64 81
64 64 81
64 64 81
64 64 81
64 64 81
64 64 81
64 64 81
64 64 81
64 64 81
64 64 81
64 64 81
64 64 81
64 64 81
64 64 81
64 64 81
64 64 81
64 64 81
64 64 81
64 64 81
64 64 81
64 64 81
64 64 81
64 64 81
64 64 81
64 64 81
64 64 81
64 64 81
64 64 81
64 64 81
64 64 81
64 64 81
64 64 81
64 64 81
64 64 81
64 64 81
64 64 81
64 64 81
64 64 81
64 64 81
64 64 81
64 64 81
64 64 81
64 64 81
64 64 81
64 64 81
64 64 81
64 64 81
64 64 81
64 64 81
64 64 81
64 64 81
64 64 81
64 64 81
64 64 81
64 64 81
64 64 81
64 64 81
64 64 81
64 64 81
64 64 81
64 64 81
64 64 81
64 64 81
64 64 81
64 64 81
64 64 81
64 64 81
64 64 81
64 64 81
64 64 81
64 64 81
64 64 81
64 64 81
64 64 81
64 64 81
64 64 81
64 64 81
64 64 81
64 64 81
64 64 81
64 64 81
64 64 81
64 64 81
64 64 81
64 64 81
64 64 81
64 64 81
64 64 81
64 64 81
64 64 81
64 64 81
64 64 81
64 64 81
64 64 81
64 64 81
64 64 81
64 64 81
64 64 81
64 64 81
64 64 81
64 64 81
64 64 81
64 64 81
64 64 81
64 64 81
64 64 81
64 64 81
64 64 81
64 64 81
64 64 81
64 64 81
64 64 81
64 64 81
64 64 81
64 64 81
64 64 81
64 64 81
64 64 81
64 64 81
64 64 81
64 64 81
64 64 81
64 64 81
64 64 81
64 64 81
64 64 81
64 64 81
64 64 81
64 64 81
64 64 81
64 64 81
64 64 81
64 64 81
64 64 81
64 64 81
64 64 81
64 64 81
64 64 81
64 64 81
64 64 81
64 64 81
64 64 81
64 64 81
64 64 81
64 64 81
64 64 81
64 64 81
64 64 81
64 64 81
64 64 81
64 64 81
64 64 81
64 64 81
64 64 81
64 64 81
64 64 81
64 64 81
64 64 81
64 64 81
64 64 81
64 64 81
64 64 81
64 64 81
64 64 81
64 64 81
64 64 81
64 64 81
64 64 81
64 64 81
64 64 81
64 64 81
64 64 81
64 64 81
64 64 81
64 64 81
64 64 81
64 64 81
64 64 81
64 64 81
64 64 81
64 64 81
64 64 81
64 64 81
64 64 81
64 64 81
64 64 81
64 64 81
64 64 81
64 64 81
64 64 81
64 64 81
64 64 81
64 64 81
64 64 81
64 64 81
64 64 81
64 64 81
64 64 81
64 64 81
64 64 81
64 64 81
64 64 81
64 64 81
64 64 81
64 64 81
64 64 81
64 64 81
64 64 81
64 64 81
64 64 81
64 64 81
64 64 81
64 64 81
64 64 81
64 64 81
64 64 81
64 64 81
64 64 81
64 64 81
64 64 81
64 64 81
64 64 81
64 64 81
64 64 81
64 64 81
64 64 81
64 64 81
64 64 81
64 64 81
64 64 81
64 64 81
64 64 81
64 64 81
64 64 81
64 64 81
64 64 81
64 64 81
64 64 81
64 64 81
64 64 81
64 64 81
64 64 81
64 64 81
64 64 81
64 64 81
64 64 81
64 64 81
64 64 81
64 64 81
64 64 81
64 64 81
64 64 81
64 64 81
64 64 81
64 64 81
64 64 81
64 64 81
64 64 81
64 64 81
64 64 81
64 64 81
64 64 81
64 64 81
64 64 81
64 64 81
64 64 81
64 64 81
64 64 81
64 64 81
64 64 81
64 64 81
64 64 81
64 64 81
64 64 81
64 64 81
64 64 81
64 64 81
64 64 81
64 64 81
64 64 81
64 64 81
64 64 81
64 64 81
64 64 81
64 64 81
64 64 81
64 64 81
64 64 81
64 64 81
64 64 81
64 64 81
64 64 81
64 64 81
64 64 81
64 64 81
64 64 81
64 64 81
64 64 81
64 64 81
64 64 81
64 64 81
64 64 81
64 64 81
64 64 81
64 64 81
64 64 81
64 64 81
64 64 81
64 64 81
64 64 81
64 64 81
64 64 81
64 64 81
64 64 81
64 64 81
64 64 81
64 64 81
64 64 81
64 64 81
64 64 81
64 64 81
64 64 81
64 64 81
64 64 81
64 64 81
64 64 81
64 64 81
64 64 81
64 64 81
64 64 81
64 64 81
64 64 81
64 64 81
64 64 81
64 64 81
64 64 81
64 64 81
64 64 81
64 64 81
64 64 81
64 64 81
64 64 81
64 64 81
64 64 81
64 64 81
64 64 81
64 64 81
64 64 81
64 64 81
64 64 81
64 64 81
64 64 81
64 64 81
64 64 81
64 64 81
64 64 81
64 64 81
64 64 81
64 64 81
64 64 81
64 64 81
64 64 81
64 64 81
64 64 81
64 64 81
64 64 81
64 64 81
64 64 81
64 64 81
64 64 81
64 64 81
64 64 81
64 64 81
64 64 81
64 64 81
64 64 81
64 64 81
64 64 81
64 64 81
64 64 81
64 64 81
64 64 81
64 64 81
64 64 81
64 64 81
64 64 81
64 64 81
64 64 81
64 64 81
64 64 81
64 64 81
64 64 81
64 64 81
64 64 81
64 64 81
64 64 81
64 64 81
64 64 81
64 64 81
64 64 81
64 64 81
64 64 81
64 64 81
64 64 81
64 64 81
64 64 81
64 64 81
64 64 81
64 64 81
64 64 81
64 64 81
64 64 81
64 64 81
64 64 81
64 64 81
64 64 81
64 64 81
64 64 81
64 64 81
64 64 81
64 64 81
64 64 81
64 64 81
64 64 81
64 64 81
64 64 81
64 64 81
64 64 81
64 64 81
64 64 81
64 64 81
64 64 81
64 64 81
64 64 81
64 64 81
64 64 81
64 64 81
64 64 81
64 64 81
64 64 81
64 64 81
64 64 81
64 64 81
64 64 81
64 64 81
64 64 81
64 64 81
64 64 81
64 64 81
64 64 81
64 64 81
64 64 81
64 64 81
64 64 81
64 64 81
64 64 81
64 64 81
64 64 81
64 64 81
64 64 81
64 64 81
64 64 81
64 64 81
64 64 81
64 64 81
64 64 81
64 64 81
64 64 81
64 64 81
64 64 81
64 64 81
64 64 81
64 64 81
64 64 81
64 64 81
64 64 81
64 64 81
64 64 81
64 64 81
64 64 81
64 64 81
64 64 81
64 64 81
64 64 81
64 64 81
64 64 81
64 64 81
64 64 81
64 64 81
64 64 81
64 64 81
64 64 81
64 64 81
64 64 81
64 64 81
64 64 81
64 64 81
64 64 81
64 64 81
64 64 81
64 64 81
64 64 81
64 64 81
64 64 81
64 64 81
64 64 81
64 64 81
64 64 81
64 64 81
64 64 81
64 64 81
64 64 81
64 64 81
64 64 81
64 64 81
64 64 81
64 64 81
64 64 81
64 64 81
64 64 81
64 64 81
64 64 81
64 64 81
64 64 81
64 64 81
64 64 81
64 64 81
64 64 81
64 64 81
64 64 81
64 64 81
64 64 81
64 64 81
64 64 81
64 64 81
64 64 81
64 64 81
64 64 81
64 64 81
64 64 81
64 64 81
64 64 81
64 64 81
64 64 81
64 64 81
64 64 81
64 64 81
64 64 81
64 64 81
64 64 81
64 64 81
64 64 81
64 64 81
64 64 81
64 64 81
64 64 81
64 64 81
64 64 81
64 64 81
64 64 81
64 64 81
64 64 81
64 64 81
64 64 81
64 64 81
64 64 81
64 64 81
64 64 81
64 64 81
64 64 81
64 64 81
64 64 81
64 64 81
64 64 81
64 64 81
64 64 81
64 64 81
64 64 81
65 65 81
64 64 81
64 64 81
64 64 81
64 64 81
64 64 81
64 64 81
64 64 81
64 64 81
64 64 81
64 64 81
64 64 81
65 65 82
64 64 81
64 64 81
64 64 81
64 64 81
64 64 81
64 64 81
64 64 81
64 64 81
64 64 81
64 64 81
64 64 81
64 64 81
64 64 81
64 64 81
64 64 81
64 64 81
64 64 81
64 64 81
64 64 81
64 64 81
64 64 81
64 64 81
64 64 81
64 64 81
64 64 81
64 64 81
64 64 81
64 64 81
64 64 81
64 64 81
64 64 81
64 64 81
64 64 81
64 64 81
64 64 81
64 64 81
64 64 81
64 64 81
64 64 81
64 64 81
64 64 81
64 64 81
64 64 81
64 64 81
64 64 81
64 64 81
64 64 81
64 64 81
64 64 81
64 64 81
64 64 81
64 64 81
64 64 81
64 64 81
64 64 81
64 64 81
64 64 81
64 64 81
64 64 81
64 64 81
64 64 81
64 64 81
64 64 81
64 64 81
64 64 81
64 64 81
65 65 81
64 64 81
64 64 81
65 65 81
64 64 81
64 64 81
64 64 81
64 64 81
64 64 81
64 64 81
64 64 81
65 65 81
64 64 81
64 64 81
64 64 81
65 65 81
64 64 81
64 64 81
64 64 81
64 64 81
64 64 81
64 64 81
64 64 81
65 65 81
64 64 81
64 64 81
64 64 81
64 64 81
64 64 81
64 64 81
64 64 81
64 64 81
64 64 81
64 64 81
64 64 81
64 64 81
64 64 81
64 64 81
64 64 81
64 64 81
64 64 81
64 64 81
64 64 81
64 64 81
64 64 81
64 64 81
64 64 81
64 64 81
64 64 81
64 64 81
64 64 81
64 64 81
64 64 81
64 64 81
64 64 81
64 64 81
64 64 81
64 64 81
64 64 81
64 64 81
64 64 81
64 64 81
64 64 81
64 64 81
64 64 81
64 64 81
64 64 81
64 64 81
64 64 81
64 64 81
64 64 81
64 64 81
64 64 81
64 64 81
64 64 81
64 64 81
64 64 81
64 64 81
64 64 81
64 64 81
64 64 81
64 64 81
64 64 81
64 64 81
64 64 81
64 64 81
64 64 81
64 64 81
64 64 81
64 64 81
64 64 81
64 64 81
64 64 81
64 64 81
64 64 81
64 64 81
64 64 81
64 64 81
64 64 81
64 64 81
64 64 81
64 64 81
64 64 81
64 64 81
64 64 81
64 64 81
64 64 81
64 64 81
64 64 81
64 64 81
64 64 81
64 64 81
64 64 81
64 64 81
64 64 81
64 64 81
64 64 81
64 64 81
64 64 81
64 64 81
64 64 81
64 64 81
64 64 81
64 64 81
64 64 81
64 64 81
64 64 81
64 64 81
64 64 81
64 64 81
64 64 81
64 64 81
64 64 81
64 64 81
64 64 81
64 64 81
64 64 81
64 64 81
64 64 81
64 64 81
64 64 81
64 64 81
64 64 81
64 64 81
64 64 81
64 64 81
64 64 81
64 64 81
64 64 81
64 64 81
64 64 81
64 64 81
64 64 81
64 64 81
64 64 81
64 64 81
64 64 81
64 64 81
64 64 81
64 64 81
64 64 81
64 64 81
64 64 81
64 64 81
64 64 81
64 64 81
64 64 81
64 64 81
64 64 81
64 64 81
64 64 81
64 64 81
64 64 81
64 64 81
64 64 81
64 64 81
64 64 81
64 64 81
64 64 81
64 64 81
64 64 81
64 64 81
64 64 81
64 64 81
64 64 81
64 64 81
64 64 81
64 64 81
64 64 81
64 64 81
64 64 81
64 64 81
64 64 81
64 64 81
64 64 81
64 64 81
64 64 81
64 64 81
64 64 81
64 64 81
64 64 81
64 64 81
64 64 81
64 64 81
64 64 81
64 64 81
64 64 81
64 64 81
64 64 81
64 64 81
64 64 81
64 64 81
64 64 81
64 64 81
64 64 81
64 64 81
64 64 81
64 64 81
64 64 81
64 64 81
64 64 81
64 64 81
64 64 81
64 64 81
64 64 81
64 64 81
64 64 81
64 64 81
64 64 81
64 64 81
64 64 81
64 64 81
64 64 81
64 64 81
64 64 81
64 64 81
64 64 81
64 64 81
64 64 81
64 64 81
64 64 81
64 64 81
64 64 81
64 64 81
64 64 81
64 64 81
64 64 81
64 64 81
64 64 81
64 64 81
64 64 81
64 64 81
64 64 81
64 64 81
64 64 81
64 64 81
64 64 81
64 64 81
64 64 81
64 64 81
64 64 81
64 64 81
64 64 81
64 64 81
64 64 81
64 64 81
64 64 81
64 64 81
64 64 81
64 64 81
64 64 81
64 64 81
64 64 81
64 64 81
64 64 81
64 64 81
64 64 81
64 64 81
64 64 81
64 64 81
64 64 81
64 64 81
64 64 81
64 64 81
64 64 81
64 64 81
64 64 81
64 64 81
64 64 81
64 64 81
64 64 81
64 64 81
64 64 81
64 64 81
64 64 81
65 65 81
64 64 81
64 64 81
64 64 81
64 64 81
64 64 81
64 64 81
64 64 81
64 64 81
64 64 81
64 64 81
65 65 81
64 64 81
64 64 81
64 64 81
64 64 81
64 64 81
64 64 81
64 64 81
64 64 81
64 64 81
64 64 81
64 64 81
64 64 81
64 64 81
64 64 81
64 64 81
64 64 81
64 64 81
64 64 81
64 64 81
64 64 81
64 64 81
64 64 81
64 64 81
64 64 81
64 64 81
64 64 81
65 65 81
64 64 81
64 64 81
64 64 81
64 64 81
64 64 81
64 64 81
64 64 81
64 64 81
64 64 81
64 64 81
64 64 81
64 64 81
64 64 81
64 64 81
64 64 81
64 64 81
64 64 81
64 64 81
64 64 81
64 64 81
64 64 81
64 64 81
64 64 81
64 64 81
64 64 81
64 64 81
64 64 81
64 64 81
64 64 81
64 64 81
64 64 81
64 64 81
64 64 81
64 64 81
64 64 81
64 64 81
64 64 81
64 64 81
64 64 81
64 64 81
64 64 81
64 64 81
64 64 81
64 64 81
64 64 81
64 64 81
64 64 81
64 64 81
64 64 81
64 64 81
64 64 81
64 64 81
64 64 81
64 64 81
64 64 81
64 64 81
64 64 81
64 64 81
64 64 81
64 64 81
64 64 81
64 64 81
64 64 81
64 64 81
64 64 81
64 64 81
64 64 81
64 64 81
64 64 81
64 64 81
64 64 81
65 65 81
64 64 81
64 64 81
64 64 81
64 64 81
64 64 81
64 64 81
64 64 81
64 64 81
64 64 81
64 64 81
64 64 81
64 64 81
64 64 81
65 65 81
64 64 81
64 64 81
64 64 81
64 64 81
64 64 81
64 64 81
65 65 81
64 64 81
64 64 81
64 64 81
64 64 81
64 64 81
64 64 81
64 64 81
64 64 81
64 64 81
64 64 81
64 64 81
64 64 81
64 64 81
64 64 81
65 65 81
64 64 81
64 64 81
64 64 81
64 64 81
64 64 81
64 64 81
64 64 81
64 64 81
64 64 81
64 64 81
64 64 81
64 64 81
64 64 81
64 64 81
64 64 81
64 64 81
64 64 81
64 64 81
64 64 81
64 64 81
64 64 81
64 64 81
64 64 81
64 64 81
64 64 81
64 64 81
64 64 81
64 64 81
64 64 81
64 64 81
64 64 81
64 64 81
64 64 81
64 64 81
64 64 81
64 64 81
64 64 81
64 64 81
64 64 81
64 64 81
64 64 81
64 64 81
64 64 81
64 64 81
64 64 81
64 64 81
64 64 81
64 64 81
64 64 81
64 64 81
64 64 81
64 64 81
64 64 81
64 64 81
64 64 81
64 64 81
64 64 81
64 64 81
64 64 81
64 64 81
64 64 81
64 64 81
64 64 81
64 64 81
64 64 81
64 64 81
64 64 81
64 64 81
64 64 81
64 64 81
64 64 81
64 64 81
64 64 81
64 64 81
64 64 81
64 64 81
64 64 81
64 64 81
64 64 81
64 64 81
64 64 81
64 64 81
64 64 81
64 64 81
64 64 81
64 64 81
64 64 81
64 64 81
64 64 81
64 64 81
64 64 81
64 64 81
64 64 81
64 64 81
64 64 81
64 64 81
64 64 81
64 64 81
64 64 81
64 64 81
64 64 81
64 64 81
64 64 81
64 64 81
64 64 81
64 64 81
64 64 81
64 64 81
64 64 81
64 64 81
64 64 81
64 64 81
64 64 81
64 64 81
64 64 81
64 64 81
64 64 81
64 64 81
64 64 81
64 64 81
64 64 81
64 64 81
64 64 81
64 64 81
64 64 81
64 64 81
64 64 81
64 64 81
64 64 81
64 64 81
64 64 81
64 64 81
64 64 81
64 64 81
64 64 81
64 64 81
64 64 81
64 64 81
64 64 81
64 64 81
64 64 81
64 64 81
64 64 81
64 64 81
64 64 81
64 64 81
64 64 81
64 64 81
64 64 81
64 64 81
64 64 81
64 64 81
64 64 81
64 64 81
64 64 81
64 64 81
64 64 81
64 64 81
64 64 81
64 64 81
64 64 81
64 64 81
64 64 81
64 64 81
64 64 81
64 64 81
64 64 81
64 64 81
64 64 81
64 64 81
64 64 81
64 64 81
64 64 81
64 64 81
64 64 81
64 64 81
64 64 81
64 64 81
64 64 81
64 64 81
64 64 81
64 64 81
64 64 81
64 64 81
64 64 81
64 64 81
64 64 81
64 64 81
64 64 81
64 64 81
64 64 81
64 64 81
64 64 81
64 64 81
64 64 81
64 64 81
64 64 81
64 64 81
64 64 81
64 64 81
64 64 81
64 64 81
64 64 81
64 64 81
64 64 81
64 64 81
64 64 81
64 64 81
64 64 81
64 64 81
64 64 81
64 64 81
64 64 81
64 64 81
64 64 81
64 64 81
64 64 81
64 64 81
64 64 81
64 64 81
64 64 81
64 64 81
64 64 81
64 64 81
64 64 81
64 64 81
64 64 81
64 64 81
64 64 81
64 64 81
64 64 81
64 64 81
64 64 81
64 64 81
64 64 81
64 64 81
64 64 81
64 64 81
64 64 81
64 64 81
64 64 81
64 64 81
64 64 81
64 64 81
64 64 81
64 64 81
64 64 81
64 64 81
64 64 81
64 64 81
64 64 81
64 64 81
64 64 81
64 64 81
64 64 81
64 64 81
64 64 81
64 64 81
64 64 81
64 64 81
64 64 81
64 64 81
64 64 81
64 64 81
65 65 81
64 64 81
64 64 81
64 64 81
65 65 81
64 64 81
64 64 81
65 65 82
64 64 81
64 64 81
64 64 81
64 64 81
64 64 81
64 64 81
65 65 81
64 64 81
64 64 81
64 64 81
64 64 81
64 64 81
64 64 81
64 64 81
64 64 81
65 65 82
64 64 81
64 64 81
64 64 81
64 64 81
64 64 81
64 64 81
64 64 81
64 64 81
64 64 81
64 64 81
64 64 81
64 64 81
64 64 81
64 64 81
64 64 81
64 64 81
64 64 81
64 64 81
64 64 81
64 64 81
64 64 81
64 64 81
64 64 81
64 64 81
64 64 81
64 64 81
64 64 81
64 64 81
64 64 81
64 64 81
64 64 81
64 64 81
64 64 81
64 64 81
64 64 81
64 64 81
64 64 81
64 64 81
64 64 81
64 64 81
64 64 81
64 64 81
64 64 81
64 64 81
64 64 81
64 64 81
64 64 81
64 64 81
64 64 81
64 64 81
64 64 81
64 64 81
64 64 81
64 64 81
64 64 81
64 64 81
64 64 81
64 64 81
64 64 81
64 64 81
64 64 81
64 64 81
64 64 81
64 64 81
64 64 81
64 64 81
64 64 81
64 64 81
64 64 81
64 64 81
64 64 81
64 64 81
64 64 81
64 64 81
64 64 81
64 64 81
65 65 82
64 64 81
64 64 81
64 64 81
64 64 81
64 64 81
64 64 81
64 64 81
64 64 81
64 64 81
64 64 81
64 64 81
64 64 81
64 64 81
64 64 81
64 64 81
64 64 81
64 64 81
64 64 81
64 64 81
64 64 81
64 64 81
65 65 82
64 64 81
65 65 82
64 64 81
64 64 81
65 65 82
64 64 81
64 64 81
64 64 81
64 64 81
64 64 81
64 64 81
64 64 81
64 64 81
65 65 81
64 64 81
65 65 81
64 64 81
64 64 81
64 64 81
65 65 82
64 64 81
64 64 81
64 64 81
64 64 81
64 64 81
64 64 81
64 64 81
64 64 81
64 64 81
64 64 81
64 64 81
64 64 81
64 64 81
64 64 81
64 64 81
64 64 81
64 64 81
64 64 81
64 64 81
64 64 81
64 64 81
64 64 81
64 64 81
64 64 81
64 64 81
64 64 81
64 64 81
64 64 81
64 64 81
64 64 81
64 64 81
64 64 81
64 64 81
64 64 81
64 64 81
64 64 81
64 64 81
64 64 81
64 64 81
64 64 81
64 64 81
64 64 81
64 64 81
64 64 81
64 64 81
64 64 81
64 64 81
64 64 81
64 64 81
64 64 81
64 64 81
64 64 81
64 64 81
64 64 81
64 64 81
64 64 81
64 64 81
64 64 81
64 64 81
64 64 81
64 64 81
64 64 81
64 64 81
64 64 81
64 64 81
64 64 81
64 64 81
64 64 81
64 64 81
64 64 81
64 64 81
64 64 81
64 64 81
64 64 81
64 64 81
64 64 81
64 64 81
64 64 81
64 64 81
64 64 81
64 64 81
64 64 81
64 64 81
64 64 81
64 64 81
64 64 81
64 64 81
64 64 81
64 64 81
64 64 81
64 64 81
64 64 81
64 64 81
64 64 81
64 64 81
64 64 81
64 64 81
64 64 81
64 64 81
64 64 81
64 64 81
64 64 81
64 64 81
64 64 81
64 64 81
64 64 81
64 64 81
64 64 81
64 64 81
64 64 81
64 64 81
64 64 81
64 64 81
64 64 81
64 64 81
64 64 81
64 64 81
64 64 81
64 64 81
64 64 81
64 64 81
64 64 81
64 64 81
64 64 81
64 64 81
64 64 81
64 64 81
64 64 81
64 64 81
64 64 81
64 64 81
64 64 81
64 64 81
64 64 81
64 64 81
64 64 81
64 64 81
64 64 81
64 64 81
64 64 81
64 64 81
64 64 81
64 64 81
64 64 81
64 64 81
64 64 81
64 64 81
64 64 81
64 64 81
64 64 81
64 64 81
64 64 81
64 64 81
64 64 81
64 64 81
64 64 81
64 64 81
64 64 81
64 64 81
64 64 81
64 64 81
64 64 81
64 64 81
64 64 81
64 64 81
64 64 81
64 64 81
64 64 81
64 64 81
64 64 81
64 64 81
64 64 81
64 64 81
64 64 81
64 64 81
64 64 81
64 64 81
64 64 81
64 64 81
64 64 81
64 64 81
64 64 81
64 64 81
64 64 81
64 64 81
64 64 81
64 64 81
64 64 81
64 64 81
64 64 81
64 64 81
64 64 81
64 64 81
64 64 81
64 64 81
64 64 81
64 64 81
64 64 81
64 64 81
64 64 81
64 64 81
64 64 81
64 64 81
64 64 81
64 64 81
64 64 81
64 64 81
64 64 81
64 64 81
64 64 81
64 64 81
64 64 81
64 64 81
64 64 81
64 64 81
64 64 81
64 64 81
64 64 81
64 64 81
64 64 81
64 64 81
64 64 81
64 64 81
64 64 81
64 64 81
64 64 81
64 64 81
64 64 81
64 64 81
64 64 81
64 64 81
64 64 81
64 64 81
64 64 81
64 64 81
64 64 81
64 64 81
64 64 81
64 64 81
64 64 81
64 64 81
64 64 81
64 64 81
64 64 81
64 64 81
64 64 81
64 64 81
64 64 81
64 64 81
64 64 81
64 64 81
64 64 81
64 64 81
64 64 81
64 64 81
64 64 81
65 65 81
64 64 81
64 64 81
64 64 81
64 64 81
64 64 81
64 64 81
64 64 81
64 64 81
65 65 81
64 64 81
64 64 81
64 64 81
64 64 81
64 64 81
64 64 81
64 64 81
65 65 82
64 64 81
65 65 82
64 64 81
64 64 81
64 64 81
64 64 81
64 64 81
64 64 81
64 64 81
64 64 81
64 64 81
64 64 81
64 64 81
64 64 81
64 64 81
64 64 81
64 64 81
64 64 81
64 64 81
64 64 81
64 64 81
64 64 81
64 64 81
64 64 81
64 64 81
64 64 81
64 64 81
64 64 81
64 64 81
64 64 81
64 64 81
64 64 81
64 64 81
64 64 81
64 64 81
64 64 81
64 64 81
64 64 81
64 64 81
64 64 81
64 64 81
64 64 81
64 64 81
64 64 81
64 64 81
64 64 81
64 64 81
64 64 81
64 64 81
64 64 81
64 64 81
64 64 81
64 64 81
64 64 81
64 64 81
64 64 81
64 64 81
64 64 81
65 65 81
65 65 81
64 64 81
65 65 81
65 65 82
65 65 82
64 64 81
64 64 81
64 64 81
64 64 81
64 64 81
64 64 81
65 65 82
65 65 81
64 64 81
65 65 81
65 65 81
65 65 81
64 64 81
64 64 81
65 65 82
65 65 81
64 64 81
65 65 82
64 64 81
65 65 82
64 64 81
65 65 81
64 64 81
64 64 81
65 65 82
64 64 81
64 64 81
64 64 81
65 65 82
64 64 81
64 64 81
64 64 81
64 64 81
64 64 81
64 64 81
65 65 81
64 64 81
64 64 81
64 64 81
64 64 81
64 64 81
64 64 81
64 64 81
64 64 81
64 64 81
64 64 81
65 65 82
64 64 81
64 64 81
64 64 81
64 64 81
64 64 81
64 64 81
64 64 81
64 64 81
64 64 81
65 65 82
64 64 81
64 64 81
64 64 81
64 64 81
64 64 81
64 64 81
64 64 81
64 64 81
64 64 81
64 64 81
64 64 81
64 64 81
64 64 81
64 64 81
64 64 81
64 64 81
64 64 81
64 64 81
64 64 81
64 64 81
64 64 81
64 64 81
64 64 81
64 64 81
64 64 81
64 64 81
64 64 81
64 64 81
64 64 81
64 64 81
64 64 81
64 64 81
64 64 81
64 64 81
64 64 81
64 64 81
64 64 81
64 64 81
64 64 81
64 64 81
64 64 81
64 64 81
64 64 81
64 64 81
64 64 81
64 64 81
64 64 81
64 64 81
64 64 81
64 64 81
64 64 81
64 64 81
64 64 81
64 64 81
64 64 81
64 64 81
64 64 81
64 64 81
64 64 81
64 64 81
64 64 81
64 64 81
64 64 81
64 64 81
64 64 81
64 64 81
64 64 81
64 64 81
64 64 81
64 64 81
64 64 81
64 64 81
64 64 81
64 64 81
64 64 81
64 64 81
64 64 81
64 64 81
64 64 81
64 64 81
64 64 81
64 64 81
64 64 81
64 64 81
64 64 81
64 64 81
64 64 81
64 64 81
64 64 81
64 64 81
64 64 81
64 64 81
64 64 81
64 64 81
64 64 81
64 64 81
64 64 81
64 64 81
64 64 81
64 64 81
64 64 81
64 64 81
64 64 81
64 64 81
64 64 81
64 64 81
64 64 81
64 64 81
64 64 81
64 64 81
64 64 81
64 64 81
64 64 81
64 64 81
64 64 81
64 64 81
64 64 81
64 64 81
64 64 81
64 64 81
64 64 81
64 64 81
64 64 81
64 64 81
64 64 81
64 64 81
64 64 81
64 64 81
64 64 81
64 64 81
64 64 81
64 64 81
64 64 81
64 64 81
64 64 81
64 64 81
64 64 81
64 64 81
64 64 81
64 64 81
64 64 81
64 64 81
64 64 81
64 64 81
64 64 81
64 64 81
64 64 81
64 64 81
64 64 81
64 64 81
64 64 81
64 64 81
64 64 81
64 64 81
64 64 81
64 64 81
64 64 81
64 64 81
64 64 81
64 64 81
64 64 81
64 64 81
64 64 81
64 64 81
64 64 81
64 64 81
64 64 81
64 64 81
64 64 81
64 64 81
64 64 81
64 64 81
64 64 81
64 64 81
64 64 81
64 64 81
64 64 81
64 64 81
64 64 81
64 64 81
64 64 81
64 64 81
64 64 81
64 64 81
64 64 81
64 64 81
64 64 81
64 64 81
64 64 81
64 64 81
64 64 81
64 64 81
64 64 81
64 64 81
64 64 81
64 64 81
64 64 81
64 64 81
64 64 81
64 64 81
64 64 81
64 64 81
64 64 81
64 64 81
64 64 81
64 64 81
64 64 81
64 64 81
64 64 81
64 64 81
64 64 81
64 64 81
64 64 81
64 64 81
64 64 81
64 64 81
64 64 81
64 64 81
64 64 81
64 64 81
64 64 81
64 64 81
64 64 81
64 64 81
64 64 81
64 64 81
64 64 81
64 64 81
64 64 81
64 64 81
64 64 81
64 64 81
64 64 81
64 64 81
64 64 81
64 64 81
64 64 81
64 64 81
64 64 81
64 64 81
64 64 81
64 64 81
64 64 81
64 64 81
64 64 81
64 64 81
64 64 81
64 64 81
64 64 81
64 64 81
64 64 81
64 64 81
64 64 81
64 64 81
64 64 81
64 64 81
64 64 81
64 64 81
64 64 81
64 64 81
64 64 81
64 64 81
64 64 81
65 65 81
64 64 81
64 64 81
64 64 81
64 64 81
64 64 81
64 64 81
64 64 81
64 64 81
64 64 81
64 64 81
65 65 81
65 65 82
64 64 81
64 64 81
64 64 81
64 64 81
64 64 81
64 64 81
64 64 81
65 65 82
64 64 81
64 64 81
64 64 81
64 64 81
64 64 81
64 64 81
64 64 81
64 64 81
64 64 81
64 64 81
64 64 81
64 64 81
64 64 81
64 64 81
64 64 81
64 64 81
64 64 81
64 64 81
64 64 81
64 64 81
64 64 81
64 64 81
64 64 81
64 64 81
64 64 81
64 64 81
64 64 81
64 64 81
64 64 81
64 64 81
64 64 81
64 64 81
64 64 81
64 64 81
64 64 81
64 64 81
64 64 81
64 64 81
64 64 81
64 64 81
64 64 81
64 64 81
64 64 81
64 64 81
64 64 81
64 64 81
64 64 81
64 64 81
64 64 81
64 64 81
64 64 81
64 64 81
64 64 81
65 65 82
65 65 81
64 64 81
65 65 81
64 64 81
65 65 81
64 64 81
65 65 82
64 64 81
64 64 81
65 65 82
65 65 82
64 64 81
65 65 81
65 65 82
65 65 82
65 65 82
65 65 82
64 64 81
65 65 82
65 65 81
64 64 81
65 65 81
65 65 82
65 65 82
64 64 81
64 64 81
64 64 81
65 65 82
64 64 81
64 64 81
65 65 82
65 65 81
65 65 81
65 65 81
64 64 81
65 65 82
64 64 81
64 64 81
64 64 81
65 65 82
65 65 82
65 65 82
65 65 82
64 64 81
64 64 81
64 64 81
64 64 81
64 64 81
64 64 81
64 64 81
64 64 81
65 65 82
64 64 81
65 65 81
64 64 81
64 64 81
64 64 81
64 64 81
64 64 81
64 64 81
64 64 81
64 64 81
64 64 81
64 64 81
64 64 81
64 64 81
64 64 81
64 64 81
64 64 81
64 64 81
64 64 81
64 64 81
64 64 81
64 64 81
64 64 81
64 64 81
64 64 81
64 64 81
64 64 81
64 64 81
64 64 81
64 64 81
64 64 81
64 64 81
64 64 81
64 64 81
64 64 81
64 64 81
64 64 81
64 64 81
64 64 81
64 64 81
64 64 81
64 64 81
64 64 81
64 64 81
64 64 81
64 64 81
64 64 81
64 64 81
64 64 81
64 64 81
64 64 81
64 64 81
64 64 81
64 64 81
64 64 81
64 64 81
64 64 81
64 64 81
64 64 81
64 64 81
64 64 81
64 64 81
64 64 81
64 64 81
64 64 81
64 64 81
64 64 81
64 64 81
64 64 81
64 64 81
64 64 81
64 64 81
64 64 81
64 64 81
64 64 81
64 64 81
64 64 81
64 64 81
64 64 81
64 64 81
64 64 81
64 64 81
64 64 81
64 64 81
64 64 81
64 64 81
64 64 81
64 64 81
64 64 81
64 64 81
64 64 81
64 64 81
64 64 81
64 64 81
64 64 81
64 64 81
64 64 81
64 64 81
64 64 81
64 64 81
64 64 81
64 64 81
64 64 81
64 64 81
64 64 81
64 64 81
64 64 81
64 64 81
64 64 81
64 64 81
64 64 81
64 64 81
64 64 81
64 64 81
64 64 81
64 64 81
64 64 81
64 64 81
64 64 81
64 64 81
64 64 81
64 64 81
64 64 81
64 64 81
64 64 81
64 64 81
64 64 81
64 64 81
64 64 81
64 64 81
64 64 81
64 64 81
64 64 81
64 64 81
64 64 81
64 64 81
64 64 81
64 64 81
64 64 81
64 64 81
64 64 81
64 64 81
64 64 81
64 64 81
64 64 81
64 64 81
64 64 81
64 64 81
64 64 81
64 64 81
64 64 81
64 64 81
64 64 81
64 64 81
64 64 81
64 64 81
64 64 81
64 64 81
64 64 81
64 64 81
64 64 81
64 64 81
64 64 81
64 64 81
64 64 81
64 64 81
64 64 81
64 64 81
64 64 81
64 64 81
64 64 81
64 64 81
64 64 81
64 64 81
64 64 81
64 64 81
64 64 81
64 64 81
64 64 81
64 64 81
64 64 81
64 64 81
64 64 81
64 64 81
64 64 81
64 64 81
64 64 81
64 64 81
64 64 81
64 64 81
64 64 81
64 64 81
64 64 81
64 64 81
64 64 81
64 64 81
64 64 81
64 64 81
64 64 81
64 64 81
64 64 81
64 64 81
64 64 81
64 64 81
64 64 81
64 64 81
64 64 81
64 64 81
64 64 81
64 64 81
64 64 81
64 64 81
64 64 81
64 64 81
64 64 81
64 64 81
64 64 81
64 64 81
64 64 81
64 64 81
64 64 81
64 64 81
64 64 81
64 64 81
64 64 81
64 64 81
64 64 81
64 64 81
64 64 81
64 64 81
64 64 81
64 64 81
64 64 81
64 64 81
64 64 81
64 64 81
64 64 81
64 64 81
64 64 81
64 64 81
64 64 81
64 64 81
64 64 81
64 64 81
64 64 81
64 64 81
64 64 81
64 64 81
64 64 81
64 64 81
64 64 81
64 64 81
64 64 81
64 64 81
64 64 81
64 64 81
64 64 81
64 64 81
64 64 81
64 64 81
64 64 81
65 65 82
64 64 81
65 65 82
65 65 81
64 64 81
64 64 81
64 64 81
65 65 82
65 65 82
64 64 81
64 64 81
64 64 81
64 64 81
64 64 81
64 64 81
64 64 81
64 64 81
65 65 82
64 64 81
64 64 81
64 64 81
64 64 81
64 64 81
64 64 81
64 64 81
65 65 81
64 64 81
65 65 82
65 65 82
65 65 82
64 64 81
64 64 81
64 64 81
64 64 81
64 64 81
64 64 81
64 64 81
64 64 81
64 64 81
64 64 81
64 64 81
64 64 81
64 64 81
64 64 81
64 64 81
64 64 81
64 64 81
64 64 81
64 64 81
64 64 81
64 64 81
64 64 81
64 64 81
64 64 81
64 64 81
64 64 81
64 64 81
64 64 81
64 64 81
64 64 81
64 64 81
64 64 81
64 64 81
64 64 81
64 64 81
64 64 81
64 64 81
64 64 81
64 64 81
64 64 81
64 64 81
64 64 81
64 64 81
64 64 81
64 64 81
64 64 81
64 64 81
64 64 81
64 64 81
64 64 81
65 65 82
65 65 82
65 65 82
65 65 82
64 64 81
65 65 82
65 65 82
65 65 82
65 65 81
65 65 81
64 64 81
64 64 81
65 65 82
65 65 82
65 65 82
65 65 82
65 65 82
64 64 81
65 65 82
64 64 81
65 65 82
65 65 82
65 65 82
65 65 82
64 64 81
65 65 82
64 64 81
64 64 81
65 65 82
65 65 81
65 65 82
65 65 82
65 65 82
65 65 82
65 65 82
65 65 82
65 65 82
64 64 81
65 65 82
64 64 81
64 64 81
65 65 82
65 65 82
64 64 81
65 65 82
65 65 82
65 65 82
65 65 82
65 65 82
65 65 82
65 65 82
65 65 81
64 64 81
64 64 81
65 65 81
64 64 81
65 65 82
65 65 82
64 64 81
65 65 82
65 65 81
64 64 81
64 64 81
64 64 81
64 64 81
64 64 81
64 64 81
64 64 81
64 64 81
64 64 81
64 64 81
64 64 81
64 64 81
64 64 81
64 64 81
64 64 81
64 64 81
64 64 81
64 64 81
64 64 81
64 64 81
64 64 81
64 64 81
64 64 81
64 64 81
64 64 81
64 64 81
64 64 81
64 64 81
64 64 81
64 64 81
64 64 81
64 64 81
64 64 81
64 64 81
64 64 81
64 64 81
64 64 81
64 64 81
64 64 81
64 64 81
64 64 81
64 64 81
64 64 81
64 64 81
64 64 81
64 64 81
64 64 81
64 64 81
64 64 81
64 64 81
64 64 81
64 64 81
64 64 81
64 64 81
64 64 81
64 64 81
64 64 81
64 64 81
64 64 81
64 64 81
64 64 81
64 64 81
64 64 81
64 64 81
64 64 81
64 64 81
64 64 81
64 64 81
64 64 81
64 64 81
64 64 81
64 64 81
64 64 81
64 64 81
64 64 81
64 64 81
64 64 81
64 64 81
64 64 81
64 64 81
64 64 81
64 64 81
64 64 81
64 64 81
64 64 81
64 64 81
64 64 81
64 64 81
64 64 81
64 64 81
64 64 81
64 64 81
64 64 81
64 64 81
64 64 81
64 64 81
64 64 81
64 64 81
64 64 81
64 64 81
64 64 81
64 64 81
64 64 81
64 64 81
64 64 81
64 64 81
64 64 81
64 64 81
64 64 81
64 64 81
64 64 81
64 64 81
64 64 81
64 64 81
64 64 81
64 64 81
64 64 81
64 64 81
64 64 81
64 64 81
64 64 81
64 64 81
64 64 81
64 64 81
64 64 81
64 64 81
64 64 81
64 64 81
64 64 81
64 64 81
64 64 81
64 64 81
64 64 81
64 64 81
64 64 81
64 64 81
64 64 81
64 64 81
64 64 81
64 64 81
64 64 81
64 64 81
64 64 81
64 64 81
64 64 81
64 64 81
64 64 81
64 64 81
64 64 81
64 64 81
64 64 81
64 64 81
64 64 81
64 64 81
64 64 81
64 64 81
64 64 81
64 64 81
64 64 81
64 64 81
64 64 81
64 64 81
64 64 81
64 64 81
64 64 81
64 64 81
64 64 81
64 64 81
64 64 81
64 64 81
64 64 81
64 64 81
64 64 81
64 64 81
64 64 81
64 64 81
64 64 81
64 64 81
64 64 81
64 64 81
64 64 81
64 64 81
64 64 81
64 64 81
64 64 81
64 64 81
64 64 81
64 64 81
64 64 81
64 64 81
64 64 81
64 64 81
64 64 81
64 64 81
64 64 81
64 64 81
64 64 81
64 64 81
64 64 81
64 64 81
64 64 81
64 64 81
64 64 81
64 64 81
64 64 81
64 64 81
64 64 81
64 64 81
64 64 81
64 64 81
64 64 81
64 64 81
64 64 81
64 64 81
64 64 81
64 64 81
64 64 81
64 64 81
64 64 81
64 64 81
64 64 81
64 64 81
64 64 81
64 64 81
64 64 81
64 64 81
64 64 81
64 64 81
64 64 81
64 64 81
64 64 81
64 64 81
64 64 81
64 64 81
64 64 81
64 64 81
64 64 81
64 64 81
64 64 81
64 64 81
64 64 81
64 64 81
64 64 81
64 64 81
64 64 81
64 64 81
64 64 81
64 64 81
64 64 81
64 64 81
64 64 81
64 64 81
65 65 81
64 64 81
64 64 81
65 65 82
64 64 81
64 64 81
64 64 81
64 64 81
64 64 81
64 64 81
65 65 81
64 64 81
65 65 82
65 65 81
64 64 81
65 65 82
64 64 81
65 65 82
64 64 81
65 65 81
64 64 81
64 64 81
65 65 82
65 65 82
64 64 81
64 64 81
64 64 81
65 65 82
65 65 82
64 64 81
64 64 81
64 64 81
64 64 81
65 65 82
65 65 82
65 65 82
64 64 81
64 64 81
64 64 81
64 64 81
64 64 81
64 64 81
64 64 81
64 64 81
64 64 81
64 64 81
64 64 81
64 64 81
64 64 81
64 64 81
64 64 81
64 64 81
64 64 81
64 64 81
64 64 81
64 64 81
64 64 81
64 64 81
64 64 81
64 64 81
64 64 81
64 64 81
64 64 81
64 64 81
64 64 81
64 64 81
64 64 81
64 64 81
64 64 81
64 64 81
64 64 81
64 64 81
64 64 81
64 64 81
64 64 81
64 64 81
64 64 81
64 64 81
64 64 81
64 64 81
64 64 81
64 64 81
64 64 81
64 64 81
64 64 81
65 65 82
65 65 82
65 65 82
65 65 82
65 65 82
65 65 82
65 65 82
65 65 82
65 65 82
65 65 82
65 65 82
65 65 82
65 65 82
65 65 82
65 65 82
65 65 82
65 65 82
65 65 82
65 65 82
65 65 82
65 65 82
65 65 82
65 65 82
65 65 82
65 65 82
65 65 82
65 65 82
65 65 82
65 65 82
65 65 82
65 65 82
65 65 82
65 65 82
65 65 82
65 65 82
65 65 82
64 64 81
65 65 82
65 65 82
65 65 82
65 65 82
65 65 82
64 64 82
65 65 82
65 65 82
65 65 82
65 65 82
65 65 82
65 65 82
64 64 81
65 65 82
65 65 82
65 65 82
65 65 82
65 65 82
65 65 82
64 64 81
65 65 82
65 65 82
64 64 81
65 65 82
64 64 81
64 64 81
64 64 81
64 64 81
64 64 81
64 64 81
64 64 81
64 64 81
64 64 81
64 64 81
64 64 81
64 64 81
64 64 81
64 64 81
64 64 81
64 64 81
64 64 81
64 64 81
64 64 81
64 64 81
64 64 81
64 64 81
64 64 81
64 64 81
64 64 81
64 64 81
64 64 81
64 64 81
64 64 81
64 64 81
64 64 81
64 64 81
64 64 81
64 64 81
64 64 81
64 64 81
64 64 81
64 64 81
64 64 81
64 64 81
64 64 81
64 64 81
64 64 81
64 64 81
64 64 81
64 64 81
64 64 81
64 64 81
64 64 81
64 64 81
64 64 81
64 64 81
64 64 81
64 64 81
64 64 81
64 64 81
64 64 81
64 64 81
64 64 81
64 64 81
64 64 81
64 64 81
64 64 81
64 64 81
64 64 81
64 64 81
64 64 81
64 64 81
64 64 81
64 64 81
64 64 81
64 64 81
64 64 81
64 64 81
64 64 81
64 64 81
64 64 81
64 64 81
64 64 81
64 64 81
64 64 81
64 64 81
64 64 81
64 64 81
64 64 81
64 64 81
64 64 81
64 64 81
64 64 81
64 64 81
64 64 81
64 64 81
64 64 81
64 64 81
64 64 81
64 64 81
64 64 81
64 64 81
64 64 81
64 64 81
64 64 81
64 64 81
64 64 81
64 64 81
64 64 81
64 64 81
64 64 81
64 64 81
64 64 81
64 64 81
64 64 81
64 64 81
64 64 81
64 64 81
64 64 81
64 64 81
64 64 81
64 64 81
64 64 81
64 64 81
64 64 81
64 64 81
64 64 81
64 64 81
64 64 81
64 64 81
64 64 81
64 64 81
64 64 81
64 64 81
64 64 81
64 64 81
64 64 81
64 64 81
64 64 81
64 64 81
64 64 81
64 64 81
64 64 81
64 64 81
64 64 81
64 64 81
65 65 81
64 64 81
64 64 81
64 64 81
64 64 81
64 64 81
64 64 81
64 64 81
64 64 81
64 64 81
64 64 81
64 64 81
64 64 81
64 64 81
64 64 81
64 64 81
64 64 81
64 64 81
64 64 81
64 64 81
64 64 81
64 64 81
64 64 81
64 64 81
64 64 81
64 64 81
64 64 81
64 64 81
64 64 81
64 64 81
64 64 81
64 64 81
64 64 81
64 64 81
64 64 81
64 64 81
64 64 81
64 64 81
64 64 81
64 64 81
64 64 81
64 64 81
64 64 81
64 64 81
64 64 81
64 64 81
64 64 81
64 64 81
64 64 81
65 65 81
64 64 81
64 64 81
64 64 81
64 64 81
64 64 81
64 64 81
64 64 81
64 64 81
64 64 81
64 64 81
64 64 81
65 65 82
64 64 81
64 64 81
64 64 81
64 64 81
64 64 81
64 64 81
64 64 81
64 64 81
64 64 81
64 64 81
64 64 81
64 64 81
64 64 81
64 64 81
64 64 81
64 64 81
64 64 81
64 64 81
64 64 81
64 64 81
64 64 81
64 64 81
64 64 81
64 64 81
64 64 81
64 64 81
64 64 81
64 64 81
64 64 81
64 64 81
64 64 81
64 64 81
64 64 81
64 64 81
64 64 81
64 64 81
64 64 81
64 64 81
64 64 81
64 64 81
64 64 81
64 64 81
64 64 81
64 64 81
64 64 81
64 64 81
65 65 82
64 64 81
64 64 81
64 64 81
64 64 81
64 64 81
64 64 81
65 65 82
65 65 82
65 65 82
65 65 82
65 65 82
64 64 81
65 65 82
65 65 82
65 65 82
64 64 81
64 64 81
64 64 81
64 64 81
64 64 81
64 64 81
65 65 82
65 65 82
64 64 81
64 64 81
65 65 82
65 65 82
64 64 81
65 65 82
65 65 82
65 65 82
64 64 81
65 65 82
65 65 82
65 65 82
65 65 82
64 64 81
65 65 82
64 64 81
64 64 81
64 64 81
64 64 81
64 64 81
64 64 81
64 64 81
64 64 81
64 64 81
64 64 81
64 64 81
64 64 81
64 64 81
64 64 81
64 64 81
64 64 81
64 64 81
64 64 81
64 64 81
64 64 81
64 64 81
64 64 81
64 64 81
64 64 81
64 64 81
64 64 81
64 64 81
64 64 81
64 64 82
64 64 82
64 64 82
64 64 82
64 64 82
64 64 82
64 64 82
64 64 82
65 65 82
65 65 82
65 65 82
65 65 82
65 65 82
65 65 82
65 65 82
65 65 82
65 65 82
65 65 82
65 65 82
65 65 82
65 65 82
65 65 82
65 65 82
65 65 82
65 65 82
65 65 82
65 65 82
65 65 82
65 65 82
65 65 82
65 65 82
65 65 82
65 65 82
65 65 82
65 65 82
65 65 82
65 65 82
65 65 82
65 65 82
65 65 82
65 65 82
65 65 82
65 65 82
65 65 82
65 65 82
65 65 82
65 65 82
65 65 82
65 65 82
65 65 82
65 65 82
65 65 82
65 65 82
65 65 82
65 65 82
65 65 82
65 65 82
65 65 82
65 65 82
65 65 82
65 65 82
65 65 82
65 65 82
65 65 82
65 65 82
65 65 82
65 65 82
65 65 82
65 65 82
65 65 82
65 65 82
65 65 82
65 65 82
65 65 82
65 65 82
65 65 82
65 65 82
65 65 82
65 65 82
65 65 82
65 65 82
65 65 82
65 65 82
65 65 82
65 65 82
65 65 82
65 65 82
65 65 82
65 65 82
65 65 82
64 64 82
64 64 82
64 64 82
64 64 82
64 64 82
64 64 82
64 64 82
64 64 82
64 64 81
64 64 81
64 64 81
64 64 81
64 64 81
64 64 81
64 64 81
64 64 81
64 64 81
64 64 81
64 64 81
64 64 81
64 64 81
64 64 81
64 64 81
64 64 81
64 64 81
64 64 81
64 64 81
64 64 81
64 64 81
64 64 81
64 64 81
64 64 81
64 64 81
64 64 81
64 64 81
64 64 81
64 64 81
64 64 81
64 64 81
64 64 81
64 64 81
64 64 81
64 64 81
64 64 81
64 64 81
64 64 81
64 64 81
64 64 81
64 64 81
64 64 81
64 64 81
64 64 81
64 64 81
64 64 81
64 64 81
64 64 81
64 64 81
64 64 81
64 64 81
64 64 81
64 64 81
64 64 81
64 64 81
64 64 81
64 64 81
64 64 81
64 64 81
64 64 81
64 64 81
64 64 81
64 64 81
64 64 81
64 64 81
64 64 81
64 64 81
64 64 81
64 64 81
64 64 81
64 64 81
64 64 81
64 64 81
64 64 81
64 64 81
64 64 81
64 64 81
64 64 81
64 64 81
64 64 81
64 64 81
64 64 81
64 64 81
64 64 81
64 64 81
64 64 81
64 64 81
64 64 81
64 64 81
64 64 81
64 64 81
64 64 81
64 64 81
64 64 81
64 64 81
64 64 81
64 64 81
64 64 81
64 64 81
64 64 81
64 64 81
64 64 81
64 64 81
64 64 81
64 64 81
64 64 81
64 64 81
64 64 81
64 64 81
64 64 81
65 65 81
64 64 81
64 64 81
64 64 81
64 64 81
64 64 81
64 64 81
64 64 81
64 64 81
64 64 81
64 64 81
64 64 81
64 64 81
64 64 81
64 64 81
64 64 81
64 64 81
65 65 81
64 64 81
64 64 81
64 64 81
64 64 81
64 64 81
64 64 81
64 64 81
64 64 81
64 64 81
64 64 81
65 65 81
64 64 81
64 64 81
64 64 81
64 64 81
64 64 81
64 64 81
64 64 81
64 64 81
64 64 81
64 64 81
64 64 81
64 64 81
64 64 81
64 64 81
64 64 81
64 64 81
64 64 81
64 64 81
64 64 81
64 64 81
64 64 81
64 64 81
64 64 81
64 64 81
64 64 81
64 64 81
65 65 81
64 64 81
64 64 81
64 64 81
64 64 81
64 64 81
64 64 81
64 64 81
64 64 81
64 64 81
64 64 81
64 64 81
64 64 81
64 64 81
64 64 81
64 64 81
64 64 81
64 64 81
64 64 81
64 64 81
64 64 81
64 64 81
64 64 81
64 64 81
64 64 81
64 64 81
64 64 81
64 64 81
64 64 81
64 64 81
64 64 81
64 64 81
64 64 81
64 64 81
64 64 81
64 64 81
64 64 81
64 64 81
64 64 81
64 64 81
64 64 81
64 64 81
64 64 81
64 64 81
64 64 81
64 64 81
64 64 81
64 64 81
64 64 81
64 64 81
64 64 81
64 64 81
64 64 81
64 64 81
64 64 81
64 64 81
64 64 81
64 64 81
64 64 81
64 64 81
64 64 81
64 64 81
64 64 81
65 65 82
65 65 82
65 65 82
65 65 81
64 64 81
64 64 81
64 64 81
65 65 81
64 64 81
65 65 82
65 65 82
64 64 81
64 64 81
65 65 82
65 65 82
65 65 82
64 64 81
65 65 82
65 65 82
65 65 82
65 65 82
65 65 82
64 64 81
65 65 82
65 65 82
65 65 82
65 65 82
65 65 82
65 65 82
65 65 82
65 65 82
64 64 81
65 65 82
64 64 81
65 65 82
64 64 81
65 65 82
65 65 82
65 65 82
64 64 81
65 65 82
65 65 82
65 65 82
64 64 82
64 64 82
64 64 82
64 64 82
64 64 82
65 65 82
65 65 82
65 65 82
65 65 82
65 65 82
65 65 82
65 65 82
65 65 82
65 65 82
65 65 82
65 65 82
65 65 82
65 65 82
65 65 82
65 65 82
65 65 82
65 65 82
65 65 82
65 65 82
65 65 82
65 65 82
65 65 82
65 65 82
65 65 82
65 65 82
65 65 82
65 65 82
65 65 82
65 65 82
65 65 82
65 65 82
65 65 82
65 65 82
65 65 82
65 65 82
65 65 82
65 65 82
65 65 82
65 65 82
65 65 82
65 65 82
65 65 82
65 65 82
65 65 82
65 65 82
65 65 82
65 65 82
65 65 82
65 65 82
65 65 82
65 65 82
65 65 82
65 65 82
65 65 82
65 65 82
65 65 82
65 65 82
65 65 82
65 65 82
65 65 82
65 65 82
65 65 82
65 65 82
65 65 82
65 65 82
65 65 82
65 65 82
65 65 82
65 65 82
65 65 82
65 65 82
65 65 82
65 65 82
65 65 82
65 65 82
65 65 82
65 65 82
65 65 82
65 65 82
65 65 82
65 65 82
65 65 82
65 65 82
65 65 82
65 65 82
65 65 82
65 65 82
65 65 82
65 65 82
65 65 82
65 65 82
65 65 82
65 65 82
65 65 82
65 65 82
65 65 82
65 65 82
65 65 82
65 65 82
65 65 82
65 65 82
65 65 82
65 65 82
65 65 82
65 65 82
65 65 82
65 65 82
65 65 82
65 65 82
65 65 82
65 65 82
65 65 82
65 65 82
65 65 82
65 65 82
65 65 82
65 65 82
65 65 82
65 65 82
65 65 82
65 65 82
65 65 82
65 65 82
65 65 82
65 65 82
65 65 82
65 65 82
65 65 82
65 65 82
65 65 82
65 65 82
65 65 82
65 65 82
65 65 82
65 65 82
65 65 82
65 65 82
65 65 82
65 65 82
65 65 82
65 65 82
65 65 82
65 65 82
65 65 82
65 65 82
65 65 82
65 65 82
65 65 82
65 65 82
65 65 82
64 64 82
64 64 82
64 64 82
64 64 82
64 64 82
64 64 81
64 64 81
64 64 81
64 64 81
64 64 81
64 64 81
64 64 81
64 64 81
64 64 81
64 64 81
64 64 81
64 64 81
64 64 81
64 64 81
64 64 81
64 64 81
64 64 81
64 64 81
64 64 81
64 64 81
64 64 81
64 64 81
64 64 81
64 64 81
64 64 81
64 64 81
64 64 81
64 64 81
64 64 81
64 64 81
64 64 81
64 64 81
64 64 81
64 64 81
64 64 81
64 64 81
64 64 81
64 64 81
64 64 81
64 64 81
64 64 81
64 64 81
64 64 81
64 64 81
64 64 81
64 64 81
64 64 81
64 64 81
64 64 81
64 64 81
64 64 81
64 64 81
64 64 81
64 64 81
65 65 81
65 65 82
64 64 81
64 64 81
64 64 81
64 64 81
64 64 81
64 64 81
64 64 81
65 65 81
64 64 81
65 65 82
64 64 81
65 65 82
64 64 81
64 64 81
64 64 81
64 64 81
64 64 81
65 65 81
64 64 81
65 65 81
64 64 81
64 64 81
64 64 81
64 64 81
64 64 81
64 64 81
64 64 81
65 65 82
64 64 81
64 64 81
64 64 81
64 64 81
64 64 81
64 64 81
65 65 81
64 64 81
64 64 81
64 64 81
64 64 81
64 64 81
64 64 81
64 64 81
64 64 81
64 64 81
64 64 81
64 64 81
64 64 81
64 64 81
64 64 81
64 64 81
64 64 81
64 64 81
64 64 81
64 64 81
64 64 81
64 64 81
64 64 81
64 64 81
64 64 81
64 64 81
64 64 81
64 64 81
64 64 81
64 64 81
64 64 81
64 64 81
64 64 81
64 64 81
64 64 81
64 64 81
64 64 81
64 64 81
64 64 81
64 64 81
64 64 81
64 64 81
65 65 81
64 64 81
64 64 81
64 64 81
64 64 81
64 64 81
64 64 81
64 64 81
64 64 81
64 64 81
65 65 81
64 64 81
64 64 81
64 64 81
64 64 81
64 64 81
64 64 81
64 64 81
64 64 81
64 64 81
65 65 82
64 64 81
64 64 81
64 64 81
64 64 81
64 64 81
64 64 81
64 64 81
64 64 81
64 64 81
64 64 81
64 64 81
64 64 81
64 64 81
64 64 81
64 64 81
64 64 81
64 64 81
64 64 81
64 64 81
64 64 81
64 64 81
64 64 81
64 64 81
64 64 81
64 64 81
64 64 81
64 64 81
64 64 81
64 64 81
64 64 81
64 64 81
64 64 81
64 64 81
64 64 81
64 64 81
64 64 81
64 64 81
64 64 81
64 64 81
64 64 81
64 64 81
65 65 82
64 64 81
65 65 82
64 64 81
64 64 81
65 65 82
65 65 82
65 65 82
65 65 81
65 65 82
64 64 81
65 65 82
65 65 82
65 65 82
65 65 82
64 64 81
65 65 82
65 65 82
65 65 82
65 65 82
65 65 82
65 65 82
65 65 82
65 65 82
64 64 82
64 64 82
65 65 82
65 65 82
65 65 82
65 65 82
65 65 82
65 65 82
65 65 82
65 65 82
65 65 82
65 65 82
65 65 82
65 65 82
65 65 82
65 65 82
65 65 82
65 65 82
65 65 82
65 65 82
65 65 82
65 65 82
65 65 82
65 65 82
65 65 82
65 65 82
65 65 82
65 65 82
65 65 82
65 65 82
65 65 82
65 65 82
65 65 82
65 65 82
65 65 82
65 65 82
65 65 82
65 65 82
65 65 82
65 65 82
65 65 82
65 65 82
65 65 82
65 65 82
65 65 82
65 65 82
65 65 82
65 65 82
65 65 82
65 65 82
65 65 82
65 65 82
65 65 82
65 65 82
65 65 82
65 65 82
65 65 82
65 65 82
65 65 82
65 65 82
65 65 82
65 65 82
65 65 82
65 65 82
65 65 82
65 65 82
65 65 82
65 65 82
65 65 82
65 65 82
65 65 82
65 65 82
65 65 82
65 65 82
65 65 82
65 65 82
65 65 82
65 65 82
65 65 82
65 65 82
65 65 82
65 65 82
65 65 82
65 65 82
65 65 82
65 65 82
65 65 82
65 65 82
65 65 82
65 65 82
65 65 82
65 65 82
65 65 82
65 65 82
65 65 82
65 65 82
65 65 82
65 65 82
65 65 82
65 65 82
65 65 82
65 65 82
65 65 82
65 65 82
65 65 82
65 65 82
65 65 82
65 65 82
65 65 82
65 65 82
65 65 82
65 65 82
65 65 82
65 65 82
65 65 82
65 65 82
65 65 82
65 65 82
65 65 82
65 65 82
65 65 82
65 65 82
65 65 82
65 65 82
65 65 82
65 65 82
65 65 82
65 65 82
65 65 82
65 65 82
65 65 82
65 65 82
65 65 82
65 65 82
65 65 82
65 65 82
65 65 82
65 65 82
65 65 82
65 65 82
65 65 82
65 65 82
65 65 82
65 65 82
65 65 82
65 65 82
65 65 82
65 65 82
65 65 82
65 65 82
65 65 82
65 65 82
65 65 82
65 65 82
65 65 82
65 65 82
65 65 82
65 65 82
65 65 82
65 65 82
65 65 82
65 65 82
65 65 82
65 65 82
65 65 82
65 65 82
65 65 82
65 65 82
65 65 82
65 65 82
65 65 82
65 65 82
65 65 82
65 65 82
65 65 82
65 65 82
65 65 82
65 65 82
65 65 82
65 65 82
65 65 82
65 65 82
65 65 82
65 65 82
65 65 82
65 65 82
65 65 82
65 65 82
65 65 82
65 65 82
65 65 82
65 65 82
65 65 82
65 65 82
65 65 82
65 65 82
65 65 82
65 65 82
65 65 82
65 65 82
64 64 82
64 64 82
64 64 82
64 64 82
64 64 81
64 64 81
64 64 81
64 64 81
64 64 81
64 64 81
64 64 81
64 64 81
64 64 81
64 64 81
64 64 81
64 64 81
64 64 81
64 64 81
64 64 81
64 64 81
64 64 81
65 65 82
65 65 82
65 65 82
65 65 82
64 64 81
64 64 81
64 64 81
65 65 82
64 64 81
65 65 82
65 65 82
65 65 82
64 64 81
65 65 82
65 65 82
64 64 81
64 64 81
64 64 81
65 65 82
64 64 81
65 65 82
65 65 81
64 64 81
64 64 81
65 65 82
65 65 82
64 64 81
64 64 81
64 64 81
64 64 81
65 65 82
65 65 81
64 64 81
64 64 81
64 64 81
64 64 81
64 64 81
65 65 82
64 64 81
64 64 81
64 64 81
64 64 81
65 65 81
64 64 81
64 64 81
64 64 81
64 64 81
65 65 81
64 64 81
64 64 81
64 64 81
64 64 81
64 64 81
64 64 81
64 64 81
65 65 82
64 64 81
64 64 81
64 64 81
64 64 81
64 64 81
64 64 81
64 64 81
64 64 81
64 64 81
64 64 81
64 64 81
64 64 81
64 64 81
65 65 81
64 64 81
64 64 81
65 65 81
64 64 81
64 64 81
64 64 81
64 64 81
64 64 81
64 64 81
64 64 81
64 64 81
64 64 81
64 64 81
64 64 81
64 64 81
64 64 81
65 65 81
64 64 81
65 65 82
64 64 81
64 64 81
64 64 81
64 64 81
64 64 81
65 65 81
64 64 81
64 64 81
64 64 81
64 64 81
65 65 81
64 64 81
64 64 81
65 65 81
64 64 81
64 64 81
64 64 81
65 65 81
64 64 81
65 65 82
64 64 81
64 64 81
64 64 81
64 64 81
65 65 82
64 64 81
64 64 81
64 64 81
64 64 81
64 64 81
64 64 81
64 64 81
64 64 81
64 64 81
64 64 81
64 64 81
64 64 81
64 64 81
64 64 81
64 64 81
64 64 81
64 64 81
64 64 81
64 64 81
64 64 81
64 64 81
64 64 81
64 64 81
64 64 81
64 64 81
64 64 81
64 64 81
64 64 81
64 64 81
64 64 81
64 64 81
64 64 81
64 64 81
64 64 81
64 64 81
64 64 81
64 64 81
64 64 81
64 64 81
64 64 81
65 65 82
64 64 81
65 65 82
64 64 81
65 65 82
64 64 81
65 65 82
65 65 82
65 65 82
65 65 82
65 65 82
65 65 82
65 65 82
65 65 82
65 65 82
65 65 82
65 65 82
65 65 82
65 65 82
65 65 82
65 65 82
65 65 82
65 65 82
65 65 82
65 65 82
65 65 82
65 65 82
65 65 82
65 65 82
65 65 82
65 65 82
65 65 82
65 65 82
65 65 82
65 65 82
65 65 82
65 65 82
65 65 82
65 65 82
65 65 82
65 65 82
65 65 82
65 65 82
65 65 82
65 65 82
65 65 82
65 65 82
65 65 82
65 65 82
65 65 82
65 65 82
65 65 82
65 65 82
65 65 82
65 65 82
65 65 82
65 65 82
65 65 82
65 65 82
65 65 82
65 65 82
65 65 82
65 65 82
65 65 82
65 65 82
65 65 82
65 65 82
65 65 82
65 65 82
65 65 82
65 65 82
65 65 82
65 65 82
65 65 82
65 65 82
65 65 82
65 65 82
65 65 82
65 65 82
65 65 82
65 65 82
65 65 82
65 65 82
65 65 82
65 65 82
65 65 82
65 65 82
65 65 82
65 65 82
65 65 82
65 65 82
65 65 82
65 65 82
65 65 82
65 65 82
65 65 82
65 65 82
65 65 82
65 65 82
65 65 82
65 65 82
65 65 82
65 65 82
65 65 82
65 65 82
65 65 82
65 65 82
65 65 82
65 65 82
65 65 82
65 65 82
65 65 82
65 65 82
65 65 82
65 65 82
65 65 82
65 65 82
65 65 82
65 65 82
65 65 82
65 65 82
65 65 82
65 65 82
65 65 82
65 65 82
65 65 82
65 65 82
65 65 82
65 65 82
65 65 82
65 65 82
65 65 82
65 65 82
65 65 82
65 65 82
65 65 82
65 65 82
65 65 82
65 65 82
65 65 82
65 65 82
65 65 82
65 65 82
65 65 82
65 65 82
65 65 82
65 65 82
65 65 82
65 65 82
65 65 82
65 65 82
65 65 82
65 65 82
65 65 82
65 65 82
65 65 82
65 65 82
65 65 82
65 65 82
65 65 82
65 65 82
65 65 82
65 65 82
65 65 82
65 65 82
65 65 82
65 65 82
65 65 82
65 65 82
65 65 82
65 65 82
65 65 82
65 65 82
65 65 82
65 65 82
65 65 82
65 65 82
65 65 82
65 65 82
65 65 82
65 65 82
65 65 82
65 65 82
65 65 82
65 65 82
65 65 82
65 65 82
65 65 82
65 65 82
65 65 82
65 65 82
65 65 82
65 65 82
65 65 82
65 65 82
65 65 82
65 65 82
65 65 82
65 65 82
65 65 82
65 65 82
65 65 82
65 65 82
65 65 82
65 65 82
65 65 82
65 65 82
65 65 82
65 65 82
65 65 82
65 65 82
65 65 82
65 65 82
65 65 82
65 65 82
65 65 82
65 65 82
65 65 82
65 65 82
65 65 82
65 65 82
65 65 82
65 65 82
65 65 82
65 65 82
65 65 82
65 65 82
65 65 82
65 65 82
65 65 82
65 65 82
65 65 82
65 65 82
65 65 82
65 65 82
65 65 82
65 65 82
65 65 82
65 65 82
65 65 82
65 65 82
65 65 82
65 65 82
65 65 82
65 65 82
65 65 82
65 65 82
65 65 82
64 64 81
64 64 81
64 64 81
64 64 81
64 64 81
65 65 82
65 65 82
64 64 81
65 65 82
65 65 82
65 65 82
65 65 82
64 64 81
64 64 81
65 65 82
65 65 82
64 64 81
65 65 82
64 64 81
64 64 81
64 64 81
65 65 82
65 65 82
64 64 81
65 65 82
64 64 81
65 65 82
64 64 81
64 64 81
64 64 81
65 65 81
64 64 81
64 64 81
64 64 81
64 64 81
64 64 81
65 65 82
65 65 81
65 65 81
64 64 81
64 64 81
64 64 81
65 65 81
65 65 81
64 64 81
64 64 81
64 64 81
64 64 81
64 64 81
65 65 81
64 64 81
64 64 81
65 65 82
64 64 81
64 64 81
64 64 81
64 64 81
64 64 81
64 64 81
65 65 81
64 64 81
64 64 81
65 65 82
64 64 81
64 64 81
64 64 81
64 64 81
65 65 81
64 64 81
64 64 81
64 64 81
64 64 81
64 64 81
64 64 81
64 64 81
64 64 81
64 64 81
65 65 81
64 64 81
64 64 81
64 64 81
64 64 81
64 64 81
64 64 81
64 64 81
65 65 81
64 64 81
64 64 81
64 64 81
64 64 81
64 64 81
64 64 81
65 65 82
64 64 81
64 64 81
64 64 81
64 64 81
64 64 81
64 64 81
65 65 82
65 65 81
65 65 82
64 64 81
64 64 81
64 64 81
65 65 82
64 64 81
65 65 82
65 65 82
64 64 81
64 64 81
64 64 81
64 64 81
64 64 81
64 64 81
64 64 81
64 64 81
64 64 81
64 64 81
64 64 81
64 64 81
64 64 81
64 64 81
64 64 81
64 64 81
64 64 81
64 64 81
64 64 81
64 64 81
64 64 81
64 64 81
64 64 81
64 64 81
64 64 81
64 64 81
64 64 81
64 64 81
64 64 81
64 64 81
64 64 81
64 64 81
64 64 81
64 64 81
64 64 82
64 64 82
64 64 82
65 65 82
65 65 82
65 65 82
65 65 82
65 65 82
65 65 82
65 65 82
65 65 82
65 65 82
65 65 82
65 65 82
65 65 82
65 65 82
65 65 82
65 65 82
65 65 82
65 65 82
65 65 82
65 65 82
65 65 82
65 65 82
65 65 82
65 65 82
65 65 82
65 65 82
65 65 82
65 65 82
65 65 82
65 65 82
65 65 82
65 65 82
65 65 82
65 65 82
65 65 82
65 65 82
65 65 82
65 65 82
65 65 82
65 65 82
65 65 82
65 65 82
65 65 82
65 65 82
65 65 82
65 65 82
65 65 82
65 65 82
65 65 82
65 65 82
65 65 82
65 65 82
65 65 82
65 65 82
65 65 82
65 65 82
65 65 82
65 65 82
65 65 82
65 65 82
65 65 82
65 65 82
65 65 82
65 65 82
65 65 82
65 65 82
65 65 82
65 65 82
65 65 82
65 65 82
65 65 82
65 65 82
65 65 82
65 65 82
65 65 82
65 65 82
65 65 82
65 65 82
65 65 82
65 65 82
65 65 82
65 65 82
65 65 82
65 65 82
65 65 82
65 65 82
65 65 82
65 65 82
65 65 82
65 65 82
65 65 82
65 65 82
65 65 82
65 65 82
65 65 82
65 65 82
65 65 82
65 65 82
65 65 82
65 65 82
65 65 82
65 65 82
65 65 82
65 65 82
65 65 82
65 65 82
65 65 82
65 65 82
65 65 82
65 65 82
65 65 82
65 65 82
65 65 82
65 65 82
65 65 82
65 65 82
65 65 82
65 65 82
65 65 82
65 65 82
65 65 82
65 65 82
65 65 82
65 65 82
65 65 82
65 65 82
65 65 82
65 65 82
65 65 82
65 65 82
65 65 82
65 65 82
65 65 82
65 65 82
65 65 82
65 65 82
65 65 82
65 65 82
65 65 82
65 65 82
65 65 82
65 65 82
65 65 82
65 65 82
65 65 82
65 65 82
65 65 82
65 65 82
65 65 82
65 65 82
65 65 82
65 65 82
65 65 82
65 65 82
65 65 82
65 65 82
65 65 82
65 65 82
65 65 82
65 65 82
65 65 82
65 65 82
65 65 82
65 65 82
65 65 82
65 65 82
65 65 82
65 65 82
65 65 82
65 65 82
65 65 82
65 65 82
65 65 82
65 65 82
65 65 82
65 65 82
65 65 82
65 65 82
65 65 82
65 65 82
65 65 82
65 65 82
65 65 82
65 65 82
65 65 82
65 65 82
65 65 82
65 65 82
65 65 82
65 65 82
65 65 82
65 65 82
65 65 82
65 65 82
65 65 82
65 65 82
65 65 82
65 65 82
65 65 82
65 65 82
65 65 82
65 65 82
65 65 82
65 65 82
65 65 82
65 65 82
65 65 82
65 65 82
65 65 82
65 65 82
65 65 82
65 65 82
65 65 82
65 65 82
65 65 82
65 65 82
65 65 82
65 65 82
65 65 82
65 65 82
65 65 82
65 65 82
65 65 82
65 65 82
65 65 82
65 65 82
65 65 82
65 65 82
65 65 82
65 65 82
65 65 82
65 65 82
65 65 82
65 65 82
65 65 82
65 65 82
65 65 82
65 65 82
65 65 82
65 65 82
65 65 82
65 65 82
65 65 82
65 65 82
65 65 82
65 65 82
65 65 82
65 65 82
65 65 82
65 65 82
65 65 82
65 65 82
65 65 82
65 65 82
65 65 82
65 65 82
65 65 82
65 65 82
65 65 82
65 65 82
65 65 82
65 65 82
65 65 82
65 65 82
65 65 82
65 65 82
65 65 82
65 65 82
65 65 82
65 65 82
64 64 81
65 65 82
65 65 82
65 65 82
64 64 81
65 65 82
64 64 81
65 65 82
65 65 82
64 64 81
65 65 82
65 65 82
65 65 82
65 65 82
65 65 82
65 65 81
65 65 82
65 65 82
65 65 82
64 64 81
64 64 81
65 65 81
65 65 82
65 65 82
64 64 81
65 65 82
64 64 81
65 65 82
65 65 82
64 64 81
65 65 82
64 64 81
65 65 82
64 64 81
65 65 82
65 65 82
64 64 81
65 65 82
64 64 81
65 65 82
65 65 81
64 64 81
64 64 81
65 65 81
64 64 81
65 65 82
64 64 81
64 64 81
64 64 81
64 64 81
64 64 81
64 64 81
64 64 81
64 64 81
64 64 81
64 64 81
64 64 81
65 65 81
64 64 81
64 64 81
64 64 81
65 65 81
64 64 81
64 64 81
64 64 81
65 65 81
65 65 81
64 64 81
65 65 82
64 64 81
64 64 81
64 64 81
65 65 81
65 65 82
65 65 82
65 65 82
64 64 81
64 64 81
64 64 81
64 64 81
65 65 81
64 64 81
64 64 81
64 64 81
64 64 81
64 64 81
64 64 81
64 64 81
65 65 82
65 65 82
65 65 81
64 64 81
64 64 81
64 64 81
64 64 81
64 64 81
64 64 81
64 64 81
64 64 81
64 64 81
64 64 81
64 64 81
64 64 81
64 64 81
64 64 81
64 64 81
64 64 81
64 64 81
64 64 81
64 64 81
64 64 81
64 64 81
64 64 81
64 64 81
64 64 82
64 64 82
64 64 82
65 65 82
65 65 82
65 65 82
65 65 82
65 65 82
65 65 82
65 65 82
65 65 82
65 65 82
65 65 82
65 65 82
65 65 82
65 65 82
65 65 82
65 65 82
65 65 82
65 65 82
65 65 82
65 65 82
65 65 82
65 65 82
65 65 82
65 65 82
65 65 82
65 65 82
65 65 82
65 65 82
65 65 82
65 65 82
65 65 82
65 65 82
65 65 82
65 65 82
65 65 82
65 65 82
65 65 82
65 65 82
65 65 82
65 65 82
65 65 82
65 65 82
65 65 82
65 65 82
65 65 82
65 65 82
65 65 82
65 65 82
65 65 82
65 65 82
65 65 82
65 65 82
65 65 82
65 65 82
65 65 82
65 65 82
65 65 82
65 65 82
65 65 82
65 65 82
65 65 82
65 65 82
65 65 82
65 65 82
65 65 82
65 65 82
65 65 82
65 65 82
65 65 82
65 65 82
65 65 82
65 65 82
65 65 82
65 65 82
65 65 82
65 65 82
65 65 82
65 65 82
65 65 82
65 65 82
65 65 82
65 65 82
65 65 82
65 65 82
65 65 82
65 65 82
65 65 82
65 65 82
65 65 82
65 65 82
65 65 82
65 65 82
65 65 82
65 65 82
65 65 82
65 65 82
65 65 82
65 65 82
65 65 82
65 65 82
65 65 82
65 65 82
65 65 82
65 65 82
65 65 82
65 65 82
65 65 82
65 65 82
65 65 82
65 65 82
65 65 82
65 65 82
65 65 82
65 65 82
65 65 82
65 65 82
65 65 82
65 65 82
65 65 82
65 65 82
65 65 82
65 65 82
65 65 82
65 65 82
65 65 82
65 65 82
65 65 82
65 65 82
65 65 82
65 65 82
65 65 82
65 65 82
65 65 82
65 65 82
65 65 82
65 65 82
65 65 82
65 65 82
65 65 82
65 65 82
65 65 82
65 65 82
65 65 82
65 65 82
65 65 82
65 65 82
65 65 82
65 65 82
65 65 82
65 65 82
65 65 82
65 65 82
65 65 82
65 65 82
65 65 82
65 65 82
65 65 82
65 65 82
65 65 82
65 65 82
65 65 82
65 65 82
65 65 82
65 65 82
65 65 82
65 65 82
65 65 82
65 65 82
65 65 82
65 65 82
65 65 82
65 65 82
65 65 82
65 65 82
65 65 82
65 65 82
65 65 82
65 65 82
65 65 82
65 65 82
65 65 82
65 65 82
65 65 82
65 65 82
65 65 82
65 65 82
65 65 82
65 65 82
65 65 82
65 65 82
65 65 82
65 65 82
65 65 82
65 65 82
65 65 82
65 65 82
65 65 82
65 65 82
65 65 82
65 65 82
65 65 82
65 65 82
65 65 82
65 65 82
65 65 82
65 65 82
65 65 82
65 65 82
65 65 82
65 65 82
65 65 82
65 65 82
65 65 82
65 65 82
65 65 82
65 65 82
65 65 82
65 65 82
65 65 82
65 65 82
65 65 82
65 65 82
65 65 82
65 65 82
65 65 82
65 65 82
65 65 82
65 65 82
65 65 82
65 65 82
65 65 82
65 65 82
65 65 82
65 65 82
65 65 82
65 65 82
65 65 82
65 65 82
65 65 82
65 65 82
65 65 82
65 65 82
65 65 82
65 65 82
65 65 82
65 65 82
65 65 82
65 65 82
65 65 82
65 65 82
65 65 82
65 65 82
65 65 82
65 65 82
65 65 82
65 65 82
65 65 82
65 65 82
65 65 82
65 65 82
65 65 82
65 65 82
65 65 82
65 65 82
65 65 82
65 65 82
65 65 82
65 65 82
65 65 82
65 65 82
65 65 82
65 65 82
65 65 82
65 65 82
65 65 82
65 65 82
65 65 82
65 65 82
65 65 82
65 65 82
65 65 82
65 65 82
65 65 82
65 65 82
65 65 82
65 65 82
65 65 82
65 65 82
65 65 82
65 65 82
65 65 82
65 65 82
65 65 82
65 65 82
65 65 82
65 65 82
65 65 82
65 65 82
65 65 82
65 65 82
65 65 82
65 65 82
65 65 82
65 65 82
65 65 82
65 65 82
65 65 82
65 65 82
64 64 81
65 65 82
65 65 82
64 64 81
64 64 81
65 65 82
65 65 82
64 64 81
65 65 82
65 65 82
64 64 81
65 65 82
65 65 82
65 65 82
64 64 81
65 65 82
65 65 82
65 65 82
64 64 81
64 64 81
64 64 81
64 64 81
64 64 81
65 65 82
65 65 82
65 65 81
64 64 81
64 64 81
64 64 81
64 64 81
64 64 81
64 64 81
64 64 81
65 65 81
65 65 81
64 64 81
64 64 81
64 64 81
65 65 81
64 64 81
64 64 81
65 65 82
65 65 82
65 65 82
65 65 82
64 64 81
64 64 81
65 65 82
65 65 82
65 65 82
64 64 81
64 64 81
65 65 82
65 65 82
65 65 81
65 65 82
65 65 82
64 64 81
65 65 82
65 65 82
64 64 81
65 65 82
65 65 82
65 65 82
65 65 82
65 65 82
65 65 82
64 64 81
64 64 81
64 64 81
64 64 81
64 64 81
64 64 81
64 64 81
64 64 81
64 64 81
64 64 81
64 64 82
64 64 82
65 65 82
65 65 82
65 65 82
65 65 82
65 65 82
65 65 82
65 65 82
65 65 82
65 65 82
65 65 82
65 65 82
65 65 82
65 65 82
65 65 82
65 65 82
65 65 82
65 65 82
65 65 82
65 65 82
65 65 82
65 65 82
65 65 82
65 65 82
65 65 82
65 65 82
65 65 82
65 65 82
65 65 82
65 65 82
65 65 82
65 65 82
65 65 82
65 65 82
65 65 82
65 65 82
65 65 82
65 65 82
65 65 82
65 65 82
65 65 82
65 65 82
65 65 82
65 65 82
65 65 82
65 65 82
65 65 82
65 65 82
65 65 82
65 65 82
65 65 82
65 65 82
65 65 82
65 65 82
65 65 82
65 65 82
65 65 82
65 65 82
65 65 82
65 65 82
65 65 82
65 65 82
65 65 82
65 65 82
65 65 82
65 65 82
65 65 82
65 65 82
65 65 82
65 65 82
65 65 82
65 65 82
65 65 82
65 65 82
65 65 82
65 65 82
65 65 82
65 65 82
65 65 82
65 65 82
65 65 82
65 65 82
65 65 82
65 65 82
65 65 82
65 65 82
65 65 82
65 65 82
65 65 82
65 65 82
65 65 82
65 65 82
65 65 82
65 65 82
65 65 82
65 65 82
65 65 82
65 65 82
65 65 82
65 65 82
65 65 82
65 65 82
65 65 82
65 65 82
65 65 82
65 65 82
65 65 82
65 65 82
65 65 82
65 65 82
65 65 82
65 65 82
65 65 82
65 65 82
65 65 82
65 65 82
65 65 82
65 65 82
65 65 82
65 65 82
65 65 82
65 65 82
65 65 82
65 65 82
65 65 82
65 65 82
65 65 82
65 65 82
65 65 82
65 65 82
65 65 82
65 65 82
65 65 82
65 65 82
65 65 82
65 65 82
65 65 82
65 65 82
65 65 82
65 65 82
65 65 82
65 65 82
65 65 82
65 65 82
65 65 82
65 65 82
65 65 82
65 65 82
65 65 82
65 65 82
65 65 82
65 65 82
65 65 82
65 65 82
65 65 82
65 65 82
65 65 82
65 65 82
65 65 82
65 65 82
65 65 82
65 65 82
65 65 82
65 65 82
65 65 82
65 65 82
65 65 82
65 65 82
65 65 82
65 65 82
65 65 82
65 65 82
65 65 82
65 65 82
65 65 82
65 65 82
65 65 82
65 65 82
65 65 82
65 65 82
65 65 82
65 65 82
65 65 82
65 65 82
65 65 82
65 65 82
65 65 82
65 65 82
65 65 82
65 65 82
65 65 82
65 65 82
65 65 82
65 65 82
65 65 82
65 65 82
65 65 82
65 65 82
65 65 82
65 65 82
65 65 82
65 65 82
65 65 82
65 65 82
65 65 82
65 65 82
65 65 82
65 65 82
65 65 82
65 65 82
65 65 82
65 65 82
65 65 82
65 65 82
65 65 82
65 65 82
65 65 82
65 65 82
65 65 82
65 65 82
65 65 82
65 65 82
65 65 82
65 65 82
65 65 82
65 65 82
65 65 82
65 65 82
65 65 82
65 65 82
65 65 82
65 65 82
65 65 82
65 65 82
65 65 82
65 65 82
65 65 82
65 65 82
65 65 82
65 65 82
65 65 82
65 65 82
65 65 82
65 65 82
65 65 82
65 65 82
65 65 82
65 65 82
65 65 82
65 65 82
65 65 82
65 65 82
65 65 82
65 65 82
65 65 82
65 65 82
65 65 82
65 65 82
65 65 82
65 65 82
65 65 82
65 65 82
65 65 82
65 65 82
65 65 82
65 65 82
65 65 82
65 65 82
65 65 82
65 65 82
65 65 82
65 65 82
65 65 82
65 65 82
65 65 82
65 65 82
65 65 82
65 65 82
65 65 82
65 65 82
65 65 82
65 65 82
65 65 82
65 65 82
65 65 82
65 65 82
65 65 82
65 65 82
65 65 82
65 65 82
65 65 82
65 65 82
65 65 82
65 65 82
65 65 82
65 65 82
65 65 82
65 65 82
65 65 82
65 65 82
65 65 82
65 65 82
65 65 82
65 65 82
65 65 82
65 65 82
65 65 82
65 65 82
65 65 82
65 65 82
65 65 82
65 65 82
65 65 82
65 65 82
65 65 82
65 65 82
65 65 82
65 65 82
65 65 82
65 65 82
65 65 82
65 65 82
65 65 82
65 65 82
64 64 82
65 65 82
65 65 82
64 64 81
65 65 82
65 65 82
64 64 81
64 64 81
65 65 82
64 64 81
65 65 82
64 64 81
65 65 82
65 65 82
64 64 81
64 64 81
65 65 82
65 65 82
65 65 82
64 64 81
65 65 82
65 65 82
65 65 82
64 64 81
64 64 81
65 65 82
65 65 82
65 65 82
65 65 82
65 65 82
64 64 81
65 65 82
64 64 81
64 64 81
64 64 81
65 65 82
64 64 81
64 64 81
65 65 81
64 64 81
65 65 82
64 64 81
64 64 81
65 65 82
65 65 82
64 64 81
64 64 81
64 64 81
65 65 82
65 65 82
65 65 82
65 65 82
64 64 81
64 64 81
65 65 82
65 65 82
65 65 82
64 64 81
65 65 82
65 65 82
65 65 82
65 65 82
65 65 82
65 65 82
64 64 82
65 65 82
65 65 82
65 65 82
65 65 82
65 65 82
65 65 82
65 65 82
65 65 82
65 65 82
65 65 82
65 65 82
65 65 82
65 65 82
65 65 82
65 65 82
65 65 82
65 65 82
65 65 82
65 65 82
65 65 82
65 65 82
65 65 82
65 65 82
65 65 82
65 65 82
65 65 82
65 65 82
65 65 82
65 65 82
65 65 82
65 65 82
65 65 82
65 65 82
65 65 82
65 65 82
65 65 82
65 65 82
65 65 82
65 65 82
65 65 82
65 65 82
65 65 82
65 65 82
65 65 82
65 65 82
65 65 82
65 65 82
65 65 82
65 65 82
65 65 82
65 65 82
65 65 82
65 65 82
65 65 82
65 65 82
65 65 82
65 65 82
65 65 82
65 65 82
65 65 82
65 65 82
65 65 82
65 65 82
65 65 82
65 65 82
65 65 82
65 65 82
65 65 82
65 65 82
65 65 82
65 65 82
65 65 82
65 65 82
65 65 82
65 65 82
65 65 82
65 65 82
65 65 82
65 65 82
65 65 82
65 65 82
65 65 82
65 65 82
65 65 82
65 65 82
65 65 82
65 65 82
65 65 82
65 65 82
65 65 82
65 65 82
65 65 82
65 65 82
65 65 82
65 65 82
65 65 82
65 65 82
65 65 82
65 65 82
65 65 82
65 65 82
65 65 82
65 65 82
65 65 82
65 65 82
65 65 82
65 65 82
65 65 82
65 65 82
65 65 82
65 65 82
65 65 82
65 65 82
65 65 82
65 65 82
65 65 82
65 65 82
65 65 82
65 65 82
65 65 82
65 65 82
65 65 82
65 65 82
65 65 82
65 65 82
65 65 82
65 65 82
65 65 82
65 65 82
65 65 82
65 65 82
65 65 82
65 65 82
65 65 82
65 65 82
65 65 82
65 65 82
65 65 82
65 65 82
65 65 82
65 65 82
65 65 82
65 65 82
65 65 82
65 65 82
65 65 82
65 65 82
65 65 82
65 65 82
65 65 82
65 65 82
65 65 82
65 65 82
65 65 82
65 65 82
65 65 82
65 65 82
65 65 82
65 65 82
65 65 82
65 65 82
65 65 82
65 65 82
65 65 82
65 65 82
65 65 82
65 65 82
65 65 82
65 65 82
65 65 82
65 65 82
65 65 82
65 65 82
65 65 82
65 65 82
65 65 82
65 65 82
65 65 82
65 65 82
65 65 82
65 65 82
65 65 82
65 65 82
65 65 82
65 65 82
65 65 82
65 65 82
65 65 82
65 65 82
65 65 82
65 65 82
65 65 82
65 65 82
65 65 82
65 65 82
65 65 82
65 65 82
65 65 82
65 65 82
65 65 82
65 65 82
65 65 82
65 65 82
65 65 82
65 65 82
65 65 82
65 65 82
65 65 82
65 65 82
65 65 82
65 65 82
65 65 82
65 65 82
65 65 82
65 65 82
65 65 82
65 65 82
65 65 82
65 65 82
65 65 82
65 65 82
65 65 82
65 65 82
65 65 82
65 65 82
65 65 82
65 65 82
65 65 82
65 65 82
65 65 82
65 65 82
65 65 82
65 65 82
65 65 82
65 65 82
65 65 82
65 65 82
65 65 82
65 65 82
65 65 82
65 65 82
65 65 82
65 65 82
65 65 82
65 65 82
65 65 82
65 65 82
65 65 82
65 65 82
65 65 82
65 65 82
65 65 82
65 65 82
65 65 82
65 65 82
65 65 82
65 65 82
65 65 82
65 65 82
65 65 82
65 65 82
65 65 82
65 65 82
65 65 82
65 65 82
65 65 82
65 65 82
65 65 82
65 65 82
65 65 82
65 65 82
65 65 82
65 65 82
65 65 82
65 65 82
65 65 82
65 65 82
65 65 82
65 65 82
65 65 82
65 65 82
65 65 82
65 65 82
65 65 82
65 65 82
65 65 82
65 65 82
65 65 82
65 65 82
65 65 82
65 65 82
65 65 82
65 65 82
65 65 82
65 65 82
65 65 82
65 65 82
65 65 82
65 65 82
65 65 82
65 65 82
65 65 82
65 65 82
65 65 82
65 65 82
65 65 82
65 65 82
65 65 82
65 65 82
65 65 82
65 65 82
65 65 82
65 65 82
65 65 82
65 65 82
65 65 82
65 65 82
65 65 82
65 65 82
65 65 82
65 65 82
65 65 82
65 65 82
65 65 82
65 65 82
65 65 82
65 65 82
65 65 82
65 65 82
65 65 82
65 65 82
65 65 82
65 65 82
65 65 82
65 65 82
65 65 82
65 65 82
65 65 82
65 65 82
65 65 82
65 65 82
65 65 82
65 65 82
65 65 82
65 65 82
65 65 82
65 65 82
65 65 82
65 65 82
65 65 82
65 65 82
65 65 82
65 65 82
65 65 82
65 65 82
64 64 81
65 65 82
65 65 82
65 65 82
65 65 82
65 65 82
64 64 81
65 65 82
65 65 82
64 64 81
64 64 81
64 64 81
64 64 81
65 65 82
65 65 82
65 65 82
65 65 82
64 64 81
64 64 81
65 65 82
65 65 82
65 65 82
64 64 81
64 64 81
65 65 82
64 64 81
65 65 82
65 65 82
65 65 82
64 64 81
65 65 82
65 65 82
65 65 82
65 65 82
65 65 82
65 65 82
65 65 82
65 65 82
65 65 82
65 65 82
65 65 82
65 65 82
65 65 82
65 65 82
65 65 82
65 65 82
65 65 82
65 65 82
65 65 82
65 65 82
65 65 82
65 65 82
65 65 82
65 65 82
65 65 82
65 65 82
65 65 82
65 65 82
65 65 82
65 65 82
65 65 82
65 65 82
65 65 82
65 65 82
65 65 82
65 65 82
65 65 82
65 65 82
65 65 82
65 65 82
65 65 82
65 65 82
65 65 82
65 65 82
65 65 82
65 65 82
65 65 82
65 65 82
65 65 82
65 65 82
65 65 82
65 65 82
65 65 82
65 65 82
65 65 82
65 65 82
65 65 82
65 65 82
65 65 82
65 65 82
65 65 82
65 65 82
65 65 82
65 65 82
65 65 82
65 65 82
65 65 82
65 65 82
65 65 82
65 65 82
65 65 82
65 65 82
65 65 82
65 65 82
65 65 82
65 65 82
65 65 82
65 65 82
65 65 82
65 65 82
65 65 82
65 65 82
65 65 82
65 65 82
65 65 82
65 65 82
65 65 82
65 65 82
65 65 82
65 65 82
65 65 82
65 65 82
65 65 82
65 65 82
65 65 82
65 65 82
65 65 82
65 65 82
65 65 82
65 65 82
65 65 82
65 65 82
65 65 82
65 65 82
65 65 82
65 65 82
65 65 82
65 65 82
65 65 82
65 65 82
65 65 82
65 65 82
65 65 82
65 65 82
65 65 82
65 65 82
65 65 82
65 65 82
65 65 82
65 65 82
65 65 82
65 65 82
65 65 82
65 65 82
65 65 82
65 65 82
65 65 82
65 65 82
65 65 82
65 65 82
65 65 82
65 65 82
65 65 82
65 65 82
65 65 82
65 65 82
65 65 82
65 65 82
65 65 82
65 65 82
65 65 82
65 65 82
65 65 82
65 65 82
65 65 82
65 65 82
65 65 82
65 65 82
65 65 82
65 65 82
65 65 82
65 65 82
65 65 82
65 65 82
65 65 82
65 65 82
65 65 82
65 65 82
65 65 82
65 65 82
65 65 82
65 65 82
65 65 82
65 65 82
65 65 82
65 65 82
65 65 82
65 65 82
65 65 82
65 65 82
65 65 82
65 65 82
65 65 82
65 65 82
65 65 82
65 65 82
65 65 82
66 66 82
65 65 82
65 65 82
65 65 82
65 65 82
65 65 82
65 65 82
65 65 82
65 65 82
65 65 82
65 65 82
65 65 82
65 65 82
65 65 82
65 65 82
65 65 82
65 65 82
65 65 82
65 65 82
65 65 82
65 65 82
65 65 82
65 65 82
65 65 82
65 65 82
65 65 82
65 65 82
65 65 82
65 65 82
65 65 82
65 65 82
65 65 82
65 65 82
65 65 82
65 65 82
65 65 82
65 65 82
65 65 82
65 65 82
65 65 82
65 65 82
65 65 82
65 65 82
65 65 82
65 65 82
65 65 82
65 65 82
65 65 82
65 65 82
65 65 82
65 65 82
65 65 82
65 65 82
65 65 82
65 65 82
65 65 82
65 65 82
65 65 82
65 65 82
65 65 82
65 65 82
65 65 82
65 65 82
65 65 82
65 65 82
65 65 82
65 65 82
65 65 82
65 65 82
65 65 82
65 65 82
65 65 82
65 65 82
65 65 82
65 65 82
65 65 82
65 65 82
65 65 82
65 65 82
65 65 82
65 65 82
65 65 82
65 65 82
65 65 82
65 65 82
65 65 82
65 65 82
65 65 82
65 65 82
65 65 82
65 65 82
65 65 82
65 65 82
65 65 82
65 65 82
65 65 82
65 65 82
65 65 82
65 65 82
65 65 82
65 65 82
65 65 82
65 65 82
65 65 82
65 65 82
65 65 82
65 65 82
65 65 82
65 65 82
65 65 82
65 65 82
65 65 82
65 65 82
65 65 82
65 65 82
65 65 82
65 65 82
65 65 82
65 65 82
65 65 82
65 65 82
65 65 82
65 65 82
65 65 82
65 65 82
65 65 82
65 65 82
65 65 82
65 65 82
65 65 82
65 65 82
65 65 82
65 65 82
65 65 82
65 65 82
65 65 82
65 65 82
65 65 82
65 65 82
65 65 82
65 65 82
65 65 82
65 65 82
65 65 82
65 65 82
65 65 82
65 65 82
65 65 82
65 65 82
65 65 82
65 65 82
65 65 82
65 65 82
65 65 82
65 65 82
65 65 82
65 65 82
65 65 82
65 65 82
65 65 82
65 65 82
65 65 82
65 65 82
65 65 82
65 65 82
65 65 82
65 65 82
65 65 82
65 65 82
65 65 82
65 65 82
65 65 82
65 65 82
65 65 82
65 65 82
65 65 82
65 65 82
65 65 82
65 65 82
65 65 82
65 65 82
65 65 82
65 65 82
65 65 82
65 65 82
65 65 82
65 65 82
65 65 82
65 65 82
65 65 82
65 65 82
65 65 82
65 65 82
65 65 82
65 65 82
65 65 82
65 65 82
65 65 82
65 65 82
65 65 82
65 65 82
65 65 82
65 65 82
65 65 82
64 64 81
65 65 82
65 65 82
65 65 82
65 65 82
65 65 82
65 65 82
65 65 82
65 65 82
65 65 82
65 65 82
65 65 82
65 65 82
65 65 82
65 65 82
65 65 82
65 65 82
65 65 82
65 65 82
65 65 82
65 65 82
65 65 82
65 65 82
65 65 82
65 65 82
65 65 82
65 65 82
65 65 82
65 65 82
65 65 82
65 65 82
65 65 82
65 65 82
65 65 82
65 65 82
65 65 82
65 65 82
65 65 82
65 65 82
65 65 82
65 65 82
65 65 82
65 65 82
65 65 82
65 65 82
65 65 82
65 65 82
65 65 82
65 65 82
65 65 82
65 65 82
65 65 82
65 65 82
65 65 82
65 65 82
65 65 82
65 65 82
65 65 82
65 65 82
65 65 82
65 65 82
65 65 82
65 65 82
65 65 82
65 65 82
65 65 82
65 65 82
65 65 82
65 65 82
65 65 82
65 65 82
65 65 82
65 65 82
65 65 82
65 65 82
65 65 82
65 65 82
65 65 82
65 65 82
65 65 82
65 65 82
65 65 82
65 65 82
65 65 82
65 65 82
65 65 82
65 65 82
65 65 82
65 65 82
65 65 82
65 65 82
65 65 82
65 65 82
65 65 82
65 65 82
65 65 82
65 65 82
65 65 82
65 65 82
65 65 82
65 65 82
65 65 82
65 65 82
65 65 82
65 65 82
65 65 82
65 65 82
65 65 82
65 65 82
65 65 82
65 65 82
65 65 82
65 65 82
65 65 82
65 65 82
65 65 82
65 65 82
65 65 82
65 65 82
65 65 82
65 65 82
65 65 82
65 65 82
65 65 82
65 65 82
65 65 82
65 65 82
65 65 82
65 65 82
65 65 82
65 65 82
65 65 82
65 65 82
65 65 82
65 65 82
65 65 82
65 65 82
65 65 82
65 65 82
65 65 82
65 65 82
65 65 82
65 65 82
65 65 82
65 65 82
65 65 82
65 65 82
65 65 82
65 65 82
65 65 82
65 65 82
65 65 82
65 65 82
65 65 82
65 65 82
65 65 82
65 65 82
65 65 82
65 65 82
65 65 82
65 65 82
65 65 82
65 65 82
65 65 82
65 65 82
65 65 82
65 65 82
65 65 82
65 65 82
65 65 82
65 65 82
65 65 82
65 65 82
65 65 82
65 65 82
65 65 82
65 65 82
65 65 82
65 65 82
65 65 82
65 65 82
65 65 82
65 65 82
65 65 82
65 65 82
65 65 82
65 65 82
65 65 82
65 65 82
65 65 82
65 65 82
65 65 82
65 65 82
65 65 82
65 65 82
65 65 82
65 65 82
65 65 82
65 65 82
65 65 82
65 65 82
65 65 82
65 65 82
65 65 82
65 65 82
65 65 82
65 65 82
65 65 82
65 65 82
65 65 82
65 65 82
65 65 82
65 65 82
65 65 82
65 65 82
65 65 82
65 65 82
65 65 82
65 65 82
65 65 82
65 65 82
65 65 82
65 65 82
65 65 82
65 65 82
65 65 82
65 65 82
65 65 82
65 65 82
65 65 82
65 65 82
65 65 82
65 65 82
65 65 82
65 65 82
65 65 82
65 65 82
65 65 82
65 65 82
65 65 82
65 65 82
65 65 82
65 65 82
65 65 82
65 65 82
65 65 82
65 65 82
65 65 82
65 65 82
65 65 82
65 65 82
65 65 82
65 65 82
65 65 82
65 65 82
65 65 82
65 65 82
65 65 82
65 65 82
65 65 82
65 65 82
65 65 82
65 65 82
65 65 82
65 65 82
65 65 82
65 65 82
65 65 82
65 65 82
65 65 82
65 65 82
65 65 82
65 65 82
65 65 82
65 65 82
65 65 82
65 65 82
65 65 82
65 65 82
65 65 82
65 65 82
65 65 82
65 65 82
65 65 82
65 65 82
65 65 82
65 65 82
65 65 82
65 65 82
65 65 82
65 65 82
65 65 82
65 65 82
65 65 82
65 65 82
65 65 82
65 65 82
65 65 82
65 65 82
65 65 82
65 65 82
65 65 82
65 65 82
65 65 82
65 65 82
65 65 82
65 65 82
65 65 82
65 65 82
65 65 82
65 65 82
65 65 82
65 65 82
65 65 82
65 65 82
65 65 82
65 65 82
65 65 82
65 65 82
65 65 82
65 65 82
65 65 82
65 65 82
65 65 82
65 65 82
65 65 82
65 65 82
65 65 82
65 65 82
65 65 82
65 65 82
65 65 82
65 65 82
65 65 82
65 65 82
65 65 82
65 65 82
65 65 82
65 65 82
65 65 82
65 65 82
65 65 82
65 65 82
65 65 82
65 65 82
65 65 82
65 65 82
65 65 82
65 65 82
65 65 82
65 65 82
65 65 82
65 65 82
65 65 82
65 65 82
65 65 82
65 65 82
65 65 82
65 65 82
65 65 82
65 65 82
65 65 82
65 65 82
65 65 82
65 65 82
65 65 82
65 65 82
65 65 82
65 65 82
65 65 82
65 65 82
65 65 82
65 65 82
65 65 82
65 65 82
65 65 82
65 65 82
65 65 82
65 65 82
65 65 82
65 65 82
65 65 82
65 65 82
65 65 82
65 65 82
65 65 82
65 65 82
65 65 82
65 65 82
65 65 82
65 65 82
65 65 82
65 65 82
65 65 82
65 65 82
65 65 82
65 65 82
65 65 82
65 65 82
65 65 82
65 65 82
65 65 82
65 65 82
65 65 82
65 65 82
65 65 82
65 65 82
65 65 82
65 65 82
65 65 82
65 65 82
65 65 82
65 65 82
65 65 82
65 65 82
65 65 82
65 65 82
65 65 82
65 65 82
65 65 82
65 65 82
65 65 82
65 65 82
65 65 82
65 65 82
65 65 82
65 65 82
65 65 82
65 65 82
65 65 82
65 65 82
65 65 82
65 65 82
65 65 82
65 65 82
65 65 82
65 65 82
65 65 82
65 65 82
65 65 82
65 65 82
65 65 82
65 65 82
65 65 82
65 65 82
65 65 82
65 65 82
65 65 82
65 65 82
65 65 82
65 65 82
65 65 82
65 65 82
65 65 82
65 65 82
65 65 82
65 65 82
65 65 82
65 65 82
65 65 82
65 65 82
65 65 82
65 65 82
65 65 82
65 65 82
65 65 82
65 65 82
65 65 82
65 65 82
65 65 82
65 65 82
65 65 82
65 65 82
65 65 82
65 65 82
65 65 82
65 65 82
65 65 82
65 65 82
65 65 82
65 65 82
65 65 82
65 65 82
65 65 82
65 65 82
65 65 82
65 65 82
65 65 82
65 65 82
65 65 82
65 65 82
65 65 82
65 65 82
65 65 82
65 65 82
65 65 82
65 65 82
65 65 82
65 65 82
65 65 82
65 65 82
65 65 82
65 65 82
65 65 82
65 65 82
65 65 82
65 65 82
65 65 82
65 65 82
65 65 82
65 65 82
65 65 82
65 65 82
65 65 82
65 65 82
65 65 82
65 65 82
65 65 82
65 65 82
65 65 82
65 65 82
65 65 82
65 65 82
65 65 82
65 65 82
65 65 82
65 65 82
65 65 82
65 65 82
65 65 82
65 65 82
65 65 82
65 65 82
65 65 82
65 65 82
65 65 82
65 65 82
65 65 82
65 65 82
65 65 82
65 65 82
65 65 82
65 65 82
65 65 82
65 65 82
65 65 82
65 65 82
65 65 82
65 65 82
65 65 82
65 65 82
65 65 82
65 65 82
65 65 82
65 65 82
65 65 82
65 65 82
65 65 82
65 65 82
65 65 82
65 65 82
65 65 82
65 65 82
65 65 82
65 65 82
65 65 82
65 65 82
65 65 82
65 65 82
65 65 82
65 65 82
65 65 82
65 65 82
65 65 82
65 65 82
65 65 82
65 65 82
65 65 82
65 65 82
65 65 82
65 65 82
65 65 82
65 65 82
65 65 82
65 65 82
65 65 82
65 65 82
65 65 82
65 65 82
65 65 82
65 65 82
65 65 82
65 65 82
65 65 82
65 65 82
65 65 82
65 65 82
65 65 82
65 65 82
65 65 82
65 65 82
65 65 82
65 65 82
65 65 82
65 65 82
65 65 82
65 65 82
65 65 82
65 65 82
65 65 82
65 65 82
65 65 82
65 65 82
65 65 82
65 65 82
65 65 82
65 65 82
65 65 82
65 65 82
65 65 82
65 65 82
65 65 82
65 65 82
65 65 82
65 65 82
65 65 82
65 65 82
65 65 82
65 65 82
65 65 82
65 65 82
65 65 82
65 65 82
65 65 82
65 65 82
65 65 82
65 65 82
65 65 82
65 65 82
65 65 82
65 65 82
65 65 82
65 65 82
65 65 82
65 65 82
65 65 82
65 65 82
65 65 82
65 65 82
65 65 82
65 65 82
65 65 82
65 65 82
65 65 82
65 65 82
65 65 82
65 65 82
65 65 82
65 65 82
65 65 82
65 65 82
65 65 82
65 65 82
65 65 82
65 65 82
65 65 82
65 65 82
65 65 82
65 65 82
65 65 82
65 65 82
65 65 82
65 65 82
65 65 82
65 65 82
65 65 82
65 65 82
65 65 82
65 65 82
65 65 82
65 65 82
65 65 82
65 65 82
65 65 82
65 65 82
65 65 82
65 65 82
65 65 82
65 65 82
65 65 82
65 65 82
65 65 82
65 65 82
65 65 82
65 65 82
65 65 82
65 65 82
65 65 82
66 66 82
65 65 82
65 65 82
65 65 82
65 65 82
65 65 82
65 65 82
65 65 82
65 65 82
65 65 82
65 65 82
65 65 82
65 65 82
65 65 82
65 65 82
65 65 82
65 65 82
65 65 82
65 65 82
65 65 82
65 65 82
65 65 82
65 65 82
65 65 82
65 65 82
65 65 82
65 65 82
65 65 82
65 65 82
65 65 82
65 65 82
65 65 82
65 65 82
65 65 82
65 65 82
65 65 82
65 65 82
65 65 82
65 65 82
65 65 82
65 65 82
65 65 82
65 65 82
65 65 82
65 65 82
65 65 82
65 65 82
65 65 82
65 65 82
65 65 82
65 65 82
65 65 82
65 65 82
65 65 82
65 65 82
65 65 82
65 65 82
65 65 82
65 65 82
65 65 82
65 65 82
65 65 82
65 65 82
65 65 82
65 65 82
65 65 82
65 65 82
65 65 82
65 65 82
65 65 82
65 65 82
65 65 82
65 65 82
65 65 82
65 65 82
65 65 82
65 65 82
65 65 82
65 65 82
65 65 82
65 65 82
65 65 82
65 65 82
65 65 82
65 65 82
65 65 82
65 65 82
65 65 82
65 65 82
65 65 82
65 65 82
65 65 82
65 65 82
65 65 82
65 65 82
65 65 82
65 65 82
65 65 82
65 65 82
65 65 82
65 65 82
65 65 82
65 65 82
65 65 82
65 65 82
65 65 82
65 65 82
65 65 82
65 65 82
65 65 82
65 65 82
65 65 82
65 65 82
65 65 82
65 65 82
65 65 82
65 65 82
65 65 82
65 65 82
65 65 82
65 65 82
65 65 82
65 65 82
65 65 82
65 65 82
65 65 82
65 65 82
65 65 82
65 65 82
65 65 82
65 65 82
65 65 82
65 65 82
65 65 82
65 65 82
65 65 82
65 65 82
65 65 82
65 65 82
65 65 82
65 65 82
65 65 82
65 65 82
65 65 82
65 65 82
65 65 82
65 65 82
65 65 82
65 65 82
65 65 82
65 65 82
65 65 82
65 65 82
65 65 82
65 65 82
65 65 82
65 65 82
65 65 82
65 65 82
65 65 82
65 65 82
65 65 82
65 65 82
65 65 82
65 65 82
65 65 82
65 65 82
65 65 82
65 65 82
65 65 82
65 65 82
65 65 82
65 65 82
65 65 82
65 65 82
65 65 82
65 65 82
65 65 82
65 65 82
65 65 82
65 65 82
65 65 82
65 65 82
65 65 82
65 65 82
65 65 82
65 65 82
65 65 82
65 65 82
65 65 82
65 65 82
65 65 82
65 65 82
65 65 82
65 65 82
65 65 82
65 65 82
65 65 82
65 65 82
65 65 82
65 65 82
65 65 82
65 65 82
65 65 82
65 65 82
65 65 82
65 65 82
65 65 82
65 65 82
65 65 82
65 65 82
65 65 82
65 65 82
65 65 82
65 65 82
65 65 82
65 65 82
65 65 82
65 65 82
65 65 82
65 65 82
65 65 82
65 65 82
65 65 82
65 65 82
65 65 82
65 65 82
65 65 82
65 65 82
65 65 82
65 65 82
65 65 82
65 65 82
65 65 82
65 65 82
65 65 82
65 65 82
65 65 82
65 65 82
65 65 82
65 65 82
65 65 82
65 65 82
65 65 82
65 65 82
65 65 82
65 65 82
65 65 82
65 65 82
65 65 82
65 65 82
65 65 82
65 65 82
65 65 82
65 65 82
65 65 82
65 65 82
65 65 82
65 65 82
65 65 82
65 65 82
65 65 82
65 65 82
65 65 82
65 65 82
65 65 82
65 65 82
65 65 82
65 65 82
65 65 82
65 65 82
65 65 82
65 65 82
65 65 82
65 65 82
65 65 82
65 65 82
65 65 82
65 65 82
65 65 82
65 65 82
65 65 82
65 65 82
65 65 82
65 65 82
65 65 82
65 65 82
65 65 82
65 65 82
65 65 82
65 65 82
65 65 82
65 65 82
65 65 82
65 65 82
65 65 82
65 65 82
65 65 82
65 65 82
65 65 82
65 65 82
65 65 82
65 65 82
65 65 82
65 65 82
65 65 82
65 65 82
65 65 82
65 65 82
65 65 82
65 65 82
65 65 82
65 65 82
65 65 82
65 65 82
65 65 82
65 65 82
65 65 82
65 65 82
65 65 82
65 65 82
65 65 82
65 65 82
65 65 82
65 65 82
65 65 82
65 65 82
65 65 82
65 65 82
65 65 82
65 65 82
65 65 82
65 65 82
65 65 82
65 65 82
65 65 82
65 65 82
65 65 82
65 65 82
65 65 82
65 65 82
65 65 82
65 65 82
65 65 82
65 65 82
65 65 82
65 65 82
65 65 82
65 65 82
65 65 82
65 65 82
65 65 82
65 65 82
65 65 82
65 65 82
65 65 82
65 65 82
65 65 82
65 65 82
65 65 82
65 65 82
65 65 82
65 65 82
65 65 82
65 65 82
65 65 82
65 65 82
65 65 82
65 65 82
65 65 82
65 65 82
65 65 82
65 65 82
65 65 82
65 65 82
65 65 82
65 65 82
65 65 82
65 65 82
65 65 82
65 65 82
65 65 82
65 65 82
65 65 82
65 65 82
65 65 82
65 65 82
65 65 82
65 65 82
65 65 82
65 65 82
65 65 82
65 65 82
65 65 82
65 65 82
65 65 82
65 65 82
65 65 82
65 65 82
65 65 82
65 65 82
65 65 82
65 65 82
65 65 82
65 65 82
65 65 82
65 65 82
65 65 82
65 65 82
65 65 82
65 65 82
65 65 82
65 65 82
65 65 82
65 65 82
65 65 82
65 65 82
65 65 82
65 65 82
65 65 82
65 65 82
65 65 82
65 65 82
65 65 82
65 65 82
65 65 82
65 65 82
65 65 82
65 65 82
65 65 82
65 65 82
65 65 82
65 65 82
65 65 82
65 65 82
65 65 82
65 65 82
65 65 82
65 65 82
65 65 82
65 65 82
65 65 82
65 65 82
65 65 82
65 65 82
65 65 82
65 65 82
65 65 82
65 65 82
65 65 82
65 65 82
65 65 82
65 65 82
65 65 82
65 65 82
65 65 82
65 65 82
65 65 82
65 65 82
65 65 82
65 65 82
65 65 82
65 65 82
65 65 82
65 65 82
65 65 82
65 65 82
65 65 82
65 65 82
65 65 82
65 65 82
65 65 82
65 65 82
65 65 82
65 65 82
65 65 82
65 65 82
65 65 82
65 65 82
65 65 82
65 65 82
65 65 82
65 65 82
65 65 82
65 65 82
65 65 82
65 65 82
65 65 82
65 65 82
65 65 82
65 65 82
65 65 82
65 65 82
65 65 82
65 65 82
65 65 82
65 65 82
65 65 82
65 65 82
65 65 82
65 65 82
65 65 82
65 65 82
65 65 82
65 65 82
65 65 82
65 65 82
65 65 82
65 65 82
65 65 82
65 65 82
65 65 82
65 65 82
65 65 82
65 65 82
65 65 82
65 65 82
65 65 82
65 65 82
65 65 82
65 65 82
65 65 82
65 65 82
65 65 82
65 65 82
65 65 82
65 65 82
65 65 82
65 65 82
65 65 82
65 65 82
65 65 82
65 65 82
65 65 82
65 65 82
65 65 82
65 65 82
65 65 82
65 65 82
65 65 82
65 65 82
65 65 82
65 65 82
65 65 82
65 65 82
65 65 82
65 65 82
65 65 82
65 65 82
65 65 82
65 65 82
65 65 82
65 65 82
65 65 82
65 65 82
65 65 82
65 65 82
65 65 82
65 65 82
65 65 82
65 65 82
65 65 82
65 65 82
65 65 82
65 65 82
65 65 82
65 65 82
65 65 82
65 65 82
65 65 82
65 65 82
65 65 82
65 65 82
65 65 82
65 65 82
65 65 82
65 65 82
65 65 82
65 65 82
65 65 82
65 65 82
65 65 82
65 65 82
65 65 82
65 65 82
65 65 82
65 65 82
65 65 82
65 65 82
65 65 82
65 65 82
65 65 82
65 65 82
65 65 82
65 65 82
65 65 82
65 65 82
65 65 82
65 65 82
65 65 82
65 65 82
65 65 82
65 65 82
65 65 82
65 65 82
65 65 82
65 65 82
65 65 82
65 65 82
65 65 82
65 65 82
65 65 82
65 65 82
65 65 82
65 65 82
65 65 82
65 65 82
65 65 82
65 65 82
65 65 82
65 65 82
65 65 82
65 65 82
65 65 82
65 65 82
65 65 82
65 65 82
65 65 82
65 65 82
65 65 82
65 65 82
65 65 82
65 65 82
65 65 82
65 65 82
65 65 82
65 65 82
65 65 82
65 65 82
65 65 82
65 65 82
65 65 82
65 65 82
65 65 82
65 65 82
65 65 82
65 65 82
65 65 82
65 65 82
65 65 82
65 65 82
65 65 82
65 65 82
65 65 82
65 65 82
65 65 82
65 65 82
65 65 82
66 66 82
65 65 82
65 65 82
65 65 82
65 65 82
65 65 82
65 65 82
65 65 82
65 65 82
65 65 82
65 65 82
65 65 82
65 65 82
65 65 82
65 65 82
65 65 82
65 65 82
65 65 82
65 65 82
65 65 82
65 65 82
65 65 82
65 65 82
65 65 82
65 65 82
65 65 82
65 65 82
65 65 82
65 65 82
65 65 82
65 65 82
65 65 82
65 65 82
65 65 82
65 65 82
65 65 82
65 65 82
65 65 82
65 65 82
65 65 82
65 65 82
65 65 82
65 65 82
65 65 82
65 65 82
65 65 82
65 65 82
65 65 82
65 65 82
65 65 82
65 65 82
65 65 82
65 65 82
65 65 82
65 65 82
65 65 82
65 65 82
65 65 82
65 65 82
65 65 82
65 65 82
65 65 82
65 65 82
65 65 82
65 65 82
65 65 82
65 65 82
65 65 82
65 65 82
65 65 82
65 65 82
65 65 82
65 65 82
65 65 82
65 65 82
65 65 82
65 65 82
65 65 82
65 65 82
65 65 82
65 65 82
65 65 82
65 65 82
65 65 82
65 65 82
65 65 82
65 65 82
65 65 82
65 65 82
65 65 82
65 65 82
65 65 82
65 65 82
65 65 82
65 65 82
65 65 82
65 65 82
65 65 82
65 65 82
65 65 82
65 65 82
65 65 82
65 65 82
65 65 82
65 65 82
65 65 82
65 65 82
65 65 82
65 65 82
65 65 82
65 65 82
65 65 82
65 65 82
65 65 82
65 65 82
65 65 82
65 65 82
65 65 82
65 65 82
65 65 82
65 65 82
65 65 82
65 65 82
65 65 82
65 65 82
65 65 82
65 65 82
65 65 82
65 65 82
65 65 82
65 65 82
65 65 82
65 65 82
65 65 82
65 65 82
65 65 82
65 65 82
65 65 82
65 65 82
65 65 82
65 65 82
65 65 82
65 65 82
65 65 82
65 65 82
65 65 82
65 65 82
65 65 82
65 65 82
65 65 82
65 65 82
66 66 82
65 65 82
65 65 82
65 65 82
65 65 82
65 65 82
65 65 82
65 65 82
65 65 82
65 65 82
65 65 82
65 65 82
65 65 82
65 65 82
65 65 82
65 65 82
65 65 82
65 65 82
65 65 82
65 65 82
65 65 82
65 65 82
65 65 82
65 65 82
65 65 82
65 65 82
65 65 82
65 65 82
65 65 82
65 65 82
65 65 82
65 65 82
65 65 82
65 65 82
65 65 82
65 65 82
65 65 82
65 65 82
65 65 82
65 65 82
65 65 82
65 65 82
65 65 82
65 65 82
65 65 82
65 65 82
65 65 82
65 65 82
65 65 82
65 65 82
65 65 82
65 65 82
65 65 82
65 65 82
65 65 82
65 65 82
65 65 82
65 65 82
65 65 82
65 65 82
65 65 82
65 65 82
65 65 82
65 65 82
65 65 82
65 65 82
65 65 82
65 65 82
65 65 82
65 65 82
65 65 82
65 65 82
65 65 82
65 65 82
65 65 82
65 65 82
65 65 82
65 65 82
65 65 82
65 65 82
65 65 82
65 65 82
65 65 82
65 65 82
65 65 82
65 65 82
65 65 82
65 65 82
65 65 82
65 65 82
65 65 82
65 65 82
65 65 82
65 65 82
65 65 82
65 65 82
65 65 82
65 65 82
65 65 82
65 65 82
65 65 82
65 65 82
65 65 82
65 65 82
65 65 82
65 65 82
65 65 82
65 65 82
65 65 82
65 65 82
65 65 82
65 65 82
65 65 82
65 65 82
65 65 82
65 65 82
65 65 82
65 65 82
65 65 82
65 65 82
65 65 82
65 65 82
65 65 82
65 65 82
65 65 82
65 65 82
65 65 82
65 65 82
65 65 82
65 65 82
65 65 82
65 65 82
65 65 82
65 65 82
65 65 82
65 65 82
65 65 82
65 65 82
65 65 82
65 65 82
65 65 82
65 65 82
65 65 82
65 65 82
65 65 82
65 65 82
65 65 82
65 65 82
65 65 82
65 65 82
65 65 82
65 65 82
65 65 82
65 65 82
65 65 82
65 65 82
65 65 82
65 65 82
65 65 82
65 65 82
65 65 82
65 65 82
65 65 82
65 65 82
65 65 82
65 65 82
65 65 82
65 65 82
65 65 82
65 65 82
65 65 82
65 65 82
65 65 82
65 65 82
65 65 82
65 65 82
65 65 82
65 65 82
65 65 82
65 65 82
65 65 82
65 65 82
65 65 82
65 65 82
65 65 82
65 65 82
65 65 82
65 65 82
65 65 82
65 65 82
65 65 82
65 65 82
65 65 82
65 65 82
65 65 82
65 65 82
65 65 82
65 65 82
65 65 82
65 65 82
65 65 82
65 65 82
65 65 82
65 65 82
65 65 82
65 65 82
65 65 82
65 65 82
65 65 82
65 65 82
65 65 82
65 65 82
65 65 82
65 65 82
65 65 82
65 65 82
65 65 82
65 65 82
65 65 82
65 65 82
65 65 82
65 65 82
65 65 82
65 65 82
65 65 82
65 65 82
65 65 82
65 65 82
65 65 82
65 65 82
65 65 82
65 65 82
65 65 82
65 65 82
65 65 82
65 65 82
65 65 82
65 65 82
65 65 82
65 65 82
65 65 82
65 65 82
65 65 82
65 65 82
65 65 82
65 65 82
65 65 82
65 65 82
65 65 82
65 65 82
65 65 82
65 65 82
65 65 82
65 65 82
65 65 82
65 65 82
65 65 82
65 65 82
65 65 82
65 65 82
65 65 82
65 65 82
65 65 82
65 65 82
65 65 82
66 66 83
65 65 82
65 65 82
65 65 82
65 65 82
66 66 82
65 65 82
65 65 82
65 65 82
65 65 82
65 65 82
65 65 82
65 65 82
65 65 82
65 65 82
65 65 82
65 65 82
65 65 82
65 65 82
65 65 82
65 65 82
65 65 82
65 65 82
65 65 82
65 65 82
65 65 82
65 65 82
65 65 82
65 65 82
65 65 82
65 65 82
65 65 82
65 65 82
65 65 82
65 65 82
65 65 82
65 65 82
65 65 82
65 65 82
65 65 82
65 65 82
65 65 82
65 65 82
65 65 82
65 65 82
65 65 82
65 65 82
65 65 82
65 65 82
65 65 82
65 65 82
65 65 82
65 65 82
65 65 82
65 65 82
65 65 82
65 65 82
65 65 82
65 65 82
65 65 82
65 65 82
65 65 82
65 65 82
65 65 82
65 65 82
65 65 82
65 65 82
65 65 82
65 65 82
65 65 82
65 65 82
65 65 82
65 65 82
65 65 82
65 65 82
65 65 82
65 65 82
65 65 82
65 65 82
65 65 82
65 65 82
65 65 82
65 65 82
65 65 82
65 65 82
65 65 82
65 65 82
65 65 82
65 65 82
65 65 82
65 65 82
65 65 82
65 65 82
65 65 82
65 65 82
65 65 82
65 65 82
65 65 82
65 65 82
65 65 82
65 65 82
65 65 82
65 65 82
65 65 82
65 65 82
65 65 82
65 65 82
65 65 82
65 65 82
65 65 82
65 65 82
65 65 82
65 65 82
65 65 82
65 65 82
65 65 82
65 65 82
65 65 82
65 65 82
65 65 82
65 65 82
65 65 82
65 65 82
65 65 82
65 65 82
65 65 82
65 65 82
65 65 82
65 65 82
65 65 82
65 65 82
65 65 82
65 65 82
65 65 82
65 65 82
65 65 82
65 65 82
65 65 82
65 65 82
65 65 82
65 65 82
65 65 82
65 65 82
65 65 82
65 65 82
65 65 82
65 65 82
65 65 82
65 65 82
65 65 82
65 65 82
65 65 82
65 65 82
65 65 82
65 65 82
65 65 82
65 65 82
65 65 82
65 65 82
65 65 82
65 65 82
65 65 82
65 65 82
65 65 82
65 65 82
65 65 82
65 65 82
65 65 82
65 65 82
65 65 82
65 65 82
65 65 82
65 65 82
65 65 82
65 65 82
65 65 82
65 65 82
65 65 82
65 65 82
65 65 82
65 65 82
65 65 82
65 65 82
65 65 82
65 65 82
65 65 82
65 65 82
65 65 82
65 65 82
65 65 82
65 65 82
65 65 82
65 65 82
65 65 82
65 65 82
65 65 82
65 65 82
65 65 82
65 65 82
65 65 82
65 65 82
65 65 82
65 65 82
65 65 82
65 65 82
65 65 82
65 65 82
65 65 82
65 65 82
65 65 82
65 65 82
65 65 82
65 65 82
65 65 82
65 65 82
65 65 82
65 65 82
65 65 82
65 65 82
65 65 82
65 65 82
65 65 82
65 65 82
65 65 82
65 65 82
65 65 82
65 65 82
65 65 82
65 65 82
65 65 82
65 65 82
65 65 82
65 65 82
65 65 82
65 65 82
65 65 82
65 65 82
65 65 82
65 65 82
65 65 82
65 65 82
65 65 82
65 65 82
65 65 82
65 65 82
65 65 82
65 65 82
65 65 82
65 65 82
65 65 82
65 65 82
65 65 82
65 65 82
65 65 82
65 65 82
65 65 82
65 65 82
65 65 82
65 65 82
65 65 82
65 65 82
65 65 82
65 65 82
65 65 82
65 65 82
65 65 82
65 65 82
65 65 82
65 65 82
65 65 82
65 65 82
65 65 82
65 65 82
65 65 82
65 65 82
65 65 82
65 65 82
65 65 82
65 65 82
65 65 82
65 65 82
65 65 82
65 65 82
65 65 82
65 65 82
65 65 82
65 65 82
65 65 82
65 65 82
65 65 82
65 65 82
65 65 82
65 65 82
65 65 82
65 65 82
65 65 82
65 65 82
65 65 82
65 65 82
65 65 82
65 65 82
65 65 82
65 65 82
65 65 82
65 65 82
65 65 82
65 65 82
65 65 82
65 65 82
65 65 82
65 65 82
65 65 82
65 65 82
65 65 82
65 65 82
65 65 82
65 65 82
65 65 82
65 65 82
65 65 82
65 65 82
65 65 82
65 65 82
65 65 82
65 65 82
65 65 82
65 65 82
65 65 82
65 65 82
65 65 82
65 65 82
65 65 82
65 65 82
65 65 82
65 65 82
65 65 82
65 65 82
65 65 82
65 65 82
65 65 82
65 65 82
65 65 82
65 65 82
65 65 82
65 65 82
65 65 82
65 65 82
65 65 82
65 65 82
65 65 82
65 65 82
65 65 82
65 65 82
65 65 82
65 65 82
65 65 82
65 65 82
65 65 82
65 65 82
65 65 82
65 65 82
65 65 82
65 65 82
65 65 82
65 65 82
65 65 82
65 65 82
65 65 82
65 65 82
65 65 82
65 65 82
65 65 82
65 65 82
65 65 82
65 65 82
65 65 82
65 65 82
65 65 82
65 65 82
65 65 82
65 65 82
65 65 82
65 65 82
65 65 82
65 65 82
65 65 82
65 65 82
65 65 82
65 65 82
65 65 82
66 66 83
65 65 82
66 66 83
66 66 83
65 65 82
65 65 82
65 65 82
65 65 82
65 65 82
65 65 82
65 65 82
65 65 82
66 66 83
65 65 82
65 65 82
65 65 82
65 65 82
65 65 82
65 65 82
65 65 82
65 65 82
65 65 82
65 65 82
65 65 82
65 65 82
65 65 82
65 65 82
66 66 83
65 65 82
65 65 82
65 65 82
65 65 82
65 65 82
65 65 82
65 65 82
65 65 82
65 65 82
65 65 82
65 65 82
65 65 82
65 65 82
65 65 82
65 65 82
65 65 82
65 65 82
65 65 82
65 65 82
65 65 82
65 65 82
65 65 82
65 65 82
65 65 82
65 65 82
65 65 82
65 65 82
65 65 82
65 65 82
65 65 82
65 65 82
65 65 82
65 65 82
65 65 82
65 65 82
65 65 82
65 65 82
65 65 82
65 65 82
65 65 82
65 65 82
65 65 82
65 65 82
65 65 82
65 65 82
65 65 82
65 65 82
65 65 82
65 65 82
65 65 82
65 65 82
65 65 82
65 65 82
65 65 82
65 65 82
65 65 82
65 65 82
65 65 82
65 65 82
65 65 82
65 65 82
65 65 82
65 65 82
65 65 82
65 65 82
65 65 82
65 65 82
65 65 82
65 65 82
65 65 82
65 65 82
65 65 82
65 65 82
65 65 82
65 65 82
65 65 82
65 65 82
65 65 82
65 65 82
65 65 82
65 65 82
65 65 82
65 65 82
65 65 82
65 65 82
65 65 82
65 65 82
65 65 82
65 65 82
65 65 82
65 65 82
65 65 82
65 65 82
65 65 82
65 65 82
65 65 82
65 65 82
65 65 82
65 65 82
65 65 82
65 65 82
65 65 82
65 65 82
65 65 82
65 65 82
65 65 82
65 65 82
65 65 82
65 65 82
65 65 82
65 65 82
65 65 82
65 65 82
65 65 82
65 65 82
65 65 82
65 65 82
65 65 82
65 65 82
65 65 82
65 65 82
65 65 82
65 65 82
65 65 82
65 65 82
65 65 82
65 65 82
65 65 82
65 65 82
65 65 82
65 65 82
65 65 82
65 65 82
65 65 82
65 65 82
65 65 82
65 65 82
65 65 82
65 65 82
65 65 82
65 65 82
65 65 82
65 65 82
65 65 82
65 65 82
65 65 82
65 65 82
65 65 82
65 65 82
65 65 82
65 65 82
65 65 82
65 65 82
65 65 82
65 65 82
65 65 82
65 65 82
65 65 82
65 65 82
65 65 82
65 65 82
65 65 82
65 65 82
65 65 82
65 65 82
65 65 82
65 65 82
65 65 82
65 65 82
65 65 82
65 65 82
65 65 82
65 65 82
65 65 82
65 65 82
65 65 82
65 65 82
65 65 82
65 65 82
65 65 82
65 65 82
65 65 82
65 65 82
65 65 82
65 65 82
65 65 82
65 65 82
65 65 82
65 65 82
65 65 82
65 65 82
65 65 82
65 65 82
65 65 82
65 65 82
65 65 82
65 65 82
65 65 82
65 65 82
65 65 82
65 65 82
65 65 82
65 65 82
65 65 82
65 65 82
65 65 82
65 65 82
65 65 82
65 65 82
65 65 82
65 65 82
65 65 82
65 65 82
65 65 82
65 65 82
65 65 82
65 65 82
65 65 82
65 65 82
65 65 82
65 65 82
65 65 82
65 65 82
65 65 82
65 65 82
65 65 82
65 65 82
65 65 82
65 65 82
65 65 82
65 65 82
65 65 82
65 65 82
65 65 82
65 65 82
65 65 82
65 65 82
65 65 82
65 65 82
65 65 82
65 65 82
65 65 82
65 65 82
65 65 82
65 65 82
65 65 82
65 65 82
65 65 82
65 65 82
65 65 82
65 65 82
65 65 82
65 65 82
65 65 82
65 65 82
65 65 82
65 65 82
65 65 82
65 65 82
65 65 82
65 65 82
65 65 82
65 65 82
65 65 82
65 65 82
65 65 82
65 65 82
65 65 82
65 65 82
65 65 82
65 65 82
65 65 82
65 65 82
65 65 82
65 65 82
65 65 82
65 65 82
65 65 82
65 65 82
65 65 82
65 65 82
65 65 82
65 65 82
65 65 82
65 65 82
65 65 82
65 65 82
65 65 82
65 65 82
65 65 82
65 65 82
65 65 82
65 65 82
65 65 82
65 65 82
66 66 83
65 65 82
65 65 82
65 65 82
65 65 82
65 65 82
65 65 82
65 65 82
65 65 82
65 65 82
65 65 82
65 65 82
65 65 82
65 65 82
65 65 82
65 65 82
65 65 82
65 65 82
65 65 82
65 65 82
65 65 82
65 65 82
65 65 82
65 65 82
65 65 82
65 65 82
65 65 82
65 65 82
65 65 82
65 65 82
65 65 82
65 65 82
65 65 82
65 65 82
65 65 82
65 65 82
65 65 82
65 65 82
65 65 82
65 65 82
65 65 82
65 65 82
65 65 82
65 65 82
65 65 82
65 65 82
65 65 82
65 65 82
65 65 82
65 65 82
65 65 82
65 65 82
65 65 82
65 65 82
65 65 82
65 65 82
65 65 82
65 65 82
65 65 82
65 65 82
65 65 82
65 65 82
65 65 82
65 65 82
65 65 82
65 65 82
65 65 82
65 65 82
65 65 82
65 65 82
65 65 82
65 65 82
65 65 82
65 65 82
65 65 82
65 65 82
65 65 82
65 65 82
65 65 82
66 66 83
65 65 82
65 65 82
65 65 82
65 65 82
66 66 83
65 65 82
65 65 82
66 66 83
65 65 83
66 66 83
65 65 82
65 65 82
65 65 82
65 65 82
65 65 82
65 65 83
65 65 82
65 65 82
65 65 82
65 65 82
65 65 82
66 66 83
65 65 82
65 65 82
65 65 82
65 65 82
65 65 82
65 65 82
65 65 82
65 65 82
65 65 82
65 65 82
65 65 82
65 65 82
65 65 82
65 65 82
65 65 82
65 65 82
65 65 82
65 65 82
65 65 82
65 65 82
65 65 82
65 65 82
65 65 82
65 65 82
65 65 82
65 65 82
65 65 82
65 65 82
65 65 82
65 65 82
65 65 82
65 65 82
65 65 82
65 65 82
65 65 82
65 65 82
65 65 82
65 65 82
65 65 82
65 65 82
65 65 82
65 65 82
65 65 82
65 65 82
65 65 82
65 65 82
65 65 82
65 65 82
65 65 82
65 65 82
65 65 82
65 65 82
65 65 82
65 65 82
65 65 82
65 65 82
65 65 82
65 65 82
65 65 82
65 65 82
65 65 82
65 65 82
65 65 82
65 65 82
65 65 82
65 65 82
65 65 82
65 65 82
65 65 82
65 65 82
65 65 82
65 65 82
65 65 82
65 65 82
65 65 82
65 65 82
65 65 82
65 65 82
65 65 82
65 65 82
65 65 82
65 65 82
65 65 82
65 65 82
65 65 82
65 65 82
65 65 82
65 65 82
65 65 82
65 65 82
65 65 82
66 66 83
65 65 82
66 66 83
65 65 82
65 65 82
65 65 82
65 65 82
66 66 83
65 65 82
65 65 82
66 66 83
65 65 82
65 65 82
65 65 82
65 65 82
65 65 82
65 65 82
65 65 82
65 65 82
65 65 82
65 65 82
65 65 82
65 65 82
65 65 82
65 65 82
65 65 82
65 65 82
65 65 82
65 65 82
65 65 82
65 65 82
65 65 82
65 65 82
65 65 82
65 65 82
65 65 82
65 65 82
65 65 82
65 65 82
65 65 82
65 65 82
65 65 82
65 65 82
65 65 82
65 65 82
65 65 82
65 65 82
65 65 82
65 65 82
65 65 82
65 65 82
65 65 82
65 65 82
65 65 82
65 65 82
65 65 82
65 65 82
65 65 82
65 65 82
65 65 82
65 65 82
65 65 82
65 65 82
65 65 82
65 65 82
65 65 82
65 65 82
65 65 82
65 65 82
65 65 82
65 65 82
65 65 82
65 65 82
65 65 82
65 65 82
65 65 82
65 65 82
65 65 82
65 65 82
65 65 82
65 65 82
65 65 82
65 65 82
65 65 82
65 65 82
65 65 82
65 65 82
65 65 82
65 65 82
65 65 82
65 65 82
65 65 82
65 65 82
65 65 82
65 65 82
65 65 82
65 65 82
65 65 82
65 65 82
65 65 82
65 65 82
65 65 82
65 65 82
65 65 82
65 65 82
65 65 82
65 65 82
65 65 82
65 65 82
65 65 82
65 65 82
65 65 82
65 65 82
65 65 82
65 65 82
65 65 82
65 65 82
65 65 82
65 65 82
65 65 82
65 65 82
65 65 82
65 65 82
65 65 82
65 65 82
65 65 82
65 65 82
65 65 82
65 65 82
65 65 82
65 65 82
65 65 82
65 65 82
65 65 82
65 65 82
65 65 82
65 65 82
65 65 82
65 65 82
65 65 82
65 65 82
65 65 82
65 65 82
65 65 82
65 65 82
65 65 82
65 65 82
65 65 82
65 65 82
65 65 82
65 65 82
65 65 82
65 65 82
65 65 82
65 65 82
65 65 82
65 65 82
65 65 82
65 65 82
65 65 82
65 65 82
65 65 82
65 65 82
65 65 82
65 65 82
65 65 82
65 65 82
65 65 82
65 65 82
65 65 82
65 65 82
65 65 82
65 65 82
65 65 82
65 65 82
65 65 82
65 65 82
65 65 82
65 65 82
65 65 82
65 65 82
65 65 82
65 65 82
65 65 82
65 65 82
65 65 82
65 65 82
65 65 82
65 65 82
65 65 82
65 65 82
65 65 82
65 65 82
65 65 82
65 65 82
65 65 82
65 65 82
65 65 82
65 65 82
65 65 82
65 65 82
65 65 82
65 65 82
65 65 82
65 65 82
65 65 82
65 65 82
65 65 82
65 65 82
65 65 82
65 65 82
65 65 82
65 65 82
65 65 82
65 65 82
65 65 82
65 65 82
65 65 82
65 65 82
65 65 82
65 65 82
65 65 82
65 65 82
65 65 82
65 65 82
65 65 82
65 65 82
65 65 82
65 65 82
65 65 82
65 65 82
65 65 82
65 65 82
65 65 82
65 65 82
65 65 82
65 65 82
65 65 82
65 65 82
65 65 82
65 65 82
65 65 82
65 65 82
65 65 82
65 65 82
65 65 82
65 65 82
65 65 82
65 65 82
65 65 82
65 65 82
65 65 82
65 65 82
65 65 82
65 65 82
65 65 82
65 65 82
65 65 82
65 65 82
65 65 82
65 65 82
66 66 83
65 65 82
65 65 82
65 65 82
65 65 82
65 65 82
66 66 83
65 65 82
65 65 82
65 65 82
65 65 83
66 66 83
66 66 83
65 65 82
65 65 82
65 65 82
65 65 82
65 65 82
65 65 82
65 65 82
65 65 82
65 65 82
65 65 82
66 66 83
66 66 83
65 65 82
65 65 82
65 65 82
65 65 82
66 66 83
65 65 82
65 65 82
65 65 82
65 65 82
65 65 82
66 66 83
65 65 82
65 65 82
65 65 82
65 65 82
66 66 83
65 65 83
65 65 82
66 66 83
65 65 82
65 65 82
66 66 83
65 65 82
65 65 82
65 65 82
65 65 82
65 65 82
65 65 82
65 65 82
65 65 82
65 65 82
65 65 82
65 65 82
65 65 82
65 65 82
65 65 82
65 65 82
65 65 82
65 65 82
65 65 82
65 65 82
65 65 82
65 65 82
65 65 82
65 65 82
65 65 82
65 65 82
65 65 82
65 65 82
65 65 82
65 65 82
65 65 82
65 65 82
65 65 82
65 65 82
65 65 82
65 65 82
65 65 82
65 65 82
65 65 82
65 65 82
65 65 82
65 65 82
65 65 82
65 65 82
65 65 82
65 65 82
65 65 82
65 65 82
65 65 82
65 65 82
65 65 82
65 65 82
65 65 82
65 65 82
65 65 82
65 65 82
65 65 82
65 65 82
65 65 82
65 65 82
65 65 82
65 65 82
65 65 82
65 65 82
65 65 82
65 65 82
65 65 83
65 65 82
65 65 82
66 66 83
66 66 83
66 66 83
65 65 82
65 65 82
65 65 82
66 66 83
65 65 82
65 65 82
65 65 82
65 65 82
65 65 82
65 65 82
65 65 82
65 65 82
66 66 83
65 65 82
65 65 82
65 65 82
65 65 82
65 65 82
65 65 82
66 66 83
65 65 82
65 65 82
65 65 82
65 65 82
66 66 83
65 65 82
65 65 82
65 65 82
66 66 83
65 65 82
65 65 82
65 65 82
65 65 82
65 65 82
65 65 82
65 65 82
65 65 82
65 65 82
65 65 82
65 65 82
65 65 82
66 66 83
65 65 82
65 65 82
65 65 82
65 65 82
65 65 82
65 65 82
65 65 82
65 65 82
65 65 82
65 65 82
65 65 82
65 65 82
65 65 82
65 65 82
65 65 82
65 65 82
65 65 82
65 65 82
65 65 82
66 66 82
65 65 82
65 65 82
65 65 82
65 65 82
65 65 82
65 65 82
65 65 82
65 65 82
65 65 82
65 65 82
65 65 82
65 65 82
65 65 82
65 65 82
65 65 82
65 65 82
65 65 82
65 65 82
65 65 82
65 65 82
65 65 82
65 65 82
65 65 82
65 65 82
65 65 82
65 65 82
65 65 82
65 65 82
65 65 82
65 65 82
65 65 82
65 65 82
65 65 82
65 65 82
65 65 82
65 65 82
65 65 82
65 65 82
65 65 82
65 65 82
65 65 82
65 65 82
65 65 82
65 65 82
65 65 82
65 65 82
65 65 82
65 65 82
65 65 82
65 65 82
65 65 82
65 65 82
65 65 82
65 65 82
65 65 82
65 65 82
65 65 82
65 65 82
65 65 82
65 65 82
65 65 82
65 65 82
65 65 82
65 65 82
65 65 82
65 65 82
65 65 82
65 65 82
65 65 82
65 65 82
65 65 82
65 65 82
65 65 82
65 65 82
65 65 82
65 65 82
65 65 82
65 65 82
65 65 82
65 65 82
65 65 82
65 65 82
65 65 82
65 65 82
65 65 82
65 65 82
65 65 82
65 65 82
65 65 82
65 65 82
65 65 82
65 65 82
65 65 82
65 65 82
65 65 82
65 65 82
65 65 82
65 65 82
65 65 82
65 65 82
65 65 82
65 65 82
65 65 82
65 65 82
65 65 82
65 65 82
65 65 82
65 65 82
65 65 82
65 65 82
65 65 82
65 65 82
65 65 82
65 65 82
65 65 82
65 65 82
65 65 82
65 65 82
65 65 82
65 65 82
65 65 82
65 65 82
65 65 82
65 65 82
65 65 82
65 65 82
65 65 82
65 65 82
65 65 82
65 65 82
65 65 82
65 65 82
65 65 82
65 65 82
65 65 82
65 65 82
65 65 82
65 65 82
65 65 82
65 65 82
65 65 82
65 65 82
65 65 82
65 65 82
65 65 82
65 65 82
65 65 82
65 65 82
65 65 82
65 65 82
65 65 82
65 65 82
65 65 82
65 65 82
65 65 82
65 65 82
65 65 82
65 65 82
65 65 82
65 65 82
65 65 82
65 65 82
66 66 83
65 65 82
65 65 82
65 65 82
65 65 82
65 65 82
65 65 82
65 65 82
66 66 83
65 65 82
65 65 82
65 65 82
65 65 82
65 65 82
65 65 82
65 65 82
65 65 82
65 65 82
65 65 82
65 65 82
65 65 82
65 65 82
65 65 82
65 65 82
65 65 82
65 65 82
65 65 82
65 65 82
65 65 82
65 65 82
65 65 82
65 65 82
65 65 82
65 65 82
65 65 82
65 65 82
65 65 82
65 65 82
65 65 82
65 65 82
65 65 82
65 65 82
65 65 82
65 65 82
65 65 82
65 65 82
65 65 82
65 65 82
65 65 82
65 65 82
65 65 82
65 65 82
65 65 82
65 65 82
65 65 82
65 65 82
65 65 82
66 66 83
65 65 82
65 65 82
65 65 82
66 66 83
66 66 83
65 65 82
65 65 82
66 66 83
65 65 83
65 65 83
66 66 83
65 65 82
65 65 83
65 65 82
65 65 82
66 66 83
65 65 82
66 66 83
65 65 82
66 66 83
66 66 83
66 66 83
65 65 82
65 65 82
66 66 83
65 65 83
66 66 83
66 66 83
66 66 83
65 65 82
66 66 83
65 65 83
65 65 82
66 66 83
66 66 83
65 65 82
66 66 83
65 65 82
65 65 82
66 66 83
65 65 82
65 65 82
65 65 83
66 66 83
66 66 83
65 65 82
66 66 83
65 65 82
65 65 82
65 65 82
65 65 82
65 65 82
65 65 82
65 65 82
65 65 82
65 65 82
65 65 82
65 65 82
65 65 82
65 65 82
65 65 82
65 65 82
65 65 82
65 65 82
65 65 82
65 65 82
65 65 82
65 65 82
65 65 82
65 65 82
65 65 82
65 65 82
65 65 82
65 65 82
65 65 82
65 65 82
65 65 82
65 65 82
65 65 82
65 65 82
65 65 82
65 65 82
65 65 82
65 65 82
65 65 82
65 65 82
65 65 82
65 65 82
65 65 82
65 65 82
65 65 82
65 65 82
65 65 82
65 65 82
65 65 82
65 65 82
65 65 82
65 65 82
65 65 82
65 65 82
65 65 82
65 65 82
65 65 82
65 65 82
65 65 82
65 65 82
65 65 82
65 65 82
66 66 83
65 65 82
65 65 82
66 66 83
65 65 83
65 65 82
65 65 82
66 66 83
65 65 82
65 65 83
66 66 83
66 66 83
65 65 82
65 65 82
66 66 83
65 65 82
65 65 82
65 65 82
65 65 82
66 66 83
65 65 83
66 66 83
65 65 82
65 65 82
66 66 83
65 65 82
65 65 82
66 66 83
65 65 82
65 65 82
65 65 82
65 65 82
65 65 82
65 65 83
66 66 83
66 66 83
65 65 82
65 65 82
65 65 82
66 66 83
65 65 82
65 65 82
65 65 82
65 65 82
65 65 82
65 65 82
65 65 82
65 65 82
66 66 83
65 65 82
65 65 82
65 65 82
65 65 82
65 65 82
65 65 82
65 65 82
65 65 82
66 66 83
65 65 82
65 65 82
65 65 82
65 65 82
65 65 82
65 65 82
65 65 82
65 65 82
65 65 82
65 65 82
65 65 82
65 65 82
66 66 83
65 65 82
65 65 82
65 65 82
65 65 82
65 65 82
65 65 82
65 65 82
65 65 82
65 65 82
65 65 82
65 65 82
65 65 82
65 65 82
65 65 82
65 65 82
65 65 82
65 65 82
65 65 82
65 65 82
65 65 82
65 65 82
65 65 82
65 65 82
65 65 82
65 65 82
65 65 82
65 65 82
65 65 82
65 65 82
65 65 82
65 65 82
65 65 82
65 65 82
65 65 82
65 65 82
65 65 82
65 65 82
65 65 82
65 65 82
65 65 82
65 65 82
65 65 82
65 65 82
65 65 82
65 65 82
65 65 82
65 65 82
65 65 82
65 65 82
65 65 82
65 65 82
65 65 82
65 65 82
65 65 82
65 65 82
65 65 82
65 65 82
65 65 82
65 65 82
65 65 82
65 65 82
65 65 82
65 65 82
65 65 82
65 65 82
65 65 82
65 65 82
65 65 82
65 65 82
65 65 82
65 65 82
65 65 82
65 65 82
65 65 82
65 65 82
65 65 82
65 65 82
65 65 82
65 65 82
65 65 82
65 65 82
65 65 82
65 65 82
65 65 82
65 65 82
65 65 82
65 65 82
65 65 82
65 65 82
65 65 82
65 65 82
65 65 82
65 65 82
65 65 82
65 65 82
65 65 82
65 65 82
65 65 82
65 65 82
65 65 82
65 65 82
65 65 82
65 65 82
65 65 82
65 65 82
65 65 82
65 65 82
65 65 82
65 65 82
65 65 82
65 65 82
65 65 82
65 65 82
65 65 82
65 65 82
65 65 82
65 65 82
65 65 82
65 65 82
65 65 82
65 65 82
65 65 82
65 65 82
65 65 82
65 65 82
65 65 82
65 65 82
65 65 82
65 65 82
65 65 82
65 65 82
65 65 82
65 65 82
65 65 82
65 65 82
65 65 82
65 65 82
65 65 82
65 65 82
65 65 82
65 65 82
65 65 82
65 65 82
65 65 82
65 65 82
65 65 82
65 65 82
65 65 82
65 65 82
65 65 82
65 65 82
66 66 82
65 65 82
65 65 82
65 65 82
65 65 82
65 65 82
65 65 82
65 65 82
65 65 82
65 65 82
65 65 82
66 66 83
65 65 82
65 65 82
65 65 82
65 65 82
65 65 82
66 66 83
65 65 82
65 65 82
65 65 82
65 65 82
65 65 82
65 65 82
65 65 82
65 65 82
65 65 82
65 65 82
65 65 82
65 65 82
65 65 82
65 65 82
65 65 82
65 65 82
65 65 82
65 65 82
65 65 82
65 65 82
65 65 82
65 65 82
65 65 82
65 65 82
65 65 82
65 65 82
65 65 82
65 65 82
65 65 82
65 65 82
65 65 82
65 65 82
65 65 82
65 65 82
65 65 82
65 65 82
65 65 82
65 65 82
65 65 82
65 65 82
65 65 82
65 65 82
65 65 82
65 65 82
65 65 82
65 65 82
65 65 82
65 65 82
65 65 82
65 65 82
66 66 83
65 65 83
65 65 82
65 65 82
65 65 82
66 66 83
65 65 82
65 65 82
65 65 82
65 65 82
65 65 83
65 65 82
66 66 83
65 65 83
65 65 83
66 66 83
66 66 83
66 66 83
66 66 83
65 65 82
65 65 83
65 65 82
66 66 83
66 66 83
65 65 83
66 66 83
65 65 83
65 65 82
66 66 83
65 65 83
65 65 83
65 65 82
66 66 83
66 66 83
66 66 83
65 65 82
66 66 83
66 66 83
65 65 82
66 66 83
66 66 83
65 65 82
66 66 83
66 66 83
66 66 83
65 65 82
65 65 82
65 65 82
65 65 82
65 65 82
65 65 82
65 65 82
65 65 83
65 65 83
65 65 83
65 65 83
65 65 83
65 65 83
65 65 83
65 65 83
65 65 83
65 65 83
65 65 83
65 65 83
65 65 83
65 65 83
65 65 83
65 65 83
65 65 83
65 65 83
65 65 83
65 65 83
65 65 83
65 65 83
65 65 83
65 65 83
65 65 83
65 65 83
65 65 83
65 65 83
65 65 83
65 65 83
65 65 83
65 65 83
65 65 83
65 65 83
65 65 83
65 65 83
65 65 82
65 65 82
65 65 82
65 65 82
65 65 82
65 65 82
65 65 82
65 65 82
65 65 82
65 65 82
65 65 82
65 65 82
65 65 82
65 65 82
65 65 82
65 65 82
65 65 82
66 66 83
66 66 83
66 66 83
66 66 83
66 66 83
65 65 82
66 66 83
65 65 83
65 65 82
66 66 83
66 66 83
66 66 83
65 65 82
66 66 83
65 65 82
66 66 83
66 66 83
66 66 83
65 65 83
66 66 83
65 65 82
66 66 83
65 65 82
66 66 83
66 66 83
66 66 83
65 65 82
66 66 83
65 65 83
65 65 83
66 66 83
65 65 83
66 66 83
65 65 82
66 66 83
65 65 83
66 66 83
66 66 83
66 66 83
66 66 83
65 65 82
65 65 82
65 65 82
66 66 83
66 66 83
65 65 82
65 65 83
65 65 82
66 66 83
65 65 82
66 66 83
65 65 82
66 66 83
65 65 82
65 65 82
66 66 83
65 65 82
66 66 83
65 65 82
66 66 83
65 65 82
65 65 82
65 65 82
65 65 82
65 65 82
65 65 82
65 65 82
65 65 82
65 65 82
65 65 82
65 65 82
66 66 83
65 65 82
65 65 82
65 65 82
66 66 83
65 65 82
65 65 82
65 65 82
65 65 82
65 65 82
65 65 82
65 65 82
65 65 82
65 65 82
65 65 82
65 65 82
65 65 82
65 65 82
66 66 83
65 65 82
65 65 82
65 65 82
65 65 82
65 65 82
65 65 82
65 65 82
65 65 82
65 65 82
65 65 82
65 65 82
65 65 82
65 65 82
65 65 82
65 65 82
65 65 82
65 65 82
65 65 82
65 65 82
65 65 82
65 65 82
65 65 82
65 65 82
65 65 82
65 65 82
65 65 82
65 65 82
65 65 82
65 65 82
65 65 82
65 65 82
65 65 82
65 65 82
65 65 82
65 65 82
65 65 82
65 65 82
65 65 82
65 65 82
65 65 82
65 65 82
65 65 82
65 65 82
65 65 82
65 65 82
65 65 82
65 65 82
65 65 82
65 65 82
65 65 82
65 65 82
65 65 82
65 65 82
65 65 82
65 65 82
65 65 82
65 65 82
65 65 82
65 65 82
65 65 82
65 65 82
65 65 82
65 65 82
65 65 82
65 65 82
65 65 82
65 65 82
65 65 82
65 65 82
65 65 82
65 65 82
65 65 82
65 65 82
65 65 82
65 65 82
65 65 82
65 65 82
65 65 82
65 65 82
65 65 82
65 65 82
65 65 82
65 65 82
65 65 82
65 65 82
65 65 82
65 65 82
65 65 82
65 65 82
65 65 82
65 65 82
65 65 82
65 65 82
65 65 82
65 65 82
65 65 82
65 65 82
65 65 82
65 65 82
65 65 82
65 65 82
65 65 82
65 65 82
65 65 82
65 65 82
65 65 82
65 65 82
65 65 82
65 65 82
65 65 82
65 65 82
65 65 82
65 65 82
65 65 82
65 65 82
65 65 82
65 65 82
65 65 82
65 65 82
65 65 82
65 65 82
65 65 82
65 65 82
65 65 82
65 65 82
65 65 82
65 65 82
65 65 82
65 65 82
65 65 82
65 65 82
65 65 82
65 65 82
65 65 82
65 65 82
65 65 82
65 65 82
65 65 82
65 65 82
66 66 83
65 65 82
65 65 82
65 65 82
66 66 83
65 65 82
66 66 83
65 65 82
65 65 82
65 65 82
65 65 82
65 65 82
65 65 82
65 65 82
65 65 82
66 66 83
65 65 82
65 65 82
65 65 82
65 65 82
65 65 82
65 65 82
65 65 82
65 65 82
65 65 82
65 65 82
65 65 82
65 65 82
65 65 82
65 65 82
65 65 82
65 65 82
65 65 82
65 65 82
65 65 82
65 65 82
65 65 82
65 65 82
65 65 82
65 65 82
65 65 82
65 65 82
65 65 82
65 65 82
65 65 82
65 65 82
65 65 82
65 65 82
65 65 82
65 65 82
65 65 82
65 65 82
65 65 82
65 65 82
65 65 82
65 65 82
65 65 82
65 65 82
65 65 82
65 65 82
65 65 82
65 65 83
65 65 82
66 66 83
65 65 82
65 65 83
65 65 83
66 66 83
65 65 82
66 66 83
65 65 83
65 65 83
65 65 82
65 65 82
66 66 83
66 66 83
66 66 83
66 66 83
65 65 83
66 66 83
66 66 83
66 66 83
65 65 83
65 65 83
66 66 83
66 66 83
66 66 83
65 65 83
66 66 83
66 66 83
66 66 83
66 66 83
65 65 83
66 66 83
66 66 83
66 66 83
66 66 83
66 66 83
66 66 83
66 66 83
66 66 83
66 66 83
66 66 83
66 66 83
66 66 83
65 65 83
66 66 83
65 65 83
66 66 83
65 65 83
65 65 83
65 65 83
65 65 83
65 65 83
65 65 83
65 65 83
65 65 83
65 65 83
65 65 83
65 65 83
65 65 83
65 65 83
65 65 83
65 65 83
65 65 83
65 65 83
65 65 83
65 65 83
65 65 83
65 65 83
65 65 83
65 65 83
65 65 83
65 65 83
65 65 83
65 65 83
65 65 83
65 65 83
65 65 83
65 65 83
65 65 83
65 65 83
65 65 83
65 65 83
65 65 83
65 65 83
65 65 83
65 65 83
65 65 83
65 65 83
65 65 83
65 65 83
65 65 83
65 65 83
65 65 83
65 65 83
65 65 83
65 65 83
65 65 83
65 65 83
65 65 83
65 65 83
65 65 83
65 65 83
65 65 83
65 65 83
65 65 83
65 65 83
65 65 83
66 66 83
66 66 83
66 66 83
66 66 83
65 65 83
66 66 83
66 66 83
65 65 83
65 65 83
66 66 83
66 66 83
66 66 83
66 66 83
66 66 83
66 66 83
66 66 83
65 65 83
66 66 83
66 66 83
65 65 83
65 65 83
66 66 83
66 66 83
65 65 83
65 65 83
65 65 83
65 65 83
65 65 82
66 66 83
65 65 83
65 65 82
66 66 83
66 66 83
66 66 83
66 66 83
66 66 83
66 66 83
66 66 83
65 65 82
66 66 83
66 66 83
66 66 83
65 65 82
65 65 82
65 65 83
65 65 83
66 66 83
65 65 83
65 65 82
66 66 83
66 66 83
66 66 83
65 65 82
65 65 82
66 66 83
65 65 83
65 65 83
65 65 83
66 66 83
65 65 82
65 65 82
65 65 83
65 65 82
66 66 83
65 65 82
66 66 83
65 65 82
65 65 82
66 66 83
65 65 82
65 65 83
65 65 82
65 65 82
66 66 83
65 65 82
65 65 82
65 65 82
65 65 82
66 66 83
65 65 82
66 66 83
66 66 83
65 65 82
65 65 82
66 66 83
66 66 83
65 65 82
65 65 82
65 65 82
65 65 82
65 65 82
65 65 82
65 65 82
66 66 83
65 65 82
66 66 83
65 65 82
65 65 82
65 65 82
65 65 82
65 65 82
65 65 82
65 65 82
65 65 82
65 65 82
65 65 82
65 65 82
65 65 82
65 65 82
66 66 83
65 65 82
65 65 82
65 65 82
65 65 82
65 65 82
65 65 82
65 65 82
65 65 82
65 65 82
65 65 82
65 65 82
65 65 82
65 65 82
65 65 82
65 65 82
65 65 82
65 65 82
65 65 82
65 65 82
65 65 82
65 65 82
65 65 82
65 65 82
65 65 82
65 65 82
65 65 82
65 65 82
65 65 82
65 65 82
65 65 82
65 65 82
65 65 82
65 65 82
65 65 82
65 65 82
65 65 82
65 65 82
65 65 82
65 65 82
65 65 82
65 65 82
65 65 82
65 65 82
65 65 82
65 65 82
65 65 82
65 65 82
65 65 82
65 65 82
65 65 82
65 65 82
65 65 82
65 65 82
65 65 82
65 65 82
65 65 82
65 65 82
65 65 82
65 65 82
65 65 82
65 65 82
65 65 82
65 65 82
65 65 82
65 65 82
65 65 82
65 65 82
65 65 82
65 65 82
65 65 82
65 65 82
65 65 82
65 65 82
65 65 82
65 65 82
65 65 82
65 65 82
65 65 82
65 65 82
65 65 82
65 65 82
65 65 82
65 65 82
65 65 82
65 65 82
65 65 82
65 65 82
65 65 82
65 65 82
65 65 82
65 65 82
65 65 82
65 65 82
65 65 82
65 65 82
65 65 82
65 65 82
65 65 82
65 65 82
65 65 82
65 65 82
65 65 82
65 65 82
65 65 82
65 65 82
65 65 82
65 65 82
65 65 82
65 65 82
65 65 82
65 65 82
66 66 83
65 65 82
65 65 82
66 66 83
65 65 82
65 65 82
66 66 83
65 65 82
65 65 82
65 65 82
65 65 82
65 65 82
65 65 82
65 65 82
65 65 82
65 65 82
65 65 82
65 65 82
65 65 82
65 65 82
65 65 82
65 65 82
65 65 82
65 65 82
65 65 82
65 65 82
65 65 82
66 66 83
65 65 82
65 65 82
65 65 82
65 65 82
65 65 82
65 65 82
65 65 82
65 65 82
65 65 82
65 65 82
65 65 82
65 65 82
65 65 82
65 65 82
65 65 82
65 65 82
65 65 82
65 65 82
65 65 82
65 65 82
65 65 82
65 65 82
65 65 82
65 65 82
65 65 82
65 65 82
65 65 82
65 65 82
65 65 82
65 65 82
65 65 82
65 65 82
65 65 82
65 65 82
65 65 82
65 65 83
65 65 83
65 65 83
65 65 83
65 65 83
66 66 83
66 66 83
66 66 83
66 66 83
66 66 83
65 65 83
66 66 83
65 65 83
66 66 83
65 65 83
66 66 83
66 66 83
66 66 83
66 66 83
66 66 83
66 66 83
65 65 83
66 66 83
66 66 83
66 66 83
66 66 83
66 66 83
65 65 83
66 66 83
66 66 83
66 66 83
66 66 83
66 66 83
66 66 83
66 66 83
66 66 83
66 66 83
66 66 83
66 66 83
66 66 83
66 66 83
66 66 83
66 66 83
66 66 83
66 66 83
66 66 83
66 66 83
66 66 83
66 66 83
66 66 83
66 66 83
66 66 83
66 66 83
66 66 83
66 66 83
66 66 83
66 66 83
66 66 83
66 66 83
66 66 83
66 66 83
66 66 83
66 66 83
66 66 83
66 66 83
66 66 83
66 66 83
66 66 83
66 66 83
66 66 83
66 66 83
66 66 83
66 66 83
66 66 83
66 66 83
66 66 83
66 66 83
66 66 83
66 66 83
66 66 83
66 66 83
66 66 83
66 66 83
66 66 83
66 66 83
66 66 83
66 66 83
66 66 83
66 66 83
66 66 83
66 66 83
66 66 83
66 66 83
66 66 83
66 66 83
66 66 83
66 66 83
66 66 83
66 66 83
66 66 83
66 66 83
66 66 83
66 66 83
66 66 83
66 66 83
66 66 83
66 66 83
66 66 83
66 66 83
66 66 83
66 66 83
66 66 83
66 66 83
66 66 83
66 66 83
66 66 83
66 66 83
66 66 83
66 66 83
66 66 83
66 66 83
66 66 83
66 66 83
66 66 83
66 66 83
66 66 83
66 66 83
66 66 83
66 66 83
66 66 83
66 66 83
66 66 83
66 66 83
66 66 83
66 66 83
66 66 83
65 65 83
65 65 83
66 66 83
66 66 83
66 66 83
66 66 83
66 66 83
66 66 83
65 65 83
65 65 83
66 66 83
66 66 83
66 66 83
66 66 83
66 66 83
66 66 83
65 65 83
65 65 83
66 66 83
66 66 83
66 66 83
65 65 83
66 66 83
65 65 83
66 66 83
65 65 83
65 65 83
65 65 83
66 66 83
66 66 83
65 65 83
65 65 83
65 65 83
65 65 83
66 66 83
66 66 83
66 66 83
65 65 82
65 65 82
66 66 83
66 66 83
66 66 83
66 66 83
66 66 83
66 66 83
65 65 82
66 66 83
65 65 83
65 65 83
66 66 83
66 66 83
65 65 82
65 65 82
66 66 83
65 65 83
65 65 82
65 65 82
65 65 83
65 65 82
65 65 83
65 65 82
66 66 83
65 65 82
65 65 82
65 65 82
65 65 82
65 65 82
65 65 82
66 66 83
65 65 82
66 66 83
65 65 82
65 65 82
65 65 82
65 65 83
65 65 82
65 65 82
65 65 82
65 65 82
65 65 82
66 66 83
65 65 82
66 66 83
65 65 82
65 65 82
65 65 82
65 65 82
65 65 82
65 65 82
65 65 82
65 65 82
65 65 82
65 65 82
65 65 82
65 65 82
65 65 82
65 65 82
65 65 82
65 65 82
65 65 82
65 65 82
65 65 82
65 65 82
65 65 82
65 65 82
65 65 82
65 65 82
65 65 82
65 65 82
65 65 82
65 65 82
65 65 82
65 65 82
65 65 82
65 65 82
65 65 82
65 65 82
65 65 82
65 65 82
65 65 82
65 65 82
65 65 82
65 65 82
65 65 82
65 65 82
65 65 82
65 65 82
65 65 82
65 65 82
65 65 82
65 65 82
65 65 82
65 65 82
65 65 82
65 65 82
65 65 82
65 65 82
65 65 82
65 65 82
65 65 82
65 65 82
65 65 82
65 65 82
65 65 82
65 65 82
65 65 82
65 65 82
65 65 82
65 65 82
65 65 82
65 65 82
65 65 82
65 65 82
65 65 82
65 65 82
65 65 82
65 65 82
65 65 82
65 65 82
65 65 82
65 65 82
65 65 82
65 65 82
65 65 82
65 65 82
65 65 82
65 65 82
65 65 82
65 65 82
65 65 82
65 65 82
65 65 82
65 65 82
65 65 82
65 65 82
65 65 82
65 65 82
65 65 82
65 65 82
65 65 82
65 65 82
65 65 82
65 65 82
65 65 82
65 65 82
65 65 82
65 65 82
65 65 82
65 65 82
65 65 82
65 65 82
65 65 82
66 66 83
65 65 82
65 65 82
65 65 82
65 65 82
65 65 82
65 65 82
66 66 83
65 65 82
65 65 82
65 65 82
65 65 82
65 65 82
65 65 82
65 65 82
65 65 82
65 65 82
66 66 83
65 65 82
65 65 82
65 65 82
65 65 82
66 66 83
65 65 82
65 65 82
65 65 82
66 66 83
65 65 82
65 65 82
66 66 83
66 66 83
65 65 82
66 66 83
65 65 82
65 65 82
65 65 82
65 65 82
65 65 82
65 65 82
65 65 82
65 65 82
65 65 82
65 65 82
65 65 82
65 65 82
65 65 82
65 65 82
65 65 82
65 65 82
65 65 82
65 65 82
65 65 82
65 65 82
65 65 82
65 65 83
65 65 83
65 65 83
65 65 83
65 65 83
65 65 83
65 65 83
65 65 83
65 65 83
65 65 83
65 65 83
65 65 83
65 65 83
65 65 83
65 65 83
65 65 83
65 65 83
65 65 83
65 65 83
65 65 83
66 66 83
66 66 83
65 65 83
66 66 83
66 66 83
66 66 83
66 66 83
66 66 83
66 66 83
66 66 83
66 66 83
66 66 83
66 66 83
66 66 83
66 66 83
66 66 83
66 66 83
66 66 83
66 66 83
66 66 83
66 66 83
66 66 83
66 66 83
66 66 83
66 66 83
66 66 83
66 66 83
66 66 83
66 66 83
66 66 83
66 66 83
66 66 83
66 66 83
66 66 83
66 66 83
66 66 83
66 66 83
66 66 83
66 66 83
66 66 83
66 66 83
66 66 83
66 66 83
66 66 83
66 66 83
66 66 83
66 66 83
66 66 83
66 66 83
66 66 83
66 66 83
66 66 83
66 66 83
66 66 83
66 66 83
66 66 83
66 66 83
66 66 83
66 66 83
66 66 83
66 66 83
66 66 83
66 66 83
66 66 83
66 66 83
66 66 83
66 66 83
66 66 83
66 66 83
66 66 83
66 66 83
66 66 83
66 66 83
66 66 83
66 66 83
66 66 83
66 66 83
66 66 83
66 66 83
66 66 83
66 66 83
66 66 83
66 66 83
66 66 83
66 66 83
66 66 83
66 66 83
66 66 83
66 66 83
66 66 83
66 66 83
66 66 83
66 66 83
66 66 83
66 66 83
66 66 83
66 66 83
66 66 83
66 66 83
66 66 83
66 66 83
66 66 83
66 66 83
66 66 83
66 66 83
66 66 83
66 66 83
66 66 83
66 66 83
66 66 83
66 66 83
66 66 83
66 66 83
66 66 83
66 66 83
66 66 83
66 66 83
66 66 83
66 66 83
66 66 83
66 66 83
66 66 83
66 66 83
66 66 83
66 66 83
66 66 83
66 66 83
66 66 83
66 66 83
66 66 83
66 66 83
66 66 83
66 66 83
66 66 83
66 66 83
66 66 83
66 66 83
66 66 83
66 66 83
66 66 83
66 66 83
66 66 83
66 66 83
66 66 83
66 66 83
66 66 83
66 66 83
66 66 83
66 66 83
66 66 83
66 66 83
66 66 83
66 66 83
66 66 83
66 66 83
66 66 83
66 66 83
66 66 83
65 65 83
66 66 83
66 66 83
66 66 83
66 66 83
66 66 83
66 66 83
65 65 83
66 66 83
66 66 83
66 66 83
65 65 83
65 65 83
66 66 83
66 66 83
66 66 83
66 66 83
65 65 83
66 66 83
65 65 83
66 66 83
66 66 83
66 66 83
66 66 83
66 66 83
65 65 83
66 66 83
66 66 83
65 65 82
65 65 83
66 66 83
65 65 82
65 65 82
65 65 82
66 66 83
65 65 83
65 65 82
65 65 82
65 65 83
65 65 83
66 66 83
65 65 83
66 66 83
65 65 82
65 65 82
66 66 83
65 65 82
66 66 83
66 66 83
65 65 82
65 65 83
65 65 83
65 65 82
65 65 83
65 65 82
66 66 83
66 66 83
65 65 82
65 65 82
66 66 83
66 66 83
65 65 82
65 65 82
65 65 82
65 65 82
65 65 82
65 65 82
65 65 82
65 65 82
65 65 82
65 65 82
65 65 82
65 65 82
65 65 82
65 65 82
65 65 82
65 65 82
65 65 82
65 65 82
65 65 82
65 65 82
65 65 82
65 65 82
65 65 82
65 65 82
65 65 82
65 65 82
65 65 82
65 65 82
65 65 82
65 65 82
65 65 82
65 65 82
65 65 82
65 65 82
65 65 82
65 65 82
65 65 82
65 65 82
65 65 82
65 65 82
65 65 82
65 65 82
65 65 82
65 65 82
65 65 82
65 65 82
65 65 82
65 65 82
65 65 82
65 65 82
65 65 82
65 65 82
65 65 82
65 65 82
65 65 82
65 65 82
65 65 82
65 65 82
65 65 82
65 65 82
65 65 82
65 65 82
65 65 82
65 65 82
65 65 82
65 65 82
65 65 82
65 65 82
65 65 82
65 65 82
65 65 82
65 65 82
65 65 82
65 65 82
65 65 82
65 65 82
65 65 82
65 65 82
65 65 82
65 65 82
65 65 82
65 65 82
65 65 82
65 65 82
65 65 82
65 65 82
65 65 82
65 65 82
65 65 82
65 65 82
65 65 82
65 65 82
65 65 82
65 65 82
65 65 82
65 65 82
65 65 82
65 65 82
65 65 82
65 65 82
65 65 82
65 65 82
66 66 83
65 65 82
65 65 82
65 65 82
66 66 83
65 65 82
66 66 83
66 66 83
66 66 83
65 65 83
65 65 82
65 65 82
65 65 82
66 66 83
66 66 83
65 65 82
65 65 82
66 66 83
66 66 83
65 65 82
65 65 82
65 65 82
65 65 83
65 65 82
65 65 82
65 65 82
65 65 82
66 66 83
65 65 82
65 65 83
65 65 83
66 66 83
66 66 83
66 66 83
66 66 83
66 66 83
65 65 82
65 65 82
65 65 82
65 65 82
65 65 82
65 65 82
65 65 82
65 65 82
65 65 83
65 65 83
65 65 83
65 65 83
65 65 83
65 65 83
65 65 83
65 65 83
65 65 83
65 65 83
65 65 83
65 65 83
65 65 83
65 65 83
65 65 83
65 65 83
65 65 83
65 65 83
65 65 83
65 65 83
66 66 83
66 66 83
66 66 83
66 66 83
66 66 83
66 66 83
66 66 83
66 66 83
66 66 83
66 66 83
66 66 83
66 66 83
66 66 83
66 66 83
66 66 83
66 66 83
66 66 83
66 66 83
66 66 83
66 66 83
66 66 83
66 66 83
66 66 83
66 66 83
66 66 83
66 66 83
66 66 83
66 66 83
66 66 83
66 66 83
66 66 83
66 66 83
66 66 83
66 66 83
66 66 83
66 66 83
66 66 83
66 66 83
66 66 83
66 66 83
66 66 83
66 66 83
66 66 83
66 66 83
66 66 83
66 66 83
66 66 83
66 66 83
66 66 83
66 66 83
66 66 83
66 66 83
66 66 83
66 66 83
66 66 83
66 66 83
66 66 83
66 66 83
66 66 83
66 66 83
66 66 83
66 66 83
66 66 83
66 66 83
66 66 83
66 66 83
66 66 83
66 66 83
66 66 83
66 66 83
66 66 83
66 66 83
66 66 83
66 66 83
66 66 83
66 66 83
66 66 83
66 66 83
66 66 83
66 66 83
66 66 83
66 66 83
66 66 83
66 66 83
66 66 83
66 66 83
66 66 83
66 66 83
66 66 83
66 66 83
66 66 83
66 66 83
66 66 83
66 66 83
66 66 83
66 66 83
66 66 83
66 66 83
66 66 83
66 66 83
66 66 83
66 66 83
66 66 83
66 66 83
66 66 83
66 66 83
66 66 83
66 66 83
66 66 83
66 66 83
66 66 83
66 66 83
66 66 83
66 66 83
66 66 83
66 66 83
66 66 83
66 66 83
66 66 83
66 66 83
66 66 83
66 66 83
66 66 83
66 66 83
66 66 83
66 66 83
66 66 83
66 66 83
66 66 83
66 66 83
66 66 83
66 66 83
66 66 83
66 66 83
66 66 83
66 66 83
66 66 83
66 66 83
66 66 83
66 66 83
66 66 83
66 66 83
66 66 83
66 66 83
66 66 83
66 66 83
66 66 83
66 66 83
66 66 83
66 66 83
66 66 83
66 66 83
66 66 83
66 66 83
66 66 83
66 66 83
66 66 83
66 66 83
66 66 83
66 66 83
66 66 83
66 66 83
66 66 83
66 66 83
66 66 83
66 66 83
66 66 83
66 66 83
66 66 83
66 66 83
66 66 83
66 66 83
66 66 83
66 66 83
66 66 83
66 66 83
66 66 83
66 66 83
66 66 83
66 66 83
66 66 83
66 66 83
66 66 83
66 66 83
66 66 83
66 66 83
66 66 83
66 66 83
66 66 83
66 66 83
66 66 83
66 66 83
66 66 83
66 66 83
66 66 83
66 66 83
66 66 83
66 66 83
66 66 83
65 65 83
66 66 83
66 66 83
66 66 83
66 66 83
66 66 83
66 66 83
66 66 83
66 66 83
66 66 83
65 65 83
66 66 83
66 66 83
65 65 82
66 66 83
66 66 83
66 66 83
65 65 83
66 66 83
66 66 83
66 66 83
65 65 83
65 65 82
66 66 83
65 65 82
66 66 83
66 66 83
65 65 83
66 66 83
65 65 82
65 65 82
65 65 82
65 65 82
65 65 82
65 65 82
65 65 82
65 65 82
65 65 82
65 65 82
65 65 82
65 65 82
65 65 82
65 65 82
65 65 82
65 65 82
65 65 82
65 65 82
65 65 82
65 65 82
65 65 82
65 65 82
65 65 82
65 65 82
65 65 82
65 65 82
65 65 82
65 65 82
65 65 82
65 65 82
65 65 82
65 65 82
65 65 82
65 65 82
65 65 82
65 65 82
65 65 82
65 65 82
65 65 82
65 65 82
65 65 82
65 65 82
65 65 82
65 65 82
65 65 82
65 65 82
65 65 82
65 65 82
65 65 82
65 65 82
65 65 82
65 65 82
65 65 82
65 65 82
65 65 82
65 65 82
65 65 82
65 65 82
65 65 82
65 65 82
65 65 82
65 65 82
65 65 82
65 65 82
65 65 82
65 65 82
65 65 82
65 65 82
65 65 82
65 65 82
65 65 82
65 65 82
65 65 82
65 65 82
65 65 82
65 65 82
65 65 82
65 65 82
65 65 82
65 65 82
65 65 82
65 65 82
65 65 82
65 65 82
65 65 82
65 65 82
65 65 82
65 65 82
65 65 82
65 65 82
65 65 82
65 65 82
65 65 82
65 65 82
65 65 82
65 65 82
65 65 82
65 65 82
65 65 82
65 65 82
65 65 82
65 65 82
65 65 82
65 65 82
65 65 82
65 65 82
66 66 83
66 66 83
65 65 82
65 65 82
65 65 82
66 66 83
65 65 82
65 65 83
65 65 82
65 65 82
65 65 82
66 66 83
66 66 83
65 65 82
66 66 83
66 66 83
66 66 83
65 65 83
65 65 82
66 66 83
66 66 83
65 65 82
66 66 83
66 66 83
66 66 83
65 65 83
65 65 82
66 66 83
66 66 83
66 66 83
66 66 83
66 66 83
65 65 82
66 66 83
66 66 83
66 66 83
65 65 83
65 65 83
65 65 83
65 65 83
65 65 83
65 65 83
65 65 83
65 65 83
65 65 83
65 65 83
65 65 83
65 65 83
65 65 83
65 65 83
65 65 83
66 66 83
66 66 83
66 66 83
66 66 83
66 66 83
66 66 83
66 66 83
66 66 83
66 66 83
66 66 83
66 66 83
66 66 83
66 66 83
66 66 83
66 66 83
66 66 83
66 66 83
66 66 83
66 66 83
66 66 83
66 66 83
66 66 83
66 66 83
66 66 83
66 66 83
66 66 83
66 66 83
66 66 83
66 66 83
66 66 83
66 66 83
66 66 83
66 66 83
66 66 83
66 66 83
66 66 83
66 66 83
66 66 83
66 66 83
66 66 83
66 66 83
66 66 83
66 66 83
66 66 83
66 66 83
66 66 83
66 66 83
66 66 83
66 66 83
66 66 83
66 66 83
66 66 83
66 66 83
66 66 83
66 66 83
66 66 83
66 66 83
66 66 83
66 66 83
66 66 83
66 66 83
66 66 83
66 66 83
66 66 83
66 66 83
66 66 83
66 66 83
66 66 83
66 66 83
66 66 83
66 66 83
66 66 83
66 66 83
66 66 83
66 66 83
66 66 83
66 66 83
66 66 83
66 66 83
66 66 83
66 66 83
66 66 83
66 66 83
66 66 83
66 66 83
66 66 83
66 66 83
66 66 83
66 66 83
66 66 83
66 66 83
66 66 83
66 66 83
66 66 83
66 66 83
66 66 83
66 66 83
66 66 83
66 66 83
66 66 83
66 66 83
66 66 83
66 66 83
66 66 83
66 66 83
66 66 83
66 66 83
66 66 83
66 66 83
66 66 83
66 66 83
66 66 83
66 66 83
66 66 83
66 66 83
66 66 83
66 66 83
66 66 83
66 66 83
66 66 83
66 66 83
66 66 83
66 66 83
66 66 83
66 66 83
66 66 83
66 66 83
66 66 83
66 66 83
66 66 83
66 66 83
66 66 83
66 66 83
66 66 83
66 66 83
66 66 83
66 66 83
66 66 83
66 66 83
66 66 83
66 66 83
66 66 83
66 66 83
66 66 83
66 66 83
66 66 83
66 66 83
66 66 83
66 66 83
66 66 83
66 66 83
66 66 83
66 66 83
66 66 83
66 66 83
66 66 83
66 66 83
66 66 83
66 66 83
66 66 83
66 66 83
66 66 83
66 66 83
66 66 83
66 66 83
66 66 83
66 66 83
66 66 83
66 66 83
66 66 83
66 66 83
66 66 83
66 66 83
66 66 83
66 66 83
66 66 83
66 66 83
66 66 83
66 66 83
66 66 83
66 66 83
66 66 83
66 66 83
66 66 83
66 66 83
66 66 83
66 66 83
66 66 83
66 66 83
66 66 83
66 66 83
66 66 83
66 66 83
66 66 83
66 66 83
66 66 83
66 66 83
66 66 83
66 66 83
66 66 83
66 66 83
66 66 83
66 66 83
66 66 83
66 66 83
66 66 83
66 66 83
66 66 83
66 66 83
66 66 83
66 66 83
66 66 83
66 66 83
66 66 83
66 66 83
66 66 83
66 66 83
66 66 83
66 66 83
66 66 83
66 66 83
66 66 83
66 66 83
66 66 83
66 66 83
65 65 83
66 66 83
65 65 83
65 65 83
66 66 83
65 65 83
65 65 83
65 65 83
65 65 83
65 65 83
65 65 83
65 65 83
65 65 83
65 65 83
65 65 83
65 65 82
65 65 82
65 65 82
65 65 82
65 65 82
65 65 82
65 65 82
65 65 82
65 65 82
65 65 82
65 65 82
65 65 82
65 65 82
65 65 82
65 65 82
65 65 82
65 65 82
65 65 82
65 65 82
65 65 82
65 65 82
65 65 82
65 65 82
65 65 82
65 65 82
65 65 82
65 65 82
65 65 82
65 65 82
65 65 82
65 65 82
65 65 82
65 65 82
65 65 82
65 65 82
65 65 82
65 65 82
65 65 82
65 65 82
65 65 82
65 65 82
65 65 82
65 65 82
65 65 82
65 65 82
65 65 82
65 65 82
65 65 82
65 65 82
65 65 82
65 65 82
65 65 82
65 65 82
65 65 82
65 65 82
65 65 82
65 65 82
65 65 82
65 65 82
65 65 82
65 65 82
65 65 82
65 65 82
65 65 82
65 65 82
65 65 82
65 65 82
65 65 82
65 65 82
65 65 82
65 65 82
65 65 82
65 65 82
65 65 82
65 65 82
65 65 82
65 65 82
65 65 82
65 65 82
65 65 82
65 65 82
65 65 82
65 65 82
65 65 82
65 65 82
65 65 82
65 65 82
65 65 82
65 65 82
65 65 82
65 65 82
65 65 82
65 65 82
65 65 82
65 65 82
65 65 82
65 65 82
65 65 82
65 65 82
65 65 82
65 65 82
65 65 82
65 65 82
65 65 82
65 65 82
65 65 82
65 65 83
65 65 82
65 65 82
65 65 82
65 65 82
66 66 83
65 65 82
65 65 82
65 65 83
65 65 82
65 65 82
65 65 83
65 65 83
65 65 82
65 65 82
66 66 83
65 65 82
66 66 83
66 66 83
66 66 83
65 65 83
65 65 82
65 65 83
66 66 83
65 65 83
65 65 83
65 65 83
66 66 83
66 66 83
66 66 83
65 65 83
66 66 83
65 65 83
66 66 83
66 66 83
66 66 83
65 65 83
65 65 83
65 65 83
65 65 83
66 66 83
66 66 83
66 66 83
66 66 83
66 66 83
66 66 83
66 66 83
66 66 83
66 66 83
66 66 83
66 66 83
66 66 83
66 66 83
66 66 83
66 66 83
66 66 83
66 66 83
66 66 83
66 66 83
66 66 83
66 66 83
66 66 83
66 66 83
66 66 83
66 66 83
66 66 83
66 66 83
66 66 83
66 66 83
66 66 83
66 66 83
66 66 83
66 66 83
66 66 83
66 66 83
66 66 83
66 66 83
66 66 83
66 66 83
66 66 83
66 66 83
66 66 83
66 66 83
66 66 83
66 66 83
66 66 83
66 66 83
66 66 83
66 66 83
66 66 83
66 66 83
66 66 83
66 66 83
66 66 83
66 66 83
66 66 83
66 66 83
66 66 83
66 66 83
66 66 83
66 66 83
66 66 83
66 66 83
66 66 83
66 66 83
66 66 83
66 66 83
66 66 83
66 66 83
66 66 83
66 66 83
66 66 83
66 66 83
66 66 83
66 66 83
66 66 83
66 66 83
66 66 83
66 66 83
66 66 83
66 66 83
66 66 83
66 66 83
66 66 83
66 66 83
66 66 83
66 66 83
66 66 83
66 66 83
66 66 83
66 66 83
66 66 83
66 66 83
66 66 83
66 66 83
66 66 83
66 66 83
66 66 83
66 66 83
66 66 83
66 66 83
66 66 83
66 66 83
66 66 83
66 66 83
66 66 83
66 66 83
66 66 83
66 66 83
66 66 83
66 66 83
66 66 83
66 66 83
66 66 83
66 66 83
66 66 83
66 66 83
66 66 83
66 66 83
66 66 83
66 66 83
66 66 83
66 66 83
66 66 83
66 66 83
66 66 83
66 66 83
66 66 83
66 66 83
66 66 83
66 66 83
66 66 83
66 66 83
66 66 83
66 66 83
66 66 83
66 66 83
66 66 83
66 66 83
66 66 83
66 66 83
66 66 83
66 66 83
66 66 83
66 66 83
66 66 83
66 66 83
66 66 83
66 66 83
66 66 83
66 66 83
66 66 83
66 66 83
66 66 83
66 66 83
66 66 83
66 66 83
66 66 83
66 66 83
66 66 83
66 66 83
66 66 83
66 66 83
66 66 83
66 66 83
66 66 83
66 66 83
66 66 83
66 66 83
66 66 83
66 66 83
66 66 83
66 66 83
66 66 83
66 66 83
66 66 83
66 66 83
66 66 83
66 66 83
66 66 83
66 66 83
66 66 83
66 66 83
66 66 83
66 66 83
66 66 83
66 66 83
66 66 83
66 66 83
66 66 83
66 66 83
66 66 83
66 66 83
66 66 83
66 66 83
66 66 83
66 66 83
66 66 83
66 66 83
66 66 83
66 66 83
66 66 83
66 66 83
66 66 83
66 66 83
66 66 83
66 66 83
66 66 83
66 66 83
66 66 83
66 66 83
66 66 83
66 66 83
66 66 83
66 66 83
66 66 83
66 66 83
66 66 83
66 66 83
66 66 83
66 66 83
66 66 83
66 66 83
66 66 83
66 66 83
66 66 83
66 66 83
66 66 83
66 66 83
66 66 83
66 66 83
66 66 83
66 66 83
66 66 83
66 66 83
66 66 83
66 66 83
66 66 83
66 66 83
66 66 83
66 66 83
66 66 83
66 66 83
66 66 83
66 66 83
66 66 83
66 66 83
66 66 83
66 66 83
66 66 83
65 65 83
65 65 83
65 65 83
65 65 83
65 65 83
65 65 83
65 65 83
65 65 83
65 65 83
65 65 83
65 65 83
65 65 83
65 65 83
65 65 83
65 65 83
65 65 83
65 65 83
65 65 82
65 65 82
65 65 82
65 65 82
65 65 82
65 65 82
65 65 82
65 65 82
65 65 82
65 65 82
65 65 82
65 65 82
65 65 82
65 65 82
65 65 82
65 65 82
65 65 82
65 65 82
65 65 82
65 65 82
65 65 82
65 65 82
65 65 82
65 65 82
65 65 82
65 65 82
65 65 82
65 65 82
65 65 82
65 65 82
65 65 82
65 65 82
65 65 82
65 65 82
65 65 82
65 65 82
65 65 82
65 65 82
65 65 82
65 65 82
65 65 82
65 65 82
65 65 82
65 65 82
65 65 82
65 65 82
65 65 82
65 65 82
65 65 82
65 65 82
65 65 82
65 65 82
65 65 82
65 65 82
65 65 82
65 65 82
65 65 82
65 65 82
65 65 82
65 65 82
65 65 82
65 65 82
65 65 82
65 65 82
65 65 82
65 65 82
65 65 82
65 65 82
65 65 82
65 65 82
65 65 82
65 65 82
65 65 82
65 65 82
65 65 82
65 65 82
65 65 82
65 65 82
65 65 82
65 65 82
65 65 82
65 65 82
65 65 82
65 65 82
65 65 82
65 65 82
65 65 82
65 65 82
65 65 82
65 65 82
65 65 82
65 65 82
66 66 83
66 66 83
65 65 83
65 65 82
65 65 83
65 65 82
66 66 83
65 65 82
66 66 83
65 65 82
66 66 83
66 66 83
65 65 83
66 66 83
65 65 83
65 65 83
65 65 83
65 65 83
66 66 83
66 66 83
66 66 83
66 66 83
66 66 83
66 66 83
65 65 83
65 65 83
66 66 83
66 66 83
66 66 83
66 66 83
66 66 83
66 66 83
66 66 83
66 66 83
66 66 83
66 66 83
66 66 83
66 66 83
66 66 83
66 66 83
66 66 83
66 66 83
66 66 83
66 66 83
66 66 83
66 66 83
66 66 83
66 66 83
66 66 83
66 66 83
66 66 83
66 66 83
66 66 83
66 66 83
66 66 83
66 66 83
66 66 83
66 66 83
66 66 83
66 66 83
66 66 83
66 66 83
66 66 83
66 66 83
66 66 83
66 66 83
66 66 83
66 66 83
66 66 83
66 66 83
66 66 83
66 66 83
66 66 83
66 66 83
66 66 83
66 66 83
66 66 83
66 66 83
66 66 83
66 66 83
66 66 83
66 66 83
66 66 83
66 66 83
66 66 83
66 66 83
66 66 83
66 66 83
66 66 83
66 66 83
66 66 83
66 66 83
66 66 83
66 66 83
66 66 83
66 66 83
66 66 83
66 66 83
66 66 83
66 66 83
66 66 83
66 66 83
66 66 83
66 66 83
66 66 83
66 66 83
66 66 83
66 66 83
66 66 83
66 66 83
66 66 83
66 66 83
66 66 83
66 66 83
66 66 83
66 66 83
66 66 83
66 66 83
66 66 83
66 66 83
66 66 83
66 66 83
66 66 83
66 66 83
66 66 83
66 66 83
66 66 83
66 66 83
66 66 83
66 66 83
66 66 83
66 66 83
66 66 83
66 66 83
66 66 83
66 66 83
66 66 83
66 66 83
66 66 83
66 66 83
66 66 83
66 66 83
66 66 83
66 66 83
66 66 83
66 66 83
66 66 83
66 66 83
66 66 83
66 66 83
66 66 83
66 66 83
66 66 83
66 66 83
66 66 83
66 66 83
66 66 83
66 66 83
66 66 83
66 66 83
66 66 83
66 66 83
66 66 83
66 66 83
66 66 83
66 66 83
66 66 83
66 66 83
66 66 83
66 66 83
66 66 83
66 66 83
66 66 83
66 66 83
66 66 83
66 66 83
66 66 83
66 66 83
66 66 83
66 66 83
66 66 83
66 66 83
66 66 83
66 66 83
66 66 83
66 66 83
66 66 83
66 66 83
66 66 83
66 66 83
66 66 83
66 66 83
66 66 83
66 66 83
66 66 83
66 66 83
66 66 83
66 66 83
66 66 83
66 66 83
66 66 83
66 66 83
66 66 83
66 66 83
66 66 83
66 66 83
66 66 83
66 66 83
66 66 83
66 66 83
66 66 83
66 66 83
66 66 83
66 66 83
66 66 83
66 66 83
66 66 83
66 66 83
66 66 83
66 66 83
66 66 83
66 66 83
66 66 83
66 66 83
66 66 83
66 66 83
66 66 83
66 66 83
66 66 83
66 66 83
66 66 83
66 66 83
66 66 83
66 66 83
66 66 83
66 66 83
66 66 83
66 66 83
66 66 83
66 66 83
66 66 83
66 66 83
66 66 83
66 66 83
66 66 83
66 66 83
66 66 83
66 66 83
66 66 83
66 66 83
66 66 83
66 66 83
66 66 83
66 66 83
66 66 83
66 66 83
66 66 83
66 66 83
66 66 83
66 66 83
66 66 83
66 66 83
66 66 83
66 66 83
66 66 83
66 66 83
66 66 83
66 66 83
66 66 83
66 66 83
66 66 83
66 66 83
66 66 83
66 66 83
66 66 83
66 66 83
66 66 83
66 66 83
66 66 83
66 66 83
66 66 83
66 66 83
66 66 83
66 66 83
66 66 83
66 66 83
66 66 83
66 66 83
66 66 83
66 66 83
66 66 83
66 66 83
66 66 83
66 66 83
66 66 83
66 66 83
66 66 83
66 66 83
66 66 83
66 66 83
66 66 83
66 66 83
66 66 83
66 66 83
65 65 83
65 65 83
65 65 83
65 65 83
65 65 83
65 65 83
65 65 83
65 65 83
65 65 83
65 65 83
65 65 83
65 65 83
65 65 83
65 65 83
65 65 83
65 65 82
65 65 82
65 65 82
65 65 82
65 65 82
65 65 82
65 65 82
65 65 82
65 65 82
65 65 82
65 65 82
65 65 82
65 65 82
65 65 82
65 65 82
65 65 82
65 65 82
65 65 82
65 65 82
65 65 82
65 65 82
65 65 82
65 65 82
65 65 82
65 65 82
65 65 82
65 65 82
65 65 82
65 65 82
65 65 82
65 65 82
65 65 82
65 65 82
65 65 82
65 65 82
65 65 82
65 65 82
65 65 82
65 65 82
65 65 82
65 65 82
65 65 82
65 65 82
65 65 82
65 65 82
65 65 82
65 65 82
65 65 82
65 65 82
65 65 82
65 65 82
65 65 82
65 65 82
65 65 82
65 65 82
65 65 82
65 65 82
65 65 82
65 65 82
65 65 82
65 65 82
65 65 82
65 65 82
65 65 82
65 65 82
65 65 82
65 65 82
65 65 82
65 65 82
65 65 82
65 65 82
65 65 82
65 65 82
65 65 82
65 65 82
65 65 82
65 65 82
65 65 82
66 66 83
65 65 82
65 65 83
66 66 83
66 66 83
66 66 83
66 66 83
65 65 83
66 66 83
65 65 83
66 66 83
66 66 83
65 65 83
65 65 83
66 66 83
66 66 83
66 66 83
66 66 83
65 65 83
66 66 83
66 66 83
66 66 83
66 66 83
66 66 83
66 66 83
66 66 83
66 66 83
66 66 83
66 66 83
66 66 83
66 66 83
66 66 83
66 66 83
66 66 83
66 66 83
66 66 83
66 66 83
66 66 83
66 66 83
66 66 83
66 66 83
66 66 83
66 66 83
66 66 83
66 66 83
66 66 83
66 66 83
66 66 83
66 66 83
66 66 83
66 66 83
66 66 83
66 66 83
66 66 83
66 66 83
66 66 83
66 66 83
66 66 83
66 66 83
66 66 83
66 66 83
66 66 83
66 66 83
66 66 83
66 66 83
66 66 83
66 66 83
66 66 83
66 66 83
66 66 83
66 66 83
66 66 83
66 66 83
66 66 83
66 66 83
66 66 83
66 66 83
66 66 83
66 66 83
66 66 83
66 66 83
66 66 83
66 66 83
66 66 83
66 66 83
66 66 83
66 66 83
66 66 83
66 66 83
66 66 83
66 66 83
66 66 83
66 66 83
66 66 83
66 66 83
66 66 83
66 66 83
66 66 83
66 66 83
66 66 83
66 66 83
66 66 83
66 66 83
66 66 83
66 66 83
66 66 83
66 66 83
66 66 83
66 66 83
66 66 83
66 66 83
66 66 83
66 66 83
66 66 83
66 66 83
66 66 83
66 66 83
66 66 83
66 66 83
66 66 83
66 66 83
66 66 83
66 66 83
66 66 83
66 66 83
66 66 83
66 66 83
66 66 83
66 66 83
66 66 83
66 66 83
66 66 83
66 66 83
66 66 83
66 66 83
66 66 83
66 66 83
66 66 83
66 66 83
66 66 83
66 66 83
66 66 83
66 66 83
66 66 83
66 66 83
66 66 83
66 66 83
66 66 83
66 66 83
66 66 83
66 66 83
66 66 83
66 66 83
66 66 83
66 66 83
66 66 83
66 66 83
66 66 83
66 66 83
66 66 83
66 66 83
66 66 83
66 66 83
66 66 83
66 66 83
66 66 83
66 66 83
66 66 83
66 66 83
66 66 83
66 66 83
66 66 83
66 66 83
66 66 83
66 66 83
66 66 83
66 66 83
66 66 83
66 66 83
66 66 83
66 66 83
66 66 83
66 66 83
66 66 83
66 66 83
66 66 83
66 66 83
66 66 83
66 66 83
66 66 83
66 66 83
66 66 83
66 66 83
66 66 83
66 66 83
66 66 83
66 66 83
66 66 83
66 66 83
66 66 83
66 66 83
66 66 83
66 66 83
66 66 83
66 66 83
66 66 83
66 66 83
66 66 83
66 66 83
66 66 83
66 66 83
66 66 83
66 66 83
66 66 83
66 66 83
66 66 83
66 66 83
66 66 83
66 66 83
66 66 83
66 66 83
66 66 83
66 66 83
66 66 83
66 66 83
66 66 83
66 66 83
66 66 83
66 66 83
66 66 83
66 66 83
66 66 83
66 66 83
66 66 83
66 66 83
66 66 83
66 66 83
66 66 83
66 66 83
66 66 83
66 66 83
66 66 83
66 66 83
66 66 83
66 66 83
66 66 83
66 66 83
66 66 83
66 66 83
66 66 83
66 66 83
66 66 83
66 66 83
66 66 83
66 66 83
66 66 83
66 66 83
66 66 83
66 66 83
66 66 83
66 66 83
66 66 83
66 66 83
66 66 83
66 66 83
66 66 83
66 66 83
66 66 83
66 66 83
66 66 83
66 66 83
66 66 83
66 66 83
66 66 83
66 66 83
66 66 83
66 66 83
66 66 83
66 66 83
66 66 83
66 66 83
66 66 83
66 66 83
66 66 83
66 66 83
66 66 83
66 66 83
66 66 83
66 66 83
66 66 83
66 66 83
66 66 83
66 66 83
66 66 83
66 66 83
66 66 83
66 66 83
66 66 83
66 66 83
66 66 83
66 66 83
66 66 83
66 66 83
66 66 83
66 66 83
66 66 83
66 66 83
66 66 83
66 66 83
66 66 83
66 66 83
66 66 83
66 66 83
66 66 83
66 66 83
66 66 83
66 66 83
66 66 83
66 66 83
65 65 83
65 65 83
65 65 83
65 65 83
65 65 83
65 65 83
65 65 83
65 65 83
65 65 83
65 65 83
65 65 83
65 65 83
65 65 83
65 65 83
65 65 82
65 65 82
65 65 82
65 65 82
65 65 82
65 65 82
65 65 82
65 65 82
65 65 82
65 65 82
65 65 82
65 65 82
65 65 82
65 65 82
65 65 82
65 65 82
65 65 82
65 65 82
65 65 82
65 65 82
65 65 82
65 65 82
65 65 82
65 65 82
65 65 82
65 65 82
65 65 82
65 65 82
65 65 82
65 65 82
65 65 82
65 65 82
65 65 82
65 65 82
65 65 82
65 65 82
65 65 82
65 65 82
65 65 82
65 65 82
65 65 82
65 65 82
65 65 82
65 65 82
65 65 82
65 65 82
65 65 82
65 65 82
65 65 82
65 65 82
65 65 82
65 65 82
65 65 82
65 65 82
65 65 82
65 65 82
65 65 82
65 65 82
65 65 82
65 65 82
65 65 82
65 65 82
65 65 83
65 65 83
65 65 83
66 66 83
66 66 83
65 65 83
66 66 83
65 65 83
66 66 83
66 66 83
66 66 83
66 66 83
66 66 83
66 66 83
66 66 83
66 66 83
66 66 83
66 66 83
66 66 83
66 66 83
66 66 83
66 66 83
66 66 83
66 66 83
66 66 83
66 66 83
66 66 83
66 66 83
66 66 83
66 66 83
66 66 83
66 66 83
66 66 83
66 66 83
66 66 83
66 66 83
66 66 83
66 66 83
66 66 83
66 66 83
66 66 83
66 66 83
66 66 83
66 66 83
66 66 83
66 66 83
66 66 83
66 66 83
66 66 83
66 66 83
66 66 83
66 66 83
66 66 83
66 66 83
66 66 83
66 66 83
66 66 83
66 66 83
66 66 83
66 66 83
66 66 83
66 66 83
66 66 83
66 66 83
66 66 83
66 66 83
66 66 83
66 66 83
66 66 83
66 66 83
66 66 83
66 66 83
66 66 83
66 66 83
66 66 83
66 66 83
66 66 83
66 66 83
66 66 83
66 66 83
66 66 83
66 66 83
66 66 83
66 66 83
66 66 83
66 66 83
66 66 83
66 66 83
66 66 83
66 66 83
66 66 83
66 66 83
66 66 83
66 66 83
66 66 83
66 66 83
66 66 83
66 66 83
66 66 83
66 66 83
66 66 83
66 66 83
66 66 83
66 66 83
66 66 83
66 66 83
66 66 83
66 66 83
66 66 83
66 66 83
66 66 83
66 66 83
66 66 83
66 66 83
66 66 83
66 66 83
66 66 83
66 66 83
66 66 83
66 66 83
66 66 83
66 66 83
66 66 83
66 66 83
66 66 83
66 66 83
66 66 83
66 66 83
66 66 83
66 66 83
66 66 83
66 66 83
66 66 83
66 66 83
66 66 83
66 66 83
66 66 83
66 66 83
66 66 83
66 66 83
66 66 83
66 66 83
66 66 83
66 66 83
66 66 83
66 66 83
66 66 83
66 66 83
66 66 83
66 66 83
66 66 83
66 66 83
66 66 83
66 66 83
66 66 83
66 66 83
66 66 83
66 66 83
66 66 83
66 66 83
66 66 83
66 66 83
66 66 83
66 66 83
66 66 83
66 66 83
66 66 83
66 66 83
66 66 83
66 66 83
66 66 83
66 66 83
66 66 83
66 66 83
66 66 83
66 66 83
66 66 83
66 66 83
66 66 83
66 66 83
66 66 83
66 66 83
66 66 83
66 66 83
66 66 83
66 66 83
66 66 83
66 66 83
66 66 83
66 66 83
66 66 83
66 66 83
66 66 83
66 66 83
66 66 83
66 66 83
66 66 83
66 66 83
66 66 83
66 66 83
66 66 83
66 66 83
66 66 83
66 66 83
66 66 83
66 66 83
66 66 83
66 66 83
66 66 83
66 66 83
66 66 83
66 66 83
66 66 83
66 66 83
66 66 83
66 66 83
66 66 83
66 66 83
66 66 83
66 66 83
66 66 83
66 66 83
66 66 83
66 66 83
66 66 83
66 66 83
66 66 83
66 66 83
66 66 83
66 66 83
66 66 83
66 66 83
66 66 83
66 66 83
66 66 83
66 66 83
66 66 83
66 66 83
66 66 83
66 66 83
66 66 83
66 66 83
66 66 83
66 66 83
66 66 83
66 66 83
66 66 83
66 66 83
66 66 83
66 66 83
66 66 83
66 66 83
66 66 83
66 66 83
66 66 83
66 66 83
66 66 83
66 66 83
66 66 83
66 66 83
66 66 83
66 66 83
66 66 83
66 66 83
66 66 83
66 66 83
66 66 83
66 66 83
66 66 83
66 66 83
66 66 83
66 66 83
66 66 83
66 66 83
66 66 83
66 66 83
66 66 83
66 66 83
66 66 83
66 66 83
66 66 83
66 66 83
66 66 83
66 66 83
66 66 83
66 66 83
66 66 83
66 66 83
66 66 83
66 66 83
66 66 83
66 66 83
66 66 83
66 66 83
66 66 83
66 66 83
66 66 83
66 66 83
66 66 83
66 66 83
66 66 83
66 66 83
66 66 83
66 66 83
66 66 83
66 66 83
66 66 83
66 66 83
66 66 83
66 66 83
66 66 83
66 66 83
66 66 83
66 66 83
66 66 83
66 66 83
66 66 83
66 66 83
66 66 83
66 66 83
66 66 83
66 66 83
66 66 83
66 66 83
66 66 83
66 66 83
66 66 83
66 66 83
66 66 83
66 66 83
66 66 83
66 66 83
66 66 83
66 66 83
65 65 83
65 65 83
65 65 83
65 65 83
65 65 83
65 65 83
65 65 83
65 65 83
65 65 83
65 65 83
65 65 83
65 65 83
65 65 83
65 65 83
65 65 82
65 65 82
65 65 82
65 65 82
65 65 82
65 65 82
65 65 82
65 65 82
65 65 82
65 65 82
65 65 82
65 65 82
65 65 82
65 65 82
65 65 82
65 65 82
65 65 82
65 65 82
65 65 82
65 65 82
65 65 82
65 65 82
65 65 82
65 65 82
65 65 82
65 65 82
65 65 82
65 65 82
65 65 82
65 65 82
65 65 82
65 65 82
65 65 82
65 65 82
65 65 82
65 65 82
65 65 82
65 65 82
65 65 82
65 65 82
65 65 82
65 65 82
65 65 83
65 65 83
65 65 83
65 65 83
65 65 83
65 65 83
65 65 83
65 65 83
65 65 83
65 65 83
65 65 83
65 65 83
66 66 83
66 66 83
66 66 83
66 66 83
66 66 83
66 66 83
66 66 83
66 66 83
66 66 83
66 66 83
66 66 83
66 66 83
66 66 83
66 66 83
66 66 83
66 66 83
66 66 83
66 66 83
66 66 83
66 66 83
66 66 83
66 66 83
66 66 83
66 66 83
66 66 83
66 66 83
66 66 83
66 66 83
66 66 83
66 66 83
66 66 83
66 66 83
66 66 83
66 66 83
66 66 83
66 66 83
66 66 83
66 66 83
66 66 83
66 66 83
66 66 83
66 66 83
66 66 83
66 66 83
66 66 83
66 66 83
66 66 83
66 66 83
66 66 83
66 66 83
66 66 83
66 66 83
66 66 83
66 66 83
66 66 83
66 66 83
66 66 83
66 66 83
66 66 83
66 66 83
66 66 83
66 66 83
66 66 83
66 66 83
66 66 83
66 66 83
66 66 83
66 66 83
66 66 83
66 66 83
66 66 83
66 66 83
66 66 83
66 66 83
66 66 83
66 66 83
66 66 83
66 66 83
66 66 83
66 66 83
66 66 83
66 66 83
66 66 83
66 66 83
66 66 83
66 66 83
66 66 83
66 66 83
66 66 83
66 66 83
66 66 83
66 66 83
66 66 83
66 66 83
66 66 83
66 66 83
66 66 83
66 66 83
66 66 83
66 66 83
66 66 83
66 66 83
66 66 83
66 66 83
66 66 83
66 66 83
66 66 83
66 66 83
66 66 83
66 66 83
66 66 83
66 66 83
66 66 83
66 66 83
66 66 83
66 66 83
66 66 83
66 66 83
66 66 83
66 66 83
66 66 83
66 66 83
66 66 83
66 66 83
66 66 83
66 66 83
66 66 83
66 66 83
66 66 83
66 66 83
66 66 83
66 66 83
66 66 83
66 66 83
66 66 83
66 66 83
66 66 83
66 66 83
66 66 83
66 66 83
66 66 83
66 66 83
66 66 83
66 66 83
66 66 83
66 66 83
66 66 83
66 66 83
66 66 83
66 66 83
66 66 83
66 66 83
66 66 83
66 66 83
66 66 83
66 66 83
66 66 83
66 66 83
66 66 83
66 66 83
66 66 83
66 66 83
66 66 83
66 66 83
66 66 83
66 66 83
66 66 83
66 66 83
66 66 83
66 66 83
66 66 83
66 66 83
66 66 83
66 66 83
66 66 83
66 66 83
66 66 83
66 66 83
66 66 83
66 66 83
66 66 83
66 66 83
66 66 83
66 66 83
66 66 83
66 66 83
66 66 83
66 66 83
66 66 83
66 66 83
66 66 83
66 66 83
66 66 83
66 66 83
66 66 83
66 66 83
66 66 83
66 66 83
66 66 83
66 66 83
66 66 83
66 66 83
66 66 83
66 66 83
66 66 83
66 66 83
66 66 83
66 66 83
66 66 83
66 66 83
66 66 83
66 66 83
66 66 83
66 66 83
66 66 83
66 66 83
66 66 83
66 66 83
66 66 83
66 66 83
66 66 83
66 66 83
66 66 83
66 66 83
66 66 83
66 66 83
66 66 83
66 66 83
66 66 83
66 66 83
66 66 83
66 66 83
66 66 83
66 66 83
66 66 83
66 66 83
66 66 83
66 66 83
66 66 83
66 66 83
66 66 83
66 66 83
66 66 83
66 66 83
66 66 83
66 66 83
66 66 83
66 66 83
66 66 83
66 66 83
66 66 83
66 66 83
66 66 83
66 66 83
66 66 83
66 66 83
66 66 83
66 66 83
66 66 83
66 66 83
66 66 83
66 66 83
66 66 83
66 66 83
66 66 83
66 66 83
66 66 83
66 66 83
66 66 83
66 66 83
66 66 83
66 66 83
66 66 83
66 66 83
66 66 83
66 66 83
66 66 83
66 66 83
66 66 83
66 66 83
66 66 83
66 66 83
66 66 83
66 66 83
66 66 83
66 66 83
66 66 83
66 66 83
66 66 83
66 66 83
66 66 83
66 66 83
66 66 83
66 66 83
66 66 83
66 66 83
66 66 83
66 66 83
66 66 83
66 66 83
66 66 83
66 66 83
66 66 83
66 66 83
66 66 83
66 66 83
66 66 83
66 66 83
66 66 83
66 66 83
66 66 83
66 66 83
66 66 83
66 66 83
66 66 83
66 66 83
66 66 83
66 66 83
66 66 83
66 66 83
66 66 83
66 66 83
66 66 83
66 66 83
66 66 83
66 66 83
66 66 83
66 66 83
66 66 83
66 66 83
66 66 83
66 66 83
66 66 83
66 66 83
66 66 83
66 66 83
66 66 83
66 66 83
66 66 83
66 66 83
66 66 83
66 66 83
66 66 83
65 65 83
65 65 83
65 65 83
65 65 83
65 65 83
65 65 83
65 65 83
65 65 83
65 65 83
65 65 83
65 65 83
65 65 83
65 65 83
65 65 82
65 65 82
65 65 82
65 65 82
65 65 82
65 65 82
65 65 82
65 65 82
65 65 82
65 65 82
65 65 82
65 65 82
65 65 82
65 65 82
65 65 82
65 65 82
65 65 82
65 65 82
65 65 82
65 65 82
65 65 82
65 65 82
65 65 82
65 65 83
65 65 83
65 65 83
65 65 83
65 65 83
65 65 83
65 65 83
65 65 83
65 65 83
65 65 83
65 65 83
65 65 83
65 65 83
66 66 83
66 66 83
66 66 83
66 66 83
66 66 83
66 66 83
66 66 83
66 66 83
66 66 83
66 66 83
66 66 83
66 66 83
66 66 83
66 66 83
66 66 83
66 66 83
66 66 83
66 66 83
66 66 83
66 66 83
66 66 83
66 66 83
66 66 83
66 66 83
66 66 83
66 66 83
66 66 83
66 66 83
66 66 83
66 66 83
66 66 83
66 66 83
66 66 83
66 66 83
66 66 83
66 66 83
66 66 83
66 66 83
66 66 83
66 66 83
66 66 83
66 66 83
66 66 83
66 66 83
66 66 83
66 66 83
66 66 83
66 66 83
66 66 83
66 66 83
66 66 83
66 66 83
66 66 83
66 66 83
66 66 83
66 66 83
66 66 83
66 66 83
66 66 83
66 66 83
66 66 83
66 66 83
66 66 83
66 66 83
66 66 83
66 66 83
66 66 83
66 66 83
66 66 83
66 66 83
66 66 83
66 66 83
66 66 83
66 66 83
66 66 83
66 66 83
66 66 83
66 66 83
66 66 83
66 66 83
66 66 83
66 66 83
66 66 83
66 66 83
66 66 83
66 66 83
66 66 83
66 66 83
66 66 83
66 66 83
66 66 83
66 66 83
66 66 83
66 66 83
66 66 83
66 66 83
66 66 83
66 66 83
66 66 83
66 66 83
66 66 83
66 66 83
66 66 83
66 66 83
66 66 83
66 66 83
66 66 83
66 66 83
66 66 83
66 66 83
66 66 83
66 66 83
66 66 83
66 66 83
66 66 83
66 66 83
66 66 83
66 66 83
66 66 83
66 66 83
66 66 83
66 66 83
66 66 83
66 66 83
66 66 83
66 66 83
66 66 83
66 66 83
66 66 83
66 66 83
66 66 83
66 66 83
66 66 83
66 66 83
66 66 83
66 66 83
66 66 83
66 66 83
66 66 83
66 66 83
66 66 83
66 66 83
66 66 83
66 66 83
66 66 83
66 66 83
66 66 83
66 66 83
66 66 83
66 66 83
66 66 83
66 66 83
66 66 83
66 66 83
66 66 83
66 66 83
66 66 83
66 66 83
66 66 83
66 66 83
66 66 83
66 66 83
66 66 83
66 66 83
66 66 83
66 66 83
66 66 83
66 66 83
66 66 83
66 66 83
66 66 83
66 66 83
66 66 83
66 66 83
66 66 83
66 66 83
66 66 83
66 66 83
66 66 83
66 66 83
66 66 83
66 66 83
66 66 83
66 66 83
66 66 83
66 66 83
66 66 83
66 66 83
66 66 83
66 66 83
66 66 83
66 66 83
66 66 83
66 66 83
66 66 83
66 66 83
66 66 83
66 66 83
66 66 83
66 66 83
66 66 83
66 66 83
66 66 83
66 66 83
66 66 83
66 66 83
66 66 83
66 66 83
66 66 83
66 66 83
66 66 83
66 66 83
66 66 83
66 66 83
66 66 83
66 66 83
66 66 83
66 66 83
66 66 83
66 66 83
66 66 83
66 66 83
66 66 83
66 66 83
66 66 83
66 66 83
66 66 83
66 66 83
66 66 83
66 66 83
66 66 83
66 66 83
66 66 83
66 66 83
66 66 83
66 66 83
66 66 83
66 66 83
66 66 83
66 66 83
66 66 83
66 66 83
66 66 83
66 66 83
66 66 83
66 66 83
66 66 83
66 66 83
66 66 83
66 66 83
66 66 83
66 66 83
66 66 83
66 66 83
66 66 83
66 66 83
66 66 83
66 66 83
66 66 83
66 66 83
66 66 83
66 66 83
66 66 83
66 66 83
66 66 83
66 66 83
66 66 83
66 66 83
66 66 83
66 66 83
66 66 83
66 66 83
66 66 83
66 66 83
66 66 83
66 66 83
66 66 83
66 66 83
66 66 83
66 66 83
66 66 83
66 66 83
66 66 83
66 66 83
66 66 83
66 66 83
66 66 83
66 66 83
66 66 83
66 66 83
66 66 83
66 66 83
66 66 83
66 66 83
66 66 83
66 66 83
66 66 83
66 66 83
66 66 83
66 66 83
66 66 83
66 66 83
66 66 83
66 66 83
66 66 83
66 66 83
66 66 83
66 66 83
66 66 83
66 66 83
66 66 83
66 66 83
66 66 83
66 66 83
66 66 83
66 66 83
66 66 83
66 66 83
66 66 83
66 66 83
66 66 83
66 66 83
66 66 83
66 66 83
66 66 83
66 66 83
66 66 83
66 66 83
66 66 83
66 66 83
66 66 83
66 66 83
66 66 83
66 66 83
66 66 83
66 66 83
66 66 83
66 66 83
66 66 83
66 66 83
66 66 83
66 66 83
66 66 83
66 66 83
66 66 83
66 66 83
66 66 83
66 66 83
66 66 83
66 66 83
66 66 83
66 66 83
66 66 83
66 66 83
66 66 83
66 66 83
66 66 83
66 66 83
66 66 83
66 66 83
65 65 83
65 65 83
65 65 83
65 65 83
65 65 83
65 65 83
65 65 83
65 65 83
65 65 83
65 65 83
65 65 83
65 65 83
65 65 83
65 65 82
65 65 82
65 65 82
65 65 82
65 65 82
65 65 82
65 65 82
65 65 83
65 65 83
65 65 83
65 65 83
65 65 83
65 65 83
65 65 83
65 65 83
65 65 83
65 65 83
66 66 83
66 66 83
66 66 83
66 66 83
66 66 83
66 66 83
66 66 83
66 66 83
66 66 83
66 66 83
66 66 83
66 66 83
66 66 83
66 66 83
66 66 83
66 66 83
66 66 83
66 66 83
66 66 83
66 66 83
66 66 83
66 66 83
66 66 83
66 66 83
66 66 83
66 66 83
66 66 83
66 66 83
66 66 83
66 66 83
66 66 83
66 66 83
66 66 83
66 66 83
66 66 83
66 66 83
66 66 83
66 66 83
66 66 83
66 66 83
66 66 83
66 66 83
66 66 83
66 66 83
66 66 83
66 66 83
66 66 83
66 66 83
66 66 83
66 66 83
66 66 83
66 66 83
66 66 83
66 66 83
66 66 83
66 66 83
66 66 83
66 66 83
66 66 83
66 66 83
66 66 83
66 66 83
66 66 83
66 66 83
66 66 83
66 66 83
66 66 83
66 66 83
66 66 83
66 66 83
66 66 83
66 66 83
66 66 83
66 66 83
66 66 83
66 66 83
66 66 83
66 66 83
66 66 83
66 66 83
66 66 83
66 66 83
66 66 83
66 66 83
66 66 83
66 66 83
66 66 83
66 66 83
66 66 83
66 66 83
66 66 83
66 66 83
66 66 83
66 66 83
66 66 83
66 66 83
66 66 83
66 66 83
66 66 83
66 66 83
66 66 83
66 66 83
66 66 83
66 66 83
66 66 83
66 66 83
66 66 83
66 66 83
66 66 83
66 66 83
66 66 83
66 66 83
66 66 83
66 66 83
66 66 83
66 66 83
66 66 83
66 66 83
66 66 83
66 66 83
66 66 83
66 66 83
66 66 83
66 66 83
66 66 83
66 66 83
66 66 83
66 66 83
66 66 83
66 66 83
66 66 83
66 66 83
66 66 83
66 66 83
66 66 83
66 66 83
66 66 83
66 66 83
66 66 83
66 66 83
66 66 83
66 66 83
66 66 83
66 66 83
66 66 83
66 66 83
66 66 83
66 66 83
66 66 83
66 66 83
66 66 83
66 66 83
66 66 83
66 66 83
66 66 83
66 66 83
66 66 83
66 66 83
66 66 83
66 66 83
66 66 83
66 66 83
66 66 83
66 66 83
66 66 83
66 66 83
66 66 83
66 66 83
66 66 83
66 66 83
66 66 83
66 66 83
66 66 83
66 66 83
66 66 83
66 66 83
66 66 83
66 66 83
66 66 83
66 66 83
66 66 83
66 66 83
66 66 83
66 66 83
66 66 83
66 66 83
66 66 83
66 66 83
66 66 83
66 66 83
66 66 83
66 66 83
66 66 83
66 66 83
66 66 83
67 67 84
66 66 83
66 66 83
66 66 83
66 66 83
66 66 83
66 66 83
66 66 83
66 66 83
66 66 83
66 66 83
66 66 83
66 66 83
66 66 83
66 66 83
66 66 83
66 66 83
66 66 83
66 66 83
66 66 83
66 66 83
66 66 83
66 66 83
66 66 83
66 66 83
66 66 83
66 66 83
66 66 83
66 66 83
66 66 83
66 66 83
66 66 83
66 66 83
66 66 83
66 66 83
66 66 83
66 66 83
66 66 83
66 66 83
66 66 83
66 66 83
66 66 83
66 66 83
66 66 83
66 66 83
66 66 83
66 66 83
66 66 83
66 66 83
66 66 83
67 67 84
66 66 83
66 66 83
66 66 83
66 66 83
66 66 83
66 66 83
66 66 83
66 66 83
66 66 83
66 66 83
66 66 83
66 66 83
66 66 83
66 66 83
66 66 83
66 66 83
66 66 83
66 66 83
66 66 83
66 66 83
66 66 83
66 66 83
66 66 83
66 66 83
66 66 83
66 66 83
66 66 83
66 66 83
66 66 83
66 66 83
66 66 83
66 66 83
66 66 83
66 66 83
66 66 83
66 66 83
66 66 83
66 66 83
66 66 83
66 66 83
66 66 83
66 66 83
66 66 83
66 66 83
66 66 83
66 66 83
66 66 83
66 66 83
66 66 83
66 66 83
66 66 83
66 66 83
66 66 83
66 66 83
66 66 83
66 66 83
66 66 83
66 66 83
66 66 83
66 66 83
66 66 83
66 66 83
66 66 83
66 66 83
66 66 83
66 66 83
66 66 83
66 66 83
66 66 83
66 66 83
66 66 83
66 66 83
66 66 83
66 66 83
66 66 83
66 66 83
66 66 83
66 66 83
66 66 83
66 66 83
66 66 83
66 66 83
66 66 83
66 66 83
66 66 83
66 66 83
66 66 83
66 66 83
66 66 83
66 66 83
66 66 83
66 66 83
66 66 83
66 66 83
66 66 83
66 66 83
66 66 83
66 66 83
66 66 83
66 66 83
66 66 83
66 66 83
66 66 83
66 66 83
66 66 83
66 66 83
66 66 83
66 66 83
66 66 83
66 66 83
66 66 83
66 66 83
66 66 83
66 66 83
66 66 83
66 66 83
66 66 83
66 66 83
66 66 83
66 66 83
66 66 83
66 66 83
66 66 83
66 66 83
66 66 83
66 66 83
66 66 83
66 66 83
66 66 83
66 66 83
66 66 83
66 66 83
66 66 83
66 66 83
65 65 83
65 65 83
65 65 83
65 65 83
65 65 83
65 65 83
65 65 83
65 65 83
65 65 83
65 65 83
65 65 83
66 66 83
66 66 83
66 66 83
66 66 83
66 66 83
66 66 83
66 66 83
66 66 83
66 66 83
66 66 83
66 66 83
66 66 83
66 66 83
66 66 83
66 66 83
66 66 83
66 66 83
66 66 83
66 66 83
66 66 83
66 66 83
66 66 83
66 66 83
66 66 83
66 66 83
66 66 83
66 66 83
66 66 83
66 66 83
66 66 83
66 66 83
66 66 83
66 66 83
66 66 83
66 66 83
66 66 83
66 66 83
66 66 83
66 66 83
66 66 83
66 66 83
66 66 83
66 66 83
66 66 83
66 66 83
66 66 83
66 66 83
66 66 83
66 66 83
66 66 83
66 66 83
66 66 83
66 66 83
66 66 83
66 66 83
66 66 83
66 66 83
66 66 83
66 66 83
66 66 83
66 66 83
66 66 83
66 66 83
66 66 83
66 66 83
66 66 83
66 66 83
66 66 83
66 66 83
66 66 83
66 66 83
66 66 83
66 66 83
66 66 83
66 66 83
66 66 83
66 66 83
66 66 83
66 66 83
66 66 83
66 66 83
66 66 83
66 66 83
66 66 83
66 66 83
66 66 83
66 66 83
66 66 83
66 66 83
66 66 83
66 66 83
66 66 83
66 66 83
66 66 83
66 66 83
66 66 83
66 66 83
66 66 83
66 66 83
66 66 83
66 66 83
66 66 83
66 66 83
66 66 83
66 66 83
67 67 84
66 66 83
66 66 83
66 66 83
66 66 83
66 66 83
66 66 83
66 66 83
66 66 83
66 66 83
66 66 83
66 66 83
66 66 83
66 66 83
66 66 83
66 66 83
66 66 83
66 66 83
66 66 83
66 66 83
66 66 83
66 66 83
66 66 83
66 66 83
66 66 83
66 66 83
66 66 83
66 66 83
66 66 83
66 66 83
66 66 83
66 66 83
66 66 83
66 66 83
66 66 83
66 66 83
66 66 83
66 66 83
66 66 83
66 66 83
66 66 83
66 66 83
66 66 83
66 66 83
66 66 83
66 66 83
66 66 83
66 66 83
66 66 83
66 66 83
66 66 83
66 66 83
66 66 83
66 66 83
66 66 83
66 66 83
66 66 83
66 66 83
66 66 83
66 66 83
66 66 83
66 66 83
66 66 83
66 66 83
66 66 83
66 66 83
66 66 83
66 66 83
66 66 83
66 66 83
66 66 83
66 66 83
66 66 83
66 66 83
66 66 83
66 66 83
66 66 83
66 66 83
66 66 83
66 66 83
66 66 83
66 66 83
66 66 83
66 66 83
66 66 83
66 66 83
66 66 83
66 66 83
66 66 83
66 66 83
66 66 83
66 66 83
66 66 83
66 66 83
66 66 83
66 66 83
66 66 83
66 66 83
66 66 83
66 66 83
66 66 83
66 66 83
66 66 83
66 66 83
66 66 83
66 66 83
66 66 83
66 66 83
66 66 83
66 66 83
66 66 83
66 66 83
66 66 83
66 66 83
66 66 83
66 66 83
66 66 83
66 66 83
66 66 83
66 66 83
66 66 83
66 66 83
66 66 83
66 66 83
66 66 83
66 66 83
66 66 83
66 66 83
66 66 83
66 66 83
66 66 83
66 66 83
66 66 83
66 66 83
66 66 83
66 66 83
66 66 83
66 66 83
66 66 83
66 66 83
66 66 83
66 66 83
66 66 83
66 66 83
66 66 83
66 66 83
66 66 83
66 66 83
66 66 83
66 66 83
66 66 84
66 66 83
66 66 83
66 66 83
66 66 83
66 66 83
66 66 83
66 66 83
66 66 83
66 66 83
66 66 83
66 66 83
66 66 83
66 66 83
66 66 83
66 66 83
66 66 83
66 66 83
66 66 83
66 66 83
66 66 83
66 66 83
66 66 83
66 66 83
66 66 83
66 66 83
66 66 83
66 66 83
66 66 83
66 66 83
66 66 83
66 66 83
66 66 83
66 66 83
66 66 83
66 66 83
66 66 83
66 66 83
66 66 83
66 66 83
66 66 83
66 66 83
66 66 83
66 66 83
66 66 83
66 66 83
66 66 83
66 66 83
66 66 83
66 66 83
66 66 83
66 66 83
66 66 83
66 66 83
66 66 83
66 66 83
66 66 83
66 66 83
66 66 83
66 66 83
66 66 83
66 66 83
66 66 83
66 66 83
66 66 83
66 66 83
66 66 83
66 66 83
66 66 83
66 66 83
66 66 83
66 66 83
66 66 83
66 66 83
66 66 83
66 66 83
66 66 83
66 66 83
66 66 83
66 66 83
66 66 83
66 66 83
66 66 83
66 66 83
66 66 83
66 66 83
66 66 83
66 66 83
66 66 83
66 66 83
66 66 83
66 66 83
66 66 83
66 66 83
66 66 83
66 66 83
66 66 83
66 66 83
66 66 83
66 66 83
66 66 83
66 66 83
66 66 83
66 66 83
66 66 83
66 66 83
66 66 83
66 66 83
66 66 83
66 66 83
66 66 83
66 66 83
66 66 83
66 66 83
66 66 83
66 66 83
66 66 83
66 66 83
66 66 83
66 66 83
66 66 83
66 66 83
66 66 83
66 66 83
66 66 83
66 66 83
66 66 83
66 66 83
66 66 83
66 66 83
66 66 83
66 66 83
66 66 83
66 66 83
66 66 83
66 66 83
66 66 83
66 66 83
66 66 83
66 66 83
66 66 83
66 66 83
66 66 83
65 65 83
66 66 83
66 66 83
66 66 83
66 66 83
66 66 83
66 66 83
66 66 83
66 66 83
66 66 83
66 66 83
66 66 83
66 66 83
66 66 83
66 66 83
66 66 83
66 66 83
66 66 83
66 66 83
66 66 83
66 66 83
66 66 83
66 66 83
66 66 83
66 66 83
66 66 83
66 66 83
66 66 83
66 66 83
66 66 83
66 66 83
66 66 83
66 66 83
66 66 83
66 66 83
66 66 83
66 66 83
66 66 83
66 66 83
66 66 83
66 66 83
66 66 83
66 66 83
66 66 83
66 66 83
66 66 83
66 66 83
66 66 83
66 66 83
66 66 83
66 66 83
66 66 83
66 66 83
66 66 83
66 66 83
66 66 83
66 66 83
66 66 83
66 66 83
66 66 83
66 66 83
66 66 83
66 66 83
66 66 83
66 66 83
66 66 83
66 66 83
66 66 83
66 66 83
66 66 83
66 66 83
66 66 83
66 66 83
66 66 83
66 66 83
66 66 83
66 66 83
66 66 83
66 66 83
66 66 83
66 66 83
66 66 83
66 66 83
66 66 83
66 66 83
66 66 83
66 66 83
66 66 83
66 66 83
66 66 83
66 66 83
66 66 83
66 66 83
66 66 83
66 66 83
66 66 83
66 66 83
66 66 83
66 66 83
66 66 83
66 66 83
66 66 83
66 66 83
66 66 83
66 66 83
66 66 83
66 66 83
66 66 83
66 66 83
66 66 83
66 66 83
66 66 83
66 66 83
66 66 83
66 66 83
66 66 83
66 66 83
66 66 83
66 66 83
66 66 83
66 66 83
66 66 83
66 66 83
66 66 83
66 66 83
66 66 83
66 66 83
66 66 83
66 66 83
66 66 83
66 66 83
66 66 83
66 66 83
66 66 83
66 66 83
66 66 83
66 66 83
66 66 83
66 66 83
66 66 83
66 66 83
66 66 83
66 66 83
66 66 83
66 66 83
66 66 83
66 66 83
66 66 83
66 66 83
66 66 83
66 66 83
66 66 83
66 66 83
66 66 83
66 66 83
66 66 83
66 66 83
66 66 83
66 66 83
66 66 83
66 66 83
66 66 83
66 66 83
66 66 83
66 66 83
66 66 83
66 66 83
66 66 83
66 66 83
66 66 83
66 66 83
66 66 83
66 66 83
66 66 83
66 66 83
66 66 83
66 66 83
66 66 83
66 66 83
66 66 83
66 66 83
66 66 83
66 66 83
66 66 83
66 66 83
66 66 83
66 66 83
66 66 83
66 66 83
66 66 83
66 66 83
66 66 83
66 66 83
66 66 83
66 66 83
66 66 83
66 66 83
66 66 83
66 66 83
66 66 83
66 66 83
66 66 83
66 66 83
66 66 83
66 66 83
66 66 83
66 66 83
66 66 83
66 66 83
66 66 83
66 66 83
66 66 83
66 66 83
66 66 83
66 66 83
66 66 83
66 66 83
66 66 83
66 66 83
66 66 83
66 66 83
66 66 83
66 66 83
66 66 83
67 67 84
66 66 83
66 66 83
66 66 83
66 66 83
66 66 83
66 66 83
66 66 83
66 66 83
66 66 83
66 66 83
66 66 83
66 66 83
66 66 83
66 66 83
66 66 83
66 66 83
66 66 83
66 66 83
66 66 83
66 66 83
66 66 83
66 66 83
66 66 83
66 66 83
66 66 83
66 66 83
66 66 83
66 66 83
66 66 83
66 66 83
66 66 83
66 66 83
66 66 83
66 66 83
66 66 83
66 66 83
66 66 83
66 66 83
66 66 83
66 66 83
66 66 83
66 66 83
66 66 83
66 66 83
66 66 83
66 66 83
66 66 83
66 66 83
66 66 83
66 66 83
66 66 83
66 66 83
66 66 83
66 66 83
66 66 83
66 66 83
66 66 83
66 66 83
66 66 83
66 66 83
66 66 83
66 66 83
66 66 83
66 66 83
66 66 83
66 66 83
66 66 83
66 66 83
66 66 83
66 66 83
66 66 83
66 66 83
66 66 83
66 66 83
66 66 83
66 66 83
66 66 83
66 66 83
66 66 83
66 66 83
66 66 83
66 66 83
66 66 83
66 66 83
66 66 83
66 66 83
66 66 83
66 66 83
66 66 83
66 66 83
66 66 83
66 66 83
66 66 83
66 66 83
66 66 83
66 66 83
66 66 83
66 66 83
66 66 83
66 66 83
66 66 83
66 66 83
66 66 83
66 66 83
66 66 83
66 66 83
66 66 83
66 66 83
66 66 83
66 66 83
66 66 83
66 66 83
66 66 83
66 66 83
66 66 83
66 66 83
66 66 83
66 66 83
66 66 83
66 66 83
66 66 83
66 66 83
66 66 83
66 66 83
66 66 83
66 66 83
66 66 83
66 66 83
66 66 83
66 66 83
66 66 83
66 66 83
66 66 83
66 66 83
66 66 83
66 66 83
66 66 83
66 66 83
66 66 83
66 66 83
66 66 83
66 66 83
66 66 83
66 66 83
66 66 83
66 66 83
66 66 83
66 66 83
66 66 83
66 66 83
66 66 83
66 66 83
66 66 83
66 66 83
66 66 83
66 66 83
66 66 83
66 66 83
66 66 83
66 66 83
66 66 83
66 66 83
66 66 83
66 66 83
66 66 83
66 66 83
66 66 83
66 66 83
66 66 83
66 66 83
66 66 83
66 66 83
66 66 83
66 66 83
66 66 83
66 66 83
66 66 83
66 66 83
66 66 83
66 66 83
66 66 83
66 66 83
66 66 83
66 66 83
66 66 83
66 66 83
66 66 83
66 66 83
66 66 83
66 66 83
66 66 83
66 66 83
66 66 83
66 66 83
66 66 83
66 66 83
66 66 83
66 66 83
66 66 83
66 66 83
66 66 83
66 66 83
66 66 83
66 66 83
66 66 83
66 66 83
66 66 83
66 66 83
66 66 83
66 66 83
66 66 83
66 66 83
66 66 83
66 66 83
66 66 83
66 66 83
66 66 83
66 66 83
66 66 83
66 66 83
66 66 83
66 66 83
66 66 83
66 66 83
66 66 83
66 66 83
66 66 83
66 66 83
66 66 83
66 66 83
66 66 83
66 66 83
66 66 83
66 66 83
66 66 83
66 66 83
66 66 83
66 66 83
66 66 83
66 66 83
66 66 83
66 66 83
66 66 83
66 66 83
66 66 83
66 66 83
66 66 83
66 66 83
66 66 83
66 66 83
66 66 83
66 66 83
66 66 83
66 66 83
66 66 83
66 66 83
66 66 83
66 66 83
66 66 83
66 66 83
66 66 83
66 66 83
66 66 83
66 66 83
66 66 83
66 66 83
66 66 83
66 66 83
66 66 83
66 66 83
66 66 83
66 66 83
66 66 83
66 66 83
66 66 83
66 66 83
66 66 83
66 66 83
66 66 83
66 66 83
66 66 83
66 66 83
66 66 83
66 66 83
66 66 83
66 66 83
66 66 83
66 66 83
66 66 83
66 66 83
66 66 83
66 66 83
66 66 83
66 66 83
66 66 83
66 66 83
66 66 83
66 66 83
66 66 83
66 66 83
66 66 83
66 66 83
66 66 83
66 66 83
66 66 83
66 66 83
66 66 83
66 66 83
66 66 83
66 66 83
66 66 83
66 66 83
66 66 83
66 66 83
66 66 83
66 66 83
66 66 83
66 66 83
66 66 83
66 66 83
66 66 83
66 66 83
66 66 83
66 66 83
66 66 83
66 66 83
66 66 83
66 66 83
66 66 83
66 66 83
66 66 83
66 66 83
66 66 83
112 110 108
192 188 162
169 166 146
77 77 89
66 66 83
66 66 83
66 66 83
66 66 83
66 66 83
66 66 83
66 66 83
66 66 83
66 66 83
66 66 83
66 66 83
66 66 83
66 66 83
66 66 83
66 66 83
66 66 83
66 66 83
66 66 83
66 66 83
66 66 83
66 66 83
66 66 83
66 66 83
66 66 83
66 66 83
66 66 83
66 66 83
66 66 83
66 66 83
66 66 83
66 66 83
66 66 84
66 66 83
66 66 83
66 66 83
66 66 83
66 66 83
66 66 84
66 66 83
66 66 83
66 66 83
66 66 83
66 66 83
66 66 83
66 66 83
66 66 83
66 66 83
66 66 83
66 66 83
66 66 83
66 66 83
66 66 84
66 66 83
66 66 83
66 66 83
66 66 83
66 66 83
66 66 83
66 66 83
66 66 83
66 66 83
66 66 83
66 66 83
66 66 83
67 67 84
66 66 83
66 66 84
66 66 83
66 66 83
66 66 83
67 67 84
66 66 83
66 66 83
66 66 84
66 66 83
66 66 83
66 66 83
66 66 83
66 66 83
66 66 84
66 66 83
66 66 83
66 66 83
66 66 83
66 66 83
66 66 83
66 66 83
66 66 83
66 66 83
66 66 83
66 66 83
66 66 83
66 66 83
66 66 83
66 66 83
66 66 83
66 66 83
66 66 83
66 66 83
66 66 83
66 66 83
66 66 83
66 66 83
66 66 83
66 66 83
66 66 83
66 66 83
66 66 83
66 66 83
66 66 83
66 66 83
66 66 83
66 66 83
66 66 83
66 66 83
66 66 83
66 66 83
66 66 83
66 66 83
66 66 83
66 66 83
66 66 83
66 66 83
66 66 83
66 66 83
66 66 83
66 66 83
66 66 83
66 66 83
66 66 83
66 66 83
66 66 83
66 66 83
66 66 83
66 66 83
66 66 83
66 66 83
66 66 83
66 66 83
66 66 83
66 66 83
66 66 83
66 66 83
66 66 83
66 66 83
66 66 83
66 66 83
66 66 83
66 66 83
66 66 83
66 66 83
66 66 83
66 66 83
66 66 83
66 66 83
66 66 83
66 66 83
66 66 83
66 66 83
66 66 83
66 66 83
66 66 83
66 66 83
66 66 83
66 66 83
66 66 83
66 66 83
66 66 83
66 66 83
66 66 83
66 66 83
66 66 83
66 66 83
66 66 83
66 66 83
66 66 83
66 66 83
66 66 83
66 66 83
66 66 83
66 66 83
66 66 83
66 66 83
66 66 83
66 66 83
66 66 83
66 66 83
66 66 83
66 66 83
66 66 83
66 66 83
66 66 83
66 66 83
66 66 83
66 66 83
66 66 83
66 66 83
66 66 83
66 66 83
66 66 83
66 66 83
66 66 83
66 66 83
66 66 83
66 66 83
66 66 83
66 66 83
66 66 83
66 66 83
66 66 83
66 66 83
66 66 83
66 66 83
66 66 83
66 66 83
66 66 83
66 66 83
66 66 83
66 66 83
66 66 83
66 66 83
66 66 83
66 66 83
66 66 83
66 66 83
66 66 83
66 66 83
66 66 83
66 66 83
66 66 83
66 66 83
66 66 83
66 66 83
66 66 83
66 66 83
66 66 83
66 66 83
66 66 83
66 66 83
66 66 83
66 66 83
66 66 83
66 66 83
66 66 83
66 66 83
66 66 83
66 66 83
66 66 83
66 66 83
66 66 83
66 66 83
66 66 83
66 66 83
66 66 83
66 66 83
66 66 83
66 66 83
66 66 83
66 66 83
66 66 83
66 66 83
66 66 83
66 66 83
66 66 83
66 66 83
66 66 83
66 66 83
66 66 83
66 66 83
66 66 83
66 66 83
66 66 83
66 66 83
66 66 83
66 66 83
66 66 83
66 66 83
66 66 83
66 66 83
66 66 83
66 66 83
66 66 83
66 66 83
66 66 83
66 66 83
66 66 83
66 66 83
66 66 83
66 66 83
66 66 83
66 66 83
66 66 83
66 66 83
66 66 83
66 66 83
66 66 83
66 66 83
66 66 83
66 66 83
66 66 83
66 66 83
66 66 83
66 66 83
66 66 83
66 66 83
66 66 83
66 66 83
66 66 83
66 66 83
66 66 83
66 66 83
66 66 83
66 66 83
66 66 83
66 66 83
66 66 83
66 66 83
66 66 83
66 66 83
66 66 83
66 66 83
66 66 83
66 66 83
66 66 83
66 66 83
66 66 83
66 66 83
66 66 83
66 66 83
66 66 83
66 66 83
66 66 83
66 66 83
66 66 83
66 66 83
66 66 83
66 66 83
66 66 83
66 66 83
66 66 83
66 66 83
66 66 83
66 66 83
66 66 83
66 66 83
66 66 83
66 66 83
66 66 83
66 66 83
66 66 83
66 66 83
66 66 83
66 66 83
66 66 83
66 66 83
66 66 83
66 66 83
66 66 83
66 66 83
66 66 83
66 66 83
66 66 83
66 66 83
66 66 83
66 66 83
66 66 83
67 67 84
66 66 83
66 66 83
66 66 83
66 66 83
66 66 83
66 66 83
66 66 83
66 66 83
66 66 83
66 66 83
66 66 83
66 66 83
66 66 83
66 66 83
66 66 83
66 66 83
66 66 83
66 66 83
66 66 83
66 66 83
66 66 83
66 66 83
66 66 83
66 66 83
112 110 108
255 255 255
255 255 255
255 255 255
255 255 255
255 255 255
255 255 255
255 255 255
255 255 255
255 255 255
255 255 255
255 255 255
241 235 197
66 66 83
66 66 83
66 66 83
66 66 83
66 66 83
66 66 83
66 66 83
66 66 83
66 66 83
66 66 83
66 66 83
66 66 83
66 66 83
66 66 83
66 66 83
66 66 83
66 66 83
66 66 83
66 66 83
66 66 83
66 66 83
66 66 83
66 66 84
66 66 83
66 66 83
66 66 84
66 66 83
66 66 83
66 66 83
66 66 83
66 66 83
66 66 83
66 66 83
66 66 84
66 66 83
66 66 83
66 66 83
66 66 83
66 66 83
66 66 83
66 66 83
66 66 83
67 67 84
66 66 83
66 66 83
67 67 84
66 66 83
67 67 84
66 66 84
66 66 83
66 66 83
66 66 83
66 66 83
66 66 84
67 67 84
66 66 83
66 66 83
66 66 83
66 66 83
66 66 83
66 66 83
66 66 83
66 66 83
66 66 83
67 67 84
67 67 84
66 66 83
66 66 83
66 66 83
66 66 83
67 67 84
66 66 83
66 66 83
66 66 83
66 66 83
66 66 83
66 66 83
66 66 84
66 66 84
66 66 83
66 66 83
66 66 83
66 66 83
66 66 83
66 66 83
66 66 83
66 66 83
66 66 83
66 66 83
66 66 83
66 66 83
66 66 83
66 66 83
66 66 83
66 66 83
66 66 83
66 66 83
66 66 83
66 66 83
66 66 83
66 66 83
66 66 83
66 66 83
66 66 83
66 66 83
66 66 83
66 66 83
66 66 83
66 66 83
66 66 83
66 66 83
66 66 83
66 66 83
66 66 83
66 66 83
66 66 83
66 66 83
66 66 83
66 66 83
66 66 83
66 66 83
66 66 83
66 66 83
66 66 83
66 66 83
66 66 83
66 66 83
66 66 83
66 66 83
66 66 83
66 66 83
66 66 83
66 66 83
66 66 83
66 66 83
66 66 83
66 66 83
66 66 83
66 66 83
66 66 83
66 66 83
66 66 83
66 66 83
66 66 83
66 66 83
66 66 83
66 66 83
66 66 83
66 66 83
66 66 83
66 66 83
66 66 83
66 66 83
66 66 83
66 66 83
66 66 83
66 66 83
66 66 83
66 66 83
66 66 83
66 66 83
66 66 83
66 66 83
66 66 83
66 66 83
66 66 83
66 66 83
66 66 83
66 66 83
66 66 83
66 66 83
66 66 83
66 66 83
66 66 83
66 66 83
66 66 83
66 66 83
66 66 83
66 66 83
66 66 83
66 66 83
66 66 83
66 66 83
66 66 83
66 66 83
66 66 83
66 66 83
66 66 83
66 66 83
66 66 83
66 66 83
66 66 83
66 66 83
66 66 83
66 66 83
66 66 83
66 66 83
66 66 83
66 66 83
66 66 83
66 66 83
66 66 83
66 66 83
66 66 83
66 66 83
66 66 83
66 66 83
66 66 83
66 66 83
66 66 83
66 66 83
66 66 83
66 66 83
66 66 83
66 66 83
66 66 83
66 66 83
66 66 83
66 66 83
66 66 83
66 66 83
66 66 83
66 66 83
66 66 83
66 66 83
66 66 83
66 66 83
66 66 83
66 66 83
66 66 83
66 66 83
66 66 83
66 66 83
66 66 83
66 66 83
66 66 83
66 66 83
66 66 83
66 66 83
66 66 83
66 66 83
66 66 83
66 66 83
66 66 83
66 66 83
66 66 83
66 66 83
66 66 83
66 66 83
66 66 83
66 66 83
66 66 83
66 66 83
66 66 83
66 66 83
66 66 83
66 66 83
66 66 83
66 66 83
66 66 83
66 66 83
66 66 83
66 66 83
66 66 83
66 66 83
66 66 83
66 66 83
66 66 83
66 66 83
66 66 83
66 66 83
66 66 83
66 66 83
66 66 83
66 66 83
66 66 83
66 66 83
66 66 83
66 66 83
66 66 83
66 66 83
66 66 83
66 66 83
66 66 83
66 66 83
66 66 83
66 66 83
66 66 83
66 66 83
66 66 83
66 66 83
66 66 83
66 66 83
66 66 83
66 66 83
66 66 83
66 66 83
66 66 83
66 66 83
66 66 83
66 66 83
66 66 83
66 66 83
66 66 83
66 66 83
66 66 83
66 66 83
66 66 83
66 66 83
66 66 83
66 66 83
66 66 83
66 66 83
66 66 83
66 66 83
66 66 83
66 66 83
66 66 83
66 66 83
66 66 83
66 66 83
66 66 83
66 66 83
66 66 83
66 66 83
66 66 83
66 66 83
66 66 83
66 66 83
66 66 83
66 66 83
66 66 83
66 66 83
66 66 83
66 66 83
66 66 83
66 66 83
66 66 83
66 66 83
66 66 83
66 66 83
66 66 83
66 66 83
66 66 83
66 66 83
66 66 83
66 66 83
66 66 83
66 66 83
66 66 83
66 66 83
66 66 83
66 66 83
66 66 83
66 66 83
66 66 83
66 66 83
66 66 83
66 66 83
67 67 84
66 66 83
66 66 83
66 66 83
66 66 83
66 66 83
66 66 83
67 67 84
66 66 83
66 66 83
66 66 83
66 66 83
66 66 83
66 66 83
66 66 83
66 66 83
66 66 83
66 66 83
66 66 83
66 66 83
66 66 83
66 66 83
66 66 83
66 66 83
66 66 83
66 66 83
188 183 159
255 255 255
255 255 255
255 255 255
255 255 255
255 255 255
255 255 255
255 255 255
255 255 255
255 255 255
255 255 255
255 255 255
255 255 255
255 255 255
255 255 255
255 255 255
255 255 255
66 66 83
66 66 83
66 66 83
66 66 83
66 66 83
66 66 83
66 66 83
66 66 83
66 66 83
66 66 83
66 66 83
66 66 83
66 66 83
66 66 83
66 66 83
66 66 83
67 67 84
66 66 83
66 66 83
66 66 83
66 66 84
66 66 84
67 67 84
66 66 84
67 67 84
66 66 84
66 66 83
66 66 83
66 66 84
67 67 84
66 66 84
67 67 84
66 66 83
67 67 84
66 66 84
66 66 83
66 66 83
66 66 84
66 66 84
67 67 84
66 66 83
66 66 83
66 66 83
66 66 84
66 66 83
67 67 84
66 66 83
66 66 83
66 66 83
66 66 83
67 67 84
66 66 83
66 66 83
66 66 84
67 67 84
66 66 83
66 66 83
66 66 83
66 66 84
66 66 84
67 67 84
66 66 83
66 66 84
66 66 84
66 66 83
67 67 84
66 66 83
66 66 83
66 66 83
66 66 83
66 66 83
66 66 83
66 66 84
66 66 84
66 66 84
66 66 83
66 66 83
66 66 83
66 66 83
66 66 83
66 66 83
66 66 83
66 66 83
66 66 83
66 66 83
66 66 83
66 66 83
66 66 83
66 66 83
66 66 83
66 66 83
66 66 83
66 66 83
66 66 83
66 66 83
66 66 83
66 66 83
66 66 83
66 66 83
66 66 83
66 66 83
66 66 83
66 66 83
66 66 83
66 66 83
66 66 83
66 66 83
66 66 83
66 66 83
66 66 83
66 66 83
66 66 83
66 66 83
66 66 83
66 66 83
66 66 83
66 66 83
66 66 83
66 66 83
66 66 83
66 66 83
66 66 83
66 66 83
66 66 83
66 66 83
66 66 83
66 66 83
66 66 83
66 66 83
66 66 83
66 66 83
66 66 83
66 66 83
66 66 83
66 66 83
66 66 83
66 66 83
66 66 83
66 66 83
66 66 83
66 66 83
66 66 83
66 66 83
66 66 83
66 66 83
66 66 83
66 66 83
66 66 83
66 66 83
66 66 83
66 66 83
66 66 83
66 66 83
66 66 83
66 66 83
66 66 83
66 66 83
66 66 83
66 66 83
66 66 83
66 66 83
66 66 83
66 66 83
66 66 83
66 66 83
66 66 83
66 66 83
66 66 83
66 66 83
66 66 83
66 66 83
66 66 83
66 66 83
66 66 83
66 66 83
66 66 83
66 66 83
66 66 83
66 66 83
66 66 83
66 66 83
66 66 83
66 66 83
66 66 83
66 66 83
66 66 83
66 66 83
66 66 83
66 66 83
66 66 83
66 66 83
66 66 83
66 66 83
66 66 83
66 66 83
66 66 83
66 66 83
66 66 83
66 66 83
66 66 83
66 66 83
66 66 83
66 66 83
66 66 83
66 66 83
66 66 83
66 66 83
66 66 83
66 66 83
66 66 83
66 66 83
66 66 83
66 66 83
66 66 83
66 66 83
66 66 83
66 66 83
66 66 83
66 66 83
66 66 83
66 66 83
66 66 83
66 66 83
66 66 83
66 66 83
66 66 83
66 66 83
66 66 83
66 66 83
66 66 83
66 66 83
66 66 83
66 66 83
66 66 83
66 66 83
66 66 83
66 66 83
66 66 83
66 66 83
66 66 83
66 66 83
66 66 83
66 66 83
66 66 83
66 66 83
66 66 83
66 66 83
66 66 83
66 66 83
66 66 83
66 66 83
66 66 83
66 66 83
66 66 83
66 66 83
66 66 83
66 66 83
66 66 83
66 66 83
66 66 83
66 66 83
66 66 83
66 66 83
66 66 83
66 66 83
66 66 83
66 66 83
66 66 83
66 66 83
66 66 83
66 66 83
66 66 83
66 66 83
66 66 83
66 66 83
66 66 83
66 66 83
66 66 83
66 66 83
66 66 83
66 66 83
66 66 83
66 66 83
66 66 83
66 66 83
66 66 83
66 66 83
66 66 83
66 66 83
66 66 83
66 66 83
66 66 83
66 66 83
66 66 83
66 66 83
66 66 83
66 66 83
66 66 83
66 66 83
66 66 83
66 66 83
66 66 83
66 66 83
66 66 83
66 66 83
66 66 83
66 66 83
66 66 83
66 66 83
66 66 83
66 66 83
66 66 83
66 66 83
66 66 83
66 66 83
66 66 83
66 66 83
66 66 83
66 66 83
66 66 83
66 66 83
66 66 83
66 66 83
66 66 83
67 67 84
66 66 83
66 66 83
66 66 83
66 66 83
66 66 83
66 66 83
66 66 83
66 66 83
66 66 83
66 66 83
66 66 83
66 66 83
66 66 83
67 67 84
66 66 83
66 66 83
66 66 83
66 66 83
66 66 83
66 66 83
66 66 83
66 66 83
66 66 83
66 66 83
67 67 84
66 66 83
66 66 84
66 66 83
66 66 83
66 66 83
66 66 83
66 66 83
66 66 83
66 66 83
66 66 83
66 66 83
66 66 83
66 66 83
66 66 84
66 66 83
66 66 84
66 66 83
66 66 83
66 66 83
66 66 83
66 66 83
66 66 83
66 66 83
66 66 83
66 66 83
66 66 83
66 66 83
66 66 83
66 66 83
66 66 83
66 66 83
66 66 83
255 255 255
255 255 255
255 255 255
255 255 255
255 255 255
255 255 255
255 255 255
255 255 255
255 255 255
255 255 255
255 255 255
255 255 255
255 255 255
255 255 255
255 255 255
255 255 255
255 255 255
255 255 255
255 255 255
255 255 218
66 66 83
66 66 83
66 66 83
66 66 83
66 66 83
66 66 83
66 66 83
66 66 83
66 66 83
66 66 83
66 66 83
67 67 84
66 66 83
66 66 84
66 66 83
67 67 84
66 66 84
66 66 84
66 66 84
66 66 83
67 67 84
66 66 83
67 67 84
67 67 84
66 66 84
67 67 84
66 66 83
66 66 83
66 66 83
67 67 84
66 66 83
67 67 84
67 67 84
66 66 83
67 67 84
66 66 83
66 66 83
66 66 84
66 66 83
66 66 83
66 66 84
66 66 83
66 66 83
66 66 84
66 66 83
66 66 84
66 66 84
66 66 84
67 67 84
67 67 84
66 66 84
67 67 84
67 67 84
66 66 84
67 67 84
66 66 84
67 67 84
67 67 84
67 67 84
66 66 84
66 66 83
67 67 84
66 66 83
66 66 84
66 66 83
66 66 83
67 67 84
67 67 84
67 67 84
66 66 84
66 66 83
66 66 84
66 66 83
67 67 84
67 67 84
66 66 83
66 66 83
66 66 83
66 66 83
66 66 83
66 66 83
66 66 83
66 66 83
66 66 83
66 66 83
66 66 83
66 66 83
66 66 83
66 66 83
66 66 83
66 66 83
66 66 83
66 66 83
66 66 83
66 66 83
66 66 83
66 66 83
66 66 83
66 66 83
66 66 83
66 66 83
66 66 83
66 66 83
66 66 83
66 66 83
66 66 83
66 66 83
66 66 83
66 66 83
66 66 83
66 66 83
66 66 83
66 66 83
66 66 83
66 66 83
66 66 83
66 66 83
66 66 83
66 66 83
66 66 83
66 66 83
66 66 83
66 66 83
66 66 83
66 66 83
66 66 83
66 66 83
66 66 83
66 66 83
66 66 83
66 66 83
66 66 83
66 66 83
66 66 83
66 66 83
66 66 83
66 66 83
66 66 83
66 66 83
66 66 83
66 66 83
66 66 83
66 66 83
66 66 83
66 66 83
66 66 83
66 66 83
66 66 83
66 66 83
66 66 83
66 66 83
66 66 83
66 66 83
66 66 83
66 66 83
66 66 83
66 66 83
66 66 83
66 66 83
66 66 83
66 66 83
66 66 83
66 66 83
66 66 83
66 66 83
66 66 83
66 66 83
66 66 83
66 66 83
66 66 83
66 66 83
66 66 83
66 66 83
66 66 83
66 66 83
66 66 83
66 66 83
66 66 83
66 66 83
66 66 83
66 66 83
66 66 83
66 66 83
66 66 83
66 66 83
66 66 83
66 66 83
66 66 83
66 66 83
66 66 83
66 66 83
66 66 83
66 66 83
66 66 83
66 66 83
66 66 83
66 66 83
66 66 83
66 66 83
66 66 83
66 66 83
66 66 83
66 66 83
66 66 83
66 66 83
66 66 83
66 66 83
66 66 83
66 66 83
66 66 83
66 66 83
66 66 83
66 66 83
66 66 83
66 66 83
66 66 83
66 66 83
66 66 83
66 66 83
66 66 83
66 66 83
66 66 83
66 66 83
66 66 83
66 66 83
66 66 83
66 66 83
66 66 83
66 66 83
66 66 83
66 66 83
66 66 83
66 66 83
66 66 83
66 66 83
66 66 83
66 66 83
66 66 83
66 66 83
66 66 83
66 66 83
66 66 83
66 66 83
66 66 83
66 66 83
66 66 83
66 66 83
66 66 83
66 66 83
66 66 83
66 66 83
66 66 83
66 66 83
66 66 83
66 66 83
66 66 83
66 66 83
66 66 83
66 66 83
66 66 83
66 66 83
66 66 83
66 66 83
66 66 83
66 66 83
66 66 83
66 66 83
66 66 83
66 66 83
66 66 83
66 66 83
66 66 83
66 66 83
66 66 83
66 66 83
66 66 83
66 66 83
66 66 83
66 66 83
66 66 83
66 66 83
66 66 83
66 66 83
66 66 83
66 66 83
66 66 83
66 66 83
66 66 83
66 66 83
66 66 83
66 66 83
66 66 83
66 66 83
66 66 83
66 66 83
66 66 83
66 66 83
66 66 83
66 66 83
66 66 83
66 66 83
66 66 83
66 66 83
66 66 83
66 66 83
66 66 83
66 66 83
66 66 83
66 66 83
66 66 83
66 66 83
66 66 83
66 66 83
66 66 83
66 66 83
66 66 83
66 66 83
66 66 83
66 66 83
66 66 83
66 66 83
66 66 83
66 66 83
66 66 83
66 66 83
66 66 83
66 66 83
66 66 83
66 66 83
66 66 83
66 66 83
66 66 84
66 66 83
66 66 83
66 66 83
66 66 83
66 66 84
66 66 83
66 66 83
67 67 84
66 66 84
66 66 84
66 66 83
66 66 83
66 66 83
67 67 84
66 66 83
66 66 84
66 66 84
66 66 83
67 67 84
66 66 83
66 66 83
66 66 83
66 66 83
66 66 83
67 67 84
67 67 84
66 66 83
66 66 83
66 66 83
66 66 83
66 66 83
66 66 83
66 66 83
66 66 83
66 66 83
66 66 83
66 66 83
66 66 83
66 66 83
66 66 83
66 66 83
66 66 83
66 66 83
66 66 83
66 66 83
66 66 83
192 188 162
255 255 255
255 255 255
255 255 255
255 255 255
255 255 255
255 255 255
255 255 255
255 255 255
255 255 255
255 255 255
255 255 255
255 255 255
255 255 255
255 255 255
255 255 255
255 255 255
255 255 255
255 255 255
255 255 255
255 255 255
255 255 255
255 255 255
66 66 84
66 66 84
66 66 84
66 66 84
66 66 84
66 66 84
66 66 84
66 66 84
66 66 84
67 67 84
67 67 84
67 67 84
67 67 84
67 67 84
66 66 84
66 66 84
66 66 84
66 66 84
67 67 84
67 67 84
66 66 84
67 67 84
66 66 84
66 66 84
66 66 84
67 67 84
67 67 84
66 66 84
67 67 84
66 66 84
67 67 84
67 67 84
67 67 84
67 67 84
67 67 84
67 67 84
67 67 84
67 67 84
66 66 84
66 66 84
66 66 84
66 66 84
66 66 84
66 66 84
67 67 84
66 66 84
67 67 84
66 66 84
66 66 84
66 66 84
66 66 84
66 66 84
66 66 84
67 67 84
66 66 84
66 66 84
67 67 84
66 66 84
67 67 84
66 66 84
66 66 84
66 66 84
66 66 83
66 66 84
66 66 84
67 67 84
67 67 84
67 67 84
67 67 84
66 66 84
66 66 84
66 66 83
66 66 83
66 66 83
66 66 83
66 66 83
66 66 83
66 66 83
66 66 83
66 66 83
66 66 83
66 66 83
66 66 83
66 66 83
66 66 83
66 66 83
66 66 83
66 66 83
66 66 83
66 66 83
66 66 83
66 66 83
66 66 83
66 66 83
66 66 83
66 66 83
66 66 83
66 66 83
66 66 83
66 66 83
66 66 83
66 66 83
66 66 83
66 66 83
66 66 83
66 66 83
66 66 83
66 66 83
66 66 83
66 66 83
66 66 83
66 66 83
66 66 83
66 66 83
66 66 83
66 66 83
66 66 83
66 66 83
66 66 83
66 66 83
66 66 83
66 66 83
66 66 83
66 66 83
66 66 83
66 66 83
66 66 83
66 66 83
66 66 83
66 66 83
66 66 83
66 66 83
66 66 83
66 66 83
66 66 83
66 66 83
66 66 83
66 66 83
66 66 83
66 66 83
66 66 83
66 66 83
66 66 83
66 66 83
66 66 83
66 66 83
66 66 83
66 66 83
66 66 83
66 66 83
66 66 83
66 66 83
66 66 83
66 66 83
66 66 83
66 66 83
66 66 83
66 66 83
66 66 83
66 66 83
66 66 83
66 66 83
66 66 83
66 66 83
66 66 83
66 66 83
66 66 83
66 66 83
66 66 83
66 66 83
66 66 83
66 66 83
66 66 83
66 66 83
66 66 83
66 66 83
66 66 83
66 66 83
66 66 83
66 66 83
66 66 83
66 66 83
66 66 83
66 66 83
66 66 83
66 66 83
66 66 83
66 66 83
66 66 83
66 66 83
66 66 83
66 66 83
66 66 83
66 66 83
66 66 83
66 66 83
66 66 83
66 66 83
66 66 83
66 66 83
66 66 83
66 66 83
66 66 83
66 66 83
66 66 83
66 66 83
66 66 83
66 66 83
66 66 83
66 66 83
66 66 83
66 66 83
66 66 83
66 66 83
66 66 83
66 66 83
66 66 83
66 66 83
66 66 83
66 66 83
66 66 83
66 66 83
66 66 83
66 66 83
66 66 83
66 66 83
66 66 83
66 66 83
66 66 83
66 66 83
66 66 83
66 66 83
66 66 83
66 66 83
66 66 83
66 66 83
66 66 83
66 66 83
66 66 83
66 66 83
66 66 83
66 66 83
66 66 83
66 66 83
66 66 83
66 66 83
66 66 83
66 66 83
66 66 83
66 66 83
66 66 83
66 66 83
66 66 83
66 66 83
66 66 83
66 66 83
66 66 83
66 66 83
66 66 83
66 66 83
66 66 83
66 66 83
66 66 83
66 66 83
66 66 83
66 66 83
66 66 83
66 66 83
66 66 83
66 66 83
66 66 83
66 66 83
66 66 83
66 66 83
66 66 83
66 66 83
66 66 83
66 66 83
66 66 83
66 66 83
66 66 83
66 66 83
66 66 83
66 66 83
66 66 83
66 66 83
66 66 83
66 66 83
66 66 83
66 66 83
66 66 83
66 66 83
66 66 83
66 66 83
66 66 83
66 66 83
66 66 83
66 66 83
66 66 83
66 66 83
66 66 83
66 66 83
66 66 83
66 66 83
66 66 83
66 66 83
66 66 83
66 66 83
66 66 83
66 66 83
66 66 83
66 66 83
66 66 83
66 66 83
66 66 83
66 66 83
66 66 83
67 67 84
66 66 83
66 66 83
66 66 84
66 66 83
66 66 84
66 66 83
66 66 83
66 66 84
66 66 83
66 66 83
66 66 84
66 66 83
66 66 83
66 66 84
66 66 83
66 66 83
66 66 84
66 66 83
66 66 83
66 66 83
66 66 84
66 66 83
66 66 84
66 66 84
66 66 83
66 66 83
66 66 84
66 66 84
67 67 84
66 66 84
66 66 84
66 66 84
66 66 83
66 66 84
66 66 84
66 66 84
67 67 84
67 67 84
66 66 83
67 67 84
67 67 84
66 66 83
66 66 83
66 66 83
66 66 83
66 66 83
66 66 83
66 66 83
66 66 83
66 66 83
66 66 83
66 66 84
66 66 84
66 66 84
66 66 84
66 66 84
66 66 84
66 66 84
255 254 211
255 255 255
255 255 255
255 255 255
255 255 255
255 255 255
255 255 255
255 255 255
255 255 255
255 255 255
255 255 255
255 255 255
255 255 255
255 255 255
255 255 255
255 255 255
255 255 255
255 255 255
255 255 255
255 255 255
255 255 255
255 255 255
255 255 255
255 255 255
255 255 255
66 66 84
66 66 84
66 66 84
66 66 84
67 67 84
67 67 84
67 67 84
66 66 84
67 67 84
67 67 84
67 67 84
66 66 84
67 67 84
66 66 84
66 66 84
66 66 84
66 66 84
66 66 84
67 67 84
67 67 84
67 67 84
67 67 84
67 67 84
67 67 84
67 67 84
67 67 84
66 66 84
66 66 84
67 67 84
67 67 84
67 67 84
67 67 84
66 66 84
67 67 84
67 67 84
66 66 84
67 67 84
67 67 84
67 67 84
67 67 84
66 66 84
67 67 84
66 66 84
67 67 84
66 66 84
67 67 84
67 67 84
67 67 84
67 67 84
66 66 84
66 66 84
67 67 84
66 66 84
67 67 84
67 67 84
67 67 84
67 67 84
67 67 84
67 67 84
67 67 84
67 67 84
67 67 84
67 67 84
67 67 84
66 66 84
66 66 84
66 66 84
66 66 84
66 66 84
66 66 84
66 66 84
66 66 84
66 66 84
66 66 84
66 66 84
66 66 84
66 66 84
66 66 84
66 66 84
66 66 84
66 66 84
66 66 84
66 66 84
66 66 84
66 66 84
66 66 84
66 66 84
66 66 84
66 66 84
66 66 84
66 66 83
66 66 83
66 66 83
66 66 83
66 66 83
66 66 83
66 66 83
66 66 83
66 66 83
66 66 83
66 66 83
66 66 83
66 66 83
66 66 83
66 66 83
66 66 83
66 66 83
66 66 83
66 66 83
66 66 83
66 66 83
66 66 83
66 66 83
66 66 83
66 66 83
66 66 83
66 66 83
66 66 83
66 66 83
66 66 83
66 66 83
66 66 83
66 66 83
66 66 83
66 66 83
66 66 83
66 66 83
66 66 83
66 66 83
66 66 83
66 66 83
66 66 83
66 66 83
66 66 83
66 66 83
66 66 83
66 66 83
66 66 83
66 66 83
66 66 83
66 66 83
66 66 83
66 66 83
66 66 83
66 66 83
66 66 83
66 66 83
66 66 83
66 66 83
66 66 83
66 66 83
66 66 83
66 66 83
66 66 83
66 66 83
66 66 83
66 66 83
66 66 83
66 66 83
66 66 83
66 66 83
66 66 83
66 66 83
66 66 83
66 66 83
66 66 83
66 66 83
66 66 83
66 66 83
66 66 83
66 66 83
66 66 83
66 66 83
66 66 83
66 66 83
66 66 83
66 66 83
66 66 83
66 66 83
66 66 83
66 66 83
66 66 83
66 66 83
66 66 83
66 66 83
66 66 83
66 66 83
66 66 83
66 66 83
66 66 83
66 66 83
66 66 83
66 66 83
66 66 83
66 66 83
66 66 83
66 66 83
66 66 83
66 66 83
66 66 83
66 66 83
66 66 83
66 66 83
66 66 83
66 66 83
66 66 83
66 66 83
66 66 83
66 66 83
66 66 83
66 66 83
66 66 83
66 66 83
66 66 83
66 66 83
66 66 83
66 66 83
66 66 83
66 66 83
66 66 83
66 66 83
66 66 83
66 66 83
66 66 83
66 66 83
66 66 83
66 66 83
66 66 83
66 66 83
66 66 83
66 66 83
66 66 83
66 66 83
66 66 83
66 66 83
66 66 83
66 66 83
66 66 83
66 66 83
66 66 83
66 66 83
66 66 83
66 66 83
66 66 83
66 66 83
66 66 83
66 66 83
66 66 83
66 66 83
66 66 83
66 66 83
66 66 83
66 66 83
66 66 83
66 66 83
66 66 83
66 66 83
66 66 83
66 66 83
66 66 83
66 66 83
66 66 83
66 66 83
66 66 83
66 66 83
66 66 83
66 66 83
66 66 83
66 66 83
66 66 83
66 66 83
66 66 83
66 66 83
66 66 83
66 66 83
66 66 83
66 66 83
66 66 83
66 66 83
66 66 83
66 66 83
66 66 83
66 66 83
66 66 83
66 66 83
66 66 83
66 66 83
66 66 83
66 66 83
66 66 83
66 66 83
66 66 83
66 66 83
66 66 83
66 66 83
66 66 83
66 66 83
66 66 83
66 66 83
66 66 83
66 66 83
66 66 83
66 66 83
66 66 83
66 66 83
66 66 83
66 66 83
66 66 83
66 66 83
66 66 83
66 66 83
66 66 83
66 66 83
66 66 83
66 66 83
67 67 84
66 66 83
67 67 84
67 67 84
66 66 83
66 66 83
66 66 83
66 66 83
66 66 83
66 66 84
66 66 84
66 66 84
66 66 83
67 67 84
67 67 84
66 66 84
66 66 84
67 67 84
67 67 84
66 66 83
66 66 83
67 67 84
66 66 84
66 66 84
67 67 84
66 66 84
66 66 84
66 66 84
66 66 83
66 66 84
67 67 84
66 66 84
66 66 84
67 67 84
67 67 84
67 67 84
67 67 84
67 67 84
67 67 84
67 67 84
66 66 84
66 66 84
66 66 84
66 66 84
66 66 84
66 66 84
66 66 84
66 66 84
66 66 84
66 66 84
66 66 84
66 66 84
66 66 84
66 66 84
66 66 84
66 66 84
66 66 84
66 66 84
66 66 84
234 228 192
255 255 255
255 255 255
255 255 255
255 255 255
255 255 255
255 255 255
255 255 255
255 255 255
255 255 255
255 255 255
255 255 255
255 255 255
255 255 255
255 255 255
255 255 255
255 255 255
255 255 255
255 255 255
255 255 255
255 255 255
255 255 255
255 255 255
255 255 255
255 255 255
255 255 255
255 255 255
66 66 84
67 67 84
67 67 84
66 66 84
66 66 84
67 67 84
67 67 84
67 67 84
67 67 84
67 67 84
67 67 84
66 66 84
66 66 84
66 66 84
67 67 84
67 67 84
67 67 84
67 67 84
67 67 84
67 67 84
67 67 84
67 67 84
67 67 84
67 67 84
67 67 84
67 67 84
67 67 84
67 67 84
67 67 84
67 67 84
67 67 84
67 67 84
66 66 84
67 67 84
67 67 84
67 67 84
67 67 84
67 67 84
66 66 84
67 67 84
66 66 84
67 67 84
67 67 84
67 67 84
67 67 84
66 66 84
66 66 84
67 67 84
67 67 84
67 67 84
67 67 84
67 67 84
67 67 84
67 67 84
67 67 84
67 67 84
67 67 84
66 66 84
67 67 84
67 67 84
66 66 84
66 66 84
66 66 84
66 66 84
66 66 84
66 66 84
66 66 84
66 66 84
66 66 84
66 66 84
66 66 84
66 66 84
66 66 84
66 66 84
66 66 84
66 66 84
66 66 84
66 66 84
66 66 84
66 66 84
66 66 84
66 66 84
66 66 84
66 66 84
66 66 84
66 66 84
66 66 84
66 66 84
66 66 84
66 66 84
66 66 84
66 66 84
66 66 84
66 66 84
66 66 84
66 66 84
66 66 84
66 66 84
66 66 84
66 66 84
66 66 84
66 66 84
66 66 84
66 66 84
66 66 84
66 66 84
66 66 84
66 66 84
66 66 83
66 66 83
66 66 83
66 66 83
66 66 83
66 66 83
66 66 83
66 66 83
66 66 83
66 66 83
66 66 83
66 66 83
66 66 83
66 66 83
66 66 83
66 66 83
66 66 83
66 66 83
66 66 83
66 66 83
66 66 83
66 66 83
66 66 83
66 66 83
66 66 83
66 66 83
66 66 83
66 66 83
66 66 83
66 66 83
66 66 83
66 66 83
66 66 83
66 66 83
66 66 83
66 66 83
66 66 83
66 66 83
66 66 83
66 66 83
66 66 83
66 66 83
66 66 83
66 66 83
66 66 83
66 66 83
66 66 83
66 66 83
66 66 83
66 66 83
66 66 83
66 66 83
66 66 83
66 66 83
66 66 83
66 66 83
66 66 83
66 66 83
66 66 83
66 66 83
66 66 83
66 66 83
66 66 83
66 66 83
66 66 83
66 66 83
66 66 83
66 66 83
66 66 83
66 66 83
66 66 83
66 66 83
66 66 83
66 66 83
66 66 83
66 66 83
66 66 83
66 66 83
66 66 83
66 66 83
66 66 83
66 66 83
66 66 83
66 66 83
66 66 83
66 66 83
66 66 83
66 66 83
66 66 83
66 66 83
66 66 83
66 66 83
66 66 83
66 66 83
66 66 83
66 66 83
66 66 83
66 66 83
66 66 83
66 66 83
66 66 83
66 66 83
66 66 83
66 66 83
66 66 83
66 66 83
66 66 83
66 66 83
66 66 83
66 66 83
66 66 83
66 66 83
66 66 83
66 66 83
66 66 83
66 66 83
66 66 83
66 66 83
66 66 83
66 66 83
66 66 83
66 66 83
66 66 83
66 66 83
66 66 83
66 66 83
66 66 83
66 66 83
66 66 83
66 66 83
66 66 83
66 66 83
66 66 83
66 66 83
66 66 83
66 66 83
66 66 83
66 66 83
66 66 83
66 66 83
66 66 83
66 66 83
66 66 83
66 66 83
66 66 83
66 66 83
66 66 83
66 66 83
66 66 83
66 66 83
66 66 83
66 66 83
66 66 83
66 66 83
66 66 83
66 66 83
66 66 83
66 66 83
66 66 83
66 66 83
66 66 83
66 66 83
66 66 83
66 66 83
66 66 84
66 66 83
66 66 83
66 66 83
66 66 83
66 66 83
66 66 83
66 66 83
66 66 83
66 66 83
66 66 83
66 66 83
66 66 83
66 66 83
66 66 83
66 66 83
66 66 83
66 66 83
66 66 83
66 66 83
66 66 83
66 66 83
66 66 83
66 66 83
66 66 83
66 66 83
66 66 83
66 66 83
66 66 83
66 66 83
66 66 83
66 66 83
66 66 83
66 66 83
66 66 83
66 66 83
66 66 83
66 66 83
66 66 83
66 66 83
66 66 83
66 66 83
67 67 84
66 66 84
66 66 83
66 66 84
66 66 84
66 66 84
66 66 84
66 66 83
66 66 84
66 66 83
66 66 84
66 66 84
66 66 84
66 66 84
67 67 84
67 67 84
67 67 84
67 67 84
67 67 84
67 67 84
67 67 84
66 66 84
67 67 84
66 66 84
67 67 84
67 67 84
66 66 84
66 66 84
66 66 84
66 66 84
67 67 84
67 67 84
67 67 84
67 67 84
66 66 84
66 66 84
67 67 84
66 66 84
67 67 84
66 66 84
66 66 84
66 66 84
66 66 84
66 66 84
66 66 84
66 66 84
66 66 84
66 66 84
66 66 84
66 66 84
66 66 84
66 66 84
66 66 84
66 66 84
66 66 84
66 66 84
66 66 84
66 66 84
119 117 113
255 255 255
255 255 255
255 255 255
255 255 255
255 255 255
255 255 255
255 255 255
255 255 255
255 255 255
255 255 255
255 255 255
255 255 255
255 255 255
255 255 255
255 255 255
255 255 255
255 255 255
255 255 255
255 255 255
255 255 255
255 255 255
255 255 255
255 255 255
255 255 255
255 255 255
255 255 255
255 255 255
255 255 255
67 67 84
67 67 84
67 67 84
67 67 84
67 67 84
67 67 84
67 67 84
67 67 84
67 67 84
67 67 84
67 67 84
67 67 84
67 67 84
67 67 84
67 67 84
67 67 84
67 67 84
67 67 84
67 67 84
67 67 84
67 67 84
67 67 84
67 67 84
67 67 84
67 67 84
67 67 84
67 67 84
67 67 84
67 67 84
67 67 84
67 67 84
67 67 84
67 67 84
67 67 84
67 67 84
67 67 84
67 67 84
67 67 84
67 67 84
67 67 84
67 67 84
67 67 84
67 67 84
67 67 84
67 67 84
67 67 84
67 67 84
67 67 84
67 67 84
67 67 84
67 67 84
67 67 84
67 67 84
67 67 84
67 67 84
67 67 84
67 67 84
67 67 84
67 67 84
67 67 84
67 67 84
67 67 84
67 67 84
67 67 84
67 67 84
67 67 84
67 67 84
67 67 84
67 67 84
67 67 84
67 67 84
67 67 84
67 67 84
67 67 84
67 67 84
67 67 84
67 67 84
66 66 84
66 66 84
66 66 84
66 66 84
66 66 84
66 66 84
66 66 84
66 66 84
66 66 84
66 66 84
66 66 84
66 66 84
66 66 84
66 66 84
66 66 84
66 66 84
66 66 84
66 66 84
66 66 84
66 66 84
66 66 84
66 66 84
66 66 84
66 66 84
66 66 84
66 66 84
66 66 84
66 66 84
66 66 84
66 66 84
66 66 84
66 66 84
66 66 84
66 66 84
66 66 84
66 66 84
66 66 84
66 66 84
66 66 84
66 66 84
66 66 84
66 66 84
66 66 84
66 66 84
66 66 84
66 66 84
66 66 83
66 66 83
66 66 83
66 66 83
66 66 83
66 66 83
66 66 83
66 66 83
66 66 83
66 66 83
66 66 83
66 66 83
66 66 83
66 66 83
66 66 83
66 66 83
66 66 83
66 66 83
66 66 83
66 66 83
66 66 83
66 66 83
66 66 83
66 66 83
66 66 83
66 66 83
66 66 83
66 66 83
66 66 83
66 66 83
66 66 83
66 66 83
66 66 83
66 66 83
66 66 83
66 66 83
66 66 83
66 66 83
66 66 83
66 66 83
66 66 83
66 66 83
66 66 83
66 66 83
66 66 83
66 66 83
66 66 83
66 66 83
66 66 83
66 66 83
66 66 83
66 66 83
66 66 83
66 66 83
66 66 83
66 66 83
66 66 83
66 66 83
66 66 83
66 66 83
66 66 83
66 66 83
66 66 83
66 66 83
66 66 83
66 66 83
66 66 83
66 66 83
66 66 83
66 66 83
66 66 83
66 66 83
66 66 83
66 66 83
66 66 83
66 66 83
66 66 83
66 66 83
66 66 83
66 66 83
66 66 83
66 66 83
66 66 83
66 66 83
66 66 83
66 66 83
66 66 83
66 66 83
66 66 83
66 66 83
66 66 83
66 66 83
66 66 83
66 66 83
66 66 83
66 66 83
66 66 83
66 66 83
66 66 83
66 66 83
66 66 83
66 66 83
66 66 83
66 66 83
66 66 83
66 66 83
66 66 83
66 66 83
66 66 83
66 66 83
66 66 83
66 66 83
66 66 83
66 66 83
66 66 83
66 66 83
66 66 83
66 66 83
66 66 83
66 66 83
66 66 83
66 66 83
66 66 83
66 66 83
66 66 83
66 66 83
66 66 83
66 66 83
66 66 83
66 66 83
66 66 83
66 66 83
66 66 83
66 66 83
66 66 83
66 66 83
66 66 83
67 67 84
66 66 83
66 66 83
66 66 83
66 66 83
66 66 83
66 66 83
66 66 83
66 66 83
66 66 83
66 66 83
66 66 83
66 66 83
66 66 83
66 66 83
66 66 83
66 66 83
66 66 83
66 66 83
66 66 83
66 66 83
66 66 83
66 66 83
66 66 83
66 66 83
66 66 83
66 66 83
66 66 83
66 66 83
66 66 83
66 66 83
66 66 83
66 66 83
66 66 83
66 66 83
66 66 83
66 66 83
66 66 83
66 66 83
66 66 83
66 66 83
66 66 83
66 66 83
66 66 83
66 66 83
66 66 83
66 66 83
66 66 83
67 67 84
66 66 83
66 66 84
66 66 83
66 66 84
66 66 83
66 66 84
67 67 84
66 66 84
66 66 84
66 66 84
67 67 84
67 67 84
67 67 84
67 67 84
66 66 84
67 67 84
67 67 84
66 66 84
67 67 84
66 66 84
67 67 84
66 66 84
66 66 84
67 67 84
67 67 84
67 67 84
67 67 84
66 66 84
67 67 84
67 67 84
67 67 84
67 67 84
67 67 84
67 67 84
67 67 84
67 67 84
66 66 84
66 66 84
67 67 84
67 67 84
66 66 84
66 66 84
66 66 84
66 66 84
66 66 84
66 66 84
67 67 84
67 67 84
67 67 84
67 67 84
67 67 84
67 67 84
67 67 84
67 67 84
67 67 84
67 67 84
67 67 84
67 67 84
67 67 84
67 67 84
67 67 84
67 67 84
255 255 255
255 255 255
255 255 255
255 255 255
255 255 255
255 255 255
255 255 255
255 255 255
255 255 255
255 255 255
255 255 255
255 255 255
255 255 255
255 255 255
255 255 255
255 255 255
255 255 255
255 255 255
255 255 255
255 255 255
255 255 255
255 255 255
255 255 255
255 255 255
255 255 255
255 255 255
255 255 255
255 255 255
255 255 255
255 255 218
67 67 84
67 67 84
67 67 84
67 67 84
67 67 84
67 67 84
67 67 84
67 67 84
67 67 84
67 67 84
67 67 84
67 67 84
67 67 84
67 67 84
67 67 84
67 67 84
67 67 84
67 67 84
67 67 84
67 67 84
67 67 84
67 67 84
67 67 84
67 67 84
67 67 84
67 67 84
67 67 84
67 67 84
67 67 84
67 67 84
67 67 84
67 67 84
67 67 84
67 67 84
67 67 84
67 67 84
67 67 84
67 67 84
67 67 84
67 67 84
67 67 84
67 67 84
67 67 84
67 67 84
67 67 84
67 67 84
67 67 84
67 67 84
67 67 84
67 67 84
67 67 84
67 67 84
67 67 84
67 67 84
67 67 84
67 67 84
67 67 84
67 67 84
67 67 84
67 67 84
67 67 84
67 67 84
67 67 84
67 67 84
67 67 84
67 67 84
67 67 84
67 67 84
67 67 84
67 67 84
67 67 84
67 67 84
67 67 84
67 67 84
67 67 84
67 67 84
67 67 84
67 67 84
67 67 84
67 67 84
67 67 84
67 67 84
67 67 84
67 67 84
67 67 84
67 67 84
67 67 84
67 67 84
67 67 84
67 67 84
67 67 84
67 67 84
67 67 84
67 67 84
67 67 84
67 67 84
67 67 84
67 67 84
66 66 84
66 66 84
66 66 84
66 66 84
66 66 84
66 66 84
66 66 84
66 66 84
66 66 84
66 66 84
66 66 84
66 66 84
66 66 84
66 66 84
66 66 84
66 66 84
66 66 84
66 66 84
66 66 84
66 66 84
66 66 84
66 66 84
66 66 84
66 66 84
66 66 84
66 66 84
66 66 84
66 66 84
66 66 84
66 66 84
66 66 84
66 66 84
66 66 84
66 66 84
66 66 84
66 66 84
66 66 84
66 66 84
66 66 83
66 66 83
66 66 83
66 66 83
66 66 83
66 66 83
66 66 83
66 66 83
66 66 83
66 66 83
66 66 83
66 66 83
66 66 83
66 66 83
66 66 83
66 66 83
66 66 83
66 66 83
66 66 83
66 66 83
66 66 83
66 66 83
66 66 83
66 66 83
66 66 83
66 66 83
66 66 83
66 66 83
66 66 83
66 66 83
66 66 83
66 66 83
66 66 83
66 66 83
66 66 83
66 66 83
66 66 83
66 66 83
66 66 83
66 66 83
66 66 83
66 66 83
66 66 83
66 66 83
66 66 83
66 66 83
66 66 83
66 66 83
66 66 83
66 66 83
66 66 83
66 66 83
66 66 83
66 66 83
66 66 83
66 66 83
66 66 83
66 66 83
66 66 83
66 66 83
66 66 83
66 66 83
66 66 83
66 66 83
66 66 83
66 66 83
66 66 83
66 66 83
66 66 83
66 66 83
66 66 83
66 66 83
66 66 83
66 66 83
66 66 83
66 66 83
66 66 83
66 66 83
66 66 83
66 66 83
66 66 83
66 66 83
66 66 83
66 66 83
66 66 83
66 66 83
66 66 83
66 66 83
66 66 83
66 66 83
66 66 83
66 66 83
66 66 83
66 66 83
66 66 83
66 66 83
66 66 83
66 66 83
66 66 83
66 66 83
66 66 83
66 66 83
66 66 83
66 66 83
67 67 84
66 66 83
66 66 83
66 66 83
66 66 83
66 66 83
66 66 83
66 66 83
66 66 83
66 66 83
66 66 83
66 66 83
66 66 83
66 66 83
66 66 83
66 66 83
66 66 83
66 66 83
66 66 83
66 66 83
66 66 83
66 66 83
66 66 83
66 66 83
66 66 83
66 66 83
66 66 83
66 66 83
66 66 83
66 66 83
66 66 83
66 66 83
66 66 83
66 66 83
66 66 83
66 66 83
66 66 83
66 66 83
66 66 83
66 66 83
66 66 83
66 66 83
66 66 83
66 66 83
66 66 83
66 66 83
66 66 83
66 66 83
66 66 83
66 66 83
66 66 83
66 66 83
66 66 83
66 66 83
66 66 83
66 66 83
66 66 83
66 66 83
66 66 83
66 66 83
66 66 83
66 66 83
66 66 83
66 66 83
66 66 84
66 66 84
66 66 84
67 67 84
67 67 84
67 67 84
67 67 84
67 67 84
67 67 84
66 66 84
67 67 84
66 66 84
67 67 84
67 67 84
66 66 84
66 66 84
67 67 84
67 67 84
67 67 84
67 67 84
67 67 84
67 67 84
67 67 84
67 67 84
66 66 84
67 67 84
67 67 84
67 67 84
67 67 84
67 67 84
67 67 84
67 67 84
66 66 84
67 67 84
67 67 84
67 67 84
67 67 84
67 67 84
67 67 84
67 67 84
67 67 84
67 67 84
67 67 84
67 67 84
67 67 84
67 67 84
67 67 84
67 67 84
67 67 84
67 67 84
67 67 84
67 67 84
67 67 84
67 67 84
67 67 84
67 67 84
67 67 84
67 67 84
67 67 84
67 67 84
67 67 84
67 67 84
67 67 84
67 67 84
67 67 84
255 255 253
255 255 255
255 255 255
255 255 255
255 255 255
255 255 255
255 255 255
255 255 255
255 255 255
255 255 255
255 255 255
255 255 255
255 255 255
255 255 255
255 255 255
255 255 255
255 255 255
255 255 255
255 255 255
255 255 255
255 255 255
255 255 255
255 255 255
255 255 255
255 255 255
255 255 255
255 255 255
255 255 255
255 255 255
255 255 255
255 255 255
67 67 84
67 67 84
67 67 84
67 67 84
67 67 84
67 67 84
67 67 84
67 67 84
67 67 84
67 67 84
67 67 84
67 67 84
67 67 84
67 67 84
67 67 84
67 67 84
67 67 84
67 67 84
67 67 84
67 67 84
67 67 84
67 67 84
67 67 84
67 67 84
67 67 84
67 67 84
67 67 84
67 67 84
67 67 84
67 67 84
67 67 84
67 67 84
67 67 84
67 67 84
67 67 84
67 67 84
67 67 84
67 67 84
67 67 84
67 67 84
67 67 84
67 67 84
67 67 84
67 67 84
67 67 84
67 67 84
67 67 84
67 67 84
67 67 84
67 67 84
67 67 84
67 67 84
67 67 84
67 67 84
67 67 84
67 67 84
67 67 84
67 67 84
67 67 84
67 67 84
67 67 84
67 67 84
67 67 84
67 67 84
67 67 84
67 67 84
67 67 84
67 67 84
67 67 84
67 67 84
67 67 84
67 67 84
67 67 84
67 67 84
67 67 84
67 67 84
67 67 84
67 67 84
67 67 84
67 67 84
67 67 84
67 67 84
67 67 84
67 67 84
67 67 84
67 67 84
67 67 84
67 67 84
67 67 84
67 67 84
67 67 84
67 67 84
67 67 84
67 67 84
67 67 84
67 67 84
67 67 84
67 67 84
67 67 84
67 67 84
67 67 84
67 67 84
67 67 84
67 67 84
67 67 84
67 67 84
67 67 84
67 67 84
67 67 84
67 67 84
67 67 84
67 67 84
67 67 84
67 67 84
67 67 84
66 66 84
66 66 84
66 66 84
66 66 84
66 66 84
66 66 84
66 66 84
66 66 84
66 66 84
66 66 84
66 66 84
66 66 84
66 66 84
66 66 84
66 66 84
66 66 84
66 66 84
66 66 84
66 66 84
66 66 84
66 66 84
66 66 84
66 66 84
66 66 84
66 66 84
66 66 84
66 66 84
66 66 84
66 66 84
66 66 84
66 66 84
66 66 84
66 66 84
66 66 83
66 66 83
66 66 83
66 66 83
66 66 83
66 66 83
66 66 83
66 66 83
66 66 83
66 66 83
66 66 83
66 66 83
66 66 83
66 66 83
66 66 83
66 66 83
66 66 83
66 66 83
66 66 83
66 66 83
66 66 83
66 66 83
66 66 83
66 66 83
66 66 83
66 66 83
66 66 83
66 66 83
66 66 83
66 66 83
66 66 83
66 66 83
66 66 83
66 66 84
66 66 83
66 66 83
66 66 83
66 66 83
66 66 83
66 66 83
66 66 83
66 66 83
66 66 83
66 66 83
66 66 83
66 66 83
66 66 83
66 66 83
66 66 83
66 66 83
66 66 83
66 66 83
66 66 83
66 66 83
66 66 83
66 66 83
66 66 83
66 66 83
66 66 83
66 66 83
66 66 83
66 66 83
66 66 83
66 66 83
66 66 83
66 66 83
66 66 83
66 66 83
66 66 83
66 66 83
66 66 83
66 66 83
66 66 83
66 66 83
66 66 83
66 66 83
66 66 83
66 66 83
66 66 83
66 66 83
66 66 83
66 66 83
66 66 83
66 66 83
66 66 83
66 66 83
66 66 83
66 66 83
66 66 83
66 66 83
66 66 83
66 66 83
66 66 83
66 66 83
66 66 83
66 66 83
66 66 83
66 66 83
66 66 83
66 66 83
66 66 83
67 67 84
66 66 83
66 66 83
66 66 83
66 66 83
66 66 83
66 66 83
66 66 83
66 66 83
67 67 84
66 66 83
66 66 83
66 66 83
67 67 84
66 66 83
66 66 83
66 66 84
66 66 83
66 66 83
66 66 83
66 66 83
66 66 83
66 66 83
66 66 83
66 66 83
66 66 83
66 66 83
66 66 83
66 66 83
66 66 83
66 66 83
66 66 83
66 66 83
66 66 83
66 66 83
66 66 83
66 66 83
66 66 83
66 66 83
66 66 83
66 66 83
66 66 83
66 66 83
66 66 83
66 66 84
66 66 84
66 66 84
66 66 84
66 66 84
66 66 84
66 66 84
66 66 84
66 66 84
66 66 84
67 67 84
67 67 84
67 67 84
66 66 84
66 66 84
67 67 84
67 67 84
67 67 84
67 67 84
66 66 84
67 67 84
67 67 84
67 67 84
67 67 84
67 67 84
67 67 84
67 67 84
67 67 84
67 67 84
66 66 84
67 67 84
67 67 84
67 67 84
67 67 84
67 67 84
67 67 84
67 67 84
67 67 84
67 67 84
67 67 84
67 67 84
67 67 84
67 67 84
67 67 84
67 67 84
67 67 84
67 67 84
67 67 84
67 67 84
67 67 84
67 67 84
67 67 84
67 67 84
67 67 84
67 67 84
67 67 84
67 67 84
67 67 84
67 67 84
67 67 84
67 67 84
67 67 84
67 67 84
67 67 84
67 67 84
67 67 84
67 67 84
67 67 84
67 67 84
67 67 84
67 67 84
67 67 84
67 67 84
67 67 84
67 67 84
67 67 84
255 255 255
255 255 255
255 255 255
255 255 255
255 255 255
255 255 255
255 255 255
255 255 255
255 255 255
255 255 255
255 255 255
255 255 255
255 255 255
255 255 255
255 255 255
255 255 255
255 255 255
255 255 255
255 255 255
255 255 255
255 255 255
255 255 255
255 255 255
255 255 255
255 255 255
255 255 255
255 255 255
255 255 255
255 255 255
255 255 255
255 255 255
255 255 255
67 67 84
67 67 84
67 67 84
67 67 84
67 67 84
67 67 84
67 67 84
67 67 84
67 67 84
67 67 84
67 67 84
67 67 84
67 67 84
67 67 84
67 67 84
67 67 84
67 67 84
67 67 84
67 67 84
67 67 84
67 67 84
67 67 84
67 67 84
67 67 84
67 67 84
67 67 84
67 67 84
67 67 84
67 67 84
67 67 84
67 67 84
67 67 84
67 67 84
67 67 84
67 67 84
67 67 84
67 67 84
67 67 84
67 67 84
67 67 84
67 67 84
67 67 84
67 67 84
67 67 84
67 67 84
67 67 84
67 67 84
67 67 84
67 67 84
67 67 84
67 67 84
67 67 84
67 67 84
67 67 84
67 67 84
67 67 84
67 67 84
67 67 84
67 67 84
67 67 84
67 67 84
67 67 84
67 67 84
67 67 84
67 67 84
67 67 84
67 67 84
67 67 84
67 67 84
67 67 84
67 67 84
67 67 84
67 67 84
67 67 84
67 67 84
67 67 84
67 67 84
67 67 84
67 67 84
67 67 84
67 67 84
67 67 84
67 67 84
67 67 84
67 67 84
67 67 84
67 67 84
67 67 84
67 67 84
67 67 84
67 67 84
67 67 84
67 67 84
67 67 84
67 67 84
67 67 84
67 67 84
67 67 84
67 67 84
67 67 84
67 67 84
67 67 84
67 67 84
67 67 84
67 67 84
67 67 84
67 67 84
67 67 84
67 67 84
67 67 84
67 67 84
67 67 84
67 67 84
67 67 84
67 67 84
67 67 84
67 67 84
67 67 84
67 67 84
67 67 84
67 67 84
67 67 84
67 67 84
67 67 84
67 67 84
67 67 84
67 67 84
67 67 84
66 66 84
66 66 84
66 66 84
66 66 84
66 66 84
66 66 84
66 66 84
66 66 84
66 66 84
66 66 84
66 66 84
66 66 84
66 66 84
66 66 84
66 66 84
66 66 84
66 66 84
66 66 84
66 66 84
66 66 84
66 66 84
66 66 84
66 66 84
66 66 84
66 66 84
66 66 84
66 66 84
66 66 84
67 67 84
66 66 84
66 66 83
66 66 84
66 66 84
66 66 84
66 66 84
67 67 84
66 66 83
67 67 84
66 66 84
66 66 84
66 66 84
67 67 84
66 66 83
67 67 84
67 67 84
66 66 84
66 66 84
66 66 84
66 66 83
66 66 84
67 67 84
66 66 84
66 66 83
66 66 83
66 66 83
66 66 83
66 66 83
66 66 83
66 66 83
66 66 84
66 66 84
66 66 83
66 66 83
66 66 83
66 66 83
66 66 83
66 66 83
66 66 83
66 66 83
66 66 83
66 66 83
66 66 83
66 66 83
66 66 83
66 66 83
66 66 83
66 66 83
66 66 83
66 66 83
66 66 83
66 66 83
66 66 83
66 66 83
66 66 83
66 66 83
66 66 83
66 66 83
66 66 83
66 66 83
66 66 83
66 66 83
66 66 83
66 66 83
66 66 83
66 66 83
66 66 83
66 66 83
66 66 83
66 66 83
66 66 83
67 67 84
66 66 83
66 66 83
66 66 83
66 66 83
66 66 83
67 67 84
66 66 83
66 66 83
66 66 83
66 66 83
66 66 83
66 66 83
66 66 83
66 66 83
66 66 83
66 66 83
66 66 83
66 66 83
66 66 83
66 66 83
66 66 83
66 66 83
66 66 83
66 66 83
66 66 83
66 66 83
66 66 83
66 66 83
66 66 83
66 66 83
67 67 84
66 66 83
66 66 83
66 66 84
66 66 83
66 66 83
66 66 83
66 66 83
66 66 83
66 66 83
66 66 83
66 66 83
66 66 83
66 66 83
66 66 83
66 66 83
66 66 83
66 66 83
66 66 83
66 66 83
66 66 83
66 66 83
66 66 83
66 66 84
66 66 84
66 66 84
66 66 84
66 66 84
66 66 84
66 66 84
66 66 84
66 66 84
66 66 84
66 66 84
66 66 84
66 66 84
66 66 84
66 66 84
66 66 84
66 66 84
66 66 84
67 67 84
67 67 84
66 66 84
66 66 84
67 67 84
67 67 84
66 66 84
67 67 84
67 67 84
67 67 84
67 67 84
67 67 84
67 67 84
67 67 84
67 67 84
67 67 84
67 67 84
67 67 84
67 67 84
67 67 84
67 67 84
67 67 84
67 67 84
67 67 84
67 67 84
67 67 84
67 67 84
67 67 84
67 67 84
67 67 84
67 67 84
67 67 84
67 67 84
67 67 84
67 67 84
67 67 84
67 67 84
67 67 84
67 67 84
67 67 84
67 67 84
67 67 84
67 67 84
67 67 84
67 67 84
67 67 84
67 67 84
67 67 84
67 67 84
67 67 84
67 67 84
67 67 84
67 67 84
67 67 84
67 67 84
67 67 84
67 67 84
67 67 84
67 67 84
67 67 84
67 67 84
67 67 84
67 67 84
67 67 84
67 67 84
67 67 84
67 67 84
255 255 235
255 255 255
255 255 255
255 255 255
255 255 255
255 255 255
255 255 255
255 255 255
255 255 255
255 255 255
255 255 255
255 255 255
255 255 255
255 255 255
255 255 255
255 255 255
255 255 255
255 255 255
255 255 255
255 255 255
255 255 255
255 255 255
255 255 255
255 255 255
255 255 255
255 255 255
255 255 255
255 255 255
255 255 255
255 255 255
255 255 255
255 255 255
255 255 255
67 67 84
67 67 84
67 67 84
67 67 84
67 67 84
67 67 84
67 67 84
67 67 84
67 67 84
67 67 84
67 67 84
67 67 84
67 67 84
67 67 84
67 67 84
67 67 84
67 67 84
67 67 84
67 67 84
67 67 84
67 67 84
67 67 84
67 67 84
67 67 84
67 67 84
67 67 84
67 67 84
67 67 84
67 67 84
67 67 84
67 67 84
67 67 84
67 67 84
67 67 84
67 67 84
67 67 84
67 67 84
67 67 84
67 67 84
67 67 84
67 67 84
67 67 84
67 67 84
67 67 84
67 67 84
67 67 84
67 67 84
67 67 84
67 67 84
67 67 84
67 67 84
67 67 84
67 67 84
67 67 84
67 67 84
67 67 84
67 67 84
67 67 84
67 67 84
67 67 84
67 67 84
67 67 84
67 67 84
67 67 84
67 67 84
67 67 84
67 67 84
67 67 84
67 67 84
67 67 84
67 67 84
67 67 84
67 67 84
67 67 84
67 67 84
67 67 84
67 67 84
67 67 84
67 67 84
67 67 84
67 67 84
67 67 84
67 67 84
67 67 84
67 67 84
67 67 84
67 67 84
67 67 84
67 67 84
67 67 84
67 67 84
67 67 84
67 67 84
67 67 84
67 67 84
67 67 84
67 67 84
67 67 84
67 67 84
67 67 84
67 67 84
67 67 84
67 67 84
67 67 84
67 67 84
67 67 84
67 67 84
67 67 84
67 67 84
67 67 84
67 67 84
67 67 84
67 67 84
67 67 84
67 67 84
67 67 84
67 67 84
67 67 84
67 67 84
67 67 84
67 67 84
67 67 84
67 67 84
67 67 84
67 67 84
67 67 84
67 67 84
67 67 84
67 67 84
67 67 84
67 67 84
67 67 84
67 67 84
67 67 84
67 67 84
67 67 84
67 67 84
67 67 84
67 67 84
67 67 84
67 67 84
66 66 84
67 67 84
67 67 84
66 66 84
67 67 84
67 67 84
66 66 84
67 67 84
66 66 84
67 67 84
66 66 84
67 67 84
67 67 84
67 67 84
67 67 84
66 66 84
67 67 84
66 66 84
67 67 84
67 67 84
67 67 84
67 67 84
67 67 84
66 66 84
66 66 84
66 66 84
67 67 84
66 66 83
67 67 84
66 66 84
67 67 84
67 67 84
66 66 84
66 66 83
66 66 84
66 66 84
67 67 84
66 66 83
66 66 83
66 66 83
66 66 83
66 66 83
66 66 83
66 66 83
66 66 83
66 66 83
66 66 83
66 66 83
66 66 84
66 66 83
67 67 84
66 66 83
66 66 84
67 67 84
66 66 83
66 66 83
66 66 84
67 67 84
66 66 83
66 66 83
66 66 83
66 66 83
66 66 83
66 66 83
66 66 83
66 66 83
66 66 83
67 67 84
66 66 83
66 66 83
66 66 83
66 66 83
66 66 83
66 66 83
66 66 83
66 66 83
66 66 83
66 66 83
66 66 83
66 66 83
66 66 83
66 66 83
66 66 83
66 66 83
66 66 83
66 66 83
66 66 83
66 66 83
66 66 83
66 66 83
66 66 83
66 66 83
66 66 83
67 67 84
66 66 83
66 66 83
66 66 83
66 66 83
66 66 83
66 66 83
66 66 83
66 66 83
66 66 83
66 66 83
66 66 83
66 66 83
67 67 84
66 66 83
67 67 84
67 67 84
66 66 83
66 66 83
67 67 84
66 66 83
66 66 84
66 66 84
67 67 84
66 66 84
67 67 84
66 66 84
66 66 83
66 66 83
66 66 83
66 66 83
66 66 83
66 66 83
66 66 83
66 66 83
66 66 83
66 66 83
66 66 83
66 66 84
66 66 84
66 66 84
66 66 84
66 66 84
66 66 84
66 66 84
66 66 84
66 66 84
66 66 84
66 66 84
66 66 84
66 66 84
66 66 84
66 66 84
66 66 84
66 66 84
66 66 84
66 66 84
66 66 84
66 66 84
66 66 84
66 66 84
66 66 84
66 66 84
66 66 84
67 67 84
67 67 84
67 67 84
67 67 84
67 67 84
67 67 84
67 67 84
67 67 84
67 67 84
67 67 84
67 67 84
67 67 84
67 67 84
67 67 84
67 67 84
67 67 84
67 67 84
67 67 84
67 67 84
67 67 84
67 67 84
67 67 84
67 67 84
67 67 84
67 67 84
67 67 84
67 67 84
67 67 84
67 67 84
67 67 84
67 67 84
67 67 84
67 67 84
67 67 84
67 67 84
67 67 84
67 67 84
67 67 84
67 67 84
67 67 84
67 67 84
67 67 84
67 67 84
67 67 84
67 67 84
67 67 84
67 67 84
67 67 84
67 67 84
67 67 84
67 67 84
67 67 84
67 67 84
67 67 84
67 67 84
67 67 84
67 67 84
67 67 84
67 67 84
67 67 84
67 67 84
67 67 84
67 67 84
67 67 84
67 67 84
67 67 84
67 67 84
67 67 84
67 67 84
255 255 255
255 255 255
255 255 255
255 255 255
255 255 255
255 255 255
255 255 255
255 255 255
255 255 255
255 255 255
255 255 255
255 255 255
255 255 255
255 255 255
255 255 255
255 255 255
255 255 255
255 255 255
255 255 255
255 255 255
255 255 255
255 255 255
255 255 255
255 255 255
255 255 255
255 255 255
255 255 255
255 255 255
255 255 255
255 255 255
255 255 255
255 255 255
255 255 255
248 242 202
67 67 84
67 67 84
67 67 84
67 67 84
67 67 84
67 67 84
67 67 84
67 67 84
67 67 84
67 67 84
67 67 84
67 67 84
67 67 84
67 67 84
67 67 84
67 67 84
67 67 84
67 67 84
67 67 84
67 67 84
67 67 84
67 67 84
67 67 84
67 67 84
67 67 84
67 67 84
67 67 84
67 67 84
67 67 84
67 67 84
67 67 84
67 67 84
67 67 84
67 67 84
67 67 84
67 67 84
67 67 84
67 67 84
67 67 84
67 67 84
67 67 84
67 67 84
67 67 84
67 67 84
67 67 84
67 67 84
67 67 84
67 67 84
67 67 84
67 67 84
67 67 84
67 67 84
67 67 84
67 67 84
67 67 84
67 67 84
67 67 84
67 67 84
67 67 84
67 67 84
67 67 84
67 67 84
67 67 84
67 67 84
67 67 84
67 67 84
67 67 84
67 67 84
67 67 84
67 67 84
67 67 84
67 67 84
67 67 84
67 67 84
67 67 84
67 67 84
67 67 84
67 67 84
67 67 84
67 67 84
67 67 84
67 67 84
67 67 84
67 67 84
67 67 84
67 67 84
67 67 84
67 67 84
67 67 84
67 67 84
67 67 84
67 67 84
67 67 84
67 67 84
67 67 84
67 67 84
67 67 84
67 67 84
67 67 84
67 67 84
67 67 84
67 67 84
67 67 84
67 67 84
67 67 84
67 67 84
67 67 84
67 67 84
67 67 84
67 67 84
67 67 84
67 67 84
67 67 84
67 67 84
67 67 84
67 67 84
67 67 84
67 67 84
67 67 84
67 67 84
67 67 84
67 67 84
67 67 84
67 67 84
67 67 84
67 67 84
67 67 84
67 67 84
67 67 84
67 67 84
67 67 84
67 67 84
67 67 84
67 67 84
67 67 84
67 67 84
67 67 84
67 67 84
67 67 84
67 67 84
67 67 84
67 67 84
67 67 84
67 67 84
67 67 84
67 67 84
67 67 84
67 67 84
67 67 84
67 67 84
67 67 84
67 67 84
67 67 84
67 67 84
66 66 84
67 67 84
66 66 84
67 67 84
66 66 84
67 67 84
66 66 84
67 67 84
67 67 84
67 67 84
67 67 84
67 67 84
66 66 84
66 66 84
67 67 84
67 67 84
67 67 84
67 67 84
67 67 84
67 67 84
67 67 84
67 67 84
67 67 84
66 66 84
66 66 83
66 66 84
66 66 83
66 66 84
67 67 84
66 66 84
66 66 84
66 66 83
66 66 84
66 66 84
66 66 84
66 66 84
66 66 83
67 67 84
67 67 84
66 66 83
66 66 84
66 66 83
66 66 84
67 67 84
66 66 84
66 66 83
66 66 83
66 66 83
66 66 83
66 66 83
67 67 84
66 66 83
66 66 83
66 66 83
66 66 84
66 66 83
66 66 83
66 66 84
66 66 83
66 66 84
67 67 84
66 66 83
66 66 83
66 66 83
66 66 83
67 67 84
66 66 83
66 66 83
66 66 83
66 66 83
66 66 83
66 66 83
66 66 83
66 66 83
66 66 83
66 66 84
66 66 83
66 66 83
66 66 83
66 66 83
66 66 84
66 66 83
66 66 83
66 66 83
66 66 83
66 66 84
66 66 84
66 66 83
66 66 83
66 66 83
66 66 83
66 66 83
67 67 84
66 66 83
67 67 84
66 66 83
66 66 84
66 66 83
66 66 83
66 66 83
66 66 84
66 66 84
66 66 84
66 66 83
67 67 84
67 67 84
66 66 83
66 66 83
66 66 84
66 66 84
66 66 84
66 66 84
66 66 84
66 66 84
66 66 84
66 66 84
66 66 84
66 66 84
66 66 84
66 66 84
66 66 84
66 66 84
66 66 84
66 66 84
66 66 84
66 66 84
66 66 84
66 66 84
66 66 84
66 66 84
66 66 84
66 66 84
66 66 84
67 67 84
67 67 84
67 67 84
67 67 84
67 67 84
67 67 84
67 67 84
67 67 84
67 67 84
67 67 84
67 67 84
67 67 84
67 67 84
67 67 84
67 67 84
67 67 84
67 67 84
67 67 84
67 67 84
67 67 84
67 67 84
67 67 84
67 67 84
67 67 84
67 67 84
67 67 84
67 67 84
67 67 84
67 67 84
67 67 84
67 67 84
67 67 84
67 67 84
67 67 84
67 67 84
67 67 84
67 67 84
67 67 84
67 67 84
67 67 84
67 67 84
67 67 84
67 67 84
67 67 84
67 67 84
67 67 84
67 67 84
67 67 84
67 67 84
67 67 84
67 67 84
67 67 84
67 67 84
67 67 84
67 67 84
67 67 84
67 67 84
67 67 84
67 67 84
67 67 84
67 67 84
67 67 84
67 67 84
67 67 84
67 67 84
67 67 84
67 67 84
67 67 84
67 67 84
67 67 84
67 67 84
67 67 84
67 67 84
67 67 84
67 67 84
67 67 84
67 67 84
67 67 84
67 67 84
255 255 255
255 255 255
255 255 255
255 255 255
255 255 255
255 255 255
255 255 255
255 255 255
255 255 255
255 255 255
255 255 255
255 255 255
255 255 255
255 255 255
255 255 255
255 255 255
255 255 255
255 255 255
255 255 255
255 255 255
255 255 255
255 255 255
255 255 255
255 255 255
255 255 255
255 255 255
255 255 255
255 255 255
255 255 255
255 255 255
255 255 255
255 255 255
255 255 255
255 255 255
67 67 84
67 67 84
67 67 84
67 67 84
67 67 84
67 67 84
67 67 84
67 67 84
67 67 84
67 67 84
67 67 84
67 67 84
67 67 84
67 67 84
67 67 84
67 67 84
67 67 84
67 67 84
67 67 84
67 67 84
67 67 84
67 67 84
67 67 84
67 67 84
67 67 84
67 67 84
67 67 84
67 67 84
67 67 84
67 67 84
67 67 84
67 67 84
67 67 84
67 67 84
67 67 84
67 67 84
67 67 84
67 67 84
67 67 84
67 67 84
67 67 84
67 67 84
67 67 84
67 67 84
67 67 84
67 67 84
67 67 84
67 67 84
67 67 84
67 67 84
67 67 84
67 67 84
67 67 84
67 67 84
67 67 84
67 67 84
67 67 84
67 67 84
67 67 84
67 67 84
67 67 84
67 67 84
67 67 84
67 67 84
67 67 84
67 67 84
67 67 84
67 67 84
67 67 84
67 67 84
67 67 84
67 67 84
67 67 84
67 67 84
67 67 84
67 67 84
67 67 84
67 67 84
67 67 84
67 67 84
67 67 84
67 67 84
67 67 84
67 67 84
67 67 84
67 67 84
67 67 84
67 67 84
67 67 84
67 67 84
67 67 84
67 67 84
67 67 84
67 67 84
67 67 84
67 67 84
67 67 84
67 67 84
67 67 84
67 67 84
67 67 84
67 67 84
67 67 84
67 67 84
67 67 84
67 67 84
67 67 84
67 67 84
67 67 84
67 67 84
67 67 84
67 67 84
67 67 84
67 67 84
67 67 84
67 67 84
67 67 84
67 67 84
67 67 84
67 67 84
67 67 84
67 67 84
67 67 84
67 67 84
67 67 84
67 67 84
67 67 84
67 67 84
67 67 84
67 67 84
67 67 84
67 67 84
67 67 84
67 67 84
67 67 84
67 67 84
67 67 84
67 67 84
67 67 84
67 67 84
67 67 84
67 67 84
67 67 84
67 67 84
67 67 84
67 67 84
67 67 84
67 67 84
67 67 84
67 67 84
67 67 84
67 67 84
67 67 84
67 67 84
67 67 84
67 67 84
67 67 84
67 67 84
67 67 84
67 67 84
67 67 84
67 67 84
67 67 84
67 67 84
67 67 84
67 67 84
67 67 84
67 67 84
67 67 84
67 67 84
67 67 84
67 67 84
67 67 84
67 67 84
67 67 84
67 67 84
67 67 84
66 66 84
66 66 84
67 67 84
67 67 84
67 67 84
67 67 84
66 66 84
67 67 84
66 66 84
67 67 84
67 67 84
66 66 84
66 66 83
66 66 84
66 66 83
66 66 84
67 67 84
66 66 84
66 66 84
66 66 83
66 66 83
66 66 83
66 66 83
67 67 84
66 66 83
67 67 84
66 66 83
66 66 83
66 66 83
66 66 84
66 66 83
66 66 83
66 66 83
66 66 83
66 66 84
66 66 83
66 66 83
66 66 83
66 66 83
66 66 83
66 66 83
66 66 83
66 66 83
66 66 84
66 66 83
66 66 83
66 66 83
66 66 84
66 66 83
66 66 83
66 66 84
66 66 84
66 66 83
66 66 84
66 66 83
66 66 83
66 66 84
66 66 83
66 66 83
66 66 83
67 67 84
66 66 83
66 66 83
66 66 84
67 67 84
66 66 84
67 67 84
66 66 83
66 66 84
66 66 83
66 66 83
67 67 84
66 66 84
66 66 83
67 67 84
66 66 84
66 66 84
66 66 84
66 66 84
67 67 84
67 67 84
66 66 84
66 66 84
66 66 84
66 66 84
66 66 84
66 66 84
66 66 84
66 66 84
66 66 84
66 66 84
66 66 84
66 66 84
66 66 84
66 66 84
66 66 84
66 66 84
66 66 84
66 66 84
66 66 84
67 67 84
67 67 84
67 67 84
67 67 84
67 67 84
67 67 84
67 67 84
67 67 84
67 67 84
67 67 84
67 67 84
67 67 84
67 67 84
67 67 84
67 67 84
67 67 84
67 67 84
67 67 84
67 67 84
67 67 84
67 67 84
67 67 84
67 67 84
67 67 84
67 67 84
67 67 84
67 67 84
67 67 84
67 67 84
67 67 84
67 67 84
67 67 84
67 67 84
67 67 84
67 67 84
67 67 84
67 67 84
67 67 84
67 67 84
67 67 84
67 67 84
67 67 84
67 67 84
67 67 84
67 67 84
67 67 84
67 67 84
67 67 84
67 67 84
67 67 84
67 67 84
67 67 84
67 67 84
67 67 84
67 67 84
67 67 84
67 67 84
67 67 84
67 67 84
67 67 84
67 67 84
67 67 84
67 67 84
67 67 84
67 67 84
67 67 84
67 67 84
67 67 84
67 67 84
67 67 84
67 67 84
67 67 84
67 67 84
67 67 84
67 67 84
67 67 84
67 67 84
67 67 84
67 67 84
67 67 84
67 67 84
67 67 84
67 67 84
67 67 84
67 67 84
67 67 84
67 67 84
67 67 84
192 188 162
255 255 255
255 255 255
255 255 255
255 255 255
255 255 255
255 255 255
255 255 255
255 255 255
255 255 255
255 255 255
255 255 255
255 255 255
255 255 255
255 255 255
255 255 255
255 255 255
255 255 255
255 255 255
255 255 255
255 255 255
255 255 255
255 255 255
255 255 255
255 255 255
255 255 255
255 255 255
255 255 255
255 255 255
255 255 255
255 255 255
255 255 255
255 255 255
255 255 255
255 255 255
67 67 84
67 67 84
67 67 84
67 67 84
67 67 84
67 67 84
67 67 84
67 67 84
67 67 84
67 67 84
67 67 84
67 67 84
67 67 84
67 67 84
67 67 84
67 67 84
67 67 84
67 67 84
67 67 84
67 67 84
67 67 84
67 67 84
67 67 84
67 67 84
67 67 84
67 67 84
67 67 84
67 67 84
67 67 84
67 67 84
67 67 84
67 67 84
67 67 84
67 67 84
67 67 84
67 67 84
67 67 84
67 67 84
67 67 84
67 67 84
67 67 84
67 67 84
67 67 84
67 67 84
67 67 84
67 67 84
67 67 84
67 67 84
67 67 84
67 67 84
67 67 84
67 67 84
67 67 84
67 67 84
67 67 84
67 67 84
67 67 84
67 67 84
67 67 84
67 67 84
67 67 84
67 67 84
67 67 84
67 67 84
67 67 84
67 67 84
67 67 84
67 67 84
67 67 84
67 67 84
67 67 84
67 67 84
67 67 84
67 67 84
67 67 84
67 67 84
67 67 84
67 67 84
67 67 84
67 67 84
67 67 84
67 67 84
67 67 84
67 67 84
67 67 84
67 67 84
67 67 84
67 67 84
67 67 84
67 67 84
67 67 84
67 67 84
67 67 84
67 67 84
67 67 84
67 67 84
67 67 84
67 67 84
67 67 84
67 67 84
67 67 84
67 67 84
67 67 84
67 67 84
67 67 84
67 67 84
67 67 84
67 67 84
67 67 84
67 67 84
67 67 84
67 67 84
67 67 84
67 67 84
67 67 84
67 67 84
67 67 84
67 67 84
67 67 84
67 67 84
67 67 84
67 67 84
67 67 84
67 67 84
67 67 84
67 67 84
67 67 84
67 67 84
67 67 84
67 67 84
67 67 84
67 67 84
67 67 84
67 67 84
67 67 84
67 67 84
67 67 84
67 67 84
67 67 84
67 67 84
67 67 84
67 67 84
67 67 84
67 67 84
67 67 84
67 67 84
67 67 84
67 67 84
67 67 84
67 67 84
67 67 84
67 67 84
67 67 84
67 67 84
67 67 84
67 67 84
67 67 84
67 67 84
67 67 84
67 67 84
67 67 84
67 67 84
67 67 84
67 67 84
67 67 84
67 67 84
67 67 84
67 67 84
67 67 84
67 67 84
67 67 84
67 67 84
67 67 84
67 67 84
67 67 84
67 67 84
67 67 84
67 67 84
67 67 84
67 67 84
67 67 84
66 66 84
66 66 84
67 67 84
67 67 84
67 67 84
66 66 84
67 67 84
67 67 84
66 66 84
66 66 84
67 67 84
66 66 84
67 67 84
66 66 84
66 66 83
67 67 84
67 67 84
66 66 83
66 66 84
67 67 84
66 66 83
66 66 83
66 66 84
66 66 83
66 66 83
66 66 84
66 66 83
66 66 83
67 67 84
66 66 83
66 66 83
66 66 83
66 66 84
66 66 83
66 66 83
66 66 83
66 66 83
66 66 83
66 66 83
66 66 83
66 66 83
66 66 83
66 66 83
66 66 84
66 66 83
67 67 84
66 66 83
67 67 84
66 66 83
66 66 84
67 67 84
66 66 83
66 66 83
67 67 84
66 66 84
67 67 84
67 67 84
66 66 83
66 66 84
67 67 84
66 66 83
67 67 84
66 66 84
66 66 84
67 67 84
66 66 84
66 66 84
66 66 84
66 66 84
67 67 84
67 67 84
67 67 84
67 67 84
67 67 84
66 66 84
66 66 84
66 66 84
66 66 84
66 66 84
66 66 84
66 66 84
66 66 84
66 66 84
66 66 84
66 66 84
66 66 84
67 67 84
67 67 84
67 67 84
67 67 84
67 67 84
67 67 84
67 67 84
67 67 84
67 67 84
67 67 84
67 67 84
67 67 84
67 67 84
67 67 84
67 67 84
67 67 84
67 67 84
67 67 84
67 67 84
67 67 84
67 67 84
67 67 84
67 67 84
67 67 84
67 67 84
67 67 84
67 67 84
67 67 84
67 67 84
67 67 84
67 67 84
67 67 84
67 67 84
67 67 84
67 67 84
67 67 84
67 67 84
67 67 84
67 67 84
67 67 84
67 67 84
67 67 84
67 67 84
67 67 84
67 67 84
67 67 84
67 67 84
67 67 84
67 67 84
67 67 84
67 67 84
67 67 84
67 67 84
67 67 84
67 67 84
67 67 84
67 67 84
67 67 84
67 67 84
67 67 84
67 67 84
67 67 84
67 67 84
67 67 84
67 67 84
67 67 84
67 67 84
67 67 84
67 67 84
67 67 84
67 67 84
67 67 84
67 67 84
67 67 84
67 67 84
67 67 84
67 67 84
67 67 84
67 67 84
67 67 84
67 67 84
67 67 84
67 67 84
67 67 84
67 67 84
67 67 84
67 67 84
67 67 84
67 67 84
67 67 84
67 67 84
67 67 84
67 67 84
67 67 84
67 67 84
67 67 84
67 67 84
67 67 84
255 255 255
255 255 255
255 255 255
255 255 255
255 255 255
255 255 255
255 255 255
255 255 255
255 255 255
255 255 255
255 255 255
255 255 255
255 255 255
255 255 255
255 255 255
255 255 255
255 255 255
255 255 255
255 255 255
255 255 255
255 255 255
255 255 255
255 255 255
255 255 255
255 255 255
255 255 255
255 255 255
255 255 255
255 255 255
255 255 255
255 255 255
255 255 255
255 255 255
255 255 255
255 255 255
67 67 84
67 67 84
67 67 84
67 67 84
67 67 84
67 67 84
67 67 84
67 67 84
67 67 84
67 67 84
67 67 84
67 67 84
67 67 84
67 67 84
67 67 84
67 67 84
67 67 84
67 67 84
67 67 84
67 67 84
67 67 84
67 67 84
67 67 84
67 67 84
67 67 84
67 67 84
67 67 84
67 67 84
67 67 84
67 67 84
67 67 84
67 67 84
67 67 84
67 67 84
67 67 84
67 67 84
67 67 84
67 67 84
67 67 84
67 67 84
67 67 84
67 67 84
67 67 84
67 67 84
67 67 84
67 67 84
67 67 84
67 67 84
67 67 84
67 67 84
67 67 84
67 67 84
67 67 84
67 67 84
67 67 84
67 67 84
67 67 84
67 67 84
67 67 84
67 67 84
67 67 84
67 67 84
67 67 84
67 67 84
67 67 84
67 67 84
67 67 84
67 67 84
67 67 84
67 67 84
67 67 84
67 67 84
67 67 84
67 67 84
67 67 84
67 67 84
67 67 84
67 67 84
67 67 84
67 67 84
67 67 84
67 67 84
67 67 84
67 67 84
67 67 84
67 67 84
67 67 84
67 67 84
67 67 84
67 67 84
67 67 84
67 67 84
67 67 84
67 67 84
67 67 84
67 67 84
67 67 84
67 67 84
67 67 84
67 67 84
67 67 84
67 67 84
67 67 84
67 67 84
67 67 84
67 67 84
67 67 84
67 67 84
67 67 84
67 67 84
67 67 84
67 67 84
67 67 84
67 67 84
67 67 84
67 67 84
67 67 84
67 67 84
67 67 84
67 67 84
67 67 84
67 67 84
67 67 84
67 67 84
67 67 84
67 67 84
67 67 84
67 67 84
67 67 84
67 67 84
67 67 84
67 67 84
67 67 84
67 67 84
67 67 84
67 67 84
67 67 84
67 67 84
67 67 84
67 67 84
67 67 84
67 67 84
67 67 84
67 67 84
67 67 84
67 67 84
67 67 84
67 67 84
67 67 84
67 67 84
67 67 84
67 67 84
67 67 84
67 67 84
67 67 84
67 67 84
67 67 84
67 67 84
67 67 84
67 67 84
67 67 84
67 67 84
67 67 84
67 67 84
67 67 84
67 67 84
67 67 84
67 67 84
67 67 84
67 67 84
67 67 84
67 67 84
67 67 84
67 67 84
67 67 84
67 67 84
67 67 84
67 67 84
67 67 84
67 67 84
67 67 84
67 67 84
67 67 84
66 66 84
67 67 84
66 66 84
67 67 84
67 67 84
67 67 84
67 67 84
66 66 84
67 67 84
67 67 84
66 66 84
67 67 84
67 67 84
66 66 84
66 66 84
67 67 84
66 66 84
66 66 84
67 67 84
67 67 84
67 67 84
67 67 84
67 67 84
67 67 84
66 66 83
67 67 84
67 67 84
66 66 83
67 67 84
66 66 83
66 66 84
66 66 84
67 67 84
67 67 84
66 66 84
67 67 84
66 66 83
67 67 84
66 66 84
66 66 84
66 66 83
66 66 83
66 66 83
66 66 83
66 66 84
66 66 83
66 66 84
66 66 83
66 66 84
67 67 84
66 66 84
67 67 84
66 66 83
66 66 83
67 67 84
67 67 84
67 67 84
67 67 84
67 67 84
67 67 84
67 67 84
67 67 84
67 67 84
66 66 84
67 67 84
67 67 84
67 67 84
66 66 84
66 66 84
67 67 84
67 67 84
66 66 84
66 66 84
66 66 84
66 66 84
66 66 84
67 67 84
67 67 84
67 67 84
67 67 84
67 67 84
67 67 84
67 67 84
67 67 84
67 67 84
67 67 84
67 67 84
67 67 84
67 67 84
67 67 84
67 67 84
67 67 84
67 67 84
67 67 84
67 67 84
67 67 84
67 67 84
67 67 84
67 67 84
67 67 84
67 67 84
67 67 84
67 67 84
67 67 84
67 67 84
67 67 84
67 67 84
67 67 84
67 67 84
67 67 84
67 67 84
67 67 84
67 67 84
67 67 84
67 67 84
67 67 84
67 67 84
67 67 84
67 67 84
67 67 84
67 67 84
67 67 84
67 67 84
67 67 84
67 67 84
67 67 84
67 67 84
67 67 84
67 67 84
67 67 84
67 67 84
67 67 84
67 67 84
67 67 84
67 67 84
67 67 84
67 67 84
67 67 84
67 67 84
67 67 84
67 67 84
67 67 84
67 67 84
67 67 84
67 67 84
67 67 84
67 67 84
67 67 84
67 67 84
67 67 84
67 67 84
67 67 84
67 67 84
67 67 84
67 67 84
67 67 84
67 67 84
67 67 84
67 67 84
67 67 84
67 67 84
67 67 84
67 67 84
67 67 84
67 67 84
67 67 84
67 67 84
67 67 84
67 67 84
67 67 84
67 67 84
67 67 84
67 67 84
67 67 84
67 67 84
67 67 84
67 67 84
67 67 84
67 67 84
67 67 84
67 67 84
67 67 84
255 255 255
255 255 255
255 255 255
255 255 255
255 255 255
255 255 255
255 255 255
255 255 255
255 255 255
255 255 255
255 255 255
255 255 255
255 255 255
255 255 255
255 255 255
255 255 255
255 255 255
255 255 255
255 255 255
255 255 255
255 255 255
255 255 255
255 255 255
255 255 255
255 255 255
255 255 255
255 255 255
255 255 255
255 255 255
255 255 255
255 255 255
255 255 255
255 255 255
255 255 255
255 255 255
67 67 84
67 67 84
67 67 84
67 67 84
67 67 84
67 67 84
67 67 84
67 67 84
67 67 84
67 67 84
67 67 84
67 67 84
67 67 84
67 67 84
67 67 84
67 67 84
67 67 84
67 67 84
67 67 84
67 67 84
67 67 84
67 67 84
67 67 84
67 67 84
67 67 84
67 67 84
67 67 84
67 67 84
67 67 84
67 67 84
67 67 84
67 67 84
67 67 84
67 67 84
67 67 84
67 67 84
67 67 84
67 67 84
67 67 84
67 67 84
67 67 84
67 67 84
67 67 84
67 67 84
67 67 84
67 67 84
67 67 84
67 67 84
67 67 84
67 67 84
67 67 84
67 67 84
67 67 84
67 67 84
67 67 84
67 67 84
67 67 84
67 67 84
67 67 84
67 67 84
67 67 84
67 67 84
67 67 84
67 67 84
67 67 84
67 67 84
67 67 84
67 67 84
67 67 84
67 67 84
67 67 84
67 67 84
67 67 84
67 67 84
67 67 84
67 67 84
67 67 84
67 67 84
67 67 84
67 67 84
67 67 84
67 67 84
67 67 84
67 67 84
67 67 84
67 67 84
67 67 84
67 67 84
67 67 84
67 67 84
67 67 84
67 67 84
67 67 84
67 67 84
67 67 84
67 67 84
67 67 84
67 67 84
67 67 84
67 67 84
67 67 84
67 67 84
67 67 84
67 67 84
67 67 84
67 67 84
67 67 84
67 67 84
67 67 84
67 67 84
67 67 84
67 67 84
67 67 84
67 67 84
67 67 84
67 67 84
67 67 84
67 67 84
67 67 84
67 67 84
67 67 84
67 67 84
67 67 84
67 67 84
67 67 84
67 67 84
67 67 84
67 67 84
67 67 84
67 67 84
67 67 84
67 67 84
67 67 84
67 67 84
67 67 84
67 67 84
67 67 84
67 67 84
67 67 84
67 67 84
67 67 84
67 67 84
67 67 84
67 67 84
67 67 84
67 67 84
67 67 84
67 67 84
67 67 84
67 67 84
67 67 84
67 67 84
67 67 84
67 67 84
67 67 84
67 67 84
67 67 84
67 67 84
67 67 84
67 67 84
67 67 84
67 67 84
67 67 84
67 67 84
67 67 84
67 67 84
67 67 84
67 67 84
67 67 84
67 67 84
67 67 84
67 67 84
67 67 84
67 67 84
67 67 84
67 67 84
67 67 84
67 67 84
67 67 84
67 67 84
67 67 84
67 67 84
67 67 84
67 67 84
67 67 84
67 67 84
67 67 84
67 67 84
67 67 84
67 67 84
67 67 84
66 66 84
67 67 84
67 67 84
66 66 84
66 66 84
67 67 84
67 67 84
67 67 84
67 67 84
66 66 84
67 67 84
67 67 84
66 66 84
66 66 84
67 67 84
66 66 84
67 67 84
66 66 84
67 67 84
67 67 84
66 66 84
67 67 84
66 66 84
66 66 84
66 66 84
66 66 83
66 66 84
66 66 84
67 67 84
66 66 83
66 66 83
66 66 83
66 66 84
67 67 84
66 66 84
66 66 84
66 66 84
66 66 84
67 67 84
66 66 84
66 66 84
67 67 84
67 67 84
66 66 84
66 66 84
67 67 84
67 67 84
66 66 84
67 67 84
67 67 84
67 67 84
67 67 84
67 67 84
67 67 84
67 67 84
67 67 84
67 67 84
67 67 84
67 67 84
67 67 84
67 67 84
67 67 84
67 67 84
67 67 84
67 67 84
67 67 84
67 67 84
67 67 84
67 67 84
67 67 84
67 67 84
67 67 84
67 67 84
67 67 84
67 67 84
67 67 84
67 67 84
67 67 84
67 67 84
67 67 84
67 67 84
67 67 84
67 67 84
67 67 84
67 67 84
67 67 84
67 67 84
67 67 84
67 67 84
67 67 84
67 67 84
67 67 84
67 67 84
67 67 84
67 67 84
67 67 84
67 67 84
67 67 84
67 67 84
67 67 84
67 67 84
67 67 84
67 67 84
67 67 84
67 67 84
67 67 84
67 67 84
67 67 84
67 67 84
67 67 84
67 67 84
67 67 84
67 67 84
67 67 84
67 67 84
67 67 84
67 67 84
67 67 84
67 67 84
67 67 84
67 67 84
67 67 84
67 67 84
67 67 84
67 67 84
67 67 84
67 67 84
67 67 84
67 67 84
67 67 84
67 67 84
67 67 84
67 67 84
67 67 84
67 67 84
67 67 84
67 67 84
67 67 84
67 67 84
67 67 84
67 67 84
67 67 84
67 67 84
67 67 84
67 67 84
67 67 84
67 67 84
67 67 84
67 67 84
67 67 84
67 67 84
67 67 84
67 67 84
67 67 84
67 67 84
67 67 84
67 67 84
67 67 84
67 67 84
67 67 84
67 67 84
67 67 84
67 67 84
67 67 84
67 67 84
67 67 84
67 67 84
67 67 84
67 67 84
67 67 84
67 67 84
67 67 84
67 67 84
67 67 84
255 255 255
255 255 255
255 255 255
255 255 255
255 255 255
255 255 255
255 255 255
255 255 255
255 255 255
255 255 255
255 255 255
255 255 255
255 255 255
255 255 255
255 255 255
255 255 255
255 255 255
255 255 255
255 255 255
255 255 255
255 255 255
255 255 255
255 255 255
255 255 255
255 255 255
255 255 255
255 255 255
255 255 255
255 255 255
255 255 255
255 255 255
255 255 255
255 255 255
255 255 255
255 255 255
165 161 143
67 67 84
67 67 84
67 67 84
67 67 84
67 67 84
67 67 84
67 67 85
67 67 84
67 67 84
67 67 84
67 67 84
67 67 84
67 67 84
67 67 84
67 67 84
67 67 84
67 67 84
67 67 84
67 67 84
67 67 84
67 67 84
67 67 84
67 67 84
67 67 84
67 67 84
67 67 84
67 67 84
67 67 84
67 67 84
67 67 84
67 67 84
67 67 84
67 67 84
67 67 84
67 67 84
67 67 84
67 67 84
67 67 84
67 67 84
67 67 84
67 67 84
67 67 84
67 67 84
67 67 84
67 67 84
67 67 84
67 67 84
67 67 84
67 67 84
67 67 84
67 67 84
67 67 84
67 67 84
67 67 84
67 67 84
67 67 84
67 67 84
67 67 84
67 67 84
67 67 84
67 67 84
67 67 84
67 67 84
67 67 84
67 67 84
67 67 84
67 67 84
67 67 84
67 67 84
67 67 84
67 67 84
67 67 84
67 67 84
67 67 84
67 67 84
67 67 84
67 67 84
67 67 84
67 67 84
67 67 84
67 67 84
67 67 84
67 67 84
67 67 84
67 67 84
67 67 84
67 67 84
67 67 84
67 67 84
67 67 84
67 67 84
67 67 84
67 67 84
67 67 84
67 67 84
67 67 84
67 67 84
67 67 84
67 67 84
67 67 84
67 67 84
67 67 84
67 67 84
67 67 84
67 67 84
67 67 84
67 67 84
67 67 84
67 67 84
67 67 84
67 67 84
67 67 84
67 67 84
67 67 84
67 67 84
67 67 84
67 67 84
67 67 84
67 67 84
67 67 84
67 67 84
67 67 84
67 67 84
67 67 84
67 67 84
67 67 84
67 67 84
67 67 84
67 67 84
67 67 84
67 67 84
67 67 84
67 67 84
67 67 84
67 67 84
67 67 84
67 67 84
67 67 84
67 67 84
67 67 84
67 67 84
67 67 84
67 67 84
67 67 84
67 67 84
67 67 84
67 67 84
67 67 84
67 67 84
67 67 84
67 67 84
67 67 84
67 67 84
67 67 84
67 67 84
67 67 84
67 67 84
67 67 84
67 67 84
67 67 84
67 67 84
67 67 84
67 67 84
67 67 84
67 67 84
67 67 84
67 67 84
67 67 84
67 67 84
67 67 84
67 67 84
67 67 84
67 67 84
67 67 84
67 67 84
67 67 84
67 67 84
67 67 84
67 67 84
67 67 84
67 67 84
67 67 84
67 67 84
67 67 84
67 67 84
67 67 84
67 67 84
67 67 84
67 67 84
67 67 84
67 67 84
67 67 84
67 67 84
67 67 84
67 67 84
67 67 84
67 67 84
67 67 84
67 67 84
67 67 84
66 66 84
67 67 84
67 67 84
66 66 84
66 66 84
67 67 84
67 67 84
67 67 84
67 67 84
67 67 84
67 67 84
66 66 84
67 67 84
67 67 84
67 67 84
67 67 84
66 66 84
66 66 84
66 66 84
66 66 84
66 66 83
66 66 84
66 66 84
67 67 84
66 66 84
67 67 84
67 67 84
67 67 84
66 66 84
66 66 84
66 66 84
67 67 84
66 66 84
67 67 84
67 67 84
66 66 84
67 67 84
67 67 84
66 66 84
67 67 84
67 67 84
67 67 84
67 67 84
67 67 84
67 67 84
67 67 84
67 67 84
67 67 84
67 67 84
67 67 84
67 67 84
67 67 84
67 67 84
67 67 84
67 67 84
67 67 84
67 67 84
67 67 84
67 67 84
67 67 84
67 67 84
67 67 84
67 67 84
67 67 84
67 67 84
67 67 84
67 67 84
67 67 84
67 67 84
67 67 84
67 67 84
67 67 84
67 67 84
67 67 84
67 67 84
67 67 84
67 67 84
67 67 84
67 67 84
67 67 84
67 67 84
67 67 84
67 67 84
67 67 84
67 67 84
67 67 84
67 67 84
67 67 84
67 67 84
67 67 84
67 67 84
67 67 84
67 67 84
67 67 84
67 67 84
67 67 84
67 67 84
67 67 84
67 67 84
67 67 84
67 67 84
67 67 84
67 67 84
67 67 84
67 67 84
67 67 84
67 67 84
67 67 84
67 67 84
67 67 84
67 67 84
67 67 84
67 67 84
67 67 84
67 67 84
67 67 84
67 67 84
67 67 84
67 67 84
67 67 84
67 67 84
67 67 84
67 67 84
67 67 84
67 67 84
67 67 84
67 67 84
67 67 84
67 67 84
67 67 84
67 67 84
67 67 84
67 67 84
67 67 84
67 67 84
67 67 84
67 67 84
67 67 84
67 67 84
67 67 84
67 67 84
67 67 84
67 67 84
67 67 84
67 67 84
67 67 84
67 67 84
67 67 84
67 67 84
67 67 84
67 67 84
67 67 84
67 67 84
67 67 84
67 67 84
67 67 84
67 67 84
67 67 84
67 67 84
67 67 84
67 67 84
67 67 84
67 67 84
67 67 84
255 255 255
255 255 255
255 255 255
255 255 255
255 255 255
255 255 255
255 255 255
255 255 255
255 255 255
255 255 255
255 255 255
255 255 255
255 255 255
255 255 255
255 255 255
255 255 255
255 255 255
255 255 255
255 255 255
255 255 255
255 255 255
255 255 255
255 255 255
255 255 255
255 255 255
255 255 255
255 255 255
255 255 255
255 255 255
255 255 255
255 255 255
255 255 255
255 255 255
255 255 255
255 255 255
174 171 150
67 67 84
67 67 84
67 67 84
67 67 84
67 67 84
67 67 84
67 67 84
67 67 84
67 67 84
67 67 84
67 67 84
67 67 84
67 67 84
67 67 84
67 67 84
67 67 84
67 67 84
67 67 84
67 67 84
67 67 84
67 67 84
67 67 84
67 67 84
67 67 84
67 67 84
67 67 84
67 67 84
67 67 84
67 67 84
67 67 84
67 67 84
67 67 84
67 67 84
67 67 84
67 67 84
67 67 84
67 67 84
67 67 84
67 67 84
67 67 84
67 67 84
67 67 84
67 67 84
67 67 84
67 67 84
67 67 84
67 67 84
67 67 84
67 67 84
67 67 84
67 67 84
67 67 84
67 67 84
67 67 84
67 67 84
67 67 84
67 67 84
67 67 84
67 67 84
67 67 84
67 67 84
67 67 84
67 67 84
67 67 84
67 67 84
67 67 84
67 67 84
67 67 84
67 67 84
67 67 84
67 67 84
67 67 84
67 67 84
67 67 84
67 67 84
67 67 84
67 67 84
67 67 84
67 67 84
67 67 84
67 67 84
67 67 84
67 67 84
67 67 84
67 67 84
67 67 84
67 67 84
67 67 84
67 67 84
67 67 84
67 67 84
67 67 84
67 67 84
67 67 84
67 67 84
67 67 84
67 67 84
67 67 84
67 67 84
67 67 84
67 67 84
67 67 84
67 67 84
67 67 84
67 67 84
67 67 84
67 67 84
67 67 84
67 67 84
67 67 84
67 67 84
67 67 84
67 67 84
67 67 84
67 67 84
67 67 84
67 67 84
67 67 84
67 67 84
67 67 84
67 67 84
67 67 84
67 67 84
67 67 84
67 67 84
67 67 84
67 67 84
67 67 84
67 67 84
67 67 84
67 67 84
67 67 84
67 67 84
67 67 84
67 67 84
67 67 84
67 67 84
67 67 84
67 67 84
67 67 84
67 67 84
67 67 84
67 67 84
67 67 84
67 67 84
67 67 84
67 67 84
67 67 84
67 67 84
67 67 84
67 67 84
67 67 84
67 67 84
67 67 84
67 67 84
67 67 84
67 67 84
67 67 84
67 67 84
67 67 84
67 67 84
67 67 84
67 67 84
67 67 84
67 67 84
67 67 84
67 67 84
67 67 84
67 67 84
67 67 84
67 67 84
67 67 84
67 67 84
67 67 84
67 67 84
67 67 84
67 67 84
67 67 84
67 67 84
67 67 84
67 67 84
67 67 84
67 67 84
67 67 84
67 67 84
67 67 84
67 67 84
67 67 84
67 67 84
67 67 84
67 67 84
67 67 84
67 67 84
67 67 84
67 67 84
67 67 84
67 67 84
67 67 84
67 67 84
67 67 84
67 67 84
67 67 84
67 67 84
67 67 84
67 67 84
67 67 84
67 67 84
67 67 84
67 67 84
67 67 84
67 67 84
67 67 84
67 67 84
67 67 84
66 66 84
67 67 84
67 67 84
66 66 84
66 66 84
66 66 84
67 67 84
67 67 84
66 66 84
66 66 84
67 67 84
67 67 84
67 67 84
66 66 84
67 67 84
67 67 84
67 67 84
67 67 84
67 67 84
67 67 84
67 67 84
67 67 84
67 67 84
67 67 84
67 67 84
67 67 84
67 67 84
67 67 84
67 67 84
67 67 84
67 67 84
67 67 84
67 67 84
67 67 84
67 67 84
67 67 84
67 67 84
67 67 84
67 67 84
67 67 84
67 67 84
67 67 84
67 67 84
67 67 84
67 67 84
67 67 84
67 67 84
67 67 84
67 67 84
67 67 84
67 67 84
67 67 84
67 67 84
67 67 84
67 67 84
67 67 84
67 67 84
67 67 84
67 67 84
67 67 84
67 67 84
67 67 84
67 67 84
67 67 84
67 67 84
67 67 84
67 67 84
67 67 84
67 67 84
67 67 84
67 67 84
67 67 84
67 67 84
67 67 84
67 67 84
67 67 84
67 67 84
67 67 84
67 67 84
67 67 84
67 67 84
67 67 84
67 67 84
67 67 84
67 67 84
67 67 84
67 67 84
67 67 84
67 67 84
67 67 84
67 67 84
67 67 84
67 67 84
67 67 84
67 67 84
67 67 84
67 67 84
67 67 84
67 67 84
67 67 84
67 67 84
67 67 84
67 67 84
67 67 84
67 67 84
67 67 84
67 67 84
67 67 84
67 67 84
67 67 84
67 67 84
67 67 84
67 67 84
67 67 84
67 67 84
67 67 84
67 67 84
67 67 84
67 67 84
67 67 84
67 67 84
67 67 84
67 67 84
67 67 84
67 67 84
67 67 84
67 67 84
67 67 84
67 67 84
67 67 84
67 67 84
67 67 84
67 67 84
67 67 84
67 67 84
67 67 84
67 67 84
67 67 84
67 67 84
67 67 84
67 67 84
67 67 84
67 67 84
67 67 84
67 67 84
67 67 84
67 67 84
67 67 84
67 67 84
67 67 84
255 255 255
255 255 255
255 255 255
255 255 255
255 255 255
255 255 255
255 255 255
255 255 255
255 255 255
255 255 255
255 255 255
255 255 255
255 255 255
255 255 255
255 255 255
255 255 255
255 255 255
255 255 255
255 255 255
255 255 255
255 255 255
255 255 255
255 255 255
255 255 255
255 255 255
255 255 255
255 255 255
255 255 255
255 255 255
255 255 255
255 255 255
255 255 255
255 255 255
255 255 255
255 255 255
97 96 100
67 67 84
67 67 85
67 67 84
68 68 85
67 67 84
67 67 84
67 67 84
67 67 84
67 67 84
67 67 84
67 67 84
67 67 84
67 67 84
67 67 84
67 67 85
67 67 84
67 67 84
67 67 84
67 67 84
67 67 84
67 67 84
67 67 84
67 67 84
67 67 84
67 67 84
67 67 84
67 67 84
67 67 84
67 67 84
67 67 84
67 67 84
67 67 84
67 67 84
67 67 84
67 67 84
67 67 84
67 67 84
67 67 84
67 67 84
67 67 84
67 67 84
67 67 84
67 67 84
67 67 84
67 67 84
67 67 84
67 67 84
67 67 84
67 67 84
67 67 84
67 67 84
67 67 84
67 67 84
67 67 84
67 67 84
67 67 84
67 67 84
67 67 84
67 67 84
67 67 84
67 67 84
67 67 84
67 67 84
67 67 84
67 67 84
67 67 84
67 67 84
67 67 84
67 67 84
67 67 84
67 67 84
67 67 84
67 67 84
67 67 84
67 67 84
67 67 84
67 67 84
67 67 84
67 67 84
67 67 84
67 67 84
67 67 84
67 67 84
67 67 84
67 67 84
67 67 84
67 67 84
67 67 84
67 67 84
67 67 84
67 67 84
67 67 84
67 67 84
67 67 84
67 67 84
67 67 84
67 67 84
67 67 84
67 67 84
67 67 84
67 67 84
67 67 84
67 67 84
67 67 84
67 67 84
67 67 84
67 67 84
67 67 84
67 67 84
67 67 84
67 67 84
67 67 84
67 67 84
67 67 84
67 67 84
67 67 84
67 67 84
67 67 84
67 67 84
67 67 84
67 67 84
67 67 84
67 67 84
67 67 84
67 67 84
67 67 84
67 67 84
67 67 84
67 67 84
67 67 84
67 67 84
67 67 84
67 67 84
67 67 84
67 67 84
67 67 84
67 67 84
67 67 84
67 67 84
67 67 84
67 67 84
67 67 84
67 67 84
67 67 84
67 67 84
67 67 84
67 67 84
67 67 84
67 67 84
67 67 84
67 67 84
67 67 84
67 67 84
67 67 84
67 67 84
67 67 84
67 67 84
67 67 84
67 67 84
67 67 84
67 67 84
67 67 84
67 67 84
67 67 84
67 67 84
67 67 84
67 67 84
67 67 84
67 67 84
67 67 84
67 67 84
67 67 84
67 67 84
67 67 84
67 67 84
67 67 84
67 67 84
67 67 84
67 67 84
67 67 84
67 67 84
67 67 84
67 67 84
67 67 84
67 67 84
67 67 84
67 67 84
67 67 84
67 67 84
67 67 84
67 67 84
67 67 84
67 67 84
67 67 84
67 67 84
67 67 84
67 67 84
67 67 84
67 67 84
67 67 84
67 67 84
67 67 84
67 67 84
67 67 84
67 67 84
67 67 84
67 67 84
67 67 84
67 67 84
67 67 84
67 67 84
67 67 84
67 67 84
66 66 84
67 67 84
67 67 84
67 67 84
67 67 84
67 67 84
67 67 84
66 66 84
67 67 84
67 67 84
67 67 84
66 66 84
67 67 84
67 67 84
67 67 84
67 67 84
67 67 84
67 67 84
67 67 84
67 67 84
67 67 84
67 67 84
67 67 84
67 67 84
67 67 84
67 67 84
67 67 84
67 67 84
67 67 84
67 67 84
67 67 84
67 67 84
67 67 84
67 67 84
67 67 84
67 67 84
67 67 84
67 67 84
67 67 84
67 67 84
67 67 84
67 67 84
67 67 84
67 67 84
67 67 84
67 67 84
67 67 84
67 67 84
67 67 84
67 67 84
67 67 84
67 67 84
67 67 84
67 67 84
67 67 84
67 67 84
67 67 84
67 67 84
67 67 84
67 67 84
67 67 84
67 67 84
67 67 84
67 67 84
67 67 84
67 67 84
67 67 84
67 67 84
67 67 84
67 67 84
67 67 84
67 67 84
67 67 84
67 67 84
67 67 84
67 67 84
67 67 84
67 67 84
67 67 84
67 67 84
67 67 84
67 67 84
67 67 84
67 67 84
67 67 84
67 67 84
67 67 84
67 67 84
67 67 84
67 67 84
67 67 84
67 67 84
67 67 84
67 67 84
67 67 84
67 67 84
67 67 84
67 67 84
67 67 84
67 67 84
67 67 84
67 67 84
67 67 84
67 67 84
67 67 84
67 67 84
67 67 84
67 67 84
67 67 84
67 67 84
67 67 84
67 67 84
67 67 84
67 67 84
67 67 84
67 67 84
67 67 84
67 67 84
67 67 84
67 67 84
67 67 84
67 67 84
67 67 84
67 67 84
67 67 84
67 67 84
67 67 84
67 67 84
67 67 84
67 67 84
67 67 84
67 67 84
67 67 84
67 67 84
67 67 84
67 67 84
67 67 84
67 67 84
67 67 84
67 67 84
67 67 84
67 67 84
67 67 84
67 67 84
67 67 84
67 67 84
67 67 84
67 67 84
67 67 84
67 67 84
67 67 84
255 255 255
255 255 255
255 255 255
255 255 255
255 255 255
255 255 255
255 255 255
255 255 255
255 255 255
255 255 255
255 255 255
255 255 255
255 255 255
255 255 255
255 255 255
255 255 255
255 255 255
255 255 255
255 255 255
255 255 255
255 255 255
255 255 255
255 255 255
255 255 255
255 255 255
255 255 255
255 255 255
255 255 255
255 255 255
255 255 255
255 255 255
255 255 255
255 255 255
255 255 255
255 255 255
67 67 85
67 67 84
67 67 84
67 67 84
67 67 84
67 67 84
67 67 84
67 67 85
67 67 84
67 67 85
67 67 84
67 67 84
67 67 84
67 67 84
67 67 84
67 67 84
67 67 84
67 67 84
67 67 84
67 67 84
67 67 84
67 67 84
67 67 84
67 67 84
67 67 84
67 67 84
67 67 84
67 67 84
67 67 84
67 67 84
67 67 84
67 67 84
67 67 84
67 67 84
67 67 84
67 67 84
67 67 84
67 67 84
67 67 84
67 67 84
67 67 84
67 67 84
67 67 84
67 67 84
67 67 84
67 67 84
67 67 84
67 67 84
67 67 84
67 67 84
67 67 84
67 67 84
67 67 84
67 67 84
67 67 84
67 67 84
67 67 84
67 67 84
67 67 84
67 67 84
67 67 84
67 67 84
67 67 84
67 67 84
67 67 84
67 67 84
67 67 84
67 67 84
67 67 84
67 67 84
67 67 84
67 67 84
67 67 84
67 67 84
67 67 84
67 67 84
67 67 84
67 67 84
67 67 84
67 67 84
67 67 84
67 67 84
67 67 84
67 67 84
67 67 84
67 67 84
67 67 84
67 67 84
67 67 84
67 67 84
67 67 84
67 67 84
67 67 84
67 67 84
67 67 84
67 67 84
67 67 84
67 67 84
67 67 84
67 67 84
67 67 84
67 67 84
67 67 84
67 67 85
67 67 84
67 67 84
67 67 84
67 67 84
67 67 84
67 67 84
67 67 84
67 67 84
67 67 84
67 67 84
67 67 85
67 67 84
67 67 84
67 67 84
67 67 84
67 67 84
67 67 84
67 67 84
67 67 84
67 67 84
67 67 84
67 67 84
67 67 84
67 67 84
67 67 84
67 67 84
67 67 84
67 67 84
67 67 84
67 67 84
67 67 84
67 67 84
67 67 84
67 67 84
67 67 84
67 67 84
67 67 84
67 67 84
67 67 84
67 67 84
67 67 84
67 67 84
67 67 84
67 67 84
67 67 84
67 67 84
67 67 84
67 67 84
67 67 84
67 67 84
67 67 84
67 67 84
67 67 84
67 67 84
67 67 84
67 67 84
67 67 84
67 67 84
67 67 84
67 67 84
67 67 84
67 67 84
67 67 84
67 67 84
67 67 84
67 67 84
67 67 84
67 67 84
67 67 84
67 67 84
67 67 84
67 67 84
67 67 84
67 67 84
67 67 84
67 67 84
67 67 84
67 67 84
67 67 84
67 67 84
67 67 84
67 67 84
67 67 84
67 67 84
67 67 84
67 67 84
67 67 84
67 67 84
67 67 84
67 67 84
67 67 84
67 67 84
67 67 84
67 67 84
67 67 84
67 67 84
67 67 84
67 67 84
67 67 84
67 67 84
67 67 84
67 67 84
67 67 84
67 67 84
67 67 84
67 67 84
67 67 84
67 67 84
67 67 84
67 67 84
67 67 84
67 67 84
67 67 84
67 67 84
67 67 84
67 67 84
67 67 84
67 67 84
67 67 84
67 67 84
67 67 84
67 67 84
67 67 84
67 67 84
67 67 84
67 67 84
67 67 84
67 67 84
67 67 84
67 67 84
67 67 84
67 67 84
67 67 84
67 67 84
67 67 84
67 67 84
67 67 84
67 67 84
67 67 84
67 67 84
67 67 84
67 67 84
67 67 84
67 67 84
67 67 84
67 67 84
67 67 84
67 67 84
67 67 84
67 67 84
67 67 84
67 67 84
67 67 84
67 67 84
67 67 84
67 67 84
67 67 84
67 67 84
67 67 84
67 67 84
67 67 84
67 67 84
67 67 84
67 67 84
67 67 84
67 67 84
67 67 84
67 67 84
67 67 84
67 67 84
67 67 84
67 67 84
67 67 84
67 67 84
67 67 84
67 67 84
67 67 84
67 67 84
67 67 84
67 67 84
67 67 84
67 67 84
67 67 84
67 67 84
67 67 84
67 67 84
67 67 84
67 67 84
67 67 84
67 67 84
67 67 84
67 67 84
67 67 84
67 67 84
67 67 84
67 67 84
67 67 84
67 67 84
67 67 84
67 67 84
67 67 84
67 67 84
67 67 84
67 67 84
67 67 84
67 67 84
67 67 84
67 67 84
67 67 84
67 67 84
67 67 84
67 67 84
67 67 84
67 67 84
67 67 84
67 67 84
67 67 84
67 67 84
67 67 84
67 67 84
67 67 84
67 67 84
67 67 84
67 67 84
67 67 84
67 67 84
67 67 84
67 67 84
67 67 84
67 67 84
67 67 84
67 67 84
67 67 84
67 67 84
67 67 84
67 67 84
67 67 84
67 67 84
67 67 84
67 67 84
67 67 84
67 67 84
67 67 84
67 67 84
67 67 84
67 67 84
67 67 84
67 67 84
67 67 84
67 67 84
67 67 84
67 67 84
67 67 84
67 67 84
67 67 84
67 67 84
67 67 84
67 67 84
67 67 84
67 67 84
67 67 84
192 188 162
255 255 255
255 255 255
255 255 255
255 255 255
255 255 255
255 255 255
255 255 255
255 255 255
255 255 255
255 255 255
255 255 255
255 255 255
255 255 255
255 255 255
255 255 255
255 255 255
255 255 255
255 255 255
255 255 255
255 255 255
255 255 255
255 255 255
255 255 255
255 255 255
255 255 255
255 255 255
255 255 255
255 255 255
255 255 255
255 255 255
255 255 255
255 255 255
255 255 255
255 255 255
68 68 85
67 67 84
67 67 84
68 68 85
67 67 85
67 67 84
67 67 84
67 67 84
67 67 84
67 67 85
67 67 84
67 67 84
67 67 84
67 67 84
67 67 84
67 67 84
67 67 84
67 67 84
67 67 84
67 67 84
67 67 84
67 67 84
67 67 84
67 67 84
67 67 84
67 67 84
67 67 84
67 67 84
67 67 84
67 67 84
67 67 84
67 67 84
67 67 84
67 67 84
67 67 84
67 67 84
67 67 84
67 67 84
67 67 84
67 67 84
67 67 84
67 67 84
67 67 84
67 67 84
67 67 84
67 67 84
67 67 84
67 67 84
67 67 84
67 67 84
67 67 84
67 67 84
67 67 84
67 67 84
67 67 84
67 67 84
67 67 84
67 67 84
67 67 84
67 67 84
67 67 84
67 67 84
67 67 84
67 67 84
67 67 84
67 67 84
67 67 84
67 67 84
67 67 84
67 67 84
67 67 84
67 67 84
67 67 84
67 67 84
67 67 84
67 67 84
67 67 84
67 67 84
67 67 84
67 67 84
67 67 85
67 67 84
67 67 84
67 67 84
67 67 84
67 67 84
67 67 85
67 67 84
67 67 84
67 67 84
67 67 84
67 67 84
67 67 84
67 67 84
67 67 84
67 67 84
67 67 84
67 67 84
67 67 84
67 67 84
67 67 84
67 67 84
67 67 84
67 67 84
67 67 85
67 67 84
67 67 84
67 67 84
67 67 84
67 67 84
67 67 84
67 67 84
67 67 84
67 67 84
67 67 84
68 68 85
67 67 84
67 67 84
67 67 84
67 67 84
67 67 84
67 67 84
67 67 84
67 67 84
67 67 84
67 67 84
67 67 84
67 67 84
67 67 84
67 67 84
67 67 84
67 67 84
67 67 84
67 67 84
67 67 84
67 67 84
67 67 84
67 67 84
67 67 84
67 67 84
67 67 84
67 67 84
67 67 84
67 67 84
67 67 84
67 67 84
67 67 84
67 67 84
67 67 84
67 67 84
67 67 84
67 67 84
67 67 84
67 67 84
67 67 84
67 67 84
67 67 84
67 67 84
67 67 84
67 67 84
67 67 84
67 67 84
67 67 84
67 67 84
67 67 84
67 67 84
67 67 84
67 67 84
67 67 84
67 67 84
67 67 84
67 67 84
67 67 84
67 67 84
67 67 84
67 67 84
67 67 84
67 67 84
67 67 84
67 67 84
67 67 84
67 67 84
67 67 84
67 67 84
67 67 84
67 67 84
67 67 84
67 67 84
67 67 84
67 67 84
67 67 84
67 67 84
67 67 84
67 67 84
67 67 84
67 67 84
67 67 84
67 67 84
67 67 84
67 67 84
67 67 84
67 67 84
67 67 84
67 67 84
67 67 84
67 67 84
67 67 84
67 67 84
67 67 84
67 67 84
67 67 84
67 67 84
67 67 84
67 67 84
67 67 84
67 67 84
67 67 84
67 67 84
67 67 84
67 67 84
67 67 84
67 67 84
67 67 84
67 67 84
67 67 84
67 67 84
67 67 84
67 67 84
67 67 84
67 67 84
67 67 84
67 67 84
67 67 84
67 67 84
67 67 84
67 67 84
67 67 84
67 67 84
67 67 84
67 67 84
67 67 84
67 67 84
67 67 84
67 67 84
67 67 84
67 67 84
67 67 84
67 67 84
67 67 84
67 67 84
67 67 84
67 67 84
67 67 84
67 67 84
67 67 84
67 67 84
67 67 84
67 67 84
67 67 84
67 67 84
67 67 84
67 67 84
67 67 84
67 67 84
67 67 84
67 67 84
67 67 84
67 67 84
67 67 84
67 67 84
67 67 84
67 67 84
67 67 84
67 67 84
67 67 84
67 67 84
67 67 84
67 67 84
67 67 84
67 67 84
67 67 84
67 67 84
67 67 84
67 67 84
67 67 84
67 67 84
67 67 84
67 67 84
67 67 84
67 67 84
67 67 84
67 67 84
67 67 84
67 67 84
67 67 84
67 67 84
67 67 84
67 67 84
67 67 84
67 67 84
67 67 84
67 67 84
67 67 84
67 67 84
67 67 84
67 67 84
67 67 84
67 67 84
68 68 85
67 67 84
67 67 84
67 67 84
67 67 84
67 67 84
67 67 84
67 67 84
67 67 84
67 67 84
67 67 84
67 67 84
67 67 84
67 67 84
67 67 84
67 67 84
67 67 84
67 67 84
67 67 84
67 67 84
67 67 84
67 67 84
67 67 84
67 67 84
67 67 84
67 67 84
67 67 84
67 67 84
67 67 84
67 67 84
67 67 84
67 67 84
67 67 84
67 67 84
67 67 84
67 67 84
67 67 84
67 67 84
67 67 84
67 67 84
67 67 84
67 67 84
67 67 84
67 67 84
67 67 84
67 67 84
67 67 84
67 67 84
67 67 84
67 67 84
67 67 84
67 67 84
67 67 84
67 67 85
67 67 84
67 67 85
67 67 85
67 67 85
255 255 255
255 255 255
255 255 255
255 255 255
255 255 255
255 255 255
255 255 255
255 255 255
255 255 255
255 255 255
255 255 255
255 255 255
255 255 255
255 255 255
255 255 255
255 255 255
255 255 255
255 255 255
255 255 255
255 255 255
255 255 255
255 255 255
255 255 255
255 255 255
255 255 255
255 255 255
255 255 255
255 255 255
255 255 255
255 255 255
255 255 255
255 255 255
255 255 255
255 255 255
67 67 84
67 67 84
67 67 84
67 67 84
67 67 85
67 67 84
67 67 84
67 67 85
67 67 84
67 67 84
67 67 84
67 67 84
67 67 84
67 67 84
67 67 84
67 67 84
67 67 84
67 67 84
67 67 84
67 67 84
67 67 84
67 67 84
67 67 84
67 67 84
67 67 84
67 67 84
67 67 84
67 67 84
67 67 84
67 67 84
67 67 84
67 67 84
67 67 84
67 67 84
67 67 84
67 67 84
67 67 84
67 67 84
67 67 84
67 67 84
67 67 84
67 67 84
67 67 84
67 67 84
67 67 84
67 67 84
67 67 84
67 67 84
67 67 84
67 67 84
67 67 84
67 67 84
67 67 84
67 67 84
67 67 84
67 67 84
67 67 84
67 67 84
67 67 84
67 67 84
67 67 84
67 67 84
67 67 84
67 67 84
67 67 84
67 67 84
67 67 84
67 67 84
67 67 84
67 67 84
67 67 84
67 67 84
67 67 84
67 67 84
67 67 84
67 67 84
67 67 84
67 67 84
67 67 84
67 67 84
67 67 85
67 67 84
67 67 84
67 67 84
67 67 84
67 67 85
67 67 84
67 67 84
67 67 84
67 67 84
67 67 84
67 67 84
67 67 84
67 67 84
67 67 84
67 67 84
67 67 85
67 67 84
67 67 84
67 67 85
68 68 85
67 67 84
67 67 84
67 67 84
67 67 85
67 67 84
67 67 84
67 67 84
68 68 85
67 67 84
67 67 84
67 67 84
67 67 84
67 67 84
67 67 84
67 67 84
67 67 84
67 67 84
67 67 84
67 67 84
67 67 84
67 67 84
67 67 84
67 67 84
67 67 84
67 67 84
67 67 84
67 67 84
67 67 85
67 67 84
67 67 84
67 67 84
67 67 84
67 67 84
67 67 84
67 67 84
67 67 84
67 67 84
67 67 84
67 67 84
67 67 84
67 67 84
67 67 84
67 67 84
67 67 85
67 67 84
67 67 84
67 67 84
67 67 84
67 67 84
67 67 84
67 67 84
67 67 84
67 67 84
67 67 84
67 67 84
67 67 84
67 67 84
67 67 84
67 67 84
67 67 84
67 67 84
67 67 84
67 67 84
67 67 84
67 67 84
67 67 84
67 67 84
67 67 84
67 67 84
67 67 84
67 67 84
67 67 84
67 67 84
67 67 84
67 67 84
67 67 84
67 67 84
67 67 84
67 67 84
67 67 84
67 67 84
67 67 84
67 67 84
67 67 84
67 67 84
67 67 84
67 67 84
67 67 84
67 67 84
67 67 84
67 67 84
67 67 84
67 67 84
67 67 84
67 67 84
67 67 84
67 67 84
67 67 84
67 67 84
67 67 84
67 67 84
67 67 84
67 67 84
67 67 84
67 67 84
67 67 84
67 67 84
67 67 84
67 67 84
67 67 84
67 67 84
67 67 84
67 67 84
67 67 84
67 67 84
67 67 84
67 67 84
67 67 84
67 67 84
67 67 84
67 67 84
67 67 84
67 67 84
67 67 84
67 67 84
67 67 84
67 67 84
67 67 84
67 67 84
67 67 84
67 67 84
67 67 84
67 67 84
67 67 84
67 67 84
67 67 84
67 67 84
67 67 84
67 67 84
67 67 84
67 67 84
67 67 84
67 67 84
67 67 84
67 67 84
67 67 84
67 67 84
67 67 84
67 67 84
67 67 84
67 67 84
67 67 84
67 67 84
67 67 84
67 67 84
67 67 84
67 67 84
67 67 84
67 67 84
67 67 84
67 67 84
67 67 84
67 67 84
67 67 84
67 67 84
67 67 84
67 67 84
67 67 84
67 67 84
67 67 84
67 67 84
67 67 84
67 67 84
67 67 84
67 67 84
67 67 84
67 67 84
67 67 84
67 67 84
67 67 84
67 67 84
67 67 84
67 67 84
67 67 84
67 67 84
67 67 84
67 67 84
67 67 84
67 67 84
67 67 84
67 67 84
67 67 84
67 67 84
67 67 84
67 67 84
67 67 84
67 67 84
67 67 84
67 67 84
67 67 84
67 67 84
67 67 84
67 67 84
67 67 84
67 67 84
67 67 84
67 67 84
67 67 84
67 67 84
67 67 84
67 67 84
67 67 84
67 67 84
67 67 84
67 67 84
67 67 84
67 67 84
67 67 84
67 67 84
67 67 84
67 67 84
67 67 84
67 67 84
67 67 84
67 67 84
67 67 84
67 67 84
67 67 84
67 67 84
67 67 84
67 67 84
67 67 84
67 67 84
67 67 84
67 67 84
67 67 84
67 67 84
67 67 84
67 67 84
67 67 84
67 67 84
67 67 84
67 67 84
67 67 84
67 67 84
67 67 84
67 67 84
67 67 84
67 67 84
67 67 84
67 67 84
67 67 84
67 67 84
67 67 84
67 67 84
67 67 84
67 67 84
67 67 84
67 67 84
67 67 84
67 67 84
67 67 85
67 67 84
67 67 85
67 67 84
255 255 255
255 255 255
255 255 255
255 255 255
255 255 255
255 255 255
255 255 255
255 255 255
255 255 255
255 255 255
255 255 255
255 255 255
255 255 255
255 255 255
255 255 255
255 255 255
255 255 255
255 255 255
255 255 255
255 255 255
255 255 255
255 255 255
255 255 255
255 255 255
255 255 255
255 255 255
255 255 255
255 255 255
255 255 255
255 255 255
255 255 255
255 255 255
255 255 255
255 255 255
68 68 85
67 67 85
68 68 85
68 68 85
68 68 85
68 68 85
67 67 85
67 67 85
67 67 85
67 67 85
67 67 85
67 67 85
67 67 85
67 67 85
67 67 85
67 67 85
67 67 85
67 67 85
67 67 85
67 67 85
67 67 85
67 67 85
67 67 85
67 67 85
67 67 85
67 67 85
67 67 85
67 67 85
67 67 85
67 67 85
67 67 85
67 67 85
67 67 85
67 67 85
67 67 85
67 67 85
67 67 85
67 67 85
67 67 85
67 67 85
67 67 85
67 67 85
67 67 85
67 67 85
67 67 85
67 67 85
67 67 85
67 67 85
67 67 85
67 67 84
67 67 84
67 67 84
67 67 84
67 67 84
67 67 84
67 67 84
67 67 84
67 67 84
67 67 84
67 67 84
67 67 84
67 67 84
67 67 84
67 67 84
67 67 84
67 67 84
67 67 84
67 67 84
67 67 84
67 67 84
67 67 84
67 67 84
67 67 84
68 68 85
68 68 85
67 67 84
67 67 85
67 67 85
67 67 84
67 67 85
67 67 85
67 67 84
67 67 84
67 67 85
67 67 85
67 67 85
67 67 85
68 68 85
67 67 85
67 67 84
67 67 85
67 67 85
68 68 85
67 67 84
67 67 84
67 67 85
67 67 84
67 67 85
67 67 84
68 68 85
68 68 85
67 67 84
67 67 84
67 67 84
67 67 84
67 67 84
67 67 85
67 67 84
67 67 85
67 67 84
67 67 85
67 67 84
67 67 84
67 67 84
67 67 84
67 67 84
67 67 84
67 67 84
67 67 84
67 67 84
67 67 84
67 67 84
67 67 85
67 67 84
67 67 84
67 67 84
67 67 84
67 67 84
67 67 84
67 67 84
67 67 84
67 67 84
67 67 84
67 67 84
67 67 84
67 67 84
67 67 84
67 67 84
67 67 84
67 67 84
67 67 84
67 67 84
67 67 84
67 67 84
67 67 84
67 67 84
67 67 84
67 67 84
67 67 84
67 67 84
67 67 84
67 67 84
67 67 84
67 67 85
67 67 84
67 67 84
67 67 84
67 67 84
67 67 84
67 67 84
67 67 84
67 67 84
67 67 84
67 67 84
67 67 84
67 67 84
67 67 84
67 67 84
67 67 84
67 67 84
67 67 84
67 67 84
67 67 84
67 67 84
67 67 84
67 67 84
67 67 84
67 67 84
67 67 84
67 67 84
67 67 84
67 67 84
67 67 84
67 67 84
67 67 84
67 67 84
67 67 84
67 67 84
67 67 84
67 67 84
67 67 84
67 67 84
67 67 84
67 67 84
67 67 84
67 67 84
67 67 84
67 67 84
67 67 84
67 67 84
67 67 84
67 67 84
67 67 84
67 67 84
67 67 84
67 67 84
67 67 84
67 67 84
67 67 84
67 67 84
67 67 84
67 67 84
67 67 84
67 67 84
67 67 84
67 67 84
67 67 84
67 67 84
67 67 84
67 67 84
67 67 84
67 67 84
67 67 84
67 67 84
67 67 84
67 67 84
67 67 84
67 67 84
67 67 84
67 67 84
67 67 84
67 67 84
67 67 84
67 67 84
67 67 84
67 67 84
67 67 84
67 67 84
67 67 84
67 67 84
67 67 84
67 67 84
67 67 84
67 67 84
67 67 84
67 67 84
67 67 84
67 67 84
67 67 84
67 67 84
67 67 84
67 67 84
67 67 84
67 67 84
67 67 84
67 67 84
67 67 84
67 67 84
67 67 84
67 67 84
67 67 84
67 67 84
67 67 84
67 67 84
67 67 84
67 67 84
67 67 84
67 67 84
67 67 84
67 67 84
67 67 84
67 67 84
67 67 84
67 67 84
67 67 84
67 67 84
67 67 84
67 67 84
67 67 84
67 67 84
67 67 84
67 67 84
67 67 84
67 67 84
67 67 84
67 67 84
67 67 84
67 67 84
67 67 84
67 67 84
67 67 84
67 67 84
67 67 84
67 67 84
67 67 84
67 67 84
67 67 85
67 67 84
67 67 84
67 67 84
67 67 84
67 67 84
67 67 84
67 67 84
67 67 84
67 67 84
67 67 84
67 67 84
67 67 85
67 67 84
67 67 85
67 67 84
67 67 84
67 67 84
67 67 84
67 67 84
67 67 84
67 67 84
67 67 84
67 67 84
67 67 84
67 67 84
67 67 84
67 67 84
67 67 84
67 67 84
67 67 84
67 67 84
67 67 84
67 67 84
67 67 84
67 67 84
67 67 84
67 67 84
67 67 84
67 67 84
67 67 84
67 67 84
67 67 84
67 67 84
67 67 84
67 67 84
67 67 84
67 67 84
67 67 84
67 67 84
67 67 84
67 67 84
67 67 84
67 67 84
67 67 84
67 67 84
67 67 84
67 67 84
67 67 84
67 67 84
67 67 84
67 67 85
68 68 85
67 67 85
67 67 85
67 67 85
67 67 85
67 67 85
67 67 85
67 67 85
255 255 247
255 255 255
255 255 255
255 255 255
255 255 255
255 255 255
255 255 255
255 255 255
255 255 255
255 255 255
255 255 255
255 255 255
255 255 255
255 255 255
255 255 255
255 255 255
255 255 255
255 255 255
255 255 255
255 255 255
255 255 255
255 255 255
255 255 255
255 255 255
255 255 255
255 255 255
255 255 255
255 255 255
255 255 255
255 255 255
255 255 255
255 255 255
255 255 255
79 78 90
68 68 85
68 68 85
67 67 85
67 67 85
67 67 85
67 67 85
67 67 85
67 67 85
67 67 85
67 67 85
67 67 85
67 67 85
67 67 85
67 67 85
67 67 85
67 67 85
67 67 85
67 67 85
67 67 85
67 67 85
67 67 85
67 67 85
67 67 85
67 67 85
67 67 85
67 67 85
67 67 85
67 67 85
67 67 85
67 67 85
67 67 85
67 67 85
67 67 85
67 67 85
67 67 85
67 67 85
67 67 85
67 67 85
67 67 85
67 67 85
67 67 85
67 67 85
67 67 85
67 67 85
67 67 85
67 67 85
67 67 85
67 67 85
67 67 85
67 67 85
67 67 85
67 67 85
67 67 85
67 67 85
67 67 85
67 67 85
67 67 85
67 67 85
67 67 85
67 67 85
67 67 85
67 67 85
67 67 85
67 67 85
67 67 85
67 67 85
67 67 85
67 67 85
67 67 85
67 67 85
67 67 85
67 67 85
67 67 85
68 68 85
68 68 85
67 67 85
67 67 85
67 67 85
67 67 85
67 67 85
67 67 85
67 67 85
67 67 85
68 68 85
67 67 85
67 67 85
67 67 85
67 67 84
68 68 85
67 67 84
67 67 85
67 67 85
68 68 85
67 67 85
67 67 84
67 67 84
67 67 84
67 67 84
67 67 85
67 67 85
67 67 84
67 67 84
68 68 85
67 67 85
67 67 85
67 67 84
67 67 85
67 67 84
67 67 85
67 67 85
67 67 85
67 67 84
67 67 85
67 67 85
67 67 84
67 67 84
67 67 85
67 67 84
67 67 84
67 67 84
67 67 84
67 67 84
67 67 84
67 67 84
67 67 84
67 67 84
67 67 84
67 67 85
68 68 85
67 67 84
67 67 84
67 67 84
67 67 84
67 67 84
67 67 84
67 67 85
67 67 84
67 67 84
67 67 85
67 67 84
67 67 84
67 67 84
67 67 84
67 67 85
67 67 84
67 67 84
67 67 84
67 67 84
67 67 84
67 67 84
67 67 84
67 67 84
67 67 84
67 67 84
67 67 84
67 67 84
67 67 84
67 67 84
67 67 84
67 67 84
67 67 84
67 67 84
67 67 84
67 67 84
67 67 84
67 67 84
67 67 84
67 67 84
67 67 84
67 67 84
67 67 84
67 67 84
67 67 84
67 67 84
67 67 84
67 67 84
67 67 84
67 67 84
67 67 84
67 67 84
67 67 84
67 67 84
67 67 84
67 67 84
67 67 84
67 67 84
67 67 84
67 67 84
67 67 84
67 67 84
67 67 84
67 67 84
67 67 84
67 67 84
67 67 84
67 67 84
67 67 84
67 67 84
67 67 84
67 67 84
67 67 84
67 67 84
67 67 84
67 67 84
67 67 84
67 67 84
67 67 84
67 67 84
67 67 84
67 67 84
67 67 84
67 67 84
67 67 84
67 67 84
67 67 84
67 67 84
67 67 84
67 67 84
67 67 84
67 67 84
67 67 84
67 67 84
67 67 84
67 67 84
67 67 84
67 67 84
67 67 84
67 67 84
67 67 84
67 67 84
67 67 84
67 67 84
67 67 84
67 67 84
67 67 84
67 67 84
67 67 84
67 67 84
67 67 84
67 67 84
67 67 84
67 67 84
67 67 84
67 67 84
67 67 84
67 67 84
67 67 84
67 67 84
67 67 84
67 67 84
67 67 84
67 67 84
67 67 84
67 67 84
67 67 84
67 67 84
67 67 84
67 67 84
67 67 84
67 67 84
67 67 84
67 67 84
67 67 84
67 67 84
67 67 84
67 67 84
67 67 84
67 67 84
67 67 84
67 67 84
67 67 84
67 67 84
67 67 84
67 67 84
67 67 84
67 67 84
67 67 84
67 67 84
67 67 84
67 67 84
67 67 84
67 67 84
67 67 84
67 67 84
67 67 84
67 67 84
67 67 84
67 67 84
67 67 84
67 67 84
67 67 85
67 67 84
67 67 84
67 67 84
67 67 84
67 67 84
67 67 84
67 67 84
67 67 84
67 67 84
67 67 84
67 67 84
67 67 84
67 67 84
67 67 84
67 67 84
67 67 84
67 67 84
67 67 84
67 67 84
67 67 84
67 67 84
67 67 84
67 67 84
67 67 84
67 67 84
67 67 84
67 67 84
67 67 84
67 67 84
67 67 84
67 67 84
67 67 84
67 67 84
67 67 84
67 67 84
67 67 84
67 67 84
67 67 84
67 67 84
67 67 84
67 67 84
67 67 84
67 67 84
67 67 84
67 67 84
67 67 84
67 67 84
67 67 84
67 67 84
67 67 84
67 67 84
67 67 84
67 67 84
67 67 84
67 67 84
67 67 84
67 67 84
67 67 84
67 67 84
67 67 84
67 67 85
67 67 85
67 67 85
67 67 85
67 67 85
67 67 85
68 68 85
67 67 85
67 67 85
68 68 85
68 68 85
67 67 85
67 67 85
67 67 85
67 67 85
68 68 85
255 255 255
255 255 255
255 255 255
255 255 255
255 255 255
255 255 255
255 255 255
255 255 255
255 255 255
255 255 255
255 255 255
255 255 255
255 255 255
255 255 255
255 255 255
255 255 255
255 255 255
255 255 255
255 255 255
255 255 255
255 255 255
255 255 255
255 255 255
255 255 255
255 255 255
255 255 255
255 255 255
255 255 255
255 255 255
255 255 255
255 255 255
255 255 255
68 68 85
68 68 85
68 68 85
67 67 85
67 67 85
67 67 85
67 67 85
67 67 85
67 67 85
67 67 85
67 67 85
67 67 85
67 67 85
67 67 85
67 67 85
67 67 85
67 67 85
67 67 85
67 67 85
67 67 85
67 67 85
67 67 85
67 67 85
67 67 85
67 67 85
67 67 85
67 67 85
67 67 85
67 67 85
67 67 85
67 67 85
67 67 85
67 67 85
67 67 85
67 67 85
67 67 85
67 67 85
67 67 85
67 67 85
67 67 85
67 67 85
67 67 85
67 67 85
67 67 85
67 67 85
67 67 85
67 67 85
67 67 85
67 67 85
67 67 85
67 67 85
67 67 85
67 67 85
67 67 85
67 67 85
67 67 85
67 67 85
67 67 85
67 67 85
67 67 85
67 67 85
67 67 85
67 67 85
67 67 85
67 67 85
67 67 85
68 68 85
67 67 85
68 68 85
68 68 85
68 68 85
68 68 85
68 68 85
67 67 85
68 68 85
68 68 85
68 68 85
68 68 85
67 67 85
68 68 85
67 67 85
68 68 85
67 67 85
67 67 85
68 68 85
67 67 85
67 67 85
67 67 85
67 67 85
67 67 85
68 68 85
67 67 85
67 67 85
67 67 85
68 68 85
67 67 85
67 67 85
67 67 85
67 67 85
67 67 84
68 68 85
67 67 85
67 67 85
67 67 84
68 68 85
67 67 85
67 67 84
67 67 85
67 67 85
67 67 85
67 67 85
67 67 84
67 67 84
67 67 84
67 67 85
67 67 85
67 67 85
67 67 84
68 68 85
67 67 85
68 68 85
67 67 84
67 67 84
67 67 84
67 67 84
67 67 85
67 67 84
67 67 84
67 67 85
68 68 85
67 67 84
68 68 85
67 67 85
67 67 84
67 67 84
67 67 84
67 67 85
68 68 85
67 67 84
67 67 84
67 67 84
67 67 84
67 67 84
67 67 84
67 67 84
67 67 84
67 67 84
67 67 84
67 67 84
67 67 84
67 67 84
67 67 84
67 67 84
67 67 84
67 67 84
67 67 84
67 67 84
67 67 84
67 67 84
67 67 84
67 67 84
67 67 84
67 67 84
67 67 84
67 67 84
67 67 84
67 67 84
67 67 84
67 67 84
67 67 84
67 67 84
67 67 84
67 67 84
67 67 84
67 67 84
67 67 84
67 67 84
67 67 84
67 67 84
67 67 84
67 67 84
67 67 84
67 67 84
67 67 84
67 67 84
67 67 84
67 67 84
67 67 84
67 67 84
67 67 84
67 67 84
67 67 84
67 67 84
67 67 84
67 67 84
67 67 84
67 67 84
67 67 84
67 67 84
67 67 84
67 67 84
67 67 84
67 67 84
67 67 84
67 67 84
67 67 84
67 67 84
67 67 84
67 67 84
67 67 84
67 67 84
67 67 84
67 67 84
67 67 84
67 67 84
67 67 84
67 67 84
67 67 84
67 67 84
67 67 84
67 67 84
67 67 84
67 67 84
67 67 84
67 67 84
67 67 84
67 67 84
67 67 84
67 67 84
67 67 84
67 67 84
67 67 84
67 67 84
67 67 84
67 67 84
67 67 84
67 67 84
67 67 84
67 67 84
67 67 84
67 67 84
67 67 84
67 67 84
67 67 84
67 67 84
67 67 84
67 67 84
67 67 84
67 67 84
67 67 84
67 67 84
67 67 84
67 67 84
67 67 84
67 67 84
67 67 84
67 67 84
67 67 84
67 67 84
67 67 84
67 67 84
67 67 84
67 67 84
67 67 84
67 67 84
67 67 84
67 67 84
67 67 84
67 67 84
67 67 84
67 67 84
67 67 84
67 67 84
67 67 84
67 67 84
67 67 84
67 67 84
67 67 84
67 67 84
67 67 84
67 67 84
67 67 84
67 67 84
67 67 84
67 67 84
67 67 84
67 67 84
67 67 84
67 67 84
67 67 84
67 67 84
67 67 84
67 67 84
67 67 85
67 67 84
67 67 84
67 67 84
67 67 84
67 67 84
67 67 84
67 67 84
67 67 84
67 67 84
67 67 85
67 67 85
67 67 84
67 67 84
68 68 85
68 68 85
67 67 84
67 67 84
67 67 85
67 67 84
67 67 84
67 67 84
67 67 84
67 67 84
67 67 84
67 67 84
67 67 84
67 67 84
67 67 84
67 67 84
67 67 84
67 67 84
67 67 84
67 67 84
67 67 84
67 67 84
67 67 84
67 67 84
67 67 84
67 67 84
67 67 84
67 67 84
67 67 84
67 67 84
67 67 85
67 67 85
67 67 85
67 67 85
67 67 85
67 67 85
67 67 85
67 67 85
67 67 85
67 67 85
67 67 85
67 67 85
67 67 85
67 67 85
67 67 85
67 67 85
67 67 85
67 67 85
67 67 85
67 67 85
67 67 85
68 68 85
67 67 85
68 68 85
67 67 85
68 68 85
67 67 85
67 67 85
67 67 85
67 67 85
67 67 85
255 255 255
255 255 255
255 255 255
255 255 255
255 255 255
255 255 255
255 255 255
255 255 255
255 255 255
255 255 255
255 255 255
255 255 255
255 255 255
255 255 255
255 255 255
255 255 255
255 255 255
255 255 255
255 255 255
255 255 255
255 255 255
255 255 255
255 255 255
255 255 255
255 255 255
255 255 255
255 255 255
255 255 255
255 255 255
255 255 255
255 255 255
138 136 126
67 67 85
67 67 84
91 90 87
49 48 60
65 65 81
67 67 85
67 67 85
67 67 85
67 67 85
67 67 85
67 67 85
67 67 85
67 67 85
67 67 85
67 67 85
67 67 85
67 67 85
67 67 85
67 67 85
67 67 85
67 67 85
67 67 85
67 67 85
67 67 85
67 67 85
67 67 85
67 67 85
67 67 85
67 67 85
67 67 85
67 67 85
67 67 85
67 67 85
67 67 85
67 67 85
67 67 85
67 67 85
67 67 85
67 67 85
67 67 85
67 67 85
67 67 85
67 67 85
67 67 85
67 67 85
67 67 85
67 67 85
67 67 85
67 67 85
67 67 85
67 67 85
67 67 85
67 67 85
67 67 85
67 67 85
67 67 85
67 67 85
67 67 85
67 67 85
67 67 85
67 67 85
67 67 85
68 68 85
67 67 85
68 68 85
67 67 85
68 68 85
68 68 85
68 68 85
68 68 85
68 68 85
68 68 85
68 68 85
68 68 85
68 68 85
67 67 85
67 67 85
68 68 85
68 68 85
68 68 85
68 68 85
67 67 85
68 68 85
68 68 85
67 67 85
68 68 85
67 67 85
67 67 85
68 68 85
67 67 85
68 68 85
68 68 85
67 67 85
67 67 85
67 67 85
67 67 85
67 67 85
67 67 85
68 68 85
67 67 85
67 67 85
68 68 85
68 68 85
67 67 85
68 68 85
67 67 85
67 67 85
67 67 85
67 67 85
68 68 85
67 67 85
68 68 85
68 68 85
68 68 85
67 67 85
67 67 84
68 68 85
67 67 84
67 67 85
68 68 85
67 67 85
68 68 85
67 67 84
68 68 85
68 68 85
68 68 85
67 67 85
67 67 85
67 67 84
67 67 85
67 67 85
67 67 85
67 67 84
67 67 84
67 67 85
67 67 85
68 68 85
67 67 84
68 68 85
67 67 85
67 67 84
67 67 84
67 67 84
67 67 84
67 67 84
67 67 84
67 67 84
67 67 85
67 67 84
68 68 85
67 67 84
67 67 84
67 67 84
67 67 84
67 67 84
67 67 84
67 67 84
67 67 84
67 67 84
67 67 84
67 67 84
68 68 85
67 67 84
67 67 84
67 67 84
67 67 84
67 67 84
67 67 84
67 67 84
67 67 84
67 67 84
67 67 84
68 68 85
67 67 84
67 67 84
67 67 84
67 67 84
67 67 84
67 67 84
67 67 84
67 67 84
67 67 84
67 67 84
67 67 84
67 67 84
67 67 84
67 67 84
67 67 84
67 67 84
67 67 84
67 67 84
67 67 84
67 67 84
67 67 84
67 67 84
67 67 84
67 67 84
67 67 84
67 67 84
67 67 84
67 67 84
67 67 84
67 67 84
67 67 84
67 67 84
67 67 84
67 67 84
67 67 84
67 67 84
67 67 84
67 67 84
67 67 84
67 67 84
67 67 84
67 67 84
67 67 84
67 67 84
67 67 84
67 67 84
67 67 84
67 67 84
67 67 84
67 67 84
67 67 84
67 67 84
67 67 84
67 67 84
67 67 84
67 67 84
67 67 84
67 67 84
67 67 84
67 67 84
67 67 84
67 67 84
67 67 84
67 67 84
67 67 84
67 67 84
67 67 84
67 67 84
67 67 84
67 67 84
67 67 84
67 67 84
67 67 84
67 67 84
67 67 84
67 67 84
67 67 84
67 67 84
67 67 84
67 67 84
67 67 84
67 67 84
67 67 84
67 67 84
67 67 84
67 67 84
67 67 84
67 67 84
67 67 84
67 67 84
67 67 84
67 67 84
67 67 84
67 67 84
67 67 84
67 67 84
67 67 84
67 67 84
67 67 84
67 67 84
67 67 84
67 67 84
67 67 84
67 67 84
67 67 84
67 67 84
67 67 84
67 67 84
67 67 84
67 67 84
67 67 84
67 67 85
67 67 84
67 67 84
67 67 84
67 67 85
67 67 84
67 67 84
67 67 84
67 67 84
67 67 84
67 67 85
67 67 84
67 67 84
67 67 84
68 68 85
67 67 85
67 67 84
67 67 85
67 67 84
67 67 85
67 67 84
67 67 85
67 67 85
67 67 85
67 67 85
67 67 85
67 67 84
67 67 84
67 67 84
67 67 84
67 67 84
67 67 84
67 67 84
67 67 84
67 67 84
67 67 84
67 67 84
67 67 84
67 67 84
67 67 84
67 67 85
67 67 85
67 67 85
67 67 85
67 67 85
67 67 85
67 67 85
67 67 85
67 67 85
67 67 85
67 67 85
67 67 85
67 67 85
67 67 85
67 67 85
67 67 85
67 67 85
67 67 85
67 67 85
67 67 85
67 67 85
67 67 85
67 67 85
67 67 85
67 67 85
67 67 85
67 67 85
67 67 85
68 68 85
68 68 85
68 68 85
67 67 85
67 67 85
68 68 85
68 68 85
68 68 85
68 68 85
68 68 85
67 67 85
67 67 85
68 68 85
68 68 85
68 68 85
68 68 85
68 68 85
255 255 255
255 255 255
255 255 255
255 255 255
255 255 255
255 255 255
255 255 255
255 255 255
255 255 255
255 255 255
255 255 255
255 255 255
255 255 255
255 255 255
255 255 255
255 255 255
255 255 255
255 255 255
255 255 255
255 255 255
255 255 255
255 255 255
255 255 255
255 255 255
255 255 255
255 255 255
255 255 255
255 255 255
255 255 255
255 255 255
68 68 85
68 68 85
72 72 81
49 48 53
41 40 50
55 55 69
68 68 85
68 68 85
68 68 85
68 68 85
68 68 85
68 68 85
68 68 85
68 68 85
68 68 85
68 68 85
68 68 85
68 68 85
68 68 85
68 68 85
68 68 85
68 68 85
68 68 85
68 68 85
68 68 85
68 68 85
68 68 85
68 68 85
68 68 85
68 68 85
68 68 85
68 68 85
68 68 85
68 68 85
68 68 85
68 68 85
68 68 85
68 68 85
68 68 85
68 68 85
68 68 85
68 68 85
68 68 85
68 68 85
68 68 85
68 68 85
68 68 85
68 68 85
68 68 85
68 68 85
68 68 85
68 68 85
68 68 85
68 68 85
68 68 85
68 68 85
68 68 85
68 68 85
68 68 85
68 68 85
68 68 85
68 68 85
67 67 85
68 68 85
67 67 85
68 68 85
68 68 85
68 68 85
68 68 85
67 67 85
68 68 85
68 68 85
68 68 85
68 68 85
68 68 85
68 68 85
67 67 85
68 68 85
68 68 85
68 68 85
67 67 85
68 68 85
68 68 85
67 67 85
68 68 85
68 68 85
68 68 85
67 67 85
68 68 85
68 68 85
68 68 85
67 67 85
67 67 85
68 68 85
68 68 85
68 68 85
68 68 85
67 67 85
67 67 85
68 68 85
67 67 85
67 67 85
67 67 85
68 68 85
68 68 85
67 67 85
67 67 85
67 67 85
68 68 85
67 67 85
68 68 85
68 68 85
68 68 85
67 67 85
67 67 85
67 67 85
68 68 85
67 67 85
68 68 85
68 68 85
68 68 85
67 67 85
68 68 85
67 67 85
67 67 85
68 68 85
67 67 85
68 68 85
67 67 85
68 68 85
67 67 85
67 67 85
67 67 85
67 67 84
67 67 84
67 67 84
67 67 84
67 67 85
67 67 85
68 68 85
67 67 84
67 67 85
68 68 85
67 67 85
67 67 84
68 68 85
67 67 84
67 67 85
67 67 84
67 67 84
67 67 84
67 67 84
67 67 84
67 67 85
67 67 85
67 67 85
67 67 85
67 67 84
67 67 84
67 67 85
67 67 84
67 67 84
67 67 84
67 67 84
67 67 85
67 67 84
67 67 84
67 67 84
67 67 84
67 67 84
67 67 84
67 67 84
67 67 84
67 67 84
67 67 84
67 67 84
67 67 84
67 67 84
67 67 84
67 67 84
67 67 84
67 67 84
67 67 84
67 67 84
67 67 84
67 67 84
67 67 84
67 67 84
67 67 84
67 67 84
67 67 84
67 67 84
67 67 84
67 67 84
67 67 84
67 67 84
67 67 84
67 67 84
67 67 84
67 67 84
67 67 84
67 67 84
67 67 84
67 67 84
67 67 84
67 67 84
67 67 84
67 67 84
67 67 84
67 67 84
67 67 84
67 67 84
67 67 84
67 67 84
67 67 84
67 67 84
67 67 84
67 67 84
67 67 84
67 67 84
67 67 84
67 67 84
67 67 84
67 67 84
67 67 84
67 67 84
67 67 84
67 67 84
67 67 84
67 67 84
67 67 84
67 67 84
67 67 84
67 67 84
67 67 84
67 67 84
67 67 84
67 67 84
67 67 84
67 67 84
67 67 84
67 67 84
67 67 84
67 67 84
67 67 84
67 67 84
67 67 84
67 67 84
67 67 84
67 67 84
67 67 84
67 67 84
67 67 84
67 67 84
67 67 84
67 67 84
67 67 84
67 67 84
67 67 84
67 67 84
67 67 84
67 67 84
67 67 84
67 67 84
67 67 84
67 67 84
67 67 84
67 67 84
67 67 84
67 67 84
67 67 84
67 67 84
67 67 84
67 67 84
67 67 84
67 67 84
67 67 84
67 67 84
68 68 85
67 67 84
67 67 84
67 67 84
67 67 84
67 67 84
67 67 84
67 67 84
67 67 85
67 67 84
67 67 84
67 67 84
67 67 84
67 67 84
67 67 84
67 67 85
67 67 84
67 67 85
67 67 84
68 68 85
67 67 84
68 68 85
67 67 85
67 67 84
67 67 85
67 67 84
68 68 85
67 67 85
67 67 84
67 67 84
67 67 85
67 67 85
67 67 85
67 67 84
67 67 84
67 67 84
67 67 85
67 67 85
67 67 85
67 67 85
67 67 85
67 67 85
67 67 85
67 67 85
67 67 85
67 67 85
67 67 85
67 67 85
67 67 85
67 67 85
67 67 85
67 67 85
67 67 85
67 67 85
67 67 85
67 67 85
67 67 85
67 67 85
67 67 85
67 67 85
67 67 85
67 67 85
67 67 85
67 67 85
67 67 85
67 67 85
67 67 85
67 67 85
67 67 85
67 67 85
67 67 85
67 67 85
67 67 85
67 67 85
68 68 85
68 68 85
68 68 85
67 67 85
68 68 85
68 68 85
68 68 85
68 68 85
68 68 85
68 68 85
68 68 85
67 67 85
68 68 85
68 68 85
68 68 85
68 68 85
68 68 85
68 68 85
150 147 133
255 255 255
255 255 255
255 255 255
255 255 255
255 255 255
255 255 255
255 255 255
255 255 255
255 255 255
255 255 255
255 255 255
255 255 255
255 255 255
255 255 255
255 255 255
255 255 255
255 255 255
255 255 255
255 255 255
255 255 255
255 255 255
255 255 255
255 255 255
255 255 255
255 255 255
255 255 255
255 255 255
255 255 255
68 68 85
68 68 85
68 68 85
65 65 82
50 49 61
52 51 61
63 63 78
68 68 85
68 68 85
68 68 85
68 68 85
68 68 85
68 68 85
68 68 85
68 68 85
68 68 85
68 68 85
68 68 85
68 68 85
68 68 85
68 68 85
68 68 85
68 68 85
68 68 85
68 68 85
68 68 85
68 68 85
68 68 85
68 68 85
68 68 85
68 68 85
68 68 85
68 68 85
68 68 85
68 68 85
68 68 85
68 68 85
68 68 85
68 68 85
68 68 85
68 68 85
68 68 85
68 68 85
68 68 85
68 68 85
68 68 85
68 68 85
68 68 85
68 68 85
68 68 85
68 68 85
68 68 85
68 68 85
68 68 85
68 68 85
68 68 85
68 68 85
68 68 85
68 68 85
68 68 85
68 68 85
68 68 85
68 68 85
68 68 85
68 68 85
68 68 85
68 68 85
68 68 85
68 68 85
68 68 85
68 68 85
68 68 85
68 68 85
68 68 85
68 68 85
68 68 85
68 68 85
68 68 85
68 68 85
68 68 85
68 68 85
68 68 85
68 68 85
68 68 85
68 68 85
68 68 85
68 68 85
68 68 85
67 67 85
68 68 85
67 67 85
68 68 85
68 68 85
68 68 85
68 68 85
67 67 85
68 68 85
68 68 85
67 67 85
68 68 85
67 67 85
68 68 85
67 67 85
68 68 85
68 68 85
67 67 85
67 67 85
68 68 85
68 68 85
68 68 85
67 67 85
67 67 85
67 67 85
67 67 85
68 68 85
68 68 85
67 67 85
67 67 85
68 68 85
68 68 85
68 68 85
68 68 85
67 67 85
68 68 85
67 67 85
67 67 85
68 68 85
67 67 85
68 68 85
68 68 85
67 67 85
67 67 85
67 67 85
67 67 85
68 68 85
67 67 85
68 68 85
67 67 85
67 67 85
67 67 84
67 67 85
68 68 85
67 67 85
67 67 85
67 67 85
67 67 85
67 67 85
67 67 84
68 68 85
67 67 85
67 67 84
67 67 85
67 67 84
67 67 84
67 67 84
67 67 85
67 67 84
68 68 85
67 67 84
67 67 84
67 67 84
67 67 84
67 67 84
67 67 84
67 67 85
67 67 84
67 67 85
67 67 84
67 67 85
67 67 84
67 67 84
67 67 84
67 67 85
67 67 84
67 67 84
67 67 84
67 67 84
67 67 84
67 67 84
67 67 84
67 67 84
67 67 84
67 67 84
67 67 84
67 67 84
67 67 84
67 67 84
67 67 84
67 67 84
67 67 84
67 67 84
67 67 84
67 67 84
67 67 84
67 67 84
67 67 84
67 67 84
67 67 84
67 67 84
67 67 84
67 67 84
67 67 84
67 67 84
67 67 84
67 67 84
67 67 84
67 67 84
67 67 84
67 67 84
67 67 84
67 67 84
67 67 84
67 67 84
67 67 84
67 67 84
67 67 84
67 67 84
67 67 84
67 67 84
67 67 84
67 67 84
67 67 84
67 67 84
67 67 84
67 67 84
67 67 84
67 67 84
67 67 84
67 67 84
67 67 84
67 67 84
67 67 84
67 67 84
67 67 84
67 67 84
67 67 84
67 67 84
67 67 84
67 67 84
67 67 84
67 67 84
67 67 84
67 67 84
67 67 84
67 67 84
67 67 84
67 67 84
67 67 84
67 67 84
67 67 84
67 67 84
67 67 84
67 67 84
67 67 84
67 67 84
67 67 84
67 67 84
67 67 84
67 67 84
67 67 84
67 67 84
67 67 84
67 67 84
67 67 84
67 67 84
67 67 84
67 67 84
67 67 84
67 67 84
67 67 84
67 67 84
67 67 84
67 67 84
67 67 84
67 67 84
67 67 85
67 67 84
68 68 85
67 67 84
67 67 84
67 67 84
67 67 84
67 67 84
67 67 84
67 67 85
67 67 85
67 67 85
67 67 84
68 68 85
67 67 84
67 67 85
68 68 85
68 68 85
67 67 84
67 67 84
67 67 84
67 67 85
67 67 85
67 67 85
67 67 85
67 67 84
68 68 85
68 68 85
67 67 84
67 67 85
67 67 85
68 68 85
68 68 85
67 67 85
68 68 85
67 67 85
67 67 85
67 67 85
67 67 85
67 67 85
67 67 85
67 67 85
67 67 85
67 67 85
67 67 85
67 67 85
67 67 85
67 67 85
67 67 85
67 67 85
67 67 85
67 67 85
67 67 85
67 67 85
67 67 85
67 67 85
67 67 85
67 67 85
67 67 85
67 67 85
67 67 85
67 67 85
67 67 85
67 67 85
67 67 85
67 67 85
67 67 85
67 67 85
67 67 85
67 67 85
67 67 85
67 67 85
67 67 85
67 67 85
67 67 85
68 68 85
68 68 85
68 68 85
68 68 85
68 68 85
68 68 85
68 68 85
68 68 85
68 68 85
68 68 85
68 68 85
68 68 85
68 68 85
68 68 85
68 68 85
68 68 85
68 68 85
68 68 85
68 68 85
68 68 85
68 68 85
68 68 85
255 255 222
255 255 255
255 255 255
255 255 255
255 255 255
255 255 255
255 255 255
255 255 255
255 255 255
255 255 255
255 255 255
255 255 255
255 255 255
255 255 255
255 255 255
255 255 255
255 255 255
255 255 255
255 255 255
255 255 255
255 255 255
255 255 255
255 255 255
255 255 255
255 255 255
255 255 255
255 255 255
138 136 126
68 68 85
68 68 85
68 68 85
68 68 85
68 68 85
67 67 84
68 68 85
68 68 85
68 68 85
68 68 85
68 68 85
68 68 85
68 68 85
68 68 85
89 85 86
70 67 73
59 58 72
67 67 83
68 68 85
68 68 85
68 68 85
68 68 85
68 68 85
68 68 85
68 68 85
68 68 85
68 68 85
68 68 85
68 68 85
68 68 85
68 68 85
68 68 85
68 68 85
68 68 85
68 68 85
68 68 85
68 68 85
68 68 85
68 68 85
68 68 85
68 68 85
68 68 85
68 68 85
68 68 85
68 68 85
68 68 85
68 68 85
68 68 85
68 68 85
68 68 85
68 68 85
68 68 85
68 68 85
68 68 85
68 68 85
68 68 85
68 68 85
68 68 85
68 68 85
68 68 85
68 68 85
68 68 85
68 68 85
68 68 85
68 68 85
68 68 85
68 68 85
68 68 85
68 68 85
68 68 85
68 68 85
68 68 85
68 68 85
68 68 85
68 68 85
68 68 85
68 68 85
68 68 85
68 68 85
68 68 85
68 68 85
68 68 85
68 68 85
68 68 85
68 68 85
68 68 85
68 68 85
68 68 85
68 68 85
68 68 85
68 68 85
68 68 85
68 68 85
68 68 85
68 68 85
68 68 85
68 68 85
68 68 85
68 68 85
68 68 85
68 68 85
68 68 85
68 68 85
68 68 85
68 68 85
68 68 85
68 68 85
68 68 85
68 68 85
68 68 85
68 68 85
68 68 85
68 68 85
68 68 85
68 68 85
68 68 85
68 68 85
68 68 85
67 67 85
68 68 85
68 68 85
68 68 85
68 68 85
68 68 85
67 67 85
68 68 85
67 67 85
68 68 85
68 68 85
68 68 85
68 68 85
67 67 85
68 68 85
67 67 85
67 67 85
68 68 85
68 68 85
67 67 85
67 67 85
68 68 85
67 67 85
68 68 85
67 67 85
68 68 85
67 67 85
67 67 85
67 67 85
67 67 85
67 67 85
67 67 84
67 67 85
67 67 84
67 67 84
68 68 85
68 68 85
67 67 85
67 67 85
67 67 85
67 67 85
67 67 85
67 67 85
67 67 84
68 68 85
68 68 85
67 67 84
67 67 84
68 68 85
67 67 85
68 68 85
67 67 84
67 67 84
67 67 84
67 67 84
67 67 84
67 67 84
67 67 84
67 67 84
68 68 85
67 67 84
67 67 84
68 68 85
68 68 85
67 67 84
67 67 84
67 67 84
67 67 84
67 67 84
67 67 84
67 67 84
67 67 84
67 67 84
67 67 84
67 67 84
67 67 84
67 67 84
67 67 84
67 67 84
67 67 84
67 67 84
67 67 84
67 67 84
67 67 84
67 67 84
67 67 84
67 67 84
67 67 84
67 67 84
67 67 84
67 67 84
67 67 84
67 67 84
67 67 84
67 67 84
67 67 84
67 67 84
67 67 84
67 67 84
67 67 84
67 67 84
67 67 84
67 67 84
67 67 84
67 67 84
67 67 84
67 67 84
67 67 84
67 67 84
67 67 84
67 67 84
67 67 84
67 67 84
67 67 84
67 67 84
67 67 84
67 67 84
67 67 84
67 67 84
67 67 84
67 67 84
67 67 84
67 67 84
67 67 84
67 67 84
67 67 84
67 67 84
67 67 84
67 67 84
67 67 84
67 67 84
67 67 84
67 67 84
67 67 84
67 67 84
67 67 84
67 67 84
67 67 84
67 67 84
67 67 84
67 67 84
67 67 84
67 67 84
67 67 84
67 67 84
67 67 84
67 67 84
67 67 84
67 67 84
67 67 84
67 67 84
67 67 84
67 67 84
67 67 84
67 67 84
67 67 84
67 67 85
67 67 84
67 67 85
67 67 84
67 67 84
67 67 84
67 67 84
67 67 84
67 67 84
67 67 84
67 67 85
67 67 84
68 68 85
67 67 85
67 67 85
68 68 85
67 67 85
67 67 85
67 67 84
68 68 85
67 67 84
67 67 85
67 67 85
67 67 85
67 67 85
68 68 85
67 67 85
68 68 85
68 68 85
67 67 85
68 68 85
68 68 85
68 68 85
67 67 85
67 67 85
67 67 85
67 67 85
67 67 85
67 67 85
67 67 85
67 67 85
67 67 85
67 67 85
67 67 85
67 67 85
67 67 85
67 67 85
67 67 85
67 67 85
67 67 85
67 67 85
67 67 85
67 67 85
67 67 85
67 67 85
67 67 85
67 67 85
67 67 85
67 67 85
67 67 85
67 67 85
67 67 85
67 67 85
68 68 85
68 68 85
68 68 85
68 68 85
68 68 85
68 68 85
68 68 85
68 68 85
68 68 85
68 68 85
68 68 85
68 68 85
68 68 85
68 68 85
68 68 85
68 68 85
68 68 85
68 68 85
68 68 85
68 68 85
68 68 85
68 68 85
68 68 85
68 68 85
68 68 85
68 68 85
68 68 85
68 68 85
68 68 85
68 68 85
68 68 85
68 68 85
68 68 85
68 68 85
68 68 85
68 68 85
255 255 255
255 255 255
255 255 255
255 255 255
255 255 255
255 255 255
255 255 255
255 255 255
255 255 255
255 255 255
255 255 255
255 255 255
255 255 255
255 255 255
255 255 255
255 255 255
255 255 255
255 255 255
255 255 255
255 255 255
255 255 255
255 255 255
255 255 255
255 255 255
255 255 255
188 184 160
68 68 85
68 68 85
68 68 85
68 68 85
68 68 85
68 68 85
68 68 85
68 68 85
68 68 85
68 68 85
68 68 85
68 68 85
68 68 85
67 67 84
111 104 88
78 72 63
47 44 48
40 39 46
46 44 53
65 64 80
68 68 85
68 68 85
68 68 85
68 68 85
68 68 85
68 68 85
68 68 85
68 68 85
68 68 85
68 68 85
68 68 85
68 68 85
68 68 85
68 68 85
68 68 85
68 68 85
68 68 85
68 68 85
68 68 85
68 68 85
68 68 85
68 68 85
68 68 85
68 68 85
68 68 85
68 68 85
68 68 85
68 68 85
68 68 85
68 68 85
68 68 85
68 68 85
68 68 85
68 68 85
68 68 85
68 68 85
68 68 85
68 68 85
68 68 85
68 68 85
68 68 85
68 68 85
68 68 85
68 68 85
68 68 85
68 68 85
68 68 85
68 68 85
68 68 85
68 68 85
68 68 85
68 68 85
68 68 85
68 68 85
68 68 85
68 68 85
68 68 85
68 68 85
68 68 85
68 68 85
68 68 85
68 68 85
68 68 85
68 68 85
68 68 85
68 68 85
68 68 85
68 68 85
68 68 85
68 68 85
68 68 85
68 68 85
68 68 85
68 68 85
68 68 85
68 68 85
68 68 85
68 68 85
68 68 85
68 68 85
68 68 85
68 68 85
68 68 85
68 68 85
68 68 85
68 68 85
68 68 85
68 68 85
68 68 85
68 68 85
68 68 85
68 68 85
68 68 85
68 68 85
68 68 85
68 68 85
68 68 85
68 68 85
68 68 85
68 68 85
68 68 85
68 68 85
68 68 85
68 68 85
68 68 85
67 67 85
68 68 85
68 68 85
68 68 85
68 68 85
68 68 85
68 68 85
68 68 85
68 68 85
67 67 85
67 67 85
68 68 85
68 68 85
68 68 85
67 67 85
68 68 85
67 67 85
67 67 85
68 68 85
68 68 85
67 67 85
68 68 85
68 68 85
67 67 85
68 68 85
67 67 85
68 68 85
68 68 85
67 67 85
67 67 85
67 67 85
67 67 85
67 67 85
68 68 85
67 67 85
68 68 85
67 67 85
67 67 85
68 68 85
67 67 85
67 67 85
67 67 85
67 67 85
67 67 85
67 67 84
67 67 85
67 67 85
67 67 84
67 67 85
67 67 85
67 67 84
67 67 85
67 67 84
67 67 84
67 67 84
68 68 85
67 67 84
68 68 85
67 67 85
67 67 85
67 67 84
67 67 84
67 67 84
67 67 85
67 67 84
67 67 84
67 67 85
67 67 84
67 67 84
67 67 84
67 67 84
67 67 84
67 67 84
67 67 84
67 67 84
67 67 84
67 67 84
67 67 84
67 67 84
67 67 84
67 67 84
67 67 84
67 67 84
67 67 84
67 67 84
67 67 84
67 67 84
67 67 84
67 67 84
67 67 84
67 67 84
67 67 84
67 67 84
67 67 84
67 67 84
67 67 84
67 67 84
67 67 84
67 67 84
67 67 84
67 67 84
67 67 84
67 67 84
67 67 84
67 67 84
67 67 84
67 67 84
67 67 84
67 67 84
67 67 84
67 67 84
67 67 84
67 67 84
67 67 84
67 67 84
67 67 84
67 67 84
67 67 84
67 67 84
67 67 84
67 67 84
67 67 84
67 67 84
67 67 84
67 67 84
67 67 84
67 67 84
67 67 84
67 67 84
67 67 84
67 67 84
67 67 84
67 67 84
67 67 84
67 67 84
67 67 84
67 67 84
67 67 84
67 67 84
67 67 84
67 67 84
67 67 84
67 67 84
67 67 84
67 67 84
67 67 84
67 67 84
67 67 85
67 67 84
67 67 85
67 67 85
67 67 85
67 67 85
67 67 85
67 67 85
67 67 85
67 67 85
67 67 85
67 67 84
67 67 85
67 67 85
68 68 85
68 68 85
67 67 85
68 68 85
67 67 85
67 67 85
68 68 85
67 67 85
68 68 85
67 67 85
67 67 85
67 67 85
68 68 85
67 67 85
67 67 85
67 67 85
67 67 85
67 67 85
68 68 85
67 67 85
67 67 85
68 68 85
67 67 85
67 67 85
67 67 85
67 67 85
67 67 85
67 67 85
67 67 85
67 67 85
67 67 85
67 67 85
67 67 85
67 67 85
67 67 85
67 67 85
67 67 85
67 67 85
67 67 85
68 68 85
68 68 85
68 68 85
68 68 85
68 68 85
68 68 85
68 68 85
68 68 85
68 68 85
68 68 85
68 68 85
68 68 85
68 68 85
68 68 85
68 68 85
68 68 85
68 68 85
68 68 85
68 68 85
68 68 85
68 68 85
68 68 85
68 68 85
68 68 85
68 68 85
68 68 85
68 68 85
68 68 85
68 68 85
68 68 85
68 68 85
68 68 85
68 68 85
68 68 85
68 68 85
68 68 85
68 68 85
68 68 85
68 68 85
68 68 85
68 68 85
68 68 85
68 68 85
68 68 85
68 68 85
68 68 85
68 68 85
68 68 85
68 68 85
68 68 85
255 255 216
255 255 255
255 255 255
255 255 255
255 255 255
255 255 255
255 255 255
255 255 255
255 255 255
255 255 255
255 255 255
255 255 255
255 255 255
255 255 255
255 255 255
255 255 255
255 255 255
255 255 255
255 255 255
255 255 255
255 255 255
255 255 255
255 255 255
155 152 137
68 68 85
68 68 85
68 68 85
68 68 85
68 68 85
68 68 85
68 68 85
68 68 85
68 68 85
68 68 85
68 68 85
68 68 85
68 68 85
68 68 85
116 109 97
75 69 63
44 41 48
43 40 48
46 44 52
47 46 54
53 52 63
68 68 85
68 68 85
68 68 85
68 68 85
68 68 85
68 68 85
68 68 85
68 68 85
68 68 85
68 68 85
68 68 85
68 68 85
68 68 85
68 68 85
68 68 85
68 68 85
68 68 85
68 68 85
68 68 85
68 68 85
68 68 85
68 68 85
68 68 85
68 68 85
68 68 85
68 68 85
68 68 85
68 68 85
68 68 85
68 68 85
68 68 85
68 68 85
68 68 85
68 68 85
68 68 85
68 68 85
68 68 85
68 68 85
68 68 85
68 68 85
68 68 85
68 68 85
68 68 85
68 68 85
68 68 85
68 68 85
68 68 85
68 68 85
68 68 85
68 68 85
68 68 85
68 68 85
68 68 85
68 68 85
68 68 85
68 68 85
68 68 85
68 68 85
68 68 85
68 68 85
68 68 85
68 68 85
68 68 85
68 68 85
68 68 85
68 68 85
68 68 85
68 68 85
68 68 85
68 68 85
68 68 85
68 68 85
68 68 85
68 68 85
68 68 85
68 68 85
68 68 85
68 68 85
68 68 85
68 68 85
68 68 85
68 68 85
68 68 85
68 68 85
68 68 85
68 68 85
68 68 85
68 68 85
68 68 85
68 68 85
68 68 85
68 68 85
68 68 85
68 68 85
68 68 85
68 68 85
68 68 85
68 68 85
68 68 85
68 68 85
68 68 85
68 68 85
68 68 85
68 68 85
68 68 85
68 68 85
68 68 85
68 68 85
68 68 85
68 68 85
68 68 85
68 68 85
68 68 85
68 68 85
67 67 85
67 67 85
68 68 85
67 67 85
68 68 85
68 68 85
67 67 85
68 68 85
68 68 85
68 68 85
68 68 85
68 68 85
68 68 85
67 67 85
68 68 85
68 68 85
67 67 85
67 67 85
67 67 85
68 68 85
67 67 85
67 67 85
68 68 85
67 67 85
67 67 85
67 67 85
68 68 85
67 67 85
68 68 85
67 67 85
67 67 85
67 67 85
67 67 85
67 67 85
67 67 85
67 67 84
68 68 85
68 68 85
67 67 85
67 67 84
67 67 84
67 67 84
67 67 85
67 67 85
67 67 85
67 67 85
67 67 84
67 67 84
67 67 85
67 67 84
67 67 84
67 67 84
67 67 84
67 67 84
67 67 84
67 67 84
67 67 84
67 67 84
67 67 84
67 67 84
67 67 84
67 67 84
67 67 84
67 67 85
67 67 84
67 67 84
67 67 84
67 67 84
67 67 84
67 67 84
67 67 84
67 67 84
67 67 84
67 67 85
67 67 84
67 67 84
67 67 84
67 67 84
67 67 84
67 67 84
67 67 84
67 67 84
67 67 84
67 67 84
68 68 85
67 67 84
67 67 84
67 67 84
67 67 84
67 67 84
67 67 84
67 67 84
67 67 84
67 67 84
67 67 84
67 67 84
67 67 84
67 67 84
67 67 84
67 67 84
67 67 84
67 67 84
67 67 84
67 67 84
67 67 84
67 67 84
67 67 84
67 67 84
67 67 84
67 67 84
67 67 84
67 67 84
67 67 84
67 67 84
67 67 84
67 67 84
67 67 84
67 67 84
67 67 84
67 67 84
67 67 84
67 67 84
67 67 84
67 67 84
67 67 84
67 67 84
67 67 84
67 67 84
67 67 84
67 67 84
67 67 84
67 67 84
67 67 84
67 67 84
67 67 84
67 67 84
67 67 84
67 67 84
67 67 85
67 67 85
67 67 84
68 68 85
67 67 85
68 68 85
68 68 85
68 68 85
67 67 85
68 68 85
67 67 85
67 67 85
67 67 85
67 67 85
67 67 85
68 68 85
67 67 85
67 67 85
67 67 85
68 68 85
68 68 85
67 67 85
68 68 85
68 68 85
67 67 85
68 68 85
67 67 85
67 67 85
67 67 85
68 68 85
68 68 85
68 68 85
67 67 85
68 68 85
67 67 85
67 67 85
67 67 85
67 67 85
67 67 85
67 67 85
67 67 85
67 67 85
67 67 85
68 68 85
68 68 85
68 68 85
68 68 85
68 68 85
68 68 85
68 68 85
68 68 85
68 68 85
68 68 85
68 68 85
68 68 85
68 68 85
68 68 85
68 68 85
68 68 85
68 68 85
68 68 85
68 68 85
68 68 85
68 68 85
68 68 85
68 68 85
68 68 85
68 68 85
68 68 85
68 68 85
68 68 85
68 68 85
68 68 85
68 68 85
68 68 85
68 68 85
68 68 85
68 68 85
68 68 85
68 68 85
68 68 85
68 68 85
68 68 85
68 68 85
68 68 85
68 68 85
68 68 85
68 68 85
68 68 85
68 68 85
68 68 85
68 68 85
68 68 85
68 68 85
68 68 85
68 68 85
68 68 85
68 68 85
68 68 85
68 68 85
68 68 85
68 68 85
68 68 85
68 68 85
132 130 122
255 255 255
255 255 255
255 255 255
255 255 255
255 255 255
255 255 255
255 255 255
255 255 255
255 255 255
255 255 255
255 255 255
255 255 255
255 255 255
255 255 255
255 255 255
255 255 255
255 255 255
255 255 255
255 255 255
255 255 255
68 68 85
68 68 85
68 68 85
68 68 85
68 68 85
68 68 85
68 68 85
68 68 85
68 68 85
68 68 85
68 68 85
68 68 85
68 68 85
68 68 85
68 68 85
68 68 85
106 99 87
59 55 58
50 48 55
50 47 55
50 47 54
49 47 54
51 51 58
68 67 84
68 68 85
68 68 85
68 68 85
68 68 85
68 68 85
68 68 85
68 68 85
68 68 85
68 68 85
68 68 85
68 68 85
68 68 85
68 68 85
68 68 85
68 68 85
68 68 85
68 68 85
68 68 85
68 68 85
68 68 85
68 68 85
68 68 85
68 68 85
68 68 85
68 68 85
68 68 85
68 68 85
68 68 85
68 68 85
68 68 85
68 68 85
68 68 85
68 68 85
68 68 85
68 68 85
68 68 85
68 68 85
68 68 85
68 68 85
68 68 85
68 68 85
68 68 85
68 68 85
68 68 85
68 68 85
68 68 85
68 68 85
68 68 85
68 68 85
68 68 85
68 68 85
68 68 85
68 68 85
68 68 85
68 68 85
68 68 85
68 68 85
68 68 85
68 68 85
68 68 85
68 68 85
68 68 85
68 68 85
68 68 85
68 68 85
68 68 85
68 68 85
68 68 85
68 68 85
68 68 85
68 68 85
68 68 85
68 68 85
68 68 85
68 68 85
68 68 85
68 68 85
68 68 85
68 68 85
68 68 85
68 68 85
68 68 85
68 68 85
68 68 85
68 68 85
68 68 85
68 68 85
68 68 85
68 68 85
68 68 85
68 68 85
68 68 85
68 68 85
68 68 85
68 68 85
68 68 85
68 68 85
68 68 85
68 68 85
68 68 85
68 68 85
68 68 85
68 68 85
68 68 85
68 68 85
68 68 85
68 68 85
68 68 85
68 68 85
68 68 85
68 68 85
68 68 85
68 68 85
68 68 85
68 68 85
68 68 85
68 68 85
68 68 85
68 68 85
68 68 85
68 68 85
68 68 85
68 68 85
68 68 85
68 68 85
68 68 85
68 68 85
68 68 85
68 68 85
68 68 85
68 68 85
67 67 85
68 68 85
67 67 85
67 67 85
67 67 85
68 68 85
67 67 85
67 67 85
67 67 85
67 67 85
67 67 85
67 67 85
67 67 85
67 67 85
67 67 85
67 67 85
67 67 85
67 67 85
67 67 85
67 67 85
67 67 85
67 67 85
67 67 85
67 67 85
67 67 85
67 67 84
67 67 84
67 67 84
67 67 84
67 67 84
67 67 84
67 67 84
67 67 84
67 67 84
67 67 84
67 67 84
67 67 84
67 67 84
67 67 84
67 67 84
67 67 84
67 67 84
67 67 84
67 67 84
67 67 84
67 67 84
67 67 84
67 67 84
67 67 84
67 67 84
67 67 84
67 67 84
67 67 84
67 67 84
67 67 84
67 67 84
67 67 84
67 67 84
67 67 84
67 67 84
67 67 84
67 67 84
67 67 84
67 67 84
67 67 84
67 67 84
67 67 84
67 67 84
67 67 84
67 67 84
67 67 84
67 67 84
67 67 84
67 67 84
67 67 84
67 67 84
67 67 84
67 67 84
67 67 84
67 67 84
67 67 84
67 67 84
67 67 84
67 67 84
67 67 84
67 67 84
67 67 84
67 67 84
67 67 84
67 67 84
67 67 84
67 67 84
67 67 84
67 67 84
67 67 84
67 67 84
67 67 84
67 67 84
67 67 84
67 67 84
67 67 84
67 67 84
67 67 84
67 67 84
67 67 84
67 67 84
67 67 84
67 67 84
67 67 84
67 67 84
67 67 84
67 67 84
67 67 84
67 67 84
67 67 85
67 67 84
68 68 85
68 68 85
67 67 85
68 68 85
67 67 85
67 67 85
67 67 85
67 67 85
67 67 85
67 67 85
68 68 85
68 68 85
67 67 85
68 68 85
68 68 85
68 68 85
68 68 85
67 67 85
68 68 85
67 67 85
68 68 85
68 68 85
68 68 85
67 67 85
68 68 85
68 68 85
68 68 85
68 68 85
68 68 85
68 68 85
68 68 85
68 68 85
67 67 85
68 68 85
68 68 85
68 68 85
67 67 85
68 68 85
68 68 85
68 68 85
68 68 85
68 68 85
68 68 85
68 68 85
68 68 85
68 68 85
68 68 85
68 68 85
68 68 85
68 68 85
68 68 85
68 68 85
68 68 85
68 68 85
68 68 85
68 68 85
68 68 85
68 68 85
68 68 85
68 68 85
68 68 85
68 68 85
68 68 85
68 68 85
68 68 85
68 68 85
68 68 85
68 68 85
68 68 85
68 68 85
68 68 85
68 68 85
68 68 85
68 68 85
68 68 85
68 68 85
68 68 85
68 68 85
68 68 85
68 68 85
68 68 85
68 68 85
68 68 85
68 68 85
68 68 85
68 68 85
68 68 85
68 68 85
68 68 85
68 68 85
68 68 85
68 68 85
68 68 85
68 68 85
68 68 85
68 68 85
68 68 85
68 68 85
68 68 85
68 68 85
68 68 85
68 68 85
68 68 85
68 68 85
68 68 85
68 68 85
68 68 85
68 68 85
68 68 85
68 68 85
255 255 235
255 255 255
255 255 255
255 255 255
255 255 255
255 255 255
255 255 255
255 255 255
255 255 255
255 255 255
255 255 255
255 255 255
255 255 255
255 255 255
255 255 255
255 255 255
255 255 255
205 200 171
68 68 85
68 68 85
68 68 85
68 68 85
68 68 85
68 68 85
68 68 85
68 68 85
68 68 85
68 68 85
68 68 85
68 68 85
68 68 85
68 68 85
68 68 85
68 68 85
68 68 85
101 95 85
52 49 55
56 53 59
53 51 58
54 53 60
57 56 63
59 59 66
67 67 84
68 68 85
68 68 85
68 68 85
68 68 85
68 68 85
68 68 85
68 68 85
68 68 85
68 68 85
68 68 85
68 68 85
68 68 85
68 68 85
68 68 85
68 68 85
68 68 85
68 68 85
68 68 85
68 68 85
68 68 85
68 68 85
68 68 85
68 68 85
68 68 85
68 68 85
68 68 85
68 68 85
68 68 85
68 68 85
68 68 85
68 68 85
68 68 85
68 68 85
68 68 85
68 68 85
68 68 85
68 68 85
68 68 85
68 68 85
68 68 85
68 68 85
68 68 85
68 68 85
68 68 85
68 68 85
68 68 85
68 68 85
68 68 85
68 68 85
68 68 85
68 68 85
68 68 85
68 68 85
68 68 85
68 68 85
68 68 85
68 68 85
68 68 85
68 68 85
68 68 85
68 68 85
68 68 85
68 68 85
68 68 85
68 68 85
68 68 85
68 68 85
68 68 85
68 68 85
68 68 85
68 68 85
68 68 85
68 68 85
68 68 85
68 68 85
68 68 85
68 68 85
68 68 85
68 68 85
68 68 85
68 68 85
68 68 85
68 68 85
68 68 85
68 68 85
68 68 85
68 68 85
68 68 85
68 68 85
68 68 85
68 68 85
68 68 85
68 68 85
68 68 85
68 68 85
68 68 85
68 68 85
68 68 85
68 68 85
68 68 85
68 68 85
68 68 85
68 68 85
68 68 85
68 68 85
68 68 85
68 68 85
68 68 85
68 68 85
68 68 85
68 68 85
68 68 85
68 68 85
68 68 85
68 68 85
68 68 85
68 68 85
68 68 85
68 68 85
68 68 85
68 68 85
68 68 85
68 68 85
68 68 85
68 68 85
68 68 85
68 68 85
68 68 85
68 68 85
68 68 85
67 67 85
67 67 85
67 67 85
67 67 85
67 67 85
67 67 85
67 67 85
67 67 85
67 67 85
67 67 85
67 67 85
67 67 85
67 67 85
67 67 85
67 67 85
67 67 85
67 67 85
67 67 85
67 67 85
67 67 85
67 67 85
67 67 85
67 67 85
67 67 85
67 67 85
67 67 85
67 67 85
67 67 85
67 67 85
67 67 85
67 67 85
67 67 85
67 67 85
67 67 85
67 67 84
67 67 84
67 67 84
67 67 84
67 67 84
67 67 84
67 67 84
67 67 84
67 67 84
67 67 84
67 67 84
67 67 84
67 67 84
67 67 84
67 67 84
67 67 84
67 67 84
67 67 84
67 67 84
67 67 84
67 67 84
67 67 84
67 67 84
67 67 84
67 67 84
67 67 84
67 67 84
67 67 84
67 67 84
67 67 84
67 67 84
67 67 84
67 67 84
67 67 84
67 67 84
67 67 84
67 67 84
67 67 84
67 67 84
67 67 84
67 67 84
67 67 84
67 67 84
67 67 84
67 67 84
67 67 84
67 67 84
67 67 84
67 67 84
67 67 84
67 67 84
67 67 84
67 67 84
67 67 84
67 67 84
67 67 84
67 67 84
67 67 84
67 67 84
67 67 84
67 67 84
67 67 84
67 67 84
67 67 84
67 67 84
67 67 84
67 67 84
67 67 84
67 67 84
67 67 84
67 67 84
67 67 84
67 67 84
67 67 84
67 67 84
67 67 84
67 67 84
67 67 84
67 67 85
67 67 85
67 67 85
67 67 85
67 67 85
67 67 85
67 67 85
68 68 85
67 67 85
67 67 85
68 68 85
68 68 85
67 67 85
68 68 85
68 68 85
68 68 85
68 68 85
68 68 85
68 68 85
68 68 85
68 68 85
68 68 85
68 68 85
67 67 85
67 67 85
68 68 85
68 68 85
68 68 85
67 67 85
68 68 85
68 68 85
68 68 85
68 68 85
68 68 85
68 68 85
68 68 85
68 68 85
68 68 85
68 68 85
68 68 85
68 68 85
68 68 85
68 68 85
68 68 85
68 68 85
68 68 85
68 68 85
68 68 85
68 68 85
68 68 85
68 68 85
68 68 85
68 68 85
68 68 85
68 68 85
68 68 85
68 68 85
68 68 85
68 68 85
68 68 85
68 68 85
68 68 85
68 68 85
68 68 85
68 68 85
68 68 85
68 68 85
68 68 85
68 68 85
68 68 85
68 68 85
68 68 85
68 68 85
68 68 85
68 68 85
68 68 85
68 68 85
68 68 85
68 68 85
68 68 85
68 68 85
68 68 85
68 68 85
68 68 85
68 68 85
68 68 85
68 68 85
68 68 85
68 68 85
68 68 85
68 68 85
68 68 85
68 68 85
68 68 85
68 68 85
68 68 85
68 68 85
68 68 85
68 68 85
68 68 85
68 68 85
68 68 85
68 68 85
68 68 85
68 68 85
68 68 85
68 68 85
68 68 85
68 68 85
68 68 85
68 68 85
68 68 85
68 68 85
68 68 85
68 68 85
68 68 85
68 68 85
220 215 182
255 255 255
255 255 255
255 255 255
255 255 255
255 255 255
255 255 255
255 255 255
255 255 255
255 255 255
255 255 255
255 255 255
255 255 255
160 157 140
68 68 85
68 68 85
68 68 85
68 68 85
68 68 85
68 68 85
68 68 85
68 68 85
68 68 85
68 68 85
68 68 85
68 68 85
68 68 85
68 68 85
68 68 85
68 68 85
68 68 85
68 68 85
68 68 85
85 81 86
71 66 66
59 56 62
58 55 61
59 56 63
60 58 65
62 60 71
68 68 85
68 68 85
68 68 85
68 68 85
68 68 85
68 68 85
65 66 84
60 65 86
56 58 78
65 65 83
68 68 85
68 68 85
68 68 85
68 68 85
68 68 85
68 68 85
68 68 85
68 68 85
68 68 85
68 68 85
68 68 85
68 68 85
68 68 85
68 68 85
68 68 85
68 68 85
68 68 85
68 68 85
68 68 85
68 68 85
68 68 85
68 68 85
68 68 85
68 68 85
68 68 85
68 68 85
68 68 85
68 68 85
68 68 85
68 68 85
68 68 85
68 68 85
68 68 85
68 68 85
68 68 85
68 68 85
68 68 85
68 68 85
68 68 85
68 68 85
68 68 85
68 68 85
68 68 85
68 68 85
68 68 85
68 68 85
68 68 85
68 68 85
68 68 85
68 68 85
68 68 85
68 68 85
68 68 85
68 68 85
68 68 85
68 68 85
68 68 85
68 68 85
68 68 85
68 68 85
68 68 85
68 68 85
68 68 85
68 68 85
68 68 85
68 68 85
68 68 85
68 68 85
68 68 85
68 68 85
68 68 85
68 68 85
68 68 85
68 68 85
68 68 85
68 68 85
68 68 85
68 68 85
68 68 85
68 68 85
68 68 85
68 68 85
68 68 85
68 68 85
68 68 85
68 68 85
68 68 85
68 68 85
68 68 85
68 68 85
68 68 85
68 68 85
68 68 85
68 68 85
68 68 85
68 68 85
68 68 85
68 68 85
68 68 85
68 68 85
68 68 85
68 68 85
68 68 85
68 68 85
68 68 85
68 68 85
68 68 85
68 68 85
68 68 85
68 68 85
68 68 85
68 68 85
68 68 85
68 68 85
68 68 85
68 68 85
68 68 85
68 68 85
68 68 85
68 68 85
68 68 85
68 68 85
68 68 85
68 68 85
68 68 85
68 68 85
68 68 85
68 68 85
68 68 85
68 68 85
68 68 85
67 67 85
67 67 85
67 67 85
67 67 85
67 67 85
67 67 85
67 67 85
67 67 85
67 67 85
67 67 85
67 67 85
67 67 85
67 67 85
67 67 85
67 67 85
67 67 85
67 67 85
67 67 85
67 67 85
67 67 85
67 67 85
67 67 85
67 67 85
67 67 85
67 67 85
67 67 85
67 67 85
67 67 85
67 67 85
67 67 85
67 67 85
67 67 85
67 67 84
67 67 84
67 67 84
67 67 84
67 67 84
67 67 84
67 67 84
67 67 84
67 67 84
67 67 84
67 67 84
67 67 84
67 67 84
67 67 84
67 67 84
67 67 84
67 67 84
67 67 84
67 67 84
67 67 84
67 67 84
67 67 84
67 67 84
67 67 84
67 67 84
67 67 84
67 67 84
67 67 84
67 67 84
67 67 84
67 67 84
67 67 84
67 67 84
67 67 84
67 67 84
67 67 84
67 67 84
67 67 84
67 67 84
67 67 84
67 67 84
67 67 84
67 67 84
67 67 84
67 67 84
67 67 84
67 67 84
67 67 84
67 67 84
67 67 84
67 67 84
67 67 84
67 67 84
67 67 84
67 67 84
67 67 84
67 67 84
67 67 84
67 67 84
67 67 84
67 67 84
67 67 84
67 67 84
67 67 85
67 67 85
67 67 85
67 67 85
67 67 85
67 67 85
67 67 85
67 67 85
67 67 85
67 67 85
68 68 85
68 68 85
67 67 85
68 68 85
67 67 85
68 68 85
67 67 85
68 68 85
68 68 85
67 67 85
68 68 85
67 67 85
68 68 85
68 68 85
68 68 85
68 68 85
68 68 85
68 68 85
68 68 85
68 68 85
68 68 85
68 68 85
68 68 85
68 68 85
68 68 85
68 68 85
68 68 85
68 68 85
68 68 85
68 68 85
68 68 85
68 68 85
68 68 85
68 68 85
68 68 85
68 68 85
68 68 85
68 68 85
68 68 85
68 68 85
68 68 85
68 68 85
68 68 85
68 68 85
68 68 85
68 68 85
68 68 85
68 68 85
68 68 85
68 68 85
68 68 85
68 68 85
68 68 85
68 68 85
68 68 85
68 68 85
68 68 85
68 68 85
68 68 85
68 68 85
68 68 85
68 68 85
68 68 85
68 68 85
68 68 85
68 68 85
68 68 85
68 68 85
68 68 85
68 68 85
68 68 85
68 68 85
68 68 85
68 68 85
68 68 85
68 68 85
68 68 85
68 68 85
68 68 85
68 68 85
68 68 85
68 68 85
68 68 85
68 68 85
68 68 85
68 68 85
68 68 85
68 68 85
68 68 85
68 68 85
68 68 85
68 68 85
68 68 85
68 68 85
68 68 85
68 68 85
68 68 85
68 68 85
68 68 85
68 68 85
68 68 85
68 68 85
68 68 85
68 68 85
68 68 85
68 68 85
68 68 85
68 68 85
68 68 85
68 68 85
68 68 85
68 68 85
68 68 85
68 68 85
68 68 85
68 68 85
68 68 85
79 78 91
255 255 216
255 255 255
255 255 255
255 255 255
255 255 255
227 222 187
68 68 85
68 68 85
68 68 85
68 68 85
68 68 85
68 68 85
68 68 85
68 68 85
68 68 85
68 68 85
68 68 85
68 68 85
68 68 85
68 68 85
68 68 85
68 68 85
68 68 85
68 68 85
68 68 85
68 68 85
68 68 85
68 68 85
68 68 85
68 68 85
77 74 81
67 63 69
63 59 65
64 61 67
63 61 70
66 66 83
68 68 85
68 68 85
68 68 85
68 68 85
68 68 85
55 60 83
34 47 75
21 30 61
18 26 59
21 28 58
51 53 75
68 68 85
68 68 85
68 68 85
68 68 85
68 68 85
68 68 85
68 68 85
68 68 85
68 68 85
68 68 85
68 68 85
68 68 85
68 68 85
68 68 85
68 68 85
68 68 85
68 68 85
68 68 85
68 68 85
68 68 85
68 68 85
68 68 85
68 68 85
68 68 85
68 68 85
68 68 85
68 68 85
68 68 85
68 68 85
68 68 85
68 68 85
68 68 85
68 68 85
68 68 85
68 68 85
68 68 85
68 68 85
68 68 85
68 68 85
68 68 85
68 68 85
68 68 85
68 68 85
68 68 85
68 68 85
68 68 85
68 68 85
68 68 85
68 68 85
68 68 85
68 68 85
68 68 85
68 68 85
68 68 85
68 68 85
68 68 85
68 68 85
68 68 85
68 68 85
68 68 85
68 68 85
68 68 85
68 68 85
68 68 85
68 68 85
68 68 85
68 68 85
68 68 85
68 68 85
68 68 85
68 68 85
68 68 85
68 68 85
68 68 85
68 68 85
68 68 85
68 68 85
68 68 85
68 68 85
68 68 85
68 68 85
68 68 85
68 68 85
68 68 85
68 68 85
68 68 85
68 68 85
68 68 85
68 68 85
68 68 85
68 68 85
68 68 85
68 68 85
68 68 85
68 68 85
68 68 85
68 68 85
68 68 85
68 68 85
68 68 85
68 68 85
68 68 85
68 68 85
68 68 85
68 68 85
68 68 85
68 68 85
68 68 85
68 68 85
68 68 85
68 68 85
68 68 85
68 68 85
68 68 85
68 68 85
68 68 85
68 68 85
68 68 85
68 68 85
68 68 85
68 68 85
68 68 85
68 68 85
68 68 85
68 68 85
68 68 85
68 68 85
68 68 85
68 68 85
68 68 85
68 68 85
68 68 85
68 68 85
68 68 85
68 68 85
68 68 85
68 68 85
68 68 85
67 67 85
67 67 85
67 67 85
67 67 85
67 67 85
67 67 85
67 67 85
67 67 85
67 67 85
67 67 85
67 67 85
67 67 85
67 67 85
67 67 85
67 67 85
67 67 85
67 67 85
67 67 85
67 67 85
67 67 85
67 67 85
67 67 85
67 67 85
67 67 85
67 67 85
67 67 85
67 67 85
67 67 85
67 67 85
67 67 85
67 67 85
67 67 84
67 67 84
67 67 84
67 67 84
67 67 84
67 67 84
67 67 84
67 67 84
67 67 84
67 67 84
67 67 84
67 67 84
67 67 84
67 67 84
67 67 84
67 67 84
67 67 84
67 67 84
67 67 84
67 67 84
67 67 84
67 67 84
67 67 84
67 67 84
67 67 84
67 67 84
67 67 84
67 67 84
67 67 84
67 67 84
67 67 84
67 67 84
67 67 84
67 67 84
67 67 84
67 67 84
67 67 84
67 67 84
67 67 84
67 67 84
67 67 84
67 67 84
67 67 84
67 67 84
67 67 84
67 67 84
67 67 84
67 67 84
67 67 85
67 67 85
67 67 85
67 67 85
67 67 85
67 67 85
67 67 85
67 67 85
67 67 85
67 67 85
67 67 85
67 67 85
67 67 85
67 67 85
67 67 85
67 67 85
68 68 85
68 68 85
67 67 85
67 67 85
67 67 85
68 68 85
68 68 85
68 68 85
68 68 85
68 68 85
67 67 85
68 68 85
68 68 85
67 67 85
68 68 85
68 68 85
68 68 85
68 68 85
68 68 85
68 68 85
68 68 85
68 68 85
68 68 85
68 68 85
68 68 85
68 68 85
68 68 85
68 68 85
68 68 85
68 68 85
68 68 85
68 68 85
68 68 85
68 68 85
68 68 85
68 68 85
68 68 85
68 68 85
68 68 85
68 68 85
68 68 85
68 68 85
68 68 85
68 68 85
68 68 85
68 68 85
68 68 85
68 68 85
68 68 85
68 68 85
68 68 85
68 68 85
68 68 85
68 68 85
68 68 85
68 68 85
68 68 85
68 68 85
68 68 85
68 68 85
68 68 85
68 68 85
68 68 85
68 68 85
68 68 85
68 68 85
68 68 85
68 68 85
68 68 85
68 68 85
68 68 85
68 68 85
68 68 85
68 68 85
68 68 85
68 68 85
68 68 85
68 68 85
68 68 85
68 68 85
68 68 85
68 68 85
68 68 85
68 68 85
68 68 85
68 68 85
68 68 85
68 68 85
68 68 85
68 68 85
68 68 85
68 68 85
68 68 85
68 68 85
68 68 85
68 68 85
68 68 85
68 68 85
68 68 86
68 68 85
68 68 85
68 68 85
68 68 85
68 68 85
68 68 85
68 68 85
68 68 85
68 68 85
68 68 85
68 68 85
68 68 85
68 68 85
68 68 85
68 68 85
68 68 85
68 68 85
68 68 85
68 68 85
68 68 85
68 68 85
68 68 85
68 68 85
68 68 85
68 68 85
68 68 85
68 68 85
68 68 85
68 68 85
68 68 85
68 68 85
68 68 85
68 68 85
68 68 85
68 68 85
68 68 85
68 68 85
68 68 85
68 68 85
68 68 85
68 68 85
68 68 85
68 68 85
68 68 85
68 68 85
68 68 85
68 68 85
68 68 85
68 68 85
68 68 85
68 68 85
68 68 85
68 67 84
69 68 82
69 68 83
68 68 85
68 68 85
68 68 85
68 68 85
68 68 85
68 68 85
64 71 93
32 44 78
22 31 62
20 29 63
20 29 61
20 28 60
21 29 63
57 58 79
68 68 85
68 68 85
68 68 85
68 68 85
68 68 85
68 68 85
68 68 85
68 68 85
68 68 85
68 68 85
68 68 85
68 68 85
68 68 85
68 68 85
68 68 85
68 68 85
68 68 85
68 68 85
68 68 85
68 68 85
68 68 85
68 68 85
68 68 85
68 68 85
68 68 85
68 68 85
68 68 85
68 68 85
68 68 86
68 68 85
68 68 85
68 68 85
68 68 85
68 68 85
68 68 85
68 68 85
68 68 85
68 68 85
68 68 85
68 68 85
68 68 85
68 68 85
68 68 85
68 68 85
68 68 85
68 68 85
68 68 85
68 68 85
68 68 85
68 68 85
68 68 85
68 68 85
68 68 85
68 68 85
68 68 85
68 68 85
68 68 85
68 68 85
68 68 85
68 68 85
68 68 85
68 68 85
68 68 85
68 68 85
68 68 85
68 68 85
68 68 85
68 68 85
68 68 85
68 68 85
68 68 85
68 68 85
68 68 85
68 68 85
68 68 85
68 68 85
68 68 85
68 68 85
68 68 85
68 68 85
68 68 85
68 68 85
68 68 85
68 68 85
68 68 85
68 68 85
68 68 85
68 68 85
68 68 85
68 68 85
68 68 85
68 68 85
68 68 85
68 68 85
68 68 85
68 68 85
68 68 85
68 68 85
68 68 85
68 68 85
68 68 85
68 68 85
68 68 85
68 68 85
68 68 85
68 68 85
68 68 85
68 68 85
68 68 85
68 68 85
68 68 85
68 68 85
68 68 85
68 68 85
68 68 85
68 68 85
68 68 85
68 68 85
68 68 85
68 68 85
68 68 85
68 68 85
68 68 85
68 68 85
68 68 85
68 68 85
68 68 85
68 68 85
68 68 85
68 68 85
68 68 85
68 68 85
68 68 85
68 68 85
68 68 85
68 68 85
68 68 85
68 68 85
68 68 85
68 68 85
68 68 85
68 68 85
68 68 85
68 68 85
68 68 85
68 68 85
67 67 85
67 67 85
67 67 85
67 67 85
67 67 85
67 67 85
67 67 85
67 67 85
67 67 85
67 67 85
67 67 85
67 67 85
67 67 85
67 67 85
67 67 85
67 67 85
67 67 85
67 67 85
67 67 85
67 67 85
67 67 85
67 67 85
67 67 85
67 67 85
67 67 85
67 67 85
67 67 85
67 67 85
67 67 85
67 67 85
67 67 84
67 67 84
67 67 84
67 67 84
67 67 84
67 67 84
67 67 84
67 67 84
67 67 84
67 67 84
67 67 84
67 67 84
67 67 84
67 67 84
67 67 84
67 67 84
67 67 84
67 67 84
67 67 84
67 67 84
67 67 84
67 67 84
67 67 84
67 67 84
67 67 84
67 67 84
67 67 84
67 67 84
67 67 84
67 67 84
67 67 84
67 67 84
67 67 84
67 67 84
67 67 85
67 67 85
67 67 85
67 67 85
67 67 85
67 67 85
67 67 85
67 67 85
67 67 85
67 67 85
67 67 85
67 67 85
67 67 85
67 67 85
67 67 85
67 67 85
67 67 85
67 67 85
67 67 85
67 67 85
68 68 85
68 68 85
68 68 85
68 68 85
68 68 85
68 68 85
68 68 85
68 68 85
68 68 85
68 68 85
68 68 85
68 68 85
68 68 85
68 68 85
68 68 85
68 68 85
68 68 85
68 68 85
68 68 85
68 68 85
68 68 85
68 68 85
68 68 85
68 68 85
68 68 85
68 68 85
68 68 85
68 68 85
68 68 85
68 68 85
68 68 85
68 68 85
68 68 85
68 68 85
68 68 85
68 68 85
68 68 85
68 68 85
68 68 85
68 68 85
68 68 85
68 68 85
68 68 85
68 68 85
68 68 85
68 68 85
68 68 85
68 68 85
68 68 85
68 68 85
68 68 85
68 68 85
68 68 85
68 68 85
68 68 85
68 68 85
68 68 85
68 68 85
68 68 85
68 68 85
68 68 85
68 68 85
68 68 85
68 68 85
68 68 85
68 68 85
68 68 85
68 68 85
68 68 85
68 68 85
68 68 85
68 68 85
68 68 85
68 68 85
68 68 85
68 68 85
68 68 85
68 68 85
68 68 85
68 68 85
68 68 85
68 68 85
68 68 85
68 68 85
68 68 85
68 68 85
68 68 85
68 68 85
68 68 85
68 68 85
68 68 85
68 68 85
68 68 85
68 68 85
68 68 85
68 68 85
68 68 85
68 68 85
68 68 85
68 68 85
68 68 85
68 68 85
68 68 85
68 68 85
68 68 85
68 68 85
68 68 85
68 68 85
68 68 85
68 68 85
68 68 85
68 68 85
68 68 85
68 68 85
68 68 85
68 68 85
68 68 85
68 68 85
68 68 85
68 68 85
68 68 85
68 68 85
68 68 85
68 68 85
68 68 85
68 68 85
68 68 85
68 68 85
68 68 85
68 68 85
68 68 85
68 68 85
68 68 85
68 68 85
68 68 85
68 68 85
68 68 85
68 68 85
68 68 85
68 68 85
68 68 85
68 68 85
68 68 85
68 68 85
68 68 85
68 68 85
68 68 85
68 68 85
68 68 85
68 68 85
68 68 85
68 68 85
68 68 85
68 68 85
68 68 85
68 68 85
68 68 85
68 68 85
68 68 85
68 68 85
68 68 85
68 68 85
52 64 94
25 36 70
21 30 64
22 31 65
22 31 66
23 32 66
22 31 66
40 45 75
68 68 85
68 68 85
68 68 85
68 68 85
68 68 86
68 68 85
68 68 85
68 68 85
68 68 85
68 68 85
68 68 85
68 68 85
68 68 85
68 68 85
68 68 85
68 68 85
68 68 85
68 68 85
68 68 85
68 68 85
68 68 85
68 68 85
68 68 85
68 68 85
68 68 85
68 68 85
69 69 86
68 68 85
68 68 85
68 68 85
68 68 85
68 68 85
68 68 85
68 68 85
68 68 85
68 68 85
68 68 85
68 68 85
68 68 85
68 68 85
68 68 85
68 68 85
68 68 85
68 68 85
68 68 85
68 68 85
68 68 85
68 68 85
68 68 85
68 68 85
68 68 85
68 68 85
68 68 85
68 68 85
68 68 85
68 68 85
68 68 85
68 68 85
68 68 85
68 68 85
68 68 86
68 68 85
68 68 85
68 68 85
68 68 85
68 68 85
68 68 85
68 68 85
68 68 85
68 68 85
68 68 85
68 68 85
68 68 85
68 68 85
68 68 85
68 68 85
68 68 85
68 68 85
68 68 85
68 68 85
68 68 85
68 68 85
68 68 85
68 68 85
68 68 85
68 68 85
68 68 85
68 68 85
68 68 85
68 68 85
68 68 85
68 68 85
68 68 85
68 68 85
68 68 85
68 68 85
68 68 85
68 68 85
68 68 85
68 68 85
68 68 85
68 68 85
68 68 85
68 68 85
68 68 85
68 68 85
68 68 85
68 68 85
68 68 85
68 68 85
68 68 85
68 68 85
68 68 85
68 68 85
68 68 85
68 68 85
68 68 85
68 68 85
68 68 85
68 68 85
68 68 85
68 68 85
68 68 85
68 68 85
68 68 85
68 68 85
68 68 85
68 68 85
68 68 85
68 68 85
68 68 85
68 68 85
68 68 85
68 68 85
68 68 85
68 68 85
68 68 85
68 68 85
68 68 85
68 68 85
68 68 85
68 68 85
68 68 85
68 68 85
68 68 85
68 68 85
68 68 85
68 68 85
68 68 85
68 68 85
68 68 85
68 68 85
68 68 85
67 67 85
67 67 85
67 67 85
67 67 85
67 67 85
67 67 85
67 67 85
67 67 85
67 67 85
67 67 85
67 67 85
67 67 85
67 67 85
67 67 85
67 67 85
67 67 85
67 67 85
67 67 85
67 67 85
67 67 85
67 67 85
67 67 85
67 67 85
67 67 85
67 67 85
67 67 85
67 67 85
67 67 85
67 67 85
67 67 84
67 67 84
67 67 84
67 67 84
67 67 84
67 67 84
67 67 84
67 67 84
67 67 84
67 67 84
67 67 84
67 67 84
67 67 84
67 67 84
67 67 84
67 67 84
67 67 84
67 67 84
67 67 84
67 67 84
67 67 84
67 67 85
67 67 85
67 67 85
67 67 85
67 67 85
67 67 85
67 67 85
67 67 85
67 67 85
67 67 85
67 67 85
67 67 85
67 67 85
67 67 85
67 67 85
67 67 85
67 67 85
67 67 85
67 67 85
67 67 85
67 67 85
67 67 85
67 67 85
67 67 85
67 67 85
68 68 85
68 68 85
67 67 85
68 68 85
68 68 85
68 68 85
68 68 85
68 68 85
68 68 85
68 68 85
68 68 85
68 68 85
68 68 85
68 68 85
68 68 85
68 68 85
68 68 85
68 68 85
68 68 85
68 68 85
68 68 85
68 68 85
68 68 85
68 68 85
68 68 85
68 68 85
68 68 85
68 68 85
68 68 85
68 68 85
68 68 85
68 68 85
68 68 85
68 68 85
68 68 85
68 68 85
68 68 85
68 68 85
68 68 85
68 68 85
68 68 85
68 68 85
68 68 85
68 68 85
68 68 85
68 68 85
68 68 85
68 68 85
68 68 85
68 68 85
68 68 85
68 68 85
68 68 85
68 68 85
68 68 85
68 68 85
68 68 85
68 68 85
68 68 85
68 68 85
68 68 85
68 68 85
68 68 85
68 68 85
68 68 85
68 68 85
68 68 85
68 68 85
68 68 85
68 68 85
68 68 85
68 68 85
68 68 85
68 68 85
68 68 85
68 68 85
68 68 85
68 68 85
68 68 85
68 68 85
68 68 85
68 68 85
68 68 85
68 68 85
68 68 85
68 68 85
68 68 85
68 68 85
68 68 85
68 68 85
68 68 85
68 68 85
68 68 85
68 68 85
68 68 85
68 68 85
68 68 85
68 68 85
68 68 85
68 68 85
68 68 85
68 68 85
68 68 85
68 68 85
68 68 85
68 68 85
68 68 85
68 68 85
68 68 85
68 68 85
68 68 85
68 68 85
68 68 85
68 68 85
68 68 85
68 68 85
68 68 85
68 68 85
68 68 85
68 68 85
68 68 85
68 68 85
68 68 85
68 68 85
68 68 85
68 68 85
68 68 85
68 68 85
68 68 85
68 68 85
68 68 85
68 68 85
68 68 85
68 68 85
68 68 85
68 68 85
68 68 85
68 68 85
68 68 85
68 68 85
68 68 85
68 68 85
68 68 85
68 68 85
68 68 85
68 68 85
68 68 85
68 68 85
68 68 85
68 68 85
68 68 85
68 68 85
68 68 85
68 68 85
68 68 85
68 68 85
68 68 85
68 68 85
68 68 85
68 68 85
68 68 85
68 68 85
68 68 85
68 68 85
46 61 95
25 35 71
24 34 70
24 34 69
25 35 72
24 34 70
25 35 73
34 42 78
68 68 85
68 68 85
68 68 85
68 68 85
68 68 85
68 68 85
68 68 85
68 68 85
68 68 85
68 68 85
68 68 85
68 68 85
68 68 85
68 68 85
68 68 85
68 68 85
68 68 85
68 68 85
68 68 85
68 68 86
68 68 85
68 68 85
68 68 85
68 68 85
68 68 85
68 68 85
68 68 85
68 68 85
68 68 86
68 68 85
68 68 85
68 68 85
68 68 85
68 68 85
68 68 85
68 68 85
68 68 85
68 68 85
68 68 85
68 68 85
68 68 85
68 68 85
68 68 85
68 68 85
68 68 85
68 68 85
68 68 85
68 68 85
68 68 85
68 68 85
68 68 85
68 68 85
68 68 85
68 68 85
68 68 85
68 68 85
68 68 85
68 68 85
68 68 85
68 68 85
68 68 85
68 68 85
68 68 85
68 68 85
68 68 85
68 68 85
68 68 85
68 68 85
68 68 85
68 68 85
68 68 85
68 68 85
68 68 85
68 68 85
68 68 85
68 68 85
68 68 85
68 68 85
68 68 85
68 68 85
68 68 85
68 68 85
68 68 85
68 68 85
68 68 85
68 68 85
68 68 85
68 68 85
68 68 85
68 68 85
68 68 85
68 68 85
68 68 85
68 68 85
68 68 85
68 68 85
68 68 85
68 68 85
68 68 85
68 68 85
68 68 85
68 68 85
68 68 85
68 68 85
68 68 85
68 68 85
68 68 85
68 68 85
68 68 85
68 68 85
68 68 85
68 68 85
68 68 85
68 68 85
68 68 85
68 68 85
68 68 85
68 68 85
68 68 85
68 68 85
68 68 85
68 68 85
68 68 85
68 68 85
68 68 85
68 68 85
68 68 85
68 68 85
68 68 85
68 68 85
68 68 85
68 68 85
68 68 85
68 68 85
68 68 85
68 68 85
68 68 85
68 68 85
68 68 85
68 68 85
68 68 85
68 68 85
68 68 85
68 68 85
68 68 85
68 68 85
68 68 85
68 68 85
68 68 85
68 68 85
68 68 85
68 68 85
68 68 85
68 68 85
68 68 85
68 68 85
68 68 85
68 68 85
68 68 85
68 68 85
68 68 85
67 67 85
67 67 85
67 67 85
67 67 85
67 67 85
67 67 85
67 67 85
67 67 85
67 67 85
67 67 85
67 67 85
67 67 85
67 67 85
67 67 85
67 67 85
67 67 85
67 67 85
67 67 85
67 67 85
67 67 85
67 67 85
67 67 85
67 67 85
67 67 85
67 67 85
67 67 85
67 67 85
67 67 85
67 67 84
67 67 84
67 67 84
67 67 84
67 67 84
67 67 84
67 67 84
67 67 85
67 67 85
67 67 85
67 67 85
67 67 85
67 67 85
67 67 85
67 67 85
67 67 85
67 67 85
67 67 85
67 67 85
67 67 85
67 67 85
67 67 85
67 67 85
67 67 85
67 67 85
67 67 85
67 67 85
67 67 85
67 67 85
67 67 85
67 67 85
67 67 85
67 67 85
67 67 85
67 67 85
68 68 85
68 68 85
68 68 85
68 68 85
68 68 85
68 68 85
68 68 85
68 68 85
68 68 85
68 68 85
68 68 85
68 68 85
68 68 85
68 68 85
68 68 85
68 68 85
68 68 85
68 68 85
68 68 85
68 68 85
68 68 85
68 68 85
68 68 85
68 68 85
68 68 85
68 68 85
68 68 85
68 68 85
68 68 85
68 68 85
68 68 85
68 68 85
68 68 85
68 68 85
68 68 85
68 68 85
68 68 85
68 68 85
68 68 85
68 68 85
68 68 85
68 68 85
68 68 85
68 68 85
68 68 85
68 68 85
68 68 85
68 68 85
68 68 85
68 68 85
68 68 85
68 68 85
68 68 85
68 68 85
68 68 85
68 68 85
68 68 85
68 68 85
68 68 85
68 68 85
68 68 85
68 68 85
68 68 85
68 68 85
68 68 85
68 68 85
68 68 85
68 68 85
68 68 85
68 68 85
68 68 85
68 68 85
68 68 85
68 68 85
68 68 85
68 68 85
68 68 85
68 68 85
68 68 85
68 68 85
68 68 85
68 68 85
68 68 85
68 68 85
68 68 85
68 68 85
68 68 85
68 68 85
68 68 85
68 68 85
68 68 85
68 68 85
68 68 85
68 68 85
68 68 85
68 68 85
68 68 85
68 68 85
68 68 85
68 68 85
68 68 85
68 68 85
68 68 85
68 68 85
68 68 85
68 68 85
68 68 85
68 68 85
68 68 85
68 68 85
68 68 85
68 68 85
68 68 85
68 68 85
68 68 85
68 68 85
68 68 85
68 68 85
68 68 85
68 68 85
68 68 85
68 68 85
68 68 85
68 68 85
68 68 85
68 68 85
68 68 85
68 68 85
68 68 85
68 68 85
68 68 85
68 68 85
68 68 85
68 68 85
68 68 85
68 68 85
68 68 85
68 68 85
68 68 85
68 68 85
68 68 85
68 68 85
68 68 85
68 68 85
68 68 85
68 68 85
68 68 85
68 68 85
68 68 85
68 68 85
68 68 85
68 68 85
68 68 85
68 68 85
68 68 85
68 68 85
68 68 85
68 68 85
68 68 85
68 68 85
68 68 85
68 68 85
68 68 85
68 68 85
68 68 85
68 68 85
68 68 85
68 68 85
46 55 85
25 35 72
27 38 76
26 36 74
25 35 72
26 36 74
27 37 75
41 47 79
68 68 86
68 68 85
68 68 85
68 68 85
68 68 85
68 68 86
68 68 85
68 68 86
68 68 85
68 68 85
68 68 86
68 68 85
68 68 86
68 68 85
68 68 85
68 68 85
68 68 85
68 68 85
68 68 86
68 68 85
69 69 86
68 68 85
68 68 85
68 68 85
68 68 85
68 68 85
68 68 85
68 68 86
68 68 85
68 68 86
68 68 85
68 68 85
68 68 85
68 68 85
68 68 85
68 68 85
68 68 85
68 68 85
68 68 85
68 68 85
68 68 85
68 68 86
68 68 85
68 68 85
68 68 85
68 68 85
68 68 85
68 68 85
68 68 85
68 68 85
68 68 85
68 68 85
68 68 85
68 68 85
68 68 85
68 68 85
68 68 85
68 68 85
68 68 85
68 68 85
68 68 85
68 68 85
68 68 85
68 68 85
68 68 85
68 68 85
68 68 85
68 68 85
68 68 85
68 68 85
68 68 85
68 68 85
68 68 85
68 68 85
68 68 85
68 68 85
68 68 85
68 68 85
68 68 85
68 68 85
68 68 85
68 68 85
68 68 85
68 68 85
68 68 85
68 68 85
68 68 85
68 68 85
68 68 85
68 68 85
68 68 85
68 68 85
68 68 85
68 68 85
68 68 85
68 68 85
68 68 85
68 68 85
68 68 85
68 68 85
68 68 85
68 68 85
68 68 85
68 68 85
68 68 85
68 68 85
68 68 85
68 68 85
68 68 85
68 68 85
68 68 85
68 68 85
68 68 85
68 68 85
68 68 85
68 68 85
68 68 85
68 68 85
68 68 85
68 68 85
68 68 85
68 68 85
68 68 85
68 68 85
68 68 85
68 68 85
68 68 85
68 68 85
68 68 85
68 68 85
68 68 85
68 68 85
68 68 85
68 68 85
68 68 85
68 68 85
68 68 85
68 68 85
68 68 85
68 68 85
68 68 85
68 68 85
68 68 85
68 68 85
68 68 85
68 68 85
68 68 85
68 68 85
68 68 85
68 68 85
68 68 85
68 68 85
68 68 85
68 68 85
68 68 85
68 68 85
68 68 85
68 68 85
68 68 85
68 68 85
68 68 85
68 68 85
68 68 85
68 68 85
68 68 85
68 68 85
68 68 85
68 68 85
67 67 85
67 67 85
67 67 85
67 67 85
67 67 85
67 67 85
67 67 85
67 67 85
67 67 85
67 67 85
67 67 85
67 67 85
67 67 85
67 67 85
67 67 85
67 67 85
67 67 85
67 67 85
67 67 85
67 67 85
67 67 85
67 67 85
67 67 85
67 67 85
67 67 85
67 67 85
67 67 85
67 67 85
67 67 85
67 67 85
67 67 85
67 67 85
67 67 85
67 67 85
67 67 85
67 67 85
67 67 85
67 67 85
67 67 85
67 67 85
67 67 85
67 67 85
67 67 85
67 67 85
67 67 85
67 67 85
67 67 85
67 67 85
67 67 85
68 68 85
68 68 85
68 68 85
68 68 85
68 68 85
68 68 85
68 68 85
68 68 85
68 68 85
68 68 85
68 68 85
68 68 85
68 68 85
68 68 85
68 68 85
68 68 85
68 68 85
68 68 85
68 68 85
68 68 85
68 68 85
68 68 85
68 68 85
68 68 85
68 68 85
68 68 85
68 68 85
68 68 85
68 68 85
68 68 85
68 68 85
68 68 85
68 68 85
68 68 85
68 68 85
68 68 85
68 68 85
68 68 85
68 68 85
68 68 85
68 68 85
68 68 85
68 68 85
68 68 85
68 68 85
68 68 85
68 68 85
68 68 85
68 68 85
68 68 85
68 68 85
68 68 85
68 68 85
68 68 85
68 68 85
68 68 85
68 68 85
68 68 85
68 68 85
68 68 85
68 68 85
68 68 85
68 68 85
68 68 85
68 68 85
68 68 85
68 68 85
68 68 85
68 68 85
68 68 85
68 68 85
68 68 85
68 68 85
68 68 85
68 68 85
68 68 85
68 68 85
68 68 85
68 68 85
68 68 85
68 68 85
68 68 85
68 68 85
68 68 85
68 68 85
68 68 85
68 68 85
68 68 85
68 68 85
68 68 85
68 68 85
68 68 85
68 68 85
68 68 85
68 68 85
68 68 85
68 68 85
68 68 85
68 68 85
68 68 85
68 68 85
68 68 85
68 68 85
68 68 85
68 68 85
68 68 85
68 68 85
68 68 85
68 68 85
68 68 85
68 68 85
68 68 85
68 68 85
68 68 85
68 68 85
68 68 85
68 68 86
68 68 85
68 68 85
68 68 85
68 68 85
68 68 86
68 68 85
68 68 85
68 68 85
68 68 85
68 68 85
68 68 85
68 68 85
68 68 85
68 68 85
68 68 85
68 68 85
68 68 85
68 68 85
68 68 85
68 68 85
68 68 85
68 68 85
68 68 85
68 68 85
68 68 85
68 68 85
68 68 85
68 68 85
68 68 85
68 68 85
68 68 85
68 68 85
68 68 85
68 68 85
68 68 85
68 68 85
68 68 85
68 68 85
68 68 85
68 68 85
68 68 85
68 68 85
68 68 85
68 68 85
68 68 85
68 68 85
68 68 85
68 68 85
68 68 85
68 68 85
68 68 85
68 68 85
68 68 85
68 68 85
68 68 85
68 68 85
68 68 85
68 68 85
61 65 90
29 42 82
26 37 75
27 38 77
28 39 79
27 38 76
28 38 75
58 61 84
68 68 85
68 68 86
68 68 86
68 68 86
68 68 86
68 68 85
68 68 85
68 68 86
68 68 85
68 68 85
68 68 85
68 68 85
68 68 85
68 68 86
68 68 86
68 68 85
68 68 85
68 68 85
68 68 85
68 68 85
68 68 85
69 69 86
68 68 86
68 68 85
68 68 85
68 68 85
68 68 86
68 68 85
68 68 85
68 68 85
68 68 85
68 68 85
68 68 85
68 68 86
68 68 85
68 68 85
68 68 85
68 68 86
68 68 85
68 68 85
68 68 86
68 68 85
68 68 85
68 68 85
68 68 85
68 68 85
68 68 85
68 68 86
68 68 85
68 68 85
68 68 85
68 68 85
68 68 85
68 68 85
68 68 85
68 68 85
68 68 85
68 68 85
68 68 85
68 68 85
68 68 85
68 68 85
68 68 85
68 68 85
68 68 85
68 68 85
68 68 85
68 68 85
68 68 85
68 68 85
68 68 85
68 68 85
68 68 85
68 68 85
68 68 85
68 68 85
68 68 85
68 68 85
68 68 85
68 68 85
68 68 85
68 68 85
68 68 85
68 68 85
68 68 85
68 68 85
68 68 85
68 68 85
68 68 85
68 68 85
68 68 85
68 68 85
68 68 85
68 68 85
68 68 85
68 68 85
68 68 85
68 68 85
68 68 85
68 68 85
68 68 85
68 68 85
68 68 85
68 68 85
68 68 85
68 68 85
68 68 85
68 68 85
68 68 85
68 68 85
68 68 85
68 68 85
68 68 85
68 68 85
68 68 85
68 68 85
68 68 85
68 68 85
68 68 85
68 68 85
68 68 85
68 68 85
68 68 85
68 68 85
68 68 85
68 68 85
68 68 85
68 68 85
68 68 85
68 68 85
68 68 85
68 68 85
68 68 85
68 68 85
68 68 85
68 68 85
68 68 85
68 68 85
68 68 85
68 68 85
68 68 85
68 68 85
68 68 85
68 68 85
68 68 85
68 68 85
68 68 85
68 68 85
68 68 85
68 68 85
68 68 85
68 68 85
68 68 85
68 68 85
68 68 85
68 68 85
68 68 85
68 68 85
68 68 85
68 68 85
68 68 85
68 68 85
68 68 85
68 68 85
68 68 85
68 68 85
68 68 85
68 68 85
68 68 85
68 68 85
68 68 85
68 68 85
68 68 85
68 68 85
68 68 85
67 67 85
67 67 85
67 67 85
67 67 85
67 67 85
67 67 85
67 67 85
67 67 85
67 67 85
67 67 85
67 67 85
67 67 85
67 67 85
67 67 85
67 67 85
67 67 85
67 67 85
67 67 85
67 67 85
67 67 85
67 67 85
67 67 85
67 67 85
67 67 85
67 67 85
67 67 85
67 67 85
67 67 85
67 67 85
67 67 85
67 67 85
67 67 85
67 67 85
67 67 85
67 67 85
68 68 85
68 68 85
68 68 85
68 68 85
68 68 85
68 68 85
68 68 85
68 68 85
68 68 85
68 68 85
68 68 85
68 68 85
68 68 85
68 68 85
68 68 85
68 68 85
68 68 85
68 68 85
68 68 85
68 68 85
68 68 85
68 68 85
68 68 85
68 68 85
68 68 85
68 68 85
68 68 85
68 68 85
68 68 85
68 68 85
68 68 85
68 68 85
68 68 85
68 68 85
68 68 85
68 68 85
68 68 85
68 68 85
68 68 85
68 68 85
68 68 85
68 68 85
68 68 85
68 68 85
68 68 85
68 68 85
68 68 85
68 68 85
68 68 85
68 68 85
68 68 85
68 68 85
68 68 85
68 68 85
68 68 85
68 68 85
68 68 85
68 68 85
68 68 85
68 68 85
68 68 85
68 68 85
68 68 85
68 68 85
68 68 85
68 68 85
68 68 85
68 68 85
68 68 85
68 68 85
68 68 85
68 68 85
68 68 85
68 68 85
68 68 85
68 68 85
68 68 85
68 68 85
68 68 85
68 68 85
68 68 85
68 68 85
68 68 85
68 68 85
68 68 85
68 68 85
68 68 85
68 68 85
68 68 85
68 68 85
68 68 85
68 68 85
68 68 85
68 68 85
68 68 85
68 68 85
68 68 85
68 68 85
68 68 85
68 68 85
68 68 85
68 68 85
68 68 85
68 68 85
68 68 85
68 68 86
68 68 85
68 68 85
68 68 85
68 68 85
68 68 86
68 68 85
68 68 85
68 68 85
68 68 86
68 68 85
68 68 85
68 68 85
68 68 85
68 68 86
68 68 85
68 68 85
68 68 85
68 68 85
68 68 85
68 68 86
68 68 85
68 68 85
68 68 86
68 68 85
68 68 85
68 68 85
68 68 85
68 68 85
68 68 85
68 68 85
68 68 85
68 68 85
68 68 85
68 68 85
68 68 85
68 68 85
68 68 85
68 68 85
68 68 85
68 68 85
68 68 85
68 68 85
68 68 85
68 68 85
68 68 85
68 68 85
68 68 85
68 68 85
68 68 85
68 68 85
68 68 85
68 68 85
68 68 85
68 68 85
68 68 85
68 68 85
68 68 85
68 68 85
68 68 85
68 68 85
68 68 85
68 68 85
68 68 85
68 68 85
68 68 85
68 68 85
68 68 85
68 68 85
68 68 85
68 68 85
68 68 85
68 68 86
68 68 86
68 68 85
68 68 86
68 68 85
68 68 86
55 59 88
32 44 87
31 44 88
30 43 85
30 42 81
54 58 87
68 68 85
68 68 85
68 68 85
68 68 86
68 68 85
69 69 86
68 68 86
68 68 86
68 68 85
68 68 86
68 68 86
68 68 86
68 68 86
68 68 86
68 68 85
68 68 86
68 68 85
68 68 86
68 68 85
68 68 86
68 68 85
68 68 85
68 68 86
68 68 86
68 68 86
68 68 86
68 68 86
68 68 85
68 68 86
68 68 86
68 68 85
68 68 85
68 68 86
68 68 86
68 68 85
68 68 86
68 68 85
68 68 85
68 68 85
68 68 86
68 68 85
68 68 86
68 68 86
68 68 85
68 68 86
68 68 85
68 68 86
68 68 85
68 68 86
68 68 86
68 68 85
68 68 85
68 68 86
68 68 85
68 68 86
68 68 85
68 68 86
68 68 85
68 68 85
68 68 85
68 68 85
68 68 85
68 68 85
68 68 85
68 68 85
68 68 85
68 68 85
68 68 85
68 68 85
68 68 85
68 68 85
68 68 85
68 68 85
68 68 85
68 68 85
68 68 85
68 68 85
68 68 85
68 68 85
68 68 85
68 68 85
68 68 85
68 68 85
68 68 85
68 68 85
68 68 85
68 68 85
68 68 85
68 68 85
68 68 85
68 68 85
68 68 85
68 68 85
68 68 85
68 68 85
68 68 85
68 68 85
68 68 85
68 68 85
68 68 85
68 68 85
68 68 85
68 68 85
68 68 85
68 68 85
68 68 85
68 68 85
68 68 85
68 68 85
68 68 85
68 68 85
68 68 85
68 68 85
68 68 85
68 68 85
68 68 85
68 68 85
68 68 85
68 68 85
68 68 85
68 68 85
68 68 85
68 68 85
68 68 85
68 68 85
68 68 85
68 68 85
68 68 85
68 68 85
68 68 85
68 68 85
68 68 85
68 68 85
68 68 85
68 68 85
68 68 85
68 68 85
68 68 85
68 68 85
68 68 85
68 68 85
68 68 85
68 68 85
68 68 85
68 68 85
68 68 85
68 68 85
68 68 85
68 68 85
68 68 85
68 68 85
68 68 85
68 68 85
68 68 85
68 68 85
68 68 85
68 68 85
68 68 85
68 68 85
68 68 85
68 68 85
68 68 85
68 68 85
68 68 85
68 68 85
68 68 85
68 68 85
68 68 85
68 68 85
68 68 85
68 68 85
68 68 85
68 68 85
68 68 85
68 68 85
68 68 85
68 68 85
68 68 85
68 68 85
68 68 85
68 68 85
68 68 85
68 68 85
67 67 85
67 67 85
67 67 85
67 67 85
67 67 85
67 67 85
67 67 85
67 67 85
67 67 85
67 67 85
67 67 85
67 67 85
67 67 85
67 67 85
67 67 85
67 67 85
67 67 85
67 67 85
67 67 85
67 67 85
67 67 85
67 67 85
68 68 85
68 68 85
68 68 85
68 68 85
68 68 85
68 68 85
68 68 85
68 68 85
68 68 85
68 68 85
68 68 85
68 68 85
68 68 85
68 68 85
68 68 85
68 68 85
68 68 85
68 68 85
68 68 85
68 68 85
68 68 85
68 68 85
68 68 85
68 68 85
68 68 85
68 68 85
68 68 85
68 68 85
68 68 85
68 68 85
68 68 85
68 68 85
68 68 85
68 68 85
68 68 85
68 68 85
68 68 85
68 68 85
68 68 85
68 68 85
68 68 85
68 68 85
68 68 85
68 68 85
68 68 85
68 68 85
68 68 85
68 68 85
68 68 85
68 68 85
68 68 85
68 68 85
68 68 85
68 68 85
68 68 85
68 68 85
68 68 85
68 68 85
68 68 85
68 68 85
68 68 85
68 68 85
68 68 85
68 68 85
68 68 85
68 68 85
68 68 85
68 68 85
68 68 85
68 68 85
68 68 85
68 68 85
68 68 85
68 68 85
68 68 85
68 68 85
68 68 85
68 68 85
68 68 85
68 68 85
68 68 85
68 68 85
68 68 85
68 68 85
68 68 85
68 68 85
68 68 85
68 68 85
68 68 85
68 68 85
68 68 85
68 68 85
68 68 85
68 68 86
68 68 85
68 68 85
68 68 85
68 68 85
68 68 85
68 68 85
68 68 85
68 68 85
68 68 85
68 68 85
68 68 85
68 68 85
68 68 85
68 68 86
68 68 85
68 68 85
68 68 85
68 68 86
68 68 85
68 68 85
68 68 86
68 68 86
68 68 85
68 68 85
68 68 86
68 68 85
68 68 85
68 68 86
68 68 85
68 68 85
68 68 85
68 68 85
68 68 85
68 68 85
68 68 86
68 68 85
68 68 85
68 68 85
68 68 85
68 68 85
68 68 85
68 68 85
68 68 85
68 68 85
68 68 85
68 68 85
68 68 85
68 68 85
68 68 85
68 68 85
68 68 85
68 68 85
68 68 85
68 68 85
68 68 85
68 68 85
68 68 85
68 68 85
68 68 85
68 68 85
68 68 85
68 68 85
68 68 85
68 68 85
68 68 85
68 68 85
68 68 85
68 68 85
68 68 85
68 68 85
68 68 85
68 68 85
68 68 85
68 68 85
68 68 85
68 68 85
68 68 85
68 68 85
68 68 85
68 68 85
68 68 85
68 68 85
68 68 85
68 68 85
68 68 85
68 68 85
68 68 85
68 68 86
68 68 85
68 68 86
68 68 86
68 68 86
68 68 85
68 68 86
68 68 86
68 68 86
65 66 85
58 62 88
58 60 85
66 66 86
68 68 86
68 68 85
68 68 86
68 68 86
68 68 85
68 68 86
68 68 85
68 68 86
63 60 74
44 35 42
45 33 39
59 54 66
68 68 86
68 68 86
68 68 85
68 68 86
68 68 86
68 68 85
68 68 86
69 69 86
68 68 86
68 68 86
68 68 85
68 68 86
68 68 86
68 68 85
68 68 86
68 68 86
68 68 86
68 68 86
68 68 86
68 68 86
68 68 85
68 68 86
68 68 85
68 68 86
68 68 85
68 68 85
69 69 86
68 68 86
68 68 86
68 68 86
68 68 85
68 68 86
68 68 85
68 68 86
68 68 86
68 68 85
68 68 86
68 68 85
68 68 86
68 68 86
68 68 85
68 68 86
68 68 85
68 68 85
68 68 85
68 68 86
68 68 85
68 68 85
68 68 85
68 68 85
68 68 85
68 68 85
68 68 85
68 68 85
68 68 85
68 68 85
68 68 85
68 68 85
68 68 85
68 68 85
68 68 85
68 68 85
68 68 85
68 68 85
68 68 85
68 68 85
68 68 85
68 68 85
68 68 85
68 68 85
68 68 85
68 68 85
68 68 85
68 68 85
68 68 85
68 68 85
68 68 85
68 68 85
68 68 85
68 68 85
68 68 85
68 68 85
68 68 85
68 68 85
68 68 85
68 68 85
68 68 85
68 68 85
68 68 85
68 68 85
68 68 85
68 68 85
68 68 85
68 68 85
68 68 85
68 68 85
68 68 85
68 68 85
68 68 85
68 68 85
68 68 85
68 68 85
68 68 85
68 68 85
68 68 85
68 68 85
68 68 85
68 68 85
68 68 85
68 68 85
68 68 85
68 68 85
68 68 85
68 68 85
68 68 85
68 68 85
68 68 85
68 68 85
68 68 85
68 68 85
68 68 85
68 68 85
68 68 85
68 68 85
68 68 85
68 68 85
68 68 85
68 68 85
68 68 85
68 68 85
68 68 85
68 68 85
68 68 85
68 68 85
68 68 85
68 68 85
68 68 85
68 68 85
68 68 85
68 68 85
68 68 85
68 68 85
68 68 85
68 68 85
68 68 85
68 68 85
68 68 85
68 68 85
68 68 85
68 68 85
68 68 85
68 68 85
68 68 85
68 68 85
68 68 85
68 68 85
68 68 85
68 68 85
68 68 85
68 68 85
68 68 85
68 68 85
68 68 85
68 68 85
68 68 85
68 68 85
68 68 85
68 68 85
68 68 85
68 68 85
68 68 85
68 68 85
68 68 85
68 68 85
68 68 85
68 68 85
68 68 85
68 68 85
67 67 85
67 67 85
67 67 85
67 67 85
67 67 85
67 67 85
67 67 85
67 67 85
67 67 85
68 68 85
68 68 85
68 68 85
68 68 85
68 68 85
68 68 85
68 68 85
68 68 85
68 68 85
68 68 85
68 68 85
68 68 85
68 68 85
68 68 85
68 68 85
68 68 85
68 68 85
68 68 85
68 68 85
68 68 85
68 68 85
68 68 85
68 68 85
68 68 85
68 68 85
68 68 85
68 68 85
68 68 85
68 68 85
68 68 85
68 68 85
68 68 85
68 68 85
68 68 85
68 68 85
68 68 85
68 68 85
68 68 85
68 68 85
68 68 85
68 68 85
68 68 85
68 68 85
68 68 85
68 68 85
68 68 85
68 68 85
68 68 85
68 68 85
68 68 85
68 68 85
68 68 85
68 68 85
68 68 85
68 68 85
68 68 85
68 68 85
68 68 85
68 68 85
68 68 85
68 68 85
68 68 85
68 68 85
68 68 85
68 68 85
68 68 85
68 68 85
68 68 85
68 68 85
68 68 85
68 68 85
68 68 85
68 68 85
68 68 85
68 68 85
68 68 85
68 68 85
68 68 85
68 68 85
68 68 85
68 68 85
68 68 85
68 68 85
68 68 85
68 68 85
68 68 85
68 68 85
68 68 85
68 68 85
68 68 85
68 68 85
68 68 85
68 68 85
68 68 85
68 68 85
68 68 85
68 68 85
68 68 85
68 68 85
68 68 85
68 68 85
68 68 85
68 68 85
68 68 85
68 68 85
68 68 85
68 68 86
68 68 85
68 68 85
68 68 85
68 68 85
68 68 85
68 68 85
68 68 86
68 68 85
68 68 85
68 68 85
68 68 85
68 68 85
68 68 85
68 68 85
68 68 85
68 68 85
68 68 86
68 68 85
68 68 85
68 68 85
68 68 85
69 69 86
68 68 86
69 69 86
68 68 85
68 68 86
68 68 86
69 69 86
68 68 85
68 68 85
68 68 85
68 68 85
68 68 85
68 68 85
68 68 85
68 68 85
68 68 85
68 68 85
68 68 85
68 68 85
68 68 85
68 68 85
68 68 85
68 68 85
68 68 85
68 68 85
68 68 85
68 68 85
68 68 85
68 68 85
68 68 85
68 68 85
68 68 85
68 68 85
68 68 86
68 68 86
68 68 86
68 68 86
68 68 86
68 68 86
68 68 86
68 68 86
68 68 86
68 68 86
68 68 86
68 68 86
68 68 86
68 68 86
68 68 86
68 68 86
68 68 86
68 68 86
68 68 86
68 68 86
68 68 86
68 68 86
68 68 86
68 68 86
68 68 86
68 68 86
68 68 86
69 69 86
68 68 86
68 68 86
68 68 86
68 68 86
68 68 86
68 68 86
69 69 86
68 68 86
69 69 86
68 68 86
68 68 86
68 68 86
68 68 86
68 68 86
69 69 86
68 68 86
68 68 86
68 68 86
68 68 86
66 65 81
51 32 34
40 24 27
43 26 28
42 25 27
63 59 74
68 68 86
68 68 86
68 68 86
69 69 86
69 69 86
68 68 86
68 68 86
68 68 86
68 68 86
68 68 86
68 68 86
68 68 86
68 68 86
68 68 86
68 68 86
68 68 86
68 68 86
68 68 86
68 68 86
69 69 86
68 68 86
68 68 86
68 68 86
69 69 86
68 68 86
68 68 86
68 68 86
68 68 86
68 68 86
68 68 86
68 68 85
68 68 86
68 68 86
68 68 86
68 68 86
68 68 86
68 68 86
68 68 86
68 68 86
68 68 85
68 68 86
68 68 85
68 68 86
68 68 85
68 68 85
68 68 85
68 68 85
68 68 85
68 68 85
68 68 85
68 68 85
68 68 85
68 68 85
68 68 85
68 68 85
68 68 85
68 68 85
68 68 85
68 68 85
68 68 85
68 68 85
68 68 85
68 68 85
68 68 85
68 68 85
68 68 85
68 68 85
68 68 85
68 68 85
68 68 85
68 68 85
68 68 85
68 68 85
68 68 85
68 68 85
68 68 85
68 68 85
68 68 85
68 68 85
68 68 85
68 68 85
68 68 85
68 68 85
68 68 85
68 68 85
68 68 85
68 68 85
68 68 85
68 68 85
68 68 85
68 68 85
68 68 85
68 68 85
68 68 85
68 68 85
68 68 85
68 68 85
68 68 85
68 68 85
68 68 85
68 68 85
68 68 85
68 68 85
68 68 85
68 68 85
68 68 85
68 68 85
68 68 85
68 68 85
68 68 85
68 68 85
68 68 85
68 68 85
68 68 85
68 68 85
68 68 85
68 68 85
68 68 85
68 68 85
68 68 85
68 68 85
68 68 85
68 68 85
68 68 85
68 68 85
68 68 85
68 68 85
68 68 85
68 68 85
68 68 85
68 68 85
68 68 85
68 68 85
68 68 85
68 68 85
68 68 85
68 68 85
68 68 85
68 68 85
68 68 85
68 68 85
68 68 85
68 68 85
68 68 85
68 68 85
68 68 85
68 68 85
68 68 85
68 68 85
68 68 85
68 68 85
68 68 85
68 68 85
68 68 85
68 68 85
68 68 85
68 68 85
68 68 85
68 68 85
68 68 85
68 68 85
68 68 85
68 68 85
68 68 85
68 68 85
68 68 85
68 68 85
68 68 85
68 68 85
68 68 85
68 68 85
68 68 85
68 68 85
68 68 85
68 68 85
68 68 85
68 68 85
68 68 85
68 68 85
68 68 85
68 68 85
68 68 85
68 68 85
68 68 85
67 67 85
68 68 85
68 68 85
68 68 85
68 68 85
68 68 85
68 68 85
68 68 85
68 68 85
68 68 85
68 68 85
68 68 85
68 68 85
68 68 85
68 68 85
68 68 85
68 68 85
68 68 85
68 68 85
68 68 85
68 68 85
68 68 85
68 68 85
68 68 85
68 68 85
68 68 85
68 68 85
68 68 85
68 68 85
68 68 85
68 68 85
68 68 85
68 68 85
68 68 85
68 68 85
68 68 85
68 68 85
68 68 85
68 68 85
68 68 85
68 68 85
68 68 85
68 68 85
68 68 85
68 68 85
68 68 85
68 68 85
68 68 85
68 68 85
68 68 85
68 68 85
68 68 85
68 68 85
68 68 85
68 68 85
68 68 85
68 68 85
68 68 85
68 68 85
68 68 85
68 68 85
68 68 85
68 68 85
68 68 85
68 68 85
68 68 85
68 68 85
68 68 85
68 68 85
68 68 85
68 68 85
68 68 85
68 68 85
68 68 85
68 68 85
68 68 85
68 68 85
68 68 85
68 68 85
68 68 85
68 68 85
68 68 85
68 68 85
68 68 85
68 68 85
68 68 85
68 68 85
68 68 85
68 68 85
68 68 85
68 68 85
68 68 85
68 68 85
68 68 85
68 68 85
68 68 85
68 68 85
68 68 85
68 68 85
68 68 85
68 68 85
69 69 86
68 68 85
68 68 86
68 68 86
68 68 85
68 68 86
68 68 85
68 68 85
68 68 85
68 68 85
68 68 86
69 69 86
68 68 86
68 68 85
68 68 85
68 68 86
68 68 86
68 68 86
68 68 85
68 68 86
68 68 86
68 68 85
68 68 86
68 68 85
68 68 85
68 68 85
68 68 85
68 68 86
68 68 86
68 68 86
68 68 86
69 69 86
68 68 86
68 68 86
68 68 86
68 68 86
68 68 85
68 68 85
68 68 85
68 68 85
68 68 85
68 68 86
68 68 86
68 68 86
68 68 86
68 68 86
68 68 86
68 68 86
68 68 86
68 68 86
68 68 86
68 68 86
68 68 86
68 68 86
68 68 86
68 68 86
68 68 86
68 68 86
68 68 86
68 68 86
68 68 86
68 68 86
68 68 86
68 68 86
68 68 86
68 68 86
68 68 86
68 68 86
68 68 86
68 68 86
68 68 86
68 68 86
68 68 86
68 68 86
68 68 86
68 68 86
68 68 86
68 68 86
68 68 86
68 68 86
68 68 86
68 68 86
68 68 86
68 68 86
69 69 86
68 68 86
68 68 86
69 69 86
68 68 86
69 69 86
69 69 86
68 68 86
68 68 86
69 69 86
68 68 86
68 68 86
68 68 86
68 68 86
68 68 86
69 69 86
68 68 86
68 68 86
68 68 86
68 68 86
69 69 86
68 68 86
68 68 86
68 68 86
69 69 86
70 62 75
54 33 32
47 28 30
48 29 31
48 29 30
60 52 63
69 69 86
68 68 86
69 69 86
69 69 86
68 68 86
68 68 86
68 68 86
68 68 86
68 68 86
68 68 86
69 69 86
68 68 86
68 68 86
68 68 86
68 68 86
69 69 86
68 68 86
68 68 86
68 68 86
68 68 86
68 68 86
69 69 86
69 69 86
68 68 86
69 69 86
68 68 86
68 68 86
68 68 86
69 69 86
69 69 86
68 68 86
68 68 86
68 68 86
68 68 86
68 68 86
68 68 86
68 68 86
68 68 86
68 68 86
68 68 86
68 68 86
68 68 86
68 68 86
68 68 86
68 68 85
68 68 85
68 68 85
68 68 85
68 68 85
68 68 85
68 68 85
68 68 85
68 68 85
68 68 85
68 68 85
68 68 85
68 68 85
68 68 85
68 68 85
68 68 85
68 68 85
68 68 85
68 68 85
68 68 85
68 68 85
68 68 85
68 68 85
68 68 85
68 68 85
68 68 85
68 68 85
68 68 85
68 68 85
68 68 85
68 68 85
68 68 85
68 68 85
68 68 85
68 68 85
68 68 85
68 68 85
68 68 85
68 68 85
68 68 85
68 68 85
68 68 85
68 68 85
68 68 85
68 68 85
68 68 85
68 68 85
68 68 85
68 68 85
68 68 85
68 68 85
68 68 85
68 68 85
68 68 85
68 68 85
68 68 85
68 68 85
68 68 85
68 68 85
68 68 85
68 68 85
68 68 85
68 68 85
68 68 85
68 68 85
68 68 85
68 68 85
68 68 85
68 68 85
68 68 85
68 68 85
68 68 85
68 68 85
68 68 85
68 68 85
68 68 85
68 68 85
68 68 85
68 68 85
68 68 85
68 68 85
68 68 85
68 68 85
68 68 85
68 68 85
68 68 85
68 68 85
68 68 85
68 68 85
68 68 85
68 68 85
68 68 85
68 68 85
68 68 85
68 68 85
68 68 85
68 68 85
68 68 85
68 68 85
68 68 85
68 68 85
68 68 85
68 68 85
68 68 85
68 68 85
68 68 85
68 68 85
68 68 85
68 68 85
68 68 85
68 68 85
68 68 85
68 68 85
68 68 85
68 68 85
68 68 85
68 68 85
68 68 85
68 68 85
68 68 85
68 68 85
68 68 85
68 68 85
68 68 85
68 68 85
68 68 85
68 68 85
68 68 85
68 68 85
68 68 85
68 68 85
68 68 85
68 68 85
68 68 85
68 68 85
68 68 85
68 68 85
68 68 85
68 68 85
68 68 85
68 68 85
68 68 85
68 68 85
68 68 85
68 68 85
68 68 85
68 68 85
68 68 85
68 68 85
68 68 85
68 68 85
68 68 85
68 68 85
68 68 85
68 68 85
68 68 85
68 68 85
68 68 85
68 68 85
68 68 85
68 68 85
68 68 85
68 68 85
68 68 85
68 68 85
68 68 85
68 68 85
68 68 85
68 68 85
68 68 85
68 68 85
68 68 85
68 68 85
68 68 85
68 68 85
68 68 85
68 68 85
68 68 85
68 68 85
68 68 85
68 68 85
68 68 85
68 68 85
68 68 85
68 68 85
68 68 85
68 68 85
68 68 85
68 68 85
68 68 85
68 68 85
68 68 85
68 68 85
68 68 85
68 68 85
68 68 85
68 68 85
68 68 85
68 68 85
68 68 85
68 68 85
68 68 85
68 68 85
68 68 85
68 68 85
68 68 85
68 68 85
68 68 85
68 68 85
68 68 85
68 68 85
68 68 85
68 68 85
68 68 85
68 68 85
68 68 85
68 68 85
68 68 85
68 68 85
68 68 85
68 68 85
68 68 85
68 68 85
68 68 85
68 68 85
68 68 85
68 68 85
68 68 85
68 68 85
68 68 85
68 68 85
68 68 85
68 68 85
68 68 85
68 68 85
68 68 86
68 68 86
68 68 85
68 68 86
68 68 85
68 68 85
68 68 85
68 68 86
68 68 86
68 68 86
68 68 86
68 68 85
68 68 86
68 68 86
68 68 86
68 68 86
68 68 85
68 68 85
68 68 86
68 68 86
68 68 86
68 68 85
68 68 85
68 68 86
68 68 86
68 68 86
68 68 86
68 68 86
69 69 86
68 68 85
69 69 86
68 68 86
68 68 86
68 68 86
68 68 86
68 68 86
68 68 86
68 68 86
68 68 86
68 68 86
68 68 86
68 68 86
68 68 86
68 68 86
68 68 86
68 68 86
68 68 86
68 68 86
68 68 86
68 68 86
68 68 86
68 68 86
68 68 86
68 68 86
68 68 86
68 68 86
68 68 86
68 68 86
68 68 86
68 68 86
68 68 86
68 68 86
68 68 86
68 68 86
68 68 86
68 68 86
68 68 86
68 68 86
68 68 86
68 68 86
68 68 86
68 68 86
68 68 86
68 68 86
68 68 86
68 68 86
68 68 86
68 68 86
68 68 86
68 68 86
68 68 86
68 68 86
68 68 86
68 68 86
68 68 86
68 68 86
68 68 86
68 68 86
68 68 86
68 68 86
68 68 86
68 68 86
68 68 86
68 68 86
68 68 86
69 69 86
69 69 86
68 68 86
68 68 86
69 69 86
69 69 86
68 68 86
68 68 86
68 68 86
68 68 86
69 69 86
68 68 86
69 69 86
68 68 86
68 68 86
68 68 86
69 69 86
68 68 86
69 69 86
68 68 86
69 66 82
61 39 40
56 34 35
59 35 36
58 35 36
66 61 74
69 69 86
69 69 86
68 68 86
68 68 86
69 69 86
69 69 86
68 68 86
68 68 86
69 69 86
68 68 86
68 68 86
68 68 86
68 68 86
69 69 86
68 68 86
69 69 86
69 69 86
68 68 86
69 69 86
69 69 86
68 68 86
68 68 86
69 69 86
68 68 86
68 68 86
68 68 86
68 68 86
69 69 86
69 69 86
68 68 86
68 68 86
68 68 86
68 68 86
68 68 86
68 68 86
68 68 86
68 68 86
68 68 86
68 68 86
68 68 86
68 68 86
68 68 86
68 68 86
68 68 86
68 68 86
68 68 86
68 68 86
68 68 86
68 68 86
68 68 86
68 68 86
68 68 86
68 68 86
68 68 86
68 68 86
68 68 86
68 68 86
68 68 86
68 68 86
68 68 85
68 68 85
68 68 85
68 68 85
68 68 85
68 68 85
68 68 85
68 68 85
68 68 85
68 68 85
68 68 85
68 68 85
68 68 85
68 68 85
68 68 85
68 68 85
68 68 85
68 68 85
68 68 85
68 68 85
68 68 85
68 68 85
68 68 85
68 68 85
68 68 85
68 68 85
68 68 85
68 68 85
68 68 85
68 68 85
68 68 85
68 68 85
68 68 85
68 68 85
68 68 85
68 68 85
68 68 85
68 68 85
68 68 85
68 68 85
68 68 85
68 68 85
68 68 85
68 68 85
68 68 85
68 68 85
68 68 85
68 68 85
68 68 85
68 68 85
68 68 85
68 68 85
68 68 85
68 68 85
68 68 85
68 68 85
68 68 85
68 68 85
68 68 85
68 68 85
68 68 85
68 68 85
68 68 85
68 68 85
68 68 85
68 68 85
68 68 85
68 68 85
68 68 85
68 68 85
68 68 85
68 68 85
68 68 85
68 68 85
68 68 85
68 68 85
68 68 85
68 68 85
68 68 85
68 68 85
68 68 85
68 68 85
68 68 85
68 68 85
68 68 85
68 68 85
68 68 85
68 68 85
68 68 85
68 68 85
68 68 85
68 68 85
68 68 85
68 68 85
68 68 85
68 68 85
68 68 85
68 68 85
68 68 85
68 68 85
68 68 85
68 68 85
68 68 85
68 68 85
68 68 85
68 68 85
68 68 85
68 68 85
68 68 85
68 68 85
68 68 85
68 68 85
68 68 85
68 68 85
68 68 85
68 68 85
68 68 85
68 68 85
68 68 85
68 68 85
68 68 85
68 68 85
68 68 85
68 68 85
68 68 85
68 68 85
68 68 85
68 68 85
68 68 85
68 68 85
68 68 85
68 68 85
68 68 85
68 68 85
68 68 85
68 68 85
68 68 85
68 68 85
68 68 85
68 68 85
68 68 85
68 68 85
68 68 85
68 68 85
68 68 85
68 68 85
68 68 85
68 68 85
68 68 85
68 68 85
68 68 85
68 68 85
68 68 85
68 68 85
68 68 85
68 68 85
68 68 85
68 68 85
68 68 85
68 68 85
68 68 85
68 68 85
68 68 85
68 68 85
68 68 85
68 68 85
68 68 85
68 68 85
68 68 85
68 68 85
68 68 85
68 68 85
68 68 85
68 68 85
68 68 85
68 68 85
68 68 85
68 68 85
68 68 85
68 68 85
68 68 85
68 68 85
68 68 85
68 68 85
68 68 85
68 68 85
68 68 85
68 68 85
68 68 85
68 68 85
68 68 85
68 68 85
68 68 85
68 68 85
68 68 85
68 68 85
68 68 85
68 68 85
68 68 85
68 68 85
68 68 85
68 68 85
68 68 85
68 68 85
68 68 85
68 68 85
68 68 85
68 68 85
68 68 85
68 68 85
68 68 85
68 68 85
68 68 85
68 68 85
68 68 85
68 68 85
68 68 85
68 68 85
68 68 85
68 68 85
68 68 86
68 68 86
68 68 85
68 68 86
68 68 86
68 68 86
68 68 86
68 68 86
68 68 86
68 68 86
68 68 86
68 68 85
68 68 85
68 68 86
68 68 86
68 68 85
68 68 85
69 69 86
68 68 86
68 68 86
68 68 86
68 68 86
68 68 86
68 68 86
68 68 86
68 68 86
69 69 86
69 69 86
68 68 86
68 68 86
69 69 86
69 69 86
68 68 86
69 69 86
68 68 86
68 68 86
68 68 86
68 68 86
68 68 86
68 68 86
68 68 86
68 68 86
68 68 86
68 68 86
68 68 86
68 68 86
68 68 86
68 68 86
68 68 86
68 68 86
68 68 86
68 68 86
68 68 86
68 68 86
68 68 86
68 68 86
68 68 86
68 68 86
68 68 86
68 68 86
68 68 86
68 68 86
68 68 86
68 68 86
68 68 86
68 68 86
68 68 86
68 68 86
68 68 86
68 68 86
68 68 86
68 68 86
68 68 86
68 68 86
68 68 86
68 68 86
68 68 86
68 68 86
68 68 86
68 68 86
68 68 86
68 68 86
68 68 86
68 68 86
68 68 86
68 68 86
69 69 86
69 69 86
68 68 86
68 68 86
69 69 86
68 68 86
69 69 86
68 68 86
69 69 86
69 69 86
69 69 86
68 68 86
69 69 86
69 69 86
69 69 86
68 68 86
69 69 86
69 69 86
69 69 86
69 69 86
68 68 86
68 68 86
68 68 86
69 69 86
69 69 86
68 68 86
69 69 86
69 69 86
68 68 86
69 69 86
66 61 74
62 45 50
65 44 48
66 57 68
68 68 86
69 69 86
69 69 86
68 68 86
69 69 86
69 69 86
69 69 86
69 69 86
69 69 86
69 69 86
68 68 86
69 69 86
69 69 86
68 68 86
69 69 86
69 69 86
68 68 86
69 69 86
68 68 86
69 69 86
69 69 86
69 69 86
69 69 86
69 69 86
69 69 86
68 68 86
68 68 86
68 68 86
68 68 86
68 68 86
68 68 86
68 68 86
68 68 86
68 68 86
68 68 86
68 68 86
68 68 86
68 68 86
68 68 86
68 68 86
68 68 86
68 68 86
68 68 86
68 68 86
68 68 86
68 68 86
68 68 86
68 68 86
68 68 86
68 68 86
68 68 86
68 68 86
68 68 86
68 68 86
68 68 86
68 68 86
68 68 86
68 68 86
68 68 86
68 68 86
68 68 86
68 68 86
68 68 86
68 68 86
68 68 86
68 68 86
68 68 86
68 68 86
68 68 86
68 68 86
68 68 86
68 68 86
68 68 86
68 68 85
68 68 85
68 68 85
68 68 85
68 68 85
68 68 85
68 68 85
68 68 85
68 68 85
68 68 85
68 68 85
68 68 85
68 68 85
68 68 85
68 68 85
68 68 85
68 68 85
68 68 85
68 68 85
68 68 85
68 68 85
68 68 85
68 68 85
68 68 85
68 68 85
68 68 85
68 68 85
68 68 85
68 68 85
68 68 85
68 68 85
68 68 85
68 68 85
68 68 85
68 68 85
68 68 85
68 68 85
68 68 85
68 68 85
68 68 85
68 68 85
68 68 85
68 68 85
68 68 85
68 68 85
68 68 85
68 68 85
68 68 85
68 68 85
68 68 85
68 68 85
68 68 85
68 68 85
68 68 85
68 68 85
68 68 85
68 68 85
68 68 85
68 68 85
68 68 85
68 68 85
68 68 85
68 68 85
68 68 85
68 68 85
68 68 85
68 68 85
68 68 85
68 68 85
68 68 85
68 68 85
68 68 85
68 68 85
68 68 85
68 68 85
68 68 85
68 68 85
68 68 85
68 68 85
68 68 85
68 68 85
68 68 85
68 68 85
68 68 85
68 68 85
68 68 85
68 68 85
68 68 85
68 68 85
68 68 85
68 68 85
68 68 85
68 68 85
68 68 85
68 68 85
68 68 85
68 68 85
68 68 85
68 68 85
68 68 85
68 68 85
68 68 85
68 68 85
68 68 85
68 68 85
68 68 85
68 68 85
68 68 85
68 68 85
68 68 85
68 68 85
68 68 85
68 68 85
68 68 85
68 68 85
68 68 85
68 68 85
68 68 85
68 68 85
68 68 85
68 68 85
68 68 85
68 68 85
68 68 85
68 68 85
68 68 85
68 68 85
68 68 85
68 68 85
68 68 85
68 68 85
68 68 85
68 68 85
68 68 85
68 68 85
68 68 85
68 68 85
68 68 85
68 68 85
68 68 85
68 68 85
68 68 85
68 68 85
68 68 85
68 68 85
68 68 85
68 68 85
68 68 85
68 68 85
68 68 85
68 68 85
68 68 85
68 68 85
68 68 85
68 68 85
68 68 85
68 68 85
68 68 85
68 68 85
68 68 85
68 68 85
68 68 85
68 68 85
68 68 85
68 68 85
68 68 85
68 68 85
68 68 85
68 68 85
68 68 85
68 68 85
68 68 85
68 68 85
68 68 85
68 68 85
68 68 85
68 68 85
68 68 85
68 68 85
68 68 85
68 68 85
68 68 85
68 68 85
68 68 85
68 68 85
68 68 85
68 68 85
68 68 85
68 68 85
68 68 85
68 68 85
68 68 85
68 68 85
68 68 85
68 68 85
68 68 85
68 68 85
68 68 85
68 68 85
68 68 85
68 68 85
68 68 85
68 68 85
68 68 85
68 68 86
68 68 86
68 68 86
68 68 86
68 68 86
68 68 86
69 69 86
68 68 86
69 69 86
68 68 86
69 69 86
68 68 86
68 68 86
69 69 86
68 68 86
68 68 86
68 68 86
68 68 86
68 68 86
68 68 86
68 68 86
68 68 86
68 68 86
69 69 86
68 68 86
68 68 86
69 69 86
68 68 86
69 69 86
69 69 86
68 68 86
68 68 86
68 68 86
69 69 86
68 68 86
68 68 86
68 68 86
68 68 86
68 68 86
68 68 86
68 68 86
68 68 86
68 68 86
68 68 86
68 68 86
68 68 86
68 68 86
68 68 86
68 68 86
68 68 86
68 68 86
68 68 86
68 68 86
68 68 86
68 68 86
68 68 86
68 68 86
68 68 86
68 68 86
68 68 86
68 68 86
68 68 86
68 68 86
68 68 86
68 68 86
68 68 86
68 68 86
68 68 86
68 68 86
68 68 86
68 68 86
68 68 86
68 68 86
68 68 86
68 68 86
68 68 86
68 68 86
68 68 86
68 68 86
68 68 86
68 68 86
68 68 86
68 68 86
68 68 86
68 68 86
69 69 86
69 69 86
69 69 86
69 69 86
69 69 86
69 69 86
68 68 86
69 69 86
69 69 86
69 69 86
69 69 86
69 69 86
69 69 86
69 69 86
68 68 86
69 69 86
68 68 86
69 69 86
69 69 86
68 68 86
69 69 86
68 68 86
69 69 86
69 69 86
68 68 86
69 69 86
69 69 86
69 69 86
69 69 86
69 69 86
69 69 86
69 69 86
69 69 86
69 69 86
69 69 86
69 69 86
69 69 86
69 69 86
69 69 86
69 69 86
68 68 86
69 69 86
69 69 86
69 69 86
69 69 86
69 69 86
69 69 86
69 69 86
69 69 86
69 69 86
69 69 86
69 69 86
68 68 86
69 69 86
69 69 86
69 69 86
68 68 86
69 69 86
69 69 86
69 69 86
69 69 86
68 68 86
69 69 86
68 68 86
68 68 86
68 68 86
68 68 86
68 68 86
68 68 86
68 68 86
68 68 86
68 68 86
68 68 86
68 68 86
68 68 86
68 68 86
68 68 86
68 68 86
68 68 86
68 68 86
68 68 86
68 68 86
68 68 86
68 68 86
68 68 86
68 68 86
68 68 86
68 68 86
68 68 86
68 68 86
68 68 86
68 68 86
68 68 86
68 68 86
68 68 86
68 68 86
68 68 86
68 68 86
68 68 86
68 68 86
68 68 86
68 68 86
68 68 86
68 68 86
68 68 86
68 68 86
68 68 86
68 68 86
68 68 86
68 68 86
68 68 86
68 68 86
68 68 86
68 68 86
68 68 86
68 68 86
68 68 86
68 68 86
68 68 86
68 68 86
68 68 86
68 68 86
68 68 85
68 68 85
68 68 85
68 68 85
68 68 85
68 68 85
68 68 85
68 68 85
68 68 85
68 68 85
68 68 85
68 68 85
68 68 85
68 68 85
68 68 85
68 68 85
68 68 85
68 68 85
68 68 85
68 68 85
68 68 85
68 68 85
68 68 85
68 68 85
68 68 85
68 68 85
68 68 85
68 68 85
68 68 85
68 68 85
68 68 85
68 68 85
68 68 85
68 68 85
68 68 85
68 68 85
68 68 85
68 68 85
68 68 85
68 68 85
68 68 85
68 68 85
68 68 85
68 68 85
68 68 85
68 68 85
68 68 85
68 68 85
68 68 85
68 68 85
68 68 85
68 68 85
68 68 85
68 68 85
68 68 85
68 68 85
68 68 85
68 68 85
68 68 85
68 68 85
68 68 85
68 68 85
68 68 85
68 68 85
68 68 85
68 68 85
68 68 85
68 68 85
68 68 85
68 68 85
68 68 85
68 68 85
68 68 85
68 68 85
68 68 85
68 68 85
68 68 85
68 68 85
68 68 85
68 68 85
68 68 85
68 68 85
68 68 85
68 68 85
68 68 85
68 68 85
68 68 85
68 68 85
68 68 85
68 68 85
68 68 85
68 68 85
68 68 85
68 68 85
68 68 85
68 68 85
68 68 85
68 68 85
68 68 85
68 68 85
68 68 85
68 68 85
68 68 85
68 68 85
68 68 85
68 68 85
68 68 85
68 68 85
68 68 85
68 68 85
68 68 85
68 68 85
68 68 85
68 68 85
68 68 85
68 68 85
68 68 85
68 68 85
68 68 85
68 68 85
68 68 85
68 68 85
68 68 85
68 68 85
68 68 85
68 68 85
68 68 85
68 68 85
68 68 85
68 68 85
68 68 85
68 68 85
68 68 85
68 68 85
68 68 85
68 68 85
68 68 85
68 68 85
68 68 85
68 68 85
68 68 85
68 68 85
68 68 85
68 68 85
68 68 85
68 68 86
68 68 85
68 68 85
68 68 85
68 68 85
68 68 85
68 68 85
68 68 85
68 68 85
68 68 85
68 68 85
68 68 85
68 68 85
68 68 85
68 68 85
68 68 85
68 68 85
68 68 85
68 68 85
68 68 85
68 68 85
68 68 85
68 68 85
68 68 85
68 68 85
68 68 85
68 68 85
68 68 85
68 68 85
68 68 85
68 68 85
68 68 85
68 68 85
68 68 85
68 68 85
68 68 85
68 68 85
68 68 85
68 68 85
68 68 85
68 68 85
68 68 85
68 68 85
68 68 85
68 68 85
68 68 85
68 68 85
68 68 85
68 68 86
68 68 86
68 68 86
68 68 86
69 69 86
68 68 86
68 68 86
68 68 86
69 69 86
68 68 86
68 68 86
68 68 86
68 68 86
68 68 86
68 68 86
69 69 86
68 68 86
68 68 86
69 69 86
68 68 86
69 69 86
68 68 86
68 68 86
69 69 86
69 69 86
69 69 86
68 68 86
68 68 86
68 68 86
68 68 86
68 68 86
68 68 86
68 68 86
69 69 86
68 68 86
69 69 86
69 69 86
69 69 86
68 68 86
68 68 86
68 68 86
68 68 86
68 68 86
68 68 86
68 68 86
68 68 86
68 68 86
68 68 86
68 68 86
68 68 86
68 68 86
68 68 86
68 68 86
68 68 86
68 68 86
68 68 86
68 68 86
68 68 86
68 68 86
68 68 86
68 68 86
68 68 86
68 68 86
68 68 86
68 68 86
68 68 86
68 68 86
68 68 86
68 68 86
68 68 86
68 68 86
68 68 86
68 68 86
68 68 86
68 68 86
68 68 86
69 69 86
69 69 86
69 69 86
69 69 86
69 69 86
69 69 86
69 69 86
69 69 86
69 69 86
69 69 86
69 69 86
69 69 86
69 69 86
69 69 86
69 69 86
69 69 86
69 69 86
69 69 86
69 69 86
69 69 86
69 69 86
69 69 86
69 69 86
69 69 86
69 69 86
69 69 86
69 69 86
69 69 86
69 69 86
69 69 86
69 69 86
69 69 86
69 69 86
69 69 86
69 69 86
69 69 86
69 69 86
69 69 86
69 69 86
69 69 86
69 69 86
69 69 86
69 69 86
69 69 86
69 69 86
69 69 86
69 69 86
69 69 86
69 69 86
69 69 86
69 69 86
69 69 86
69 69 86
69 69 86
69 69 86
69 69 86
69 69 86
69 69 86
69 69 86
69 69 86
69 69 86
69 69 86
69 69 86
69 69 86
69 69 86
69 69 86
69 69 86
69 69 86
69 69 86
68 68 86
68 68 86
68 68 86
68 68 86
68 68 86
68 68 86
68 68 86
68 68 86
68 68 86
68 68 86
68 68 86
68 68 86
68 68 86
68 68 86
68 68 86
68 68 86
68 68 86
68 68 86
68 68 86
68 68 86
68 68 86
68 68 86
68 68 86
68 68 86
68 68 86
68 68 86
68 68 86
68 68 86
68 68 86
68 68 86
68 68 86
68 68 86
68 68 86
68 68 86
68 68 86
68 68 86
68 68 86
68 68 86
68 68 86
68 68 86
68 68 86
68 68 86
68 68 86
68 68 86
68 68 86
68 68 86
68 68 86
68 68 86
68 68 86
68 68 86
68 68 86
68 68 86
68 68 86
68 68 86
68 68 86
68 68 86
68 68 86
68 68 86
68 68 86
68 68 86
68 68 86
68 68 86
68 68 86
68 68 86
68 68 86
68 68 86
68 68 86
68 68 86
68 68 86
68 68 86
68 68 86
68 68 86
68 68 85
68 68 85
68 68 85
68 68 85
68 68 85
68 68 85
68 68 85
68 68 85
68 68 85
68 68 85
68 68 85
68 68 85
68 68 85
68 68 85
68 68 85
68 68 85
68 68 85
68 68 85
68 68 85
68 68 85
68 68 85
68 68 85
68 68 85
68 68 85
68 68 85
68 68 85
68 68 85
68 68 85
68 68 85
68 68 85
68 68 85
68 68 85
68 68 85
68 68 85
68 68 85
68 68 85
68 68 85
68 68 85
68 68 85
68 68 85
68 68 85
68 68 85
68 68 85
68 68 85
68 68 85
68 68 85
68 68 85
68 68 85
68 68 85
68 68 85
68 68 85
68 68 85
68 68 85
68 68 85
68 68 85
68 68 85
68 68 85
68 68 85
68 68 85
68 68 85
68 68 85
68 68 85
68 68 85
68 68 85
68 68 85
68 68 85
68 68 85
68 68 85
68 68 85
68 68 85
68 68 85
68 68 85
68 68 85
68 68 85
68 68 85
68 68 85
68 68 85
68 68 85
68 68 85
68 68 85
68 68 85
68 68 85
68 68 85
68 68 85
68 68 85
68 68 85
68 68 85
68 68 85
68 68 85
68 68 85
68 68 85
68 68 85
68 68 85
68 68 85
68 68 85
68 68 85
68 68 85
68 68 85
68 68 85
68 68 85
68 68 85
68 68 85
68 68 85
68 68 85
68 68 85
68 68 85
68 68 85
68 68 85
68 68 85
68 68 85
68 68 85
68 68 85
68 68 85
68 68 85
68 68 85
68 68 85
68 68 85
68 68 85
68 68 85
68 68 85
68 68 85
68 68 85
68 68 85
68 68 85
68 68 85
68 68 85
68 68 85
68 68 85
68 68 85
68 68 85
68 68 85
68 68 85
68 68 85
68 68 85
68 68 85
68 68 85
68 68 85
68 68 85
68 68 85
68 68 85
68 68 85
68 68 85
68 68 85
68 68 85
68 68 85
68 68 85
68 68 85
68 68 85
68 68 85
68 68 85
68 68 85
68 68 85
68 68 85
68 68 85
68 68 85
68 68 85
68 68 85
68 68 85
68 68 85
68 68 85
68 68 85
68 68 85
68 68 85
68 68 85
68 68 85
68 68 85
68 68 85
68 68 85
68 68 85
68 68 85
68 68 85
68 68 85
68 68 85
68 68 85
68 68 86
68 68 86
68 68 86
68 68 86
68 68 86
68 68 86
68 68 86
68 68 86
68 68 86
68 68 86
69 69 86
68 68 86
68 68 86
68 68 86
69 69 86
68 68 86
68 68 86
68 68 86
68 68 86
68 68 86
68 68 86
69 69 86
69 69 86
69 69 86
68 68 86
68 68 86
68 68 86
69 69 86
68 68 86
68 68 86
69 69 86
68 68 86
68 68 86
68 68 86
69 69 86
69 69 86
68 68 86
68 68 86
68 68 86
68 68 86
68 68 86
69 69 86
69 69 86
68 68 86
69 69 86
68 68 86
68 68 86
68 68 86
68 68 86
68 68 86
68 68 86
68 68 86
68 68 86
68 68 86
68 68 86
68 68 86
68 68 86
68 68 86
68 68 86
68 68 86
68 68 86
68 68 86
69 69 86
69 69 86
69 69 86
69 69 86
69 69 86
69 69 86
69 69 86
69 69 86
69 69 86
69 69 86
69 69 86
69 69 86
69 69 86
69 69 86
69 69 86
69 69 86
69 69 86
69 69 86
69 69 86
69 69 86
69 69 86
69 69 86
69 69 86
69 69 86
69 69 86
69 69 86
69 69 86
69 69 86
69 69 86
69 69 86
69 69 86
69 69 86
69 69 86
69 69 86
69 69 86
69 69 86
69 69 86
69 69 86
69 69 86
69 69 86
69 69 86
69 69 86
69 69 86
69 69 86
69 69 86
69 69 86
69 69 86
69 69 86
69 69 86
69 69 86
69 69 86
69 69 86
69 69 86
69 69 86
69 69 86
69 69 86
69 69 86
69 69 86
69 69 86
69 69 86
69 69 86
69 69 86
69 69 86
69 69 86
69 69 86
69 69 86
69 69 86
69 69 86
69 69 86
69 69 86
69 69 86
69 69 86
69 69 86
69 69 86
69 69 86
69 69 86
69 69 86
69 69 86
69 69 86
69 69 86
69 69 86
69 69 86
69 69 86
69 69 86
69 69 86
69 69 86
69 69 86
69 69 86
69 69 86
69 69 86
69 69 86
69 69 86
69 69 86
69 69 86
69 69 86
69 69 86
69 69 86
69 69 86
69 69 86
69 69 86
69 69 86
69 69 86
69 69 86
69 69 86
69 69 86
69 69 86
69 69 86
69 69 86
69 69 86
69 69 86
69 69 86
69 69 86
68 68 86
68 68 86
68 68 86
68 68 86
68 68 86
68 68 86
68 68 86
68 68 86
68 68 86
68 68 86
68 68 86
68 68 86
68 68 86
68 68 86
68 68 86
68 68 86
68 68 86
68 68 86
68 68 86
68 68 86
68 68 86
68 68 86
68 68 86
68 68 86
68 68 86
68 68 86
68 68 86
68 68 86
68 68 86
68 68 86
68 68 86
68 68 86
68 68 86
68 68 86
68 68 86
68 68 86
68 68 86
68 68 86
68 68 86
68 68 86
68 68 86
68 68 86
68 68 86
68 68 86
68 68 86
68 68 86
68 68 86
68 68 86
68 68 86
68 68 86
68 68 86
68 68 86
68 68 86
68 68 86
68 68 86
68 68 86
68 68 86
68 68 86
68 68 86
68 68 86
68 68 86
68 68 86
68 68 85
68 68 85
68 68 85
68 68 85
68 68 85
68 68 85
68 68 85
68 68 85
68 68 85
68 68 85
68 68 85
68 68 85
68 68 85
68 68 85
68 68 85
68 68 85
68 68 85
68 68 85
68 68 85
68 68 85
68 68 85
68 68 85
68 68 85
68 68 85
68 68 85
68 68 85
68 68 85
68 68 85
68 68 85
68 68 85
68 68 85
68 68 85
68 68 85
68 68 85
68 68 85
68 68 85
68 68 85
68 68 85
68 68 85
68 68 85
68 68 85
68 68 85
68 68 85
68 68 85
68 68 85
68 68 85
68 68 85
68 68 85
68 68 85
68 68 85
68 68 85
68 68 85
68 68 85
68 68 85
68 68 85
68 68 85
68 68 85
68 68 85
68 68 85
68 68 85
68 68 85
68 68 85
68 68 85
68 68 85
68 68 85
68 68 85
68 68 85
68 68 85
68 68 85
68 68 85
68 68 85
68 68 85
68 68 85
68 68 85
68 68 85
68 68 85
68 68 85
68 68 85
68 68 85
68 68 85
68 68 85
68 68 85
68 68 85
68 68 85
68 68 85
68 68 85
68 68 85
68 68 85
68 68 85
68 68 85
68 68 85
68 68 85
68 68 85
68 68 85
68 68 85
68 68 85
68 68 85
68 68 85
68 68 85
68 68 85
68 68 85
68 68 85
68 68 85
68 68 85
68 68 85
68 68 85
68 68 85
68 68 85
68 68 85
68 68 85
68 68 85
68 68 85
68 68 85
68 68 85
68 68 85
68 68 85
68 68 85
68 68 85
68 68 85
68 68 85
68 68 85
68 68 85
68 68 86
68 68 85
68 68 85
68 68 86
68 68 85
68 68 85
68 68 85
68 68 85
68 68 85
68 68 85
68 68 85
68 68 85
68 68 85
68 68 85
68 68 85
68 68 85
68 68 85
68 68 85
68 68 85
68 68 85
68 68 85
68 68 85
68 68 85
68 68 85
68 68 85
68 68 85
68 68 85
68 68 85
68 68 85
68 68 85
68 68 85
68 68 85
68 68 85
68 68 85
68 68 86
68 68 86
68 68 86
68 68 86
68 68 86
68 68 86
68 68 86
68 68 86
68 68 86
68 68 86
68 68 86
68 68 86
68 68 86
68 68 86
69 69 86
68 68 86
69 69 86
68 68 86
69 69 86
68 68 86
68 68 86
68 68 86
68 68 86
68 68 86
68 68 86
68 68 86
68 68 86
69 69 86
68 68 86
68 68 86
68 68 86
69 69 86
69 69 86
68 68 86
69 69 86
68 68 86
69 69 86
68 68 86
69 69 86
69 69 86
69 69 86
69 69 86
69 69 86
69 69 86
69 69 86
68 68 86
69 69 86
69 69 86
68 68 86
69 69 86
69 69 86
68 68 86
68 68 86
68 68 86
68 68 86
69 69 86
69 69 86
69 69 86
69 69 86
69 69 86
69 69 86
69 69 86
69 69 86
69 69 86
69 69 86
69 69 86
69 69 86
69 69 86
69 69 86
69 69 86
69 69 86
69 69 86
69 69 86
69 69 86
69 69 86
69 69 86
69 69 86
69 69 86
69 69 86
69 69 86
69 69 86
69 69 86
69 69 86
69 69 86
69 69 86
69 69 86
69 69 86
69 69 86
69 69 86
69 69 86
69 69 86
69 69 86
69 69 86
69 69 86
69 69 86
69 69 86
69 69 86
69 69 86
69 69 86
69 69 86
69 69 86
69 69 86
69 69 86
69 69 86
69 69 86
69 69 86
69 69 86
69 69 86
69 69 86
69 69 86
69 69 86
69 69 86
69 69 86
69 69 86
69 69 86
69 69 86
69 69 86
69 69 86
69 69 86
69 69 86
69 69 86
69 69 86
69 69 86
69 69 86
69 69 86
69 69 86
69 69 86
69 69 86
69 69 86
69 69 86
69 69 86
69 69 86
69 69 86
69 69 86
69 69 86
69 69 86
69 69 86
69 69 86
69 69 86
69 69 86
69 69 86
69 69 86
69 69 86
69 69 86
69 69 86
69 69 86
69 69 86
69 69 86
69 69 86
69 69 86
69 69 86
69 69 86
69 69 86
69 69 86
69 69 86
69 69 86
69 69 86
69 69 86
69 69 86
69 69 86
69 69 86
69 69 86
69 69 86
69 69 86
69 69 86
69 69 86
69 69 86
69 69 86
69 69 86
69 69 86
69 69 86
69 69 86
69 69 86
69 69 86
69 69 86
69 69 86
69 69 86
69 69 86
69 69 86
69 69 86
69 69 86
69 69 86
69 69 86
69 69 86
69 69 86
69 69 86
69 69 86
69 69 86
69 69 86
69 69 86
69 69 86
69 69 86
69 69 86
69 69 86
69 69 86
69 69 86
69 69 86
68 68 86
68 68 86
68 68 86
68 68 86
68 68 86
68 68 86
68 68 86
68 68 86
68 68 86
68 68 86
68 68 86
68 68 86
68 68 86
68 68 86
68 68 86
68 68 86
68 68 86
68 68 86
68 68 86
68 68 86
68 68 86
68 68 86
68 68 86
68 68 86
68 68 86
68 68 86
68 68 86
68 68 86
68 68 86
68 68 86
68 68 86
68 68 86
68 68 86
68 68 86
68 68 86
68 68 86
68 68 86
68 68 86
68 68 86
68 68 86
68 68 86
68 68 86
68 68 86
68 68 86
68 68 86
68 68 86
68 68 86
68 68 86
68 68 86
68 68 86
68 68 86
68 68 86
68 68 86
68 68 86
68 68 86
68 68 85
68 68 85
68 68 85
68 68 85
68 68 85
68 68 85
68 68 85
68 68 85
68 68 85
68 68 85
68 68 85
68 68 85
68 68 85
68 68 85
68 68 85
68 68 85
68 68 85
68 68 85
68 68 85
68 68 85
68 68 85
68 68 85
68 68 85
68 68 85
68 68 85
68 68 85
68 68 85
68 68 85
68 68 85
68 68 85
68 68 85
68 68 85
68 68 85
68 68 85
68 68 85
68 68 85
68 68 85
68 68 85
68 68 85
68 68 85
68 68 85
68 68 85
68 68 85
68 68 85
68 68 85
68 68 85
68 68 85
68 68 85
68 68 85
68 68 85
68 68 85
68 68 85
68 68 85
68 68 85
68 68 85
68 68 85
68 68 85
68 68 85
68 68 85
68 68 85
68 68 85
68 68 85
68 68 85
68 68 85
68 68 85
68 68 85
68 68 85
68 68 85
68 68 85
68 68 85
68 68 85
68 68 85
68 68 85
68 68 85
68 68 85
68 68 85
68 68 85
68 68 85
68 68 85
68 68 85
68 68 85
68 68 85
68 68 85
68 68 85
68 68 85
68 68 85
68 68 85
68 68 85
68 68 85
68 68 85
68 68 85
68 68 85
68 68 85
68 68 85
68 68 85
68 68 85
68 68 85
68 68 85
68 68 85
68 68 85
68 68 85
68 68 85
68 68 85
68 68 85
68 68 85
68 68 85
68 68 85
68 68 85
68 68 85
68 68 85
68 68 85
68 68 85
68 68 85
68 68 85
68 68 85
68 68 86
68 68 86
68 68 86
68 68 85
68 68 85
68 68 86
68 68 86
68 68 85
68 68 85
68 68 85
68 68 85
68 68 85
68 68 85
68 68 85
68 68 85
68 68 85
68 68 85
68 68 85
68 68 85
68 68 85
68 68 85
68 68 85
68 68 85
68 68 85
68 68 85
68 68 86
68 68 86
68 68 86
68 68 86
68 68 86
68 68 86
68 68 86
68 68 86
68 68 86
68 68 86
68 68 86
68 68 86
68 68 86
68 68 86
68 68 86
68 68 86
68 68 86
68 68 86
68 68 86
68 68 86
68 68 86
68 68 86
69 69 86
68 68 86
69 69 86
68 68 86
69 69 86
68 68 86
69 69 86
69 69 86
68 68 86
69 69 86
69 69 86
69 69 86
69 69 86
69 69 86
68 68 86
68 68 86
69 69 86
69 69 86
69 69 86
69 69 86
69 69 86
69 69 86
69 69 86
69 69 86
69 69 86
69 69 86
69 69 86
69 69 86
69 69 86
69 69 86
69 69 86
69 69 86
69 69 86
69 69 86
69 69 86
69 69 86
69 69 86
69 69 86
69 69 86
69 69 86
69 69 86
69 69 86
69 69 86
69 69 86
69 69 86
69 69 86
69 69 86
69 69 86
69 69 86
69 69 86
69 69 86
69 69 86
69 69 86
69 69 86
69 69 86
69 69 86
69 69 86
69 69 86
69 69 86
69 69 86
69 69 86
69 69 86
69 69 86
69 69 86
69 69 86
69 69 86
69 69 86
69 69 86
69 69 86
69 69 86
69 69 86
69 69 86
69 69 86
69 69 86
69 69 86
69 69 86
69 69 86
69 69 86
69 69 86
69 69 86
69 69 86
69 69 86
69 69 86
69 69 86
69 69 86
69 69 86
69 69 86
69 69 86
69 69 86
69 69 86
69 69 86
69 69 86
69 69 86
69 69 86
69 69 86
69 69 86
69 69 86
69 69 86
69 69 86
69 69 86
69 69 86
69 69 86
69 69 86
69 69 86
69 69 86
69 69 86
69 69 86
69 69 86
69 69 86
69 69 86
69 69 86
69 69 86
69 69 86
69 69 86
69 69 86
69 69 86
69 69 86
69 69 86
69 69 86
69 69 86
69 69 86
69 69 86
69 69 86
69 69 86
69 69 86
69 69 86
69 69 86
69 69 86
69 69 86
69 69 86
69 69 86
69 69 86
69 69 86
69 69 86
69 69 86
69 69 86
69 69 86
69 69 86
69 69 86
69 69 86
69 69 86
69 69 86
69 69 86
69 69 86
69 69 86
69 69 86
69 69 86
69 69 86
69 69 86
69 69 86
69 69 86
69 69 86
69 69 86
69 69 86
69 69 86
69 69 86
69 69 86
69 69 86
69 69 86
69 69 86
69 69 86
69 69 86
69 69 86
69 69 86
69 69 86
69 69 86
69 69 86
69 69 86
69 69 86
69 69 86
69 69 86
69 69 86
69 69 86
69 69 86
69 69 86
69 69 86
69 69 86
69 69 86
69 69 86
69 69 86
69 69 86
69 69 86
69 69 86
69 69 86
69 69 86
69 69 86
69 69 86
69 69 86
69 69 86
69 69 86
69 69 86
69 69 86
69 69 86
69 69 86
69 69 86
69 69 86
68 68 86
68 68 86
68 68 86
68 68 86
68 68 86
68 68 86
68 68 86
68 68 86
68 68 86
68 68 86
68 68 86
68 68 86
68 68 86
68 68 86
68 68 86
68 68 86
68 68 86
68 68 86
68 68 86
68 68 86
68 68 86
68 68 86
68 68 86
68 68 86
68 68 86
68 68 86
68 68 86
68 68 86
68 68 86
68 68 86
68 68 86
68 68 86
68 68 86
68 68 86
68 68 86
68 68 86
68 68 86
68 68 86
68 68 86
68 68 86
68 68 86
68 68 86
68 68 86
68 68 86
68 68 86
68 68 86
68 68 86
68 68 86
68 68 86
68 68 86
68 68 85
68 68 85
68 68 85
68 68 85
68 68 85
68 68 85
68 68 85
68 68 85
68 68 85
68 68 85
68 68 85
68 68 85
68 68 85
68 68 85
68 68 85
68 68 85
68 68 85
68 68 85
68 68 85
68 68 85
68 68 85
68 68 85
68 68 85
68 68 85
68 68 85
68 68 85
68 68 85
68 68 85
68 68 85
68 68 85
68 68 85
68 68 85
68 68 85
68 68 85
68 68 85
68 68 85
68 68 85
68 68 85
68 68 85
68 68 85
68 68 85
68 68 85
68 68 85
68 68 85
68 68 85
68 68 85
68 68 85
68 68 85
68 68 85
68 68 85
68 68 85
68 68 85
68 68 85
68 68 85
68 68 85
68 68 85
68 68 85
68 68 85
68 68 85
68 68 85
68 68 85
68 68 85
68 68 85
68 68 85
68 68 85
68 68 85
68 68 85
68 68 85
68 68 85
68 68 85
68 68 85
68 68 85
68 68 85
68 68 85
68 68 85
68 68 85
68 68 85
68 68 85
68 68 85
68 68 85
68 68 85
68 68 85
68 68 85
68 68 85
68 68 85
68 68 85
68 68 85
68 68 85
68 68 85
68 68 85
68 68 85
68 68 85
69 69 86
68 68 85
68 68 86
68 68 86
68 68 85
68 68 86
68 68 85
68 68 85
68 68 85
68 68 85
68 68 85
68 68 85
68 68 86
68 68 86
68 68 86
68 68 85
68 68 86
68 68 85
68 68 86
68 68 86
68 68 85
68 68 85
68 68 85
68 68 85
68 68 85
68 68 85
68 68 85
68 68 85
68 68 85
68 68 85
68 68 85
68 68 85
68 68 86
68 68 86
68 68 86
68 68 86
68 68 86
68 68 86
68 68 86
68 68 86
68 68 86
68 68 86
68 68 86
68 68 86
68 68 86
68 68 86
68 68 86
68 68 86
68 68 86
68 68 86
68 68 86
68 68 86
68 68 86
68 68 86
68 68 86
68 68 86
68 68 86
68 68 86
69 69 86
69 69 86
68 68 86
69 69 86
69 69 86
69 69 86
68 68 86
69 69 86
69 69 86
69 69 86
69 69 86
69 69 86
68 68 86
69 69 86
69 69 86
68 68 86
69 69 86
69 69 86
69 69 86
68 68 86
69 69 86
69 69 86
69 69 86
69 69 86
69 69 86
69 69 86
69 69 86
69 69 86
69 69 86
69 69 86
69 69 86
69 69 86
69 69 86
69 69 86
69 69 86
69 69 86
69 69 86
69 69 86
69 69 86
69 69 86
69 69 86
69 69 86
69 69 86
69 69 86
69 69 86
69 69 86
69 69 86
69 69 86
69 69 86
69 69 86
69 69 86
69 69 86
69 69 86
69 69 86
69 69 86
69 69 86
69 69 86
69 69 86
69 69 86
69 69 86
69 69 86
69 69 86
69 69 86
69 69 86
69 69 86
69 69 86
69 69 86
69 69 86
69 69 86
69 69 86
69 69 86
69 69 86
69 69 86
69 69 86
69 69 86
69 69 86
69 69 86
69 69 86
69 69 86
69 69 86
69 69 86
69 69 86
69 69 86
69 69 86
69 69 86
69 69 86
69 69 86
69 69 86
69 69 86
69 69 86
69 69 86
69 69 86
69 69 86
69 69 86
69 69 86
69 69 86
69 69 86
69 69 86
69 69 86
69 69 86
69 69 86
69 69 86
69 69 86
69 69 86
69 69 86
69 69 86
69 69 86
69 69 86
69 69 86
69 69 86
69 69 86
69 69 86
69 69 86
69 69 86
69 69 86
69 69 86
69 69 86
69 69 86
69 69 86
69 69 86
69 69 86
69 69 86
69 69 86
69 69 86
69 69 86
69 69 86
69 69 86
69 69 86
69 69 86
69 69 86
69 69 86
69 69 86
69 69 86
69 69 86
69 69 86
69 69 86
69 69 86
69 69 86
69 69 86
69 69 86
69 69 86
69 69 86
69 69 86
69 69 86
69 69 86
69 69 86
69 69 86
69 69 86
69 69 86
69 69 86
69 69 86
69 69 86
69 69 86
69 69 86
69 69 86
69 69 86
69 69 86
69 69 86
69 69 86
69 69 86
69 69 86
69 69 86
69 69 86
69 69 86
69 69 86
69 69 86
69 69 86
69 69 86
69 69 86
69 69 86
69 69 86
69 69 86
69 69 86
69 69 86
69 69 86
69 69 86
69 69 86
69 69 86
69 69 86
69 69 86
69 69 86
69 69 86
69 69 86
69 69 86
69 69 86
69 69 86
69 69 86
69 69 86
69 69 86
69 69 86
69 69 86
69 69 86
69 69 86
69 69 86
69 69 86
69 69 86
69 69 86
69 69 86
69 69 86
69 69 86
69 69 86
69 69 86
69 69 86
69 69 86
69 69 86
69 69 86
69 69 86
69 69 86
69 69 86
69 69 86
69 69 86
68 68 86
68 68 86
68 68 86
68 68 86
68 68 86
68 68 86
68 68 86
68 68 86
68 68 86
68 68 86
68 68 86
68 68 86
68 68 86
68 68 86
68 68 86
68 68 86
68 68 86
68 68 86
68 68 86
68 68 86
68 68 86
68 68 86
68 68 86
68 68 86
68 68 86
68 68 86
68 68 86
68 68 86
68 68 86
68 68 86
68 68 86
68 68 86
68 68 86
68 68 86
68 68 86
68 68 86
68 68 86
68 68 86
68 68 86
68 68 86
68 68 86
68 68 86
68 68 86
68 68 86
68 68 86
68 68 86
68 68 86
68 68 85
68 68 85
68 68 85
68 68 85
68 68 85
68 68 85
68 68 85
68 68 85
68 68 85
68 68 85
68 68 85
68 68 85
68 68 85
68 68 85
68 68 85
68 68 85
68 68 85
68 68 85
68 68 85
68 68 85
68 68 85
68 68 85
68 68 85
68 68 85
68 68 85
68 68 85
68 68 85
68 68 85
68 68 85
68 68 85
68 68 85
68 68 85
68 68 85
68 68 85
68 68 85
68 68 85
68 68 85
68 68 85
68 68 85
68 68 85
68 68 85
68 68 85
68 68 85
68 68 85
68 68 85
68 68 85
68 68 85
68 68 85
68 68 85
68 68 85
68 68 85
68 68 85
68 68 85
68 68 85
68 68 85
68 68 85
68 68 85
68 68 85
68 68 85
68 68 85
68 68 85
68 68 85
68 68 85
68 68 85
68 68 85
68 68 85
68 68 85
68 68 85
68 68 85
68 68 85
68 68 85
68 68 85
68 68 85
68 68 85
68 68 85
68 68 85
68 68 85
68 68 85
68 68 86
68 68 85
68 68 85
68 68 85
68 68 85
68 68 85
68 68 85
68 68 85
68 68 85
68 68 86
68 68 85
68 68 86
68 68 85
68 68 86
68 68 85
68 68 85
68 68 85
68 68 86
68 68 86
68 68 86
68 68 85
68 68 86
69 69 86
68 68 85
68 68 86
68 68 85
68 68 85
68 68 85
68 68 85
68 68 85
68 68 86
68 68 86
68 68 86
68 68 86
68 68 86
68 68 86
68 68 86
68 68 86
68 68 86
68 68 86
68 68 86
68 68 86
68 68 86
68 68 86
68 68 86
68 68 86
68 68 86
68 68 86
68 68 86
68 68 86
68 68 86
68 68 86
68 68 86
68 68 86
68 68 86
68 68 86
68 68 86
68 68 86
68 68 86
68 68 86
68 68 86
68 68 86
69 69 86
68 68 86
69 69 86
69 69 86
69 69 86
69 69 86
69 69 86
69 69 86
69 69 86
69 69 86
68 68 86
69 69 86
69 69 86
69 69 86
69 69 86
69 69 86
69 69 86
69 69 86
69 69 86
69 69 86
69 69 86
69 69 86
69 69 86
69 69 86
69 69 86
69 69 86
69 69 86
69 69 86
69 69 86
69 69 86
69 69 86
69 69 86
69 69 86
69 69 86
69 69 86
69 69 86
69 69 86
69 69 86
69 69 86
69 69 86
69 69 86
69 69 86
69 69 86
69 69 86
69 69 86
69 69 86
69 69 86
69 69 86
69 69 86
69 69 86
69 69 86
69 69 86
69 69 86
69 69 86
69 69 86
69 69 86
69 69 86
69 69 86
69 69 86
69 69 86
69 69 86
69 69 86
69 69 86
69 69 86
69 69 86
69 69 86
69 69 86
69 69 86
69 69 86
69 69 86
69 69 86
69 69 86
69 69 86
69 69 86
69 69 86
69 69 86
69 69 86
69 69 86
69 69 86
69 69 86
69 69 86
69 69 86
69 69 86
69 69 86
69 69 86
69 69 86
69 69 86
69 69 86
69 69 86
69 69 86
69 69 86
69 69 86
69 69 86
69 69 86
69 69 86
69 69 86
69 69 86
69 69 86
69 69 86
69 69 86
69 69 86
69 69 86
69 69 86
69 69 86
69 69 86
69 69 86
69 69 86
69 69 86
69 69 86
69 69 86
69 69 86
69 69 86
69 69 86
69 69 86
69 69 86
69 69 86
69 69 86
69 69 86
69 69 86
69 69 86
69 69 86
69 69 86
69 69 86
69 69 86
69 69 86
69 69 86
69 69 86
69 69 86
69 69 86
69 69 86
69 69 86
69 69 86
69 69 86
69 69 86
69 69 86
69 69 86
69 69 86
69 69 86
69 69 86
69 69 86
69 69 86
69 69 86
69 69 86
69 69 86
69 69 86
69 69 86
69 69 86
69 69 86
69 69 86
69 69 86
69 69 86
69 69 86
69 69 86
69 69 86
69 69 86
69 69 86
69 69 86
69 69 86
69 69 86
69 69 86
69 69 86
69 69 86
69 69 86
69 69 86
69 69 86
69 69 86
69 69 86
69 69 86
69 69 86
69 69 86
69 69 86
69 69 86
69 69 86
69 69 86
69 69 86
69 69 86
69 69 86
69 69 86
69 69 86
69 69 86
69 69 86
69 69 86
69 69 86
69 69 86
69 69 86
69 69 86
69 69 86
69 69 86
69 69 86
69 69 86
69 69 86
69 69 86
69 69 86
69 69 86
69 69 86
69 69 86
69 69 86
69 69 86
69 69 86
69 69 86
69 69 86
69 69 86
69 69 86
69 69 86
69 69 86
69 69 86
69 69 86
69 69 86
69 69 86
69 69 86
69 69 86
69 69 86
69 69 86
69 69 86
69 69 86
69 69 86
69 69 86
69 69 86
69 69 86
69 69 86
69 69 86
69 69 86
69 69 86
68 68 86
68 68 86
68 68 86
68 68 86
68 68 86
68 68 86
68 68 86
68 68 86
68 68 86
68 68 86
68 68 86
68 68 86
68 68 86
68 68 86
68 68 86
68 68 86
68 68 86
68 68 86
68 68 86
68 68 86
68 68 86
68 68 86
68 68 86
68 68 86
68 68 86
68 68 86
68 68 86
68 68 86
68 68 86
68 68 86
68 68 86
68 68 86
68 68 86
68 68 86
68 68 86
68 68 86
68 68 86
68 68 86
68 68 86
68 68 86
68 68 86
68 68 86
68 68 86
68 68 86
68 68 86
68 68 85
68 68 85
68 68 85
68 68 85
68 68 85
68 68 85
68 68 85
68 68 85
68 68 85
68 68 85
68 68 85
68 68 85
68 68 85
68 68 85
68 68 85
68 68 85
68 68 85
68 68 85
68 68 85
68 68 85
68 68 85
68 68 85
68 68 85
68 68 85
68 68 85
68 68 85
68 68 85
68 68 85
68 68 85
68 68 85
68 68 85
68 68 85
68 68 85
68 68 85
68 68 85
68 68 85
68 68 85
68 68 85
68 68 85
68 68 85
68 68 85
68 68 85
68 68 85
68 68 85
68 68 85
68 68 85
68 68 85
68 68 85
68 68 85
68 68 85
68 68 85
68 68 85
68 68 85
68 68 85
68 68 85
68 68 85
68 68 85
68 68 85
68 68 85
68 68 85
68 68 85
68 68 86
68 68 85
68 68 85
68 68 85
68 68 85
68 68 85
68 68 85
68 68 85
68 68 85
68 68 86
68 68 85
68 68 85
68 68 86
68 68 85
68 68 85
68 68 85
68 68 86
68 68 86
69 69 86
68 68 86
68 68 86
68 68 86
68 68 86
68 68 85
68 68 86
68 68 85
68 68 86
69 69 86
68 68 86
68 68 85
68 68 85
68 68 86
68 68 86
68 68 86
68 68 86
68 68 86
68 68 86
68 68 86
68 68 86
68 68 86
68 68 86
68 68 86
68 68 86
68 68 86
68 68 86
68 68 86
68 68 86
68 68 86
68 68 86
68 68 86
68 68 86
68 68 86
68 68 86
68 68 86
68 68 86
68 68 86
68 68 86
68 68 86
68 68 86
68 68 86
68 68 86
68 68 86
68 68 86
68 68 86
68 68 86
68 68 86
68 68 86
68 68 86
68 68 86
69 69 86
69 69 86
69 69 86
69 69 86
69 69 86
69 69 86
69 69 86
69 69 86
69 69 86
69 69 86
69 69 86
69 69 86
69 69 86
69 69 86
69 69 86
69 69 86
69 69 86
69 69 86
69 69 86
69 69 86
69 69 86
69 69 86
69 69 86
69 69 86
69 69 86
69 69 86
69 69 86
69 69 86
69 69 86
69 69 86
69 69 86
69 69 86
69 69 86
69 69 86
69 69 86
69 69 86
69 69 86
69 69 86
69 69 86
69 69 86
69 69 86
69 69 86
69 69 86
69 69 86
69 69 86
69 69 86
69 69 86
69 69 86
69 69 86
69 69 86
69 69 86
69 69 86
69 69 86
69 69 86
69 69 86
69 69 86
69 69 86
69 69 86
69 69 86
69 69 86
69 69 86
69 69 86
69 69 86
69 69 86
69 69 86
69 69 86
69 69 86
69 69 86
69 69 86
69 69 86
69 69 86
69 69 86
69 69 86
69 69 86
69 69 86
69 69 86
69 69 86
69 69 86
69 69 86
69 69 86
69 69 86
69 69 86
69 69 86
69 69 86
69 69 86
69 69 86
69 69 86
69 69 86
69 69 86
69 69 86
69 69 86
69 69 86
69 69 86
69 69 86
69 69 86
69 69 86
69 69 86
69 69 86
69 69 86
69 69 86
69 69 86
69 69 86
69 69 86
69 69 86
69 69 86
69 69 86
69 69 86
69 69 86
69 69 86
69 69 86
69 69 86
69 69 86
69 69 86
69 69 86
69 69 86
69 69 86
69 69 86
69 69 86
69 69 86
69 69 86
69 69 86
69 69 86
69 69 86
69 69 86
69 69 86
69 69 86
69 69 86
69 69 86
69 69 86
69 69 86
69 69 86
69 69 86
69 69 86
69 69 86
69 69 86
69 69 86
69 69 86
69 69 86
69 69 86
69 69 86
69 69 86
69 69 86
69 69 86
69 69 86
69 69 86
69 69 86
69 69 86
69 69 86
69 69 86
69 69 86
69 69 86
69 69 86
69 69 86
69 69 86
69 69 86
69 69 86
69 69 86
69 69 86
69 69 86
69 69 86
69 69 86
69 69 86
69 69 86
69 69 86
69 69 86
69 69 86
69 69 86
69 69 86
69 69 86
68 68 85
68 64 74
65 58 62
63 54 51
55 46 42
45 38 38
49 42 44
50 46 53
58 55 67
66 65 81
69 69 86
69 69 86
69 69 86
69 69 86
69 69 86
69 69 86
69 69 86
69 69 86
69 69 86
69 69 86
69 69 86
69 69 86
69 69 86
69 69 86
69 69 86
69 69 86
69 69 86
69 69 86
69 69 86
69 69 86
69 69 86
69 69 86
69 69 86
69 69 86
69 69 86
69 69 86
69 69 86
69 69 86
69 69 86
69 69 86
69 69 86
69 69 86
69 69 86
69 69 86
69 69 86
69 69 86
69 69 86
69 69 86
69 69 86
69 69 86
69 69 86
69 69 86
69 69 86
69 69 86
69 69 86
69 69 86
69 69 86
69 69 86
69 69 86
69 69 86
69 69 86
69 69 86
69 69 86
69 69 86
69 69 86
69 69 86
68 68 86
68 68 86
68 68 86
68 68 86
68 68 86
68 68 86
68 68 86
68 68 86
68 68 86
68 68 86
68 68 86
68 68 86
68 68 86
68 68 86
68 68 86
68 68 86
68 68 86
68 68 86
68 68 86
68 68 86
68 68 86
68 68 86
68 68 86
68 68 86
68 68 86
68 68 86
68 68 86
68 68 86
68 68 86
68 68 86
68 68 86
68 68 86
68 68 86
68 68 86
68 68 86
68 68 86
68 68 86
68 68 86
68 68 86
68 68 86
68 68 86
68 68 86
68 68 85
68 68 85
68 68 85
68 68 85
68 68 85
68 68 85
68 68 85
68 68 85
68 68 85
68 68 85
68 68 85
68 68 85
68 68 85
68 68 85
68 68 85
68 68 85
68 68 85
68 68 85
68 68 85
68 68 85
68 68 85
68 68 85
68 68 85
68 68 85
68 68 85
68 68 85
68 68 85
68 68 85
68 68 85
68 68 85
68 68 85
68 68 85
68 68 85
68 68 85
68 68 85
68 68 85
68 68 85
68 68 85
68 68 85
68 68 85
68 68 85
68 68 85
68 68 85
68 68 85
68 68 85
68 68 85
68 68 85
68 68 85
68 68 85
68 68 85
68 68 85
68 68 85
68 68 85
68 68 85
68 68 85
68 68 85
69 69 86
68 68 85
68 68 85
68 68 85
69 69 86
68 68 85
68 68 85
68 68 85
68 68 86
68 68 86
68 68 86
68 68 86
68 68 86
69 69 86
68 68 85
68 68 85
68 68 86
68 68 86
69 69 86
68 68 86
69 69 86
68 68 86
68 68 86
68 68 86
68 68 86
68 68 86
69 69 86
68 68 86
69 69 86
68 68 86
68 68 86
68 68 86
68 68 86
68 68 86
68 68 86
68 68 86
68 68 86
68 68 86
68 68 86
68 68 86
68 68 86
68 68 86
68 68 86
68 68 86
68 68 86
68 68 86
68 68 86
68 68 86
68 68 86
68 68 86
68 68 86
68 68 86
68 68 86
68 68 86
68 68 86
68 68 86
68 68 86
68 68 86
68 68 86
68 68 86
68 68 86
68 68 86
68 68 86
68 68 86
69 69 86
69 69 86
69 69 86
69 69 86
69 69 86
69 69 86
69 69 86
69 69 86
69 69 86
69 69 86
69 69 86
69 69 86
69 69 86
69 69 86
69 69 86
69 69 86
69 69 86
69 69 86
69 69 86
69 69 86
69 69 86
69 69 86
69 69 86
69 69 86
69 69 86
69 69 86
69 69 86
69 69 86
69 69 86
69 69 86
69 69 86
69 69 86
69 69 86
69 69 86
69 69 86
69 69 86
69 69 86
69 69 86
69 69 86
69 69 86
69 69 86
69 69 86
69 69 86
69 69 86
69 69 86
69 69 86
69 69 86
69 69 86
69 69 86
69 69 86
69 69 86
69 69 86
69 69 86
69 69 86
69 69 86
69 69 86
69 69 86
69 69 86
69 69 86
69 69 86
69 69 86
69 69 86
69 69 86
69 69 86
69 69 86
69 69 86
69 69 86
69 69 86
69 69 86
69 69 86
69 69 86
69 69 86
69 69 86
69 69 86
69 69 86
69 69 86
69 69 86
69 69 86
69 69 86
69 69 86
69 69 86
69 69 86
69 69 86
69 69 86
69 69 86
69 69 86
69 69 86
69 69 86
69 69 86
69 69 86
69 69 86
69 69 86
69 69 86
69 69 86
69 69 86
69 69 86
69 69 86
69 69 86
69 69 86
69 69 86
69 69 86
69 69 86
69 69 86
69 69 86
69 69 86
69 69 86
69 69 86
69 69 86
69 69 86
69 69 86
69 69 86
69 69 86
69 69 86
69 69 86
69 69 86
69 69 86
69 69 86
69 69 86
69 69 86
69 69 86
69 69 86
69 69 86
69 69 86
69 69 86
69 69 86
69 69 86
69 69 86
69 69 86
69 69 86
69 69 86
69 69 86
69 69 86
69 69 86
69 69 86
69 69 86
69 69 86
69 69 86
69 69 86
69 69 86
69 69 86
69 69 86
69 69 86
69 69 86
69 69 86
69 69 86
69 69 86
69 69 86
69 69 86
69 69 86
69 69 86
69 69 86
69 69 86
69 69 86
69 69 86
69 69 86
69 69 86
69 69 86
69 69 86
69 69 86
69 69 86
69 69 86
69 69 86
69 69 86
69 69 86
69 69 86
69 69 86
69 69 86
69 69 86
69 69 86
69 69 86
69 69 86
69 64 72
65 54 47
54 44 36
56 45 36
47 38 33
40 33 32
40 32 32
39 32 32
38 31 31
38 31 31
39 32 33
52 49 57
66 66 82
69 69 86
69 69 86
69 69 86
69 69 86
69 69 86
69 69 86
69 69 86
69 69 86
69 69 86
69 69 86
69 69 86
69 69 86
69 69 86
69 69 86
69 69 86
69 69 86
69 69 86
69 69 86
69 69 86
69 69 86
69 69 86
69 69 86
69 69 86
69 69 86
69 69 86
69 69 86
69 69 86
69 69 86
69 69 86
69 69 86
69 69 86
69 69 86
69 69 86
69 69 86
69 69 86
69 69 86
69 69 86
69 69 86
69 69 86
69 69 86
69 69 86
69 69 86
69 69 86
69 69 86
69 69 86
69 69 86
69 69 86
69 69 86
69 69 86
69 69 86
69 69 86
69 69 86
69 69 86
69 69 86
69 69 86
69 69 86
69 69 86
69 69 86
69 69 86
69 69 86
69 69 86
69 69 86
68 68 86
68 68 86
68 68 86
69 69 86
68 68 86
69 69 86
68 68 86
68 68 86
68 68 86
68 68 86
68 68 86
68 68 86
68 68 86
69 69 86
68 68 86
68 68 86
69 69 86
68 68 86
68 68 86
69 69 86
68 68 86
68 68 86
68 68 86
68 68 86
68 68 86
68 68 86
68 68 86
68 68 86
68 68 86
69 69 86
68 68 86
68 68 86
68 68 86
68 68 86
68 68 86
68 68 86
68 68 86
68 68 86
69 69 86
68 68 86
68 68 85
68 68 86
68 68 85
68 68 86
68 68 85
68 68 85
68 68 86
68 68 86
68 68 85
68 68 85
68 68 85
68 68 86
68 68 85
68 68 85
68 68 85
68 68 85
68 68 85
68 68 85
68 68 85
68 68 85
68 68 85
68 68 85
68 68 85
68 68 85
68 68 85
68 68 85
68 68 85
68 68 85
68 68 85
68 68 85
68 68 85
68 68 85
68 68 85
68 68 85
68 68 85
68 68 85
68 68 85
68 68 85
68 68 85
68 68 85
68 68 85
68 68 85
68 68 85
68 68 85
68 68 85
68 68 85
68 68 86
68 68 85
68 68 86
68 68 86
68 68 85
68 68 85
68 68 86
68 68 85
68 68 86
68 68 85
68 68 85
68 68 85
68 68 86
68 68 86
68 68 86
68 68 86
68 68 86
68 68 86
68 68 86
68 68 86
68 68 86
68 68 86
68 68 86
68 68 86
68 68 86
68 68 86
68 68 86
68 68 86
68 68 86
68 68 86
68 68 86
68 68 86
68 68 86
68 68 86
68 68 86
68 68 86
68 68 86
68 68 86
68 68 86
68 68 86
68 68 86
68 68 86
68 68 86
68 68 86
68 68 86
68 68 86
68 68 86
68 68 86
68 68 86
68 68 86
68 68 86
68 68 86
68 68 86
68 68 86
68 68 86
68 68 86
68 68 86
68 68 86
68 68 86
68 68 86
69 69 86
69 69 86
69 69 86
69 69 86
69 69 86
69 69 86
69 69 86
69 69 86
69 69 86
69 69 86
69 69 86
69 69 86
69 69 86
69 69 86
69 69 86
69 69 86
69 69 86
69 69 86
69 69 86
69 69 86
69 69 86
69 69 86
69 69 86
69 69 86
69 69 86
69 69 86
69 69 86
69 69 86
69 69 86
69 69 86
69 69 86
69 69 86
69 69 86
69 69 86
69 69 86
69 69 86
69 69 86
69 69 86
69 69 86
69 69 86
69 69 86
69 69 86
69 69 86
69 69 86
69 69 86
69 69 86
69 69 86
69 69 86
69 69 86
69 69 86
69 69 86
69 69 86
69 69 86
69 69 86
69 69 86
69 69 86
69 69 86
69 69 86
69 69 86
69 69 86
69 69 86
69 69 86
69 69 86
69 69 86
69 69 86
69 69 86
69 69 86
69 69 86
69 69 86
69 69 86
69 69 86
69 69 86
69 69 86
69 69 86
69 69 86
69 69 86
69 69 86
69 69 86
69 69 86
69 69 86
69 69 86
69 69 86
69 69 86
69 69 86
69 69 86
69 69 86
69 69 86
69 69 86
69 69 86
69 69 86
69 69 86
69 69 86
69 69 86
69 69 86
69 69 86
69 69 86
69 69 86
69 69 86
69 69 86
69 69 86
69 69 86
69 69 86
69 69 86
69 69 86
69 69 86
69 69 86
69 69 86
69 69 86
69 69 86
69 69 86
69 69 86
69 69 86
69 69 86
69 69 86
69 69 86
69 69 86
69 69 86
69 69 86
69 69 86
69 69 86
69 69 86
69 69 86
69 69 86
69 69 86
69 69 86
69 69 86
69 69 86
69 69 86
69 69 86
69 69 86
69 69 86
69 69 86
69 69 86
69 69 86
69 69 86
69 69 86
69 69 86
69 69 86
69 69 86
69 69 86
69 69 86
69 69 86
69 69 86
69 69 86
69 69 86
69 69 86
69 69 86
69 69 86
69 69 86
69 69 86
69 69 86
69 69 86
69 69 86
69 69 86
69 69 86
69 69 86
69 69 86
69 69 86
69 69 86
69 69 86
69 69 86
69 69 86
69 69 86
69 69 86
69 69 86
69 69 86
69 69 86
69 69 86
69 69 86
69 69 86
69 69 86
69 69 86
69 69 86
69 69 86
69 69 86
69 69 86
69 69 86
69 68 83
78 66 59
62 50 39
55 44 37
45 37 33
41 33 31
41 33 33
38 31 30
39 31 31
37 30 30
38 31 31
39 32 31
40 33 32
40 33 32
42 35 36
62 60 73
69 69 86
69 69 86
69 69 86
69 69 86
69 69 86
69 69 86
69 69 86
69 69 86
69 69 86
69 69 86
69 69 86
69 69 86
69 69 86
69 69 86
69 69 86
69 69 86
69 69 86
69 69 86
69 69 86
69 69 86
69 69 86
69 69 86
69 69 86
69 69 86
69 69 86
69 69 86
69 69 86
69 69 86
69 69 86
69 69 86
69 69 86
69 69 86
69 69 86
69 69 86
69 69 86
69 69 86
69 69 86
69 69 86
69 69 86
69 69 86
69 69 86
69 69 86
69 69 86
69 69 86
69 69 86
69 69 86
69 69 86
69 69 86
69 69 86
69 69 86
69 69 86
69 69 86
69 69 86
69 69 86
69 69 86
69 69 86
69 69 86
69 69 86
69 69 86
69 69 86
69 69 86
69 69 86
69 69 86
69 69 86
69 69 86
69 69 86
69 69 86
69 69 86
69 69 86
68 68 86
68 68 86
69 69 86
69 69 86
69 69 86
69 69 86
68 68 86
69 69 86
68 68 86
69 69 86
69 69 86
68 68 86
69 69 86
69 69 86
68 68 86
69 69 86
69 69 86
68 68 86
68 68 86
68 68 86
68 68 86
69 69 86
69 69 86
68 68 86
68 68 86
69 69 86
68 68 86
68 68 86
68 68 86
68 68 86
69 69 86
68 68 86
68 68 86
68 68 86
68 68 86
68 68 86
68 68 86
68 68 86
68 68 86
68 68 86
69 69 86
68 68 86
68 68 85
68 68 86
69 69 86
68 68 86
68 68 86
69 69 86
68 68 86
68 68 86
68 68 85
68 68 85
68 68 86
68 68 86
68 68 85
68 68 85
68 68 85
68 68 85
68 68 85
68 68 85
68 68 85
68 68 85
68 68 85
68 68 85
68 68 85
68 68 85
68 68 85
68 68 85
68 68 85
68 68 85
68 68 85
68 68 85
68 68 85
68 68 86
68 68 85
68 68 85
68 68 85
68 68 85
68 68 86
68 68 86
68 68 85
68 68 86
68 68 86
68 68 86
68 68 86
68 68 86
68 68 86
68 68 86
68 68 86
68 68 86
68 68 86
68 68 86
68 68 86
68 68 86
69 69 86
68 68 86
68 68 86
69 69 86
68 68 86
68 68 86
69 69 86
68 68 86
68 68 86
69 69 86
68 68 86
68 68 86
69 69 86
69 69 86
68 68 86
68 68 86
68 68 86
68 68 86
68 68 86
68 68 86
68 68 86
68 68 86
68 68 86
68 68 86
68 68 86
68 68 86
68 68 86
68 68 86
68 68 86
68 68 86
68 68 86
68 68 86
68 68 86
68 68 86
68 68 86
68 68 86
69 69 86
69 69 86
69 69 86
69 69 86
69 69 86
69 69 86
69 69 86
69 69 86
69 69 86
69 69 86
69 69 86
69 69 86
69 69 86
69 69 86
69 69 86
69 69 86
69 69 86
69 69 86
69 69 86
69 69 86
69 69 86
69 69 86
69 69 86
69 69 86
69 69 86
69 69 86
69 69 86
69 69 86
69 69 86
69 69 86
69 69 86
69 69 86
69 69 86
69 69 86
69 69 86
69 69 86
69 69 86
69 69 86
69 69 86
69 69 86
69 69 86
69 69 86
69 69 86
69 69 86
69 69 86
69 69 86
69 69 86
69 69 86
69 69 86
69 69 86
69 69 86
69 69 86
69 69 86
69 69 86
69 69 86
69 69 86
69 69 86
69 69 86
69 69 86
69 69 86
69 69 86
69 69 86
69 69 86
69 69 86
69 69 86
69 69 86
69 69 86
69 69 86
69 69 86
69 69 86
69 69 86
69 69 86
69 69 86
69 69 86
69 69 86
69 69 86
69 69 86
69 69 86
69 69 86
69 69 86
69 69 86
69 69 86
69 69 86
69 69 86
69 69 86
69 69 86
69 69 86
69 69 86
69 69 86
69 69 86
69 69 86
69 69 86
69 69 86
69 69 86
69 69 86
69 69 86
69 69 86
69 69 86
69 69 86
69 69 86
69 69 86
69 69 86
69 69 86
69 69 86
69 69 86
69 69 86
69 69 86
69 69 86
69 69 86
69 69 86
69 69 86
69 69 86
69 69 86
69 69 86
69 69 86
69 69 86
69 69 86
69 69 86
69 69 86
69 69 86
69 69 86
69 69 86
69 69 86
69 69 86
69 69 86
69 69 86
69 69 86
69 69 86
69 69 86
69 69 86
69 69 86
69 69 86
69 69 86
69 69 86
69 69 86
69 69 86
69 69 86
69 69 86
69 69 86
69 69 86
69 69 86
69 69 86
69 69 86
69 69 86
69 69 86
69 69 86
69 69 86
69 69 86
69 69 86
69 69 86
69 69 86
69 69 86
69 69 86
69 69 86
69 69 86
69 69 86
69 69 86
69 69 86
69 69 86
69 69 86
69 69 86
69 69 86
69 69 86
69 69 86
69 69 86
69 69 86
69 69 86
69 69 86
69 69 86
69 69 86
69 69 86
69 69 86
69 69 86
69 69 86
69 69 86
69 69 86
69 69 86
69 69 86
69 69 86
69 69 86
69 69 86
69 69 86
69 69 86
69 69 86
71 69 83
73 60 52
61 49 40
60 48 39
51 41 34
42 34 33
39 32 31
42 34 34
41 33 33
40 32 32
40 32 32
40 33 32
38 31 30
40 32 32
43 35 34
40 33 32
41 34 33
60 58 69
69 69 86
69 69 86
69 69 86
69 69 86
69 69 86
69 69 86
69 69 86
69 69 86
69 69 86
69 69 86
69 69 86
69 69 86
69 69 86
69 69 86
69 69 86
69 69 86
69 69 86
69 69 86
69 69 86
69 69 86
69 69 86
69 69 86
69 69 86
69 69 86
69 69 86
69 69 86
69 69 86
69 69 86
69 69 86
69 69 86
69 69 86
69 69 86
69 69 86
69 69 86
69 69 86
69 69 86
69 69 86
69 69 86
69 69 86
69 69 86
69 69 86
69 69 86
69 69 86
69 69 86
69 69 86
69 69 86
69 69 86
69 69 86
69 69 86
69 69 86
69 69 86
69 69 86
69 69 86
69 69 86
69 69 86
69 69 86
69 69 86
69 69 86
69 69 86
69 69 86
69 69 86
69 69 86
69 69 86
69 69 86
69 69 86
69 69 86
69 69 86
69 69 86
69 69 86
69 69 86
69 69 86
69 69 86
69 69 86
69 69 86
69 69 86
69 69 86
69 69 86
69 69 86
69 69 86
69 69 86
68 68 86
68 68 86
68 68 86
69 69 86
68 68 86
68 68 86
69 69 86
69 69 86
68 68 86
68 68 86
68 68 86
69 69 86
69 69 86
68 68 86
69 69 86
68 68 86
69 69 86
69 69 86
68 68 86
68 68 86
68 68 86
68 68 86
68 68 86
68 68 86
68 68 86
68 68 86
68 68 86
68 68 86
68 68 86
68 68 86
69 69 86
68 68 86
68 68 86
68 68 86
68 68 86
68 68 86
68 68 86
68 68 86
69 69 86
68 68 85
68 68 86
68 68 86
68 68 86
69 69 86
68 68 85
68 68 85
68 68 85
68 68 86
68 68 85
68 68 86
68 68 86
68 68 85
68 68 85
68 68 85
68 68 85
68 68 86
68 68 85
68 68 85
68 68 85
68 68 85
68 68 85
68 68 85
68 68 85
68 68 85
68 68 86
68 68 86
68 68 86
68 68 86
68 68 86
68 68 86
68 68 86
68 68 85
68 68 86
68 68 86
68 68 86
68 68 86
69 69 86
68 68 86
69 69 86
69 69 86
68 68 86
68 68 86
69 69 86
68 68 86
69 69 86
68 68 86
68 68 86
68 68 86
68 68 86
68 68 86
68 68 86
68 68 86
69 69 86
68 68 86
68 68 86
68 68 86
68 68 86
68 68 86
68 68 86
68 68 86
68 68 86
68 68 86
68 68 86
68 68 86
68 68 86
68 68 86
68 68 86
68 68 86
68 68 86
68 68 86
68 68 86
69 69 86
69 69 86
69 69 86
69 69 86
69 69 86
69 69 86
69 69 86
69 69 86
69 69 86
69 69 86
69 69 86
69 69 86
69 69 86
69 69 86
69 69 86
69 69 86
69 69 86
69 69 86
69 69 86
69 69 86
69 69 86
69 69 86
69 69 86
69 69 86
69 69 86
69 69 86
69 69 86
69 69 86
69 69 86
69 69 86
69 69 86
69 69 86
69 69 86
69 69 86
69 69 86
69 69 86
69 69 86
69 69 86
69 69 86
69 69 86
69 69 86
69 69 86
69 69 86
69 69 86
69 69 86
69 69 86
69 69 86
69 69 86
69 69 86
69 69 86
69 69 86
69 69 86
69 69 86
69 69 86
69 69 86
69 69 86
69 69 86
69 69 86
69 69 86
69 69 86
69 69 86
69 69 86
69 69 86
69 69 86
69 69 86
69 69 86
69 69 86
69 69 86
69 69 86
69 69 86
69 69 86
69 69 86
69 69 86
69 69 86
69 69 86
69 69 86
69 69 86
69 69 86
69 69 86
69 69 86
69 69 86
69 69 86
69 69 86
69 69 86
69 69 86
69 69 86
69 69 86
69 69 86
69 69 86
69 69 86
69 69 86
69 69 86
69 69 86
69 69 86
69 69 86
69 69 86
69 69 86
69 69 86
69 69 86
69 69 86
69 69 86
69 69 86
69 69 86
69 69 86
69 69 86
69 69 86
69 69 86
69 69 86
69 69 86
69 69 86
69 69 86
69 69 86
69 69 86
69 69 86
69 69 86
69 69 86
69 69 86
69 69 86
69 69 86
69 69 86
69 69 86
69 69 86
69 69 86
69 69 86
69 69 86
69 69 86
69 69 86
69 69 86
69 69 86
69 69 86
69 69 86
69 69 87
69 69 86
69 69 86
69 69 86
69 69 86
69 69 86
69 69 86
69 69 86
69 69 86
69 69 86
69 69 86
69 69 86
69 69 86
69 69 86
69 69 86
69 69 86
69 69 86
69 69 86
69 69 86
69 69 86
69 69 86
69 69 86
69 69 86
69 69 86
69 69 86
69 69 86
69 69 86
69 69 86
69 69 86
69 69 86
69 69 86
69 69 86
69 69 86
69 69 86
69 69 86
69 69 86
69 69 86
69 69 86
69 69 86
69 69 86
69 69 86
69 69 86
69 69 86
69 69 86
69 69 86
69 69 86
69 69 86
69 69 86
69 69 86
69 69 86
69 69 86
69 69 86
69 69 86
69 69 86
69 69 86
69 69 86
69 69 86
69 69 86
69 69 86
69 69 86
76 64 57
64 52 39
58 47 38
52 42 36
44 36 34
42 34 33
43 35 34
44 36 35
40 32 32
40 33 32
41 34 33
41 33 33
41 33 32
39 32 31
42 34 33
41 33 32
41 33 32
43 35 34
63 62 75
69 69 86
69 69 86
69 69 86
69 69 86
69 69 86
69 69 86
69 69 86
69 69 86
69 69 86
69 69 86
69 69 86
69 69 86
69 69 86
69 69 86
69 69 86
69 69 86
69 69 86
69 69 86
69 69 86
69 69 86
69 69 86
69 69 86
69 69 86
69 69 86
69 69 86
69 69 86
69 69 86
69 69 86
69 69 86
69 69 86
69 69 86
69 69 86
69 69 86
69 69 86
69 69 86
69 69 86
69 69 86
69 69 86
69 69 86
69 69 86
69 69 86
69 69 86
69 69 86
69 69 86
69 69 86
69 69 86
69 69 86
69 69 86
69 69 86
69 69 86
69 69 86
69 69 86
69 69 86
69 69 86
69 69 86
69 69 86
69 69 86
69 69 86
69 69 86
69 69 86
69 69 86
69 69 86
69 69 86
69 69 86
69 69 86
69 69 86
69 69 86
69 69 86
69 69 86
69 69 86
69 69 86
69 69 86
69 69 86
69 69 86
69 69 86
69 69 86
69 69 86
69 69 86
69 69 86
69 69 86
69 69 86
69 69 86
69 69 86
69 69 86
69 69 86
69 69 86
69 69 86
68 68 86
69 69 86
69 69 86
68 68 86
69 69 86
68 68 86
68 68 86
69 69 86
68 68 86
69 69 86
69 69 86
69 69 86
69 69 86
69 69 86
69 69 86
69 69 86
68 68 86
69 69 86
68 68 86
68 68 86
68 68 86
69 69 86
68 68 86
69 69 86
69 69 86
68 68 86
68 68 86
69 69 86
69 69 86
68 68 86
68 68 86
68 68 86
68 68 86
68 68 86
68 68 86
68 68 86
68 68 86
68 68 85
68 68 86
68 68 86
68 68 86
68 68 85
68 68 85
68 68 85
68 68 85
68 68 86
68 68 86
68 68 85
68 68 85
68 68 85
68 68 85
68 68 85
68 68 86
68 68 85
68 68 86
68 68 86
68 68 86
68 68 86
68 68 86
68 68 86
68 68 86
68 68 86
69 69 86
69 69 86
68 68 86
68 68 86
68 68 86
68 68 86
68 68 86
68 68 86
69 69 86
68 68 86
68 68 86
68 68 86
69 69 86
68 68 86
68 68 86
68 68 86
68 68 86
69 69 86
69 69 86
68 68 86
68 68 86
68 68 86
69 69 86
68 68 86
68 68 86
68 68 86
68 68 86
68 68 86
68 68 86
68 68 86
68 68 86
68 68 86
68 68 86
68 68 86
69 69 86
69 69 86
69 69 86
69 69 86
69 69 86
69 69 86
69 69 86
69 69 86
69 69 86
69 69 86
69 69 86
69 69 86
69 69 86
69 69 86
69 69 86
69 69 86
69 69 86
69 69 86
69 69 86
69 69 86
69 69 86
69 69 86
69 69 86
69 69 86
69 69 86
69 69 86
69 69 86
69 69 86
69 69 86
69 69 86
69 69 86
69 69 86
69 69 86
69 69 86
69 69 86
69 69 86
69 69 86
69 69 86
69 69 86
69 69 86
69 69 86
69 69 86
69 69 86
69 69 86
69 69 86
69 69 86
69 69 86
69 69 86
69 69 86
69 69 86
69 69 86
69 69 86
69 69 86
69 69 86
69 69 86
69 69 86
69 69 86
69 69 86
69 69 86
69 69 86
69 69 86
69 69 86
69 69 86
69 69 86
69 69 86
69 69 86
69 69 86
69 69 86
69 69 86
69 69 86
69 69 86
69 69 86
69 69 86
69 69 86
69 69 86
69 69 86
69 69 86
69 69 86
69 69 86
69 69 86
69 69 86
69 69 86
69 69 86
69 69 86
69 69 86
69 69 86
69 69 86
69 69 86
69 69 86
69 69 86
69 69 86
69 69 86
69 69 86
69 69 86
69 69 86
69 69 86
69 69 86
69 69 86
69 69 86
69 69 86
69 69 86
69 69 86
69 69 86
69 69 86
69 69 86
69 69 86
69 69 86
69 69 86
69 69 86
69 69 86
69 69 86
69 69 86
69 69 86
69 69 86
69 69 86
69 69 86
69 69 87
69 69 86
69 69 86
69 69 87
69 69 86
69 69 87
69 69 86
69 69 86
69 69 86
69 69 86
69 69 86
69 69 86
69 69 86
69 69 86
69 69 86
69 69 86
69 69 86
69 69 86
69 69 86
69 69 86
69 69 86
69 69 86
69 69 86
69 69 86
69 69 87
69 69 86
69 69 86
69 69 86
69 69 86
69 69 86
69 69 86
69 69 87
69 69 86
69 69 86
69 69 87
69 69 86
69 69 86
69 69 86
69 69 86
69 69 86
69 69 86
69 69 86
69 69 86
69 69 86
69 69 86
69 69 86
69 69 86
69 69 86
69 69 86
69 69 86
69 69 86
69 69 86
69 69 86
69 69 86
69 69 86
69 69 86
69 69 86
69 69 86
69 69 86
69 69 86
69 69 86
69 69 86
69 69 86
69 69 86
69 69 86
69 69 86
69 69 86
69 69 86
69 69 86
69 69 86
69 69 86
69 69 86
69 69 86
69 69 86
69 69 86
69 69 86
69 69 86
69 69 86
69 69 86
69 69 86
69 69 86
75 67 70
75 60 44
58 47 39
55 44 37
47 38 35
43 35 33
42 34 33
41 33 32
42 35 34
43 35 34
40 32 32
45 37 35
41 33 32
41 34 33
41 34 32
44 35 34
41 33 32
45 36 34
44 36 34
50 42 43
68 67 84
69 69 86
69 69 86
69 69 86
69 69 86
69 69 86
69 69 86
69 69 86
69 69 86
69 69 86
69 69 86
69 69 86
69 69 86
69 69 86
69 69 86
69 69 86
69 69 86
69 69 86
69 69 86
69 69 86
69 69 86
69 69 86
69 69 86
69 69 86
69 69 86
69 69 86
69 69 86
69 69 86
69 69 86
69 69 86
69 69 86
69 69 86
69 69 86
69 69 86
69 69 86
69 69 86
69 69 86
69 69 86
69 69 86
69 69 86
69 69 86
69 69 86
69 69 86
69 69 86
69 69 86
69 69 86
69 69 86
69 69 86
69 69 86
69 69 86
69 69 86
69 69 86
69 69 86
69 69 86
69 69 86
69 69 86
69 69 86
69 69 86
69 69 86
69 69 86
69 69 86
69 69 86
69 69 86
69 69 86
69 69 86
69 69 86
69 69 86
69 69 86
69 69 86
69 69 86
69 69 86
69 69 86
69 69 86
69 69 86
69 69 86
69 69 86
69 69 86
69 69 86
69 69 86
69 69 86
69 69 86
69 69 86
69 69 86
69 69 86
69 69 86
69 69 86
69 69 86
69 69 86
69 69 86
69 69 86
69 69 86
69 69 86
69 69 86
69 69 86
69 69 86
69 69 86
69 69 86
69 69 86
68 68 86
69 69 86
69 69 86
69 69 86
69 69 86
69 69 86
68 68 86
69 69 86
69 69 86
69 69 86
68 68 86
69 69 86
68 68 86
68 68 86
68 68 86
68 68 86
69 69 86
68 68 86
68 68 86
68 68 86
68 68 86
68 68 86
68 68 86
68 68 86
68 68 86
68 68 86
68 68 85
68 68 85
68 68 86
68 68 86
68 68 86
68 68 85
68 68 86
68 68 86
68 68 86
68 68 85
68 68 86
68 68 85
68 68 85
68 68 86
68 68 86
68 68 86
68 68 85
68 68 85
68 68 86
68 68 86
68 68 86
68 68 86
68 68 86
69 69 86
68 68 86
69 69 86
68 68 86
68 68 86
68 68 86
68 68 86
69 69 86
69 69 86
68 68 86
69 69 86
68 68 86
68 68 86
69 69 86
68 68 86
68 68 86
69 69 86
68 68 86
68 68 86
68 68 86
69 69 86
68 68 86
69 69 86
68 68 86
68 68 86
68 68 86
68 68 86
68 68 86
68 68 86
69 69 86
69 69 86
69 69 86
69 69 86
69 69 86
69 69 86
69 69 86
69 69 86
69 69 86
69 69 86
69 69 86
69 69 86
69 69 86
69 69 86
69 69 86
69 69 86
69 69 86
69 69 86
69 69 86
69 69 86
69 69 86
69 69 86
69 69 86
69 69 86
69 69 86
69 69 86
69 69 86
69 69 86
69 69 86
69 69 86
69 69 86
69 69 86
69 69 86
69 69 86
69 69 86
69 69 86
69 69 86
69 69 86
69 69 86
69 69 86
69 69 86
69 69 86
69 69 86
69 69 86
69 69 86
69 69 86
69 69 86
69 69 86
69 69 86
69 69 86
69 69 86
69 69 86
69 69 86
69 69 86
69 69 86
69 69 86
69 69 86
69 69 86
69 69 86
69 69 86
69 69 86
69 69 86
69 69 86
69 69 86
69 69 86
69 69 86
69 69 86
69 69 86
69 69 86
69 69 86
69 69 86
69 69 86
69 69 86
69 69 86
69 69 86
69 69 86
69 69 86
69 69 86
69 69 86
69 69 86
69 69 86
69 69 86
69 69 86
69 69 86
69 69 86
69 69 86
69 69 86
69 69 86
69 69 86
69 69 86
69 69 86
69 69 86
69 69 86
69 69 86
69 69 86
69 69 86
69 69 86
69 69 86
69 69 86
69 69 86
69 69 86
69 69 86
69 69 86
69 69 86
69 69 86
69 69 86
69 69 86
69 69 86
69 69 86
69 69 86
69 69 86
69 69 86
69 69 86
69 69 86
69 69 86
69 69 86
69 69 86
69 69 86
69 69 86
69 69 86
69 69 86
69 69 87
69 69 86
69 69 86
69 69 86
69 69 86
69 69 86
69 69 86
69 69 86
69 69 86
69 69 86
69 69 86
69 69 86
69 69 86
69 69 87
69 69 87
69 69 87
69 69 86
69 69 86
69 69 87
69 69 86
69 69 87
69 69 86
69 69 86
69 69 86
69 69 86
69 69 86
69 69 86
69 69 87
69 69 86
69 69 86
69 69 86
69 69 86
69 69 86
69 69 86
69 69 86
69 69 87
69 69 86
69 69 86
69 69 87
69 69 86
69 69 86
69 69 86
69 69 86
69 69 86
69 69 86
69 69 86
69 69 86
69 69 86
69 69 86
69 69 86
69 69 86
69 69 86
69 69 86
69 69 86
69 69 86
69 69 86
69 69 86
69 69 86
69 69 86
69 69 86
69 69 86
69 69 86
69 69 86
69 69 86
69 69 86
69 69 86
69 69 86
69 69 86
69 69 86
69 69 86
69 69 86
69 69 86
69 69 86
69 69 86
69 69 86
69 69 86
69 69 86
69 69 86
69 69 86
69 69 86
69 69 86
69 69 86
70 69 84
71 58 47
74 59 44
54 44 37
51 41 37
46 38 35
44 36 34
43 35 34
46 38 36
43 35 34
41 33 32
43 35 33
40 32 31
44 36 34
43 35 34
43 35 33
42 34 33
46 37 35
44 36 34
47 39 36
45 37 34
60 56 65
69 69 86
69 69 86
69 69 86
69 69 86
69 69 86
69 69 86
69 69 86
69 69 86
69 69 86
69 69 86
69 69 86
69 69 86
69 69 86
69 69 86
69 69 86
69 69 86
69 69 86
69 69 86
69 69 86
69 69 86
69 69 86
69 69 86
69 69 86
69 69 86
69 69 86
69 69 86
69 69 86
69 69 86
69 69 86
69 69 86
69 69 86
69 69 86
69 69 86
69 69 86
69 69 86
69 69 86
69 69 86
69 69 86
69 69 86
69 69 86
69 69 86
69 69 86
69 69 86
69 69 86
69 69 86
69 69 86
69 69 86
69 69 86
69 69 86
69 69 86
69 69 86
69 69 86
69 69 86
69 69 86
69 69 86
69 69 86
69 69 86
69 69 86
69 69 86
69 69 86
69 69 86
69 69 86
69 69 86
69 69 86
69 69 86
69 69 86
69 69 86
69 69 86
69 69 86
69 69 86
69 69 86
69 69 86
69 69 86
69 69 86
69 69 86
69 69 86
69 69 86
69 69 86
69 69 86
69 69 86
69 69 86
69 69 86
69 69 86
69 69 86
69 69 86
69 69 86
69 69 86
69 69 86
69 69 86
69 69 86
69 69 86
69 69 86
69 69 86
69 69 86
69 69 86
69 69 86
69 69 86
69 69 86
69 69 86
68 68 86
69 69 86
69 69 86
68 68 86
69 69 86
69 69 86
69 69 86
68 68 86
68 68 86
69 69 86
69 69 86
68 68 86
68 68 86
68 68 86
68 68 86
69 69 86
68 68 86
69 69 86
69 69 86
69 69 86
68 68 86
68 68 86
68 68 86
68 68 86
68 68 86
68 68 86
69 69 86
68 68 86
68 68 86
69 69 86
68 68 86
68 68 86
68 68 86
68 68 86
68 68 86
68 68 85
68 68 86
68 68 86
68 68 86
68 68 86
69 69 86
68 68 86
68 68 86
69 69 86
69 69 86
68 68 86
68 68 86
69 69 86
68 68 86
68 68 86
69 69 86
68 68 86
69 69 86
68 68 86
68 68 86
68 68 86
69 69 86
69 69 86
69 69 86
68 68 86
69 69 86
69 69 86
69 69 86
69 69 86
69 69 86
68 68 86
69 69 86
69 69 86
68 68 86
69 69 86
69 69 86
69 69 86
69 69 86
69 69 86
69 69 86
69 69 86
69 69 86
69 69 86
69 69 86
69 69 86
69 69 86
69 69 86
69 69 86
69 69 86
69 69 86
69 69 86
69 69 86
69 69 86
69 69 86
69 69 86
69 69 86
69 69 86
69 69 86
69 69 86
69 69 86
69 69 86
69 69 86
69 69 86
69 69 86
69 69 86
69 69 86
69 69 86
69 69 86
69 69 86
69 69 86
69 69 86
69 69 86
69 69 86
69 69 86
69 69 86
69 69 86
69 69 86
69 69 86
69 69 86
69 69 86
69 69 86
69 69 86
69 69 86
69 69 86
69 69 86
69 69 86
69 69 86
69 69 86
69 69 86
69 69 86
69 69 86
69 69 86
69 69 86
69 69 86
69 69 86
69 69 86
69 69 86
69 69 86
69 69 86
69 69 86
69 69 86
69 69 86
69 69 86
69 69 86
69 69 86
69 69 86
69 69 86
69 69 86
69 69 86
69 69 86
69 69 86
69 69 86
69 69 86
69 69 86
69 69 86
69 69 86
69 69 86
69 69 86
69 69 86
69 69 86
69 69 86
69 69 86
69 69 86
69 69 86
69 69 86
69 69 86
69 69 86
69 69 86
69 69 86
69 69 86
69 69 86
69 69 86
69 69 86
69 69 86
69 69 86
69 69 86
69 69 86
69 69 86
69 69 86
69 69 86
69 69 86
69 69 86
69 69 86
69 69 86
69 69 86
69 69 86
69 69 86
69 69 86
69 69 86
69 69 86
69 69 86
69 69 86
69 69 87
69 69 86
69 69 86
69 69 86
69 69 86
69 69 87
69 69 86
69 69 86
69 69 86
69 69 86
69 69 87
69 69 86
69 69 86
69 69 86
69 69 86
69 69 86
69 69 86
69 69 87
69 69 87
69 69 86
69 69 86
69 69 87
69 69 87
69 69 86
69 69 87
69 69 87
69 69 87
69 69 87
69 69 87
69 69 87
69 69 87
69 69 86
69 69 86
69 69 87
69 69 86
69 69 86
69 69 87
69 69 86
69 69 87
69 69 87
69 69 86
69 69 87
69 69 87
69 69 87
69 69 86
69 69 86
69 69 87
69 69 86
69 69 86
69 69 86
69 69 86
69 69 86
69 69 86
69 69 86
69 69 86
69 69 86
69 69 86
69 69 86
69 69 86
69 69 86
69 69 86
69 69 86
69 69 86
69 69 86
69 69 86
69 69 86
69 69 86
69 69 86
69 69 86
69 69 86
69 69 86
69 69 86
69 69 86
69 69 86
69 69 86
69 69 86
69 69 86
69 69 86
69 69 86
69 69 86
69 69 86
69 69 86
69 69 86
69 69 86
69 69 86
69 69 86
69 69 86
69 69 86
69 69 86
69 69 86
69 69 86
69 69 86
78 70 73
76 61 46
66 53 41
56 45 38
51 41 38
49 40 37
45 37 35
44 35 34
45 36 35
45 36 35
45 37 35
42 34 32
43 35 33
48 39 37
44 35 34
44 35 34
44 36 34
43 35 34
46 37 35
47 38 36
49 40 37
50 42 41
69 68 85
69 69 86
69 69 86
69 69 86
69 69 86
69 69 86
69 69 86
69 69 86
69 69 86
69 69 86
69 69 86
69 69 86
69 69 86
69 69 86
69 69 86
69 69 86
69 69 86
69 69 86
69 69 87
69 69 86
69 69 86
69 69 86
69 69 86
69 69 86
69 69 86
69 69 86
69 69 86
69 69 86
69 69 86
69 69 86
69 69 86
69 69 86
69 69 86
69 69 86
69 69 86
69 69 86
69 69 86
69 69 86
69 69 86
69 69 86
69 69 86
69 69 86
69 69 86
69 69 86
69 69 86
69 69 86
69 69 86
69 69 86
69 69 86
69 69 86
69 69 86
69 69 86
69 69 86
69 69 86
69 69 86
69 69 86
69 69 86
69 69 86
69 69 86
69 69 86
69 69 86
69 69 86
69 69 86
69 69 86
69 69 86
69 69 86
69 69 86
69 69 86
69 69 86
69 69 86
69 69 86
69 69 86
69 69 86
69 69 86
69 69 86
69 69 86
69 69 86
69 69 86
69 69 86
69 69 86
69 69 86
69 69 86
69 69 86
69 69 86
69 69 86
69 69 86
69 69 86
69 69 86
69 69 86
69 69 86
69 69 86
69 69 86
69 69 86
69 69 86
69 69 86
69 69 86
69 69 86
69 69 86
69 69 86
69 69 86
69 69 86
68 68 86
69 69 86
69 69 86
69 69 86
68 68 86
69 69 86
68 68 86
69 69 86
69 69 86
69 69 86
69 69 86
69 69 86
69 69 86
68 68 86
68 68 86
68 68 86
68 68 86
69 69 86
69 69 86
68 68 86
68 68 86
69 69 86
69 69 86
68 68 86
69 69 86
68 68 86
68 68 86
68 68 86
68 68 86
68 68 86
68 68 86
68 68 86
68 68 86
68 68 86
68 68 86
68 68 86
69 69 86
68 68 86
68 68 86
68 68 86
68 68 86
68 68 86
69 69 86
68 68 86
68 68 86
68 68 86
68 68 86
68 68 86
68 68 86
69 69 86
68 68 86
69 69 86
69 69 86
69 69 86
68 68 86
69 69 86
69 69 86
69 69 86
69 69 86
69 69 86
69 69 86
69 69 86
69 69 86
69 69 86
69 69 86
69 69 86
69 69 86
69 69 86
69 69 86
69 69 86
69 69 86
69 69 86
69 69 86
69 69 86
69 69 86
69 69 86
69 69 86
69 69 86
69 69 86
69 69 86
69 69 86
69 69 86
69 69 86
69 69 86
69 69 86
69 69 86
69 69 86
69 69 86
69 69 86
69 69 86
69 69 86
69 69 86
69 69 86
69 69 86
69 69 86
69 69 86
69 69 86
69 69 86
69 69 86
69 69 86
69 69 86
69 69 86
69 69 86
69 69 86
69 69 86
69 69 86
69 69 86
69 69 86
69 69 86
69 69 86
69 69 86
69 69 86
69 69 86
69 69 86
69 69 86
69 69 86
69 69 86
69 69 86
69 69 86
69 69 86
69 69 86
69 69 86
69 69 86
69 69 86
69 69 86
69 69 86
69 69 86
69 69 86
69 69 86
69 69 86
69 69 86
69 69 86
69 69 86
69 69 86
69 69 86
69 69 86
69 69 86
69 69 86
69 69 86
69 69 86
69 69 86
69 69 86
69 69 86
69 69 86
69 69 86
69 69 86
69 69 86
69 69 86
69 69 86
69 69 86
69 69 86
69 69 86
69 69 86
69 69 86
69 69 86
69 69 86
69 69 86
69 69 86
69 69 86
69 69 86
69 69 86
69 69 86
69 69 86
69 69 86
69 69 86
69 69 86
69 69 86
69 69 86
69 69 86
69 69 86
69 69 86
69 69 86
69 69 86
69 69 86
69 69 86
69 69 86
69 69 86
69 69 86
69 69 86
69 69 86
69 69 86
69 69 86
69 69 86
69 69 86
69 69 86
69 69 87
69 69 86
69 69 86
69 69 87
69 69 87
69 69 86
69 69 86
69 69 86
69 69 87
69 69 87
69 69 87
69 69 87
69 69 87
69 69 87
69 69 87
69 69 87
69 69 87
69 69 87
69 69 86
69 69 87
69 69 87
69 69 87
69 69 86
69 69 86
69 69 87
69 69 87
69 69 87
69 69 87
69 69 86
69 69 86
69 69 87
69 69 87
69 69 87
69 69 86
69 69 87
69 69 87
69 69 87
69 69 87
69 69 86
69 69 87
69 69 87
69 69 87
69 69 87
69 69 86
69 69 86
69 69 86
69 69 86
69 69 86
69 69 86
69 69 86
69 69 86
69 69 86
69 69 86
69 69 86
69 69 86
69 69 86
69 69 86
69 69 86
69 69 86
69 69 86
69 69 86
69 69 86
69 69 86
69 69 86
69 69 86
69 69 86
69 69 86
69 69 86
69 69 86
69 69 86
69 69 86
69 69 86
69 69 86
69 69 86
69 69 86
69 69 86
69 69 86
69 69 86
69 69 86
69 69 86
69 69 86
69 69 86
69 69 86
69 69 86
69 69 86
69 69 86
69 69 86
69 69 86
69 69 86
69 69 86
69 69 86
69 69 86
80 67 60
70 56 43
67 54 41
55 44 39
48 39 37
48 39 37
46 38 36
49 40 37
47 39 36
44 36 34
45 37 35
48 39 37
45 37 35
47 39 36
47 39 36
47 38 36
47 39 36
44 36 34
47 38 36
46 38 35
51 42 39
48 39 36
64 62 75
69 69 86
69 69 86
69 69 86
69 69 86
69 69 86
69 69 86
69 69 86
69 69 86
69 69 86
69 69 86
69 69 86
69 69 86
69 69 87
69 69 86
69 69 86
69 69 87
69 69 86
69 69 86
69 69 86
69 69 87
69 69 86
69 69 86
69 69 86
69 69 86
69 69 86
69 69 86
69 69 86
69 69 86
69 69 86
69 69 86
69 69 86
69 69 86
69 69 86
69 69 86
69 69 86
69 69 86
69 69 86
69 69 86
69 69 86
69 69 86
69 69 86
69 69 86
69 69 86
69 69 86
69 69 86
69 69 86
69 69 86
69 69 86
69 69 86
69 69 86
69 69 86
69 69 86
69 69 86
69 69 86
69 69 86
69 69 86
69 69 86
69 69 86
69 69 86
69 69 86
69 69 86
69 69 86
69 69 86
69 69 86
69 69 86
69 69 86
69 69 86
69 69 86
69 69 86
69 69 86
69 69 86
69 69 86
69 69 86
69 69 86
69 69 86
69 69 86
69 69 86
69 69 86
69 69 86
69 69 86
69 69 86
69 69 86
69 69 86
69 69 86
69 69 86
69 69 86
69 69 86
69 69 86
69 69 86
69 69 86
69 69 86
69 69 86
69 69 86
69 69 86
69 69 86
69 69 86
69 69 86
69 69 86
69 69 86
69 69 86
69 69 86
69 69 86
69 69 86
69 69 86
69 69 86
69 69 86
68 68 86
68 68 86
69 69 86
69 69 86
69 69 86
69 69 86
69 69 86
68 68 86
68 68 86
69 69 86
69 69 86
69 69 86
69 69 86
68 68 86
68 68 86
68 68 86
69 69 86
69 69 86
68 68 86
68 68 86
68 68 86
68 68 86
69 69 86
68 68 86
68 68 86
69 69 86
68 68 86
68 68 86
68 68 86
68 68 86
69 69 86
68 68 86
68 68 86
69 69 86
69 69 86
68 68 86
68 68 86
69 69 86
69 69 86
69 69 86
69 69 86
69 69 86
69 69 86
69 69 86
69 69 86
69 69 86
69 69 86
69 69 86
69 69 86
69 69 86
69 69 86
69 69 86
69 69 86
69 69 86
69 69 86
69 69 86
69 69 86
69 69 86
69 69 86
69 69 86
69 69 86
69 69 86
69 69 86
69 69 86
69 69 86
69 69 86
69 69 86
69 69 86
69 69 86
69 69 86
69 69 86
69 69 86
69 69 86
69 69 86
69 69 86
69 69 86
69 69 86
69 69 86
69 69 86
69 69 86
69 69 86
69 69 86
69 69 86
69 69 86
69 69 86
69 69 86
69 69 86
69 69 86
69 69 86
69 69 86
69 69 86
69 69 86
69 69 86
69 69 86
69 69 86
69 69 86
69 69 86
69 69 86
69 69 86
69 69 86
69 69 86
69 69 86
69 69 86
69 69 86
69 69 86
69 69 86
69 69 86
69 69 86
69 69 86
69 69 86
69 69 86
69 69 86
69 69 86
69 69 86
69 69 86
69 69 86
69 69 86
69 69 86
69 69 86
69 69 86
69 69 86
69 69 86
69 69 86
69 69 86
69 69 87
69 69 86
69 69 86
69 69 86
69 69 86
69 69 86
69 69 86
69 69 86
69 69 86
69 69 86
69 69 86
69 69 86
69 69 86
69 69 86
69 69 86
69 69 86
69 69 86
69 69 86
69 69 86
69 69 86
69 69 86
69 69 86
69 69 86
69 69 86
69 69 86
69 69 86
69 69 86
69 69 86
69 69 86
69 69 86
69 69 86
69 69 86
69 69 86
69 69 86
69 69 86
69 69 86
69 69 86
69 69 86
69 69 86
69 69 86
69 69 86
69 69 86
69 69 86
69 69 86
69 69 86
69 69 86
69 69 86
69 69 86
69 69 86
69 69 87
69 69 87
69 69 86
69 69 87
69 69 87
69 69 86
69 69 86
69 69 86
69 69 87
69 69 87
69 69 86
69 69 86
69 69 86
69 69 87
69 69 86
69 69 86
69 69 87
69 69 87
69 69 86
69 69 87
69 69 87
69 69 87
69 69 86
69 69 87
69 69 87
69 69 86
69 69 87
69 69 87
69 69 87
69 69 87
69 69 87
69 69 87
69 69 87
69 69 87
69 69 87
70 70 87
69 69 87
69 69 87
69 69 87
69 69 87
70 70 87
69 69 87
69 69 87
70 70 87
69 69 87
69 69 87
69 69 87
69 69 87
69 69 87
69 69 87
69 69 87
69 69 87
69 69 87
69 69 87
69 69 87
69 69 87
69 69 87
69 69 87
69 69 87
69 69 87
69 69 87
69 69 87
69 69 87
69 69 87
69 69 87
69 69 87
69 69 87
69 69 87
69 69 87
69 69 87
69 69 87
69 69 87
69 69 87
69 69 87
69 69 87
69 69 87
69 69 87
69 69 87
69 69 87
69 69 87
69 69 87
69 69 87
69 69 87
69 69 87
69 69 86
69 69 86
69 69 86
69 69 86
69 69 86
69 69 86
69 69 86
69 69 86
69 69 86
69 69 86
69 69 86
69 69 86
69 69 86
69 69 86
84 68 52
76 61 46
53 43 38
53 43 39
50 40 37
49 40 37
47 38 35
49 40 37
48 39 37
47 38 36
47 38 36
46 37 35
44 36 34
47 38 36
49 39 37
44 36 34
48 39 36
48 39 37
46 37 35
44 36 34
48 39 36
48 39 36
60 56 65
69 69 86
69 69 86
69 69 86
69 69 86
69 69 86
69 69 87
69 69 86
69 69 86
69 69 87
69 69 86
69 69 86
69 69 86
69 69 87
69 69 87
69 69 86
69 69 87
69 69 86
69 69 86
69 69 86
69 69 87
69 69 86
69 69 86
69 69 86
69 69 86
69 69 86
69 69 86
69 69 86
69 69 86
69 69 86
69 69 87
69 69 86
69 69 86
69 69 86
69 69 86
69 69 86
69 69 86
69 69 86
69 69 86
69 69 86
69 69 86
69 69 86
69 69 86
69 69 86
69 69 86
69 69 86
69 69 86
69 69 86
69 69 86
69 69 86
69 69 86
69 69 86
69 69 86
69 69 86
69 69 86
69 69 86
69 69 86
69 69 86
69 69 86
69 69 86
69 69 86
69 69 86
69 69 87
69 69 86
69 69 86
69 69 86
69 69 86
69 69 86
69 69 86
69 69 86
69 69 86
69 69 86
69 69 86
69 69 86
69 69 86
69 69 86
69 69 86
69 69 86
69 69 86
69 69 86
69 69 86
69 69 86
69 69 86
69 69 86
69 69 86
69 69 86
69 69 86
69 69 86
69 69 86
69 69 86
69 69 86
69 69 86
69 69 86
69 69 86
69 69 86
69 69 86
69 69 86
69 69 86
69 69 86
69 69 86
69 69 86
69 69 86
69 69 86
69 69 86
69 69 86
69 69 86
69 69 86
69 69 86
69 69 86
69 69 86
69 69 86
69 69 86
69 69 86
69 69 86
69 69 86
69 69 86
69 69 86
69 69 86
68 68 86
69 69 86
69 69 86
69 69 86
69 69 86
69 69 86
68 68 86
69 69 86
69 69 86
68 68 86
69 69 86
69 69 86
68 68 86
68 68 86
69 69 86
69 69 86
68 68 86
68 68 86
69 69 86
69 69 86
69 69 86
68 68 86
69 69 86
68 68 86
68 68 86
69 69 86
69 69 86
69 69 86
69 69 86
69 69 86
68 68 86
69 69 86
69 69 86
69 69 86
69 69 86
69 69 86
69 69 86
69 69 86
69 69 86
69 69 86
69 69 86
69 69 86
69 69 86
69 69 86
69 69 86
69 69 86
69 69 86
69 69 86
69 69 86
69 69 86
69 69 86
69 69 86
69 69 86
69 69 86
69 69 86
69 69 86
69 69 86
69 69 86
69 69 86
69 69 86
69 69 86
69 69 86
69 69 86
69 69 86
69 69 86
69 69 86
69 69 86
69 69 86
69 69 86
69 69 86
69 69 86
69 69 86
69 69 86
69 69 86
69 69 86
69 69 86
69 69 86
69 69 86
69 69 86
69 69 86
69 69 86
69 69 86
69 69 86
69 69 86
69 69 86
69 69 86
69 69 86
69 69 86
69 69 86
69 69 86
69 69 86
69 69 86
69 69 86
69 69 86
69 69 86
69 69 86
69 69 86
69 69 86
69 69 86
69 69 86
69 69 86
69 69 86
69 69 86
69 69 86
69 69 86
69 69 86
69 69 86
69 69 86
69 69 86
69 69 86
69 69 86
69 69 86
69 69 86
69 69 86
69 69 86
69 69 86
69 69 86
69 69 86
69 69 86
69 69 86
69 69 86
69 69 86
69 69 86
69 69 86
69 69 86
69 69 86
69 69 86
69 69 86
69 69 86
69 69 86
69 69 86
69 69 86
69 69 86
69 69 86
69 69 86
69 69 86
69 69 86
69 69 86
69 69 86
69 69 86
69 69 86
69 69 86
69 69 86
69 69 86
69 69 86
69 69 86
69 69 86
69 69 86
69 69 86
69 69 86
69 69 86
69 69 86
69 69 86
69 69 86
69 69 86
69 69 86
69 69 86
69 69 86
69 69 86
69 69 87
69 69 87
69 69 87
70 70 87
69 69 86
69 69 86
69 69 86
69 69 87
69 69 87
69 69 87
69 69 87
69 69 87
69 69 87
69 69 87
69 69 87
69 69 87
69 69 87
69 69 87
69 69 87
69 69 87
69 69 87
69 69 87
69 69 87
69 69 87
69 69 87
69 69 87
69 69 87
70 70 87
70 70 87
69 69 87
69 69 87
70 70 87
69 69 87
69 69 87
69 69 87
69 69 87
69 69 87
69 69 87
69 69 87
69 69 87
69 69 87
69 69 87
69 69 87
69 69 87
69 69 87
69 69 87
69 69 87
69 69 87
69 69 87
69 69 87
69 69 87
69 69 87
69 69 87
69 69 87
69 69 87
69 69 87
69 69 87
69 69 87
69 69 87
69 69 87
69 69 87
69 69 87
69 69 87
69 69 87
69 69 87
69 69 87
69 69 87
69 69 87
69 69 87
69 69 87
69 69 87
69 69 87
69 69 87
69 69 87
69 69 87
69 69 87
69 69 87
69 69 87
69 69 87
69 69 87
69 69 87
69 69 87
69 69 87
69 69 87
69 69 87
69 69 87
69 69 87
69 69 87
69 69 87
69 69 87
69 69 87
69 69 87
69 69 87
69 69 87
69 69 87
69 69 87
69 69 87
69 69 87
69 69 87
69 69 87
68 67 84
65 53 43
69 56 44
59 48 41
53 43 39
50 41 38
50 40 37
50 41 38
50 41 38
47 39 36
49 40 37
49 40 37
48 39 36
47 39 36
48 39 37
49 40 37
47 38 36
47 38 36
50 40 37
48 39 36
52 42 39
51 42 38
54 44 40
59 53 60
69 69 87
69 69 87
69 69 87
69 69 86
69 69 86
69 69 87
69 69 87
69 69 87
69 69 86
69 69 87
69 69 86
69 69 87
69 69 87
69 69 86
69 69 87
69 69 87
69 69 86
69 69 86
69 69 86
69 69 87
69 69 87
69 69 87
69 69 86
69 69 87
69 69 86
69 69 86
69 69 86
69 69 86
69 69 86
69 69 86
69 69 86
69 69 86
69 69 86
69 69 86
69 69 86
69 69 86
69 69 86
69 69 86
69 69 86
69 69 86
69 69 86
69 69 86
69 69 86
69 69 86
69 69 86
69 69 86
69 69 86
69 69 86
69 69 86
69 69 87
69 69 86
69 69 86
69 69 86
69 69 86
69 69 86
69 69 86
69 69 86
69 69 86
69 69 86
69 69 86
69 69 86
69 69 86
69 69 86
69 69 86
69 69 86
69 69 86
69 69 86
69 69 86
69 69 86
69 69 86
69 69 86
69 69 86
69 69 86
69 69 86
69 69 86
69 69 86
69 69 86
69 69 86
69 69 86
69 69 86
69 69 86
69 69 86
69 69 86
69 69 86
69 69 86
69 69 86
69 69 86
69 69 86
69 69 86
69 69 86
69 69 86
69 69 86
69 69 86
69 69 86
69 69 86
69 69 86
69 69 86
69 69 86
69 69 86
69 69 86
69 69 86
69 69 86
69 69 86
69 69 86
69 69 86
69 69 86
69 69 86
69 69 86
69 69 86
69 69 86
69 69 86
69 69 86
69 69 86
69 69 86
69 69 86
69 69 86
69 69 86
69 69 86
68 68 86
69 69 86
69 69 86
69 69 86
68 68 86
68 68 86
69 69 86
68 68 86
69 69 86
69 69 86
69 69 86
69 69 86
69 69 86
69 69 86
69 69 86
69 69 86
69 69 86
69 69 86
69 69 86
68 68 86
68 68 86
69 69 86
69 69 86
69 69 86
69 69 86
68 68 86
69 69 86
69 69 86
69 69 86
69 69 86
69 69 86
69 69 86
69 69 86
69 69 86
69 69 86
69 69 86
69 69 86
69 69 86
69 69 86
69 69 86
69 69 86
69 69 86
69 69 86
69 69 86
69 69 86
69 69 86
69 69 86
69 69 86
69 69 86
69 69 86
69 69 86
69 69 86
69 69 86
69 69 86
69 69 86
69 69 86
69 69 86
69 69 86
69 69 86
69 69 86
69 69 86
69 69 86
69 69 86
69 69 86
69 69 86
69 69 86
69 69 86
69 69 86
69 69 86
69 69 86
69 69 86
69 69 86
69 69 86
69 69 86
69 69 86
69 69 86
69 69 86
69 69 86
69 69 86
69 69 86
69 69 86
69 69 86
69 69 86
69 69 86
69 69 86
69 69 86
69 69 86
69 69 86
69 69 86
69 69 86
69 69 86
69 69 86
69 69 86
69 69 86
69 69 86
69 69 86
69 69 86
69 69 86
69 69 86
69 69 86
69 69 86
69 69 86
69 69 86
69 69 86
69 69 86
69 69 86
69 69 86
69 69 86
69 69 86
69 69 86
69 69 86
69 69 87
69 69 86
69 69 86
69 69 86
69 69 86
69 69 86
69 69 86
69 69 86
69 69 86
69 69 86
69 69 86
69 69 86
69 69 86
69 69 86
69 69 86
69 69 86
69 69 86
69 69 86
69 69 86
69 69 86
69 69 86
69 69 86
69 69 86
69 69 86
69 69 86
69 69 86
69 69 86
69 69 86
69 69 86
69 69 86
69 69 86
69 69 86
69 69 86
69 69 86
69 69 86
69 69 86
69 69 86
69 69 86
69 69 87
69 69 87
69 69 87
69 69 87
69 69 87
69 69 87
69 69 87
69 69 87
69 69 87
69 69 87
69 69 87
69 69 87
69 69 87
69 69 87
69 69 87
69 69 87
69 69 87
69 69 87
69 69 87
69 69 87
69 69 87
69 69 87
70 70 87
69 69 87
69 69 87
69 69 87
69 69 87
69 69 87
69 69 87
69 69 87
70 70 87
70 70 87
69 69 87
69 69 87
70 70 87
69 69 87
69 69 87
69 69 87
69 69 87
69 69 87
69 69 87
69 69 87
69 69 87
69 69 87
69 69 87
69 69 87
70 70 87
69 69 87
69 69 87
69 69 87
69 69 87
70 70 87
69 69 87
70 70 87
69 69 87
69 69 87
69 69 87
69 69 87
69 69 87
69 69 87
69 69 87
69 69 87
69 69 87
69 69 87
69 69 87
69 69 87
69 69 87
69 69 87
69 69 87
69 69 87
69 69 87
69 69 87
69 69 87
69 69 87
69 69 87
69 69 87
69 69 87
69 69 87
69 69 87
69 69 87
69 69 87
69 69 87
69 69 87
69 69 87
69 69 87
69 69 87
69 69 87
69 69 87
69 69 87
69 69 87
69 69 87
69 69 87
69 69 87
69 69 87
69 69 87
69 69 87
69 69 87
69 69 87
69 69 87
69 69 87
69 69 87
69 69 87
69 69 87
69 69 87
69 69 87
69 69 87
69 69 87
69 69 87
69 69 87
73 71 84
80 64 47
69 56 45
59 48 42
51 42 38
51 41 38
53 43 40
50 41 38
50 41 37
51 41 38
49 40 37
49 40 37
47 39 36
49 40 37
52 42 39
52 42 39
52 42 39
52 43 39
53 43 40
46 38 35
51 42 38
54 44 40
55 44 40
60 54 59
69 69 87
70 70 87
69 69 86
69 69 87
70 70 87
69 69 87
69 69 87
69 69 87
70 70 87
69 69 87
69 69 87
69 69 86
69 69 87
69 69 87
69 69 87
69 69 87
69 69 86
69 69 87
69 69 86
69 69 86
69 69 87
69 69 87
69 69 87
69 69 87
69 69 87
69 69 86
69 69 86
69 69 87
69 69 86
69 69 87
69 69 86
69 69 86
69 69 87
69 69 86
69 69 87
69 69 86
69 69 86
69 69 86
69 69 87
69 69 86
69 69 86
69 69 86
69 69 86
69 69 86
69 69 86
69 69 86
69 69 86
69 69 86
69 69 87
69 69 86
69 69 86
69 69 86
69 69 86
69 69 86
69 69 86
69 69 86
69 69 86
69 69 86
69 69 86
69 69 86
69 69 86
69 69 86
69 69 86
69 69 86
69 69 86
69 69 86
69 69 86
69 69 86
69 69 86
69 69 86
69 69 86
69 69 86
69 69 86
69 69 86
69 69 86
69 69 86
69 69 86
69 69 86
69 69 86
69 69 86
69 69 86
69 69 86
69 69 86
69 69 86
69 69 86
69 69 86
69 69 86
69 69 86
69 69 86
69 69 86
69 69 86
69 69 86
69 69 86
69 69 86
69 69 86
69 69 86
69 69 86
69 69 86
69 69 86
69 69 86
69 69 86
69 69 86
69 69 86
69 69 86
69 69 86
69 69 86
69 69 86
69 69 86
69 69 86
69 69 86
69 69 86
69 69 86
69 69 86
69 69 86
69 69 86
69 69 86
69 69 86
69 69 86
69 69 86
69 69 86
69 69 86
69 69 86
69 69 86
69 69 86
69 69 86
69 69 86
69 69 86
69 69 86
69 69 86
68 68 86
68 68 86
69 69 86
69 69 86
69 69 86
69 69 86
69 69 86
69 69 86
69 69 86
69 69 86
69 69 86
69 69 86
69 69 86
69 69 86
69 69 86
69 69 86
69 69 86
69 69 86
69 69 86
69 69 86
69 69 86
69 69 86
69 69 86
69 69 86
69 69 86
69 69 86
69 69 86
69 69 86
69 69 86
69 69 86
69 69 86
69 69 86
69 69 86
69 69 86
69 69 86
69 69 86
69 69 86
69 69 86
69 69 86
69 69 86
69 69 86
69 69 86
69 69 86
69 69 86
69 69 86
69 69 86
69 69 86
69 69 86
69 69 86
69 69 86
69 69 86
69 69 86
69 69 86
69 69 86
69 69 86
69 69 86
69 69 86
69 69 86
69 69 86
69 69 86
69 69 86
69 69 86
69 69 86
69 69 86
69 69 86
69 69 86
69 69 86
69 69 86
69 69 86
69 69 86
69 69 86
69 69 86
69 69 86
69 69 86
69 69 86
69 69 86
69 69 86
69 69 86
69 69 86
69 69 87
69 69 86
69 69 86
69 69 86
69 69 86
69 69 86
69 69 86
69 69 86
69 69 86
69 69 86
69 69 87
69 69 87
69 69 87
69 69 86
69 69 87
69 69 86
69 69 86
69 69 86
69 69 86
69 69 86
69 69 86
69 69 86
69 69 86
69 69 87
69 69 86
69 69 86
69 69 86
69 69 86
69 69 86
69 69 86
69 69 86
69 69 86
69 69 86
69 69 86
69 69 86
69 69 86
69 69 86
69 69 86
69 69 86
69 69 86
69 69 86
69 69 86
69 69 86
69 69 86
69 69 86
69 69 86
69 69 86
69 69 87
69 69 87
69 69 87
69 69 87
69 69 87
69 69 87
69 69 87
69 69 87
69 69 87
69 69 87
69 69 87
69 69 87
69 69 87
69 69 87
69 69 87
69 69 87
69 69 87
69 69 87
69 69 87
69 69 87
69 69 87
69 69 87
69 69 87
69 69 87
69 69 87
69 69 87
69 69 87
70 70 87
69 69 87
69 69 87
69 69 87
69 69 87
70 70 87
69 69 87
69 69 87
69 69 87
69 69 87
69 69 87
69 69 87
69 69 87
69 69 87
69 69 87
70 70 87
69 69 87
69 69 87
69 69 87
69 69 87
69 69 87
69 69 87
69 69 87
70 70 87
69 69 87
69 69 87
70 70 87
69 69 87
69 69 87
69 69 87
69 69 87
69 69 87
69 69 87
69 69 87
70 70 87
69 69 87
69 69 87
70 70 87
69 69 87
69 69 87
69 69 87
69 69 87
69 69 87
69 69 87
69 69 87
69 69 87
69 69 87
69 69 87
69 69 87
69 69 87
69 69 87
69 69 87
69 69 87
69 69 87
69 69 87
69 69 87
69 69 87
69 69 87
69 69 87
69 69 87
69 69 87
69 69 87
69 69 87
69 69 87
69 69 87
69 69 87
69 69 87
69 69 87
69 69 87
69 69 87
69 69 87
69 69 87
69 69 87
69 69 87
69 69 87
69 69 87
69 69 87
69 69 87
69 69 87
69 69 87
69 69 87
69 69 87
69 69 87
69 69 87
69 69 87
69 69 87
69 69 87
69 69 87
69 69 87
69 69 87
69 69 87
69 69 87
69 69 87
69 69 87
69 69 86
86 69 51
63 51 43
60 48 43
49 40 37
54 44 40
52 42 39
52 42 39
53 43 39
53 43 39
50 41 37
51 42 38
51 42 38
50 40 37
51 41 38
49 40 37
53 43 39
50 41 38
52 43 39
51 41 38
50 41 37
52 42 38
55 45 41
61 55 61
69 69 87
69 69 87
69 69 87
69 69 87
69 69 87
69 69 87
69 69 87
69 69 87
69 69 87
70 70 87
69 69 87
69 69 87
69 69 87
69 69 87
69 69 87
69 69 87
69 69 86
69 69 87
69 69 87
69 69 87
69 69 87
69 69 86
69 69 87
69 69 87
69 69 87
69 69 87
69 69 87
69 69 87
69 69 86
69 69 87
69 69 86
69 69 87
69 69 87
69 69 86
69 69 86
69 69 86
69 69 86
70 70 87
69 69 86
69 69 86
69 69 86
69 69 86
69 69 86
69 69 86
69 69 87
69 69 86
69 69 87
69 69 86
69 69 87
69 69 86
69 69 87
69 69 86
69 69 86
69 69 87
69 69 86
69 69 86
69 69 86
69 69 87
69 69 86
69 69 86
69 69 86
69 69 86
69 69 86
69 69 87
69 69 86
69 69 86
69 69 87
69 69 86
69 69 86
69 69 86
69 69 86
69 69 86
69 69 86
69 69 86
69 69 86
69 69 86
69 69 86
69 69 86
69 69 86
69 69 86
69 69 86
69 69 86
69 69 86
69 69 86
69 69 86
69 69 86
69 69 86
69 69 86
69 69 86
69 69 86
69 69 86
69 69 86
69 69 86
69 69 86
69 69 86
69 69 86
69 69 86
69 69 86
69 69 86
69 69 86
69 69 86
69 69 86
69 69 86
69 69 86
69 69 86
69 69 86
69 69 86
69 69 86
69 69 86
69 69 86
69 69 86
69 69 86
69 69 86
69 69 86
69 69 86
69 69 86
69 69 86
69 69 86
69 69 86
69 69 86
69 69 86
69 69 86
69 69 86
69 69 86
69 69 86
69 69 86
69 69 86
69 69 86
69 69 86
69 69 86
68 68 86
69 69 86
69 69 86
69 69 86
69 69 86
69 69 86
69 69 86
69 69 86
69 69 86
69 69 86
69 69 86
69 69 86
69 69 86
69 69 86
69 69 86
69 69 86
69 69 86
69 69 86
69 69 86
69 69 86
69 69 86
69 69 86
69 69 86
69 69 86
69 69 86
69 69 86
69 69 86
69 69 86
69 69 86
69 69 86
69 69 86
69 69 86
69 69 86
69 69 86
69 69 86
69 69 86
69 69 86
69 69 86
69 69 86
69 69 86
69 69 86
69 69 86
69 69 86
69 69 86
69 69 86
69 69 86
69 69 86
69 69 86
69 69 86
69 69 86
69 69 86
69 69 86
69 69 86
69 69 86
69 69 86
69 69 86
69 69 86
69 69 86
69 69 86
69 69 86
69 69 86
69 69 86
69 69 86
69 69 86
69 69 86
69 69 86
69 69 86
69 69 86
69 69 86
69 69 86
69 69 86
69 69 86
69 69 86
69 69 86
69 69 87
69 69 87
69 69 86
69 69 86
69 69 86
69 69 86
69 69 86
69 69 86
69 69 86
69 69 87
69 69 87
69 69 87
69 69 86
69 69 86
69 69 87
69 69 86
69 69 87
69 69 86
69 69 87
69 69 86
69 69 86
69 69 86
69 69 87
69 69 86
69 69 86
69 69 87
69 69 86
69 69 87
69 69 86
69 69 86
69 69 86
69 69 86
69 69 86
69 69 86
69 69 86
69 69 86
69 69 86
69 69 86
69 69 86
69 69 86
69 69 87
69 69 87
69 69 87
69 69 87
69 69 87
69 69 87
69 69 87
69 69 87
69 69 87
69 69 87
69 69 87
69 69 87
69 69 87
69 69 87
69 69 87
69 69 87
69 69 87
69 69 87
69 69 87
69 69 87
69 69 87
69 69 87
69 69 87
69 69 87
69 69 87
69 69 87
69 69 87
69 69 87
69 69 87
69 69 87
70 70 87
69 69 87
70 70 87
69 69 87
70 70 87
69 69 87
69 69 87
69 69 87
69 69 87
70 70 87
69 69 87
70 70 87
69 69 87
69 69 87
70 70 87
69 69 87
70 70 87
70 70 87
70 70 87
70 70 87
70 70 87
70 70 87
69 69 87
69 69 87
70 70 87
70 70 87
69 69 87
69 69 87
69 69 87
69 69 87
70 70 87
69 69 87
69 69 87
69 69 87
70 70 87
70 70 87
70 70 87
70 70 87
69 69 87
69 69 87
69 69 87
70 70 87
69 69 87
69 69 87
69 69 87
69 69 87
69 69 87
69 69 87
69 69 87
69 69 87
69 69 87
69 69 87
69 69 87
69 69 87
69 69 87
69 69 87
69 69 87
69 69 87
69 69 87
69 69 87
69 69 87
69 69 87
69 69 87
69 69 87
69 69 87
69 69 87
69 69 87
69 69 87
69 69 87
69 69 87
69 69 87
69 69 87
69 69 87
69 69 87
69 69 87
69 69 87
69 69 87
69 69 87
69 69 87
69 69 87
69 69 87
69 69 87
69 69 87
69 69 87
69 69 87
69 69 87
69 69 87
69 69 87
69 69 87
69 69 87
69 69 87
69 69 87
69 69 87
69 69 87
69 69 87
69 69 87
69 69 87
69 69 87
69 69 87
69 69 87
69 69 87
69 69 87
69 69 87
75 62 54
74 60 47
60 49 43
55 45 41
54 44 40
52 43 39
50 41 37
51 41 38
53 43 39
50 41 37
50 41 37
53 43 40
55 45 41
53 43 39
54 44 40
53 43 40
48 39 36
52 42 39
52 43 39
56 45 41
53 43 39
55 45 41
64 59 68
69 69 87
69 69 87
69 69 87
70 70 87
69 69 87
69 69 87
69 69 87
69 69 87
69 69 87
69 69 87
69 69 87
69 69 87
69 69 87
69 69 87
69 69 87
69 69 87
69 69 87
69 69 87
69 69 87
69 69 87
69 69 87
69 69 87
69 69 87
69 69 87
69 69 87
69 69 87
69 69 87
69 69 87
69 69 87
69 69 87
69 69 87
69 69 86
69 69 87
69 69 87
69 69 87
69 69 86
69 69 87
69 69 86
69 69 86
69 69 86
69 69 86
69 69 87
69 69 86
69 69 86
70 70 87
69 69 86
69 69 87
69 69 87
69 69 87
69 69 86
69 69 86
69 69 86
69 69 87
69 69 86
69 69 86
69 69 86
69 69 87
69 69 86
69 69 86
69 69 86
69 69 86
69 69 86
69 69 86
69 69 86
69 69 86
69 69 86
69 69 86
69 69 86
69 69 86
69 69 86
69 69 86
69 69 86
69 69 86
69 69 86
69 69 86
69 69 86
69 69 86
69 69 86
69 69 86
69 69 86
69 69 86
69 69 86
69 69 86
69 69 86
69 69 86
69 69 86
69 69 86
69 69 86
69 69 86
69 69 86
69 69 86
69 69 86
69 69 86
69 69 86
69 69 86
69 69 86
69 69 86
69 69 86
69 69 86
69 69 86
69 69 86
69 69 86
69 69 86
69 69 86
69 69 86
69 69 86
69 69 86
69 69 86
69 69 86
69 69 86
69 69 86
69 69 86
69 69 86
69 69 86
69 69 86
69 69 86
69 69 86
69 69 86
69 69 86
69 69 86
69 69 86
69 69 86
69 69 86
69 69 86
69 69 86
69 69 86
69 69 86
69 69 86
69 69 86
69 69 86
69 69 86
69 69 86
69 69 86
69 69 86
69 69 86
69 69 86
69 69 86
69 69 86
69 69 86
69 69 86
69 69 86
69 69 86
69 69 86
69 69 86
69 69 86
69 69 86
69 69 86
69 69 86
69 69 86
69 69 86
69 69 86
69 69 86
69 69 86
69 69 86
69 69 86
69 69 86
69 69 86
69 69 86
69 69 86
69 69 86
69 69 86
69 69 86
69 69 86
69 69 86
69 69 86
69 69 86
69 69 86
69 69 86
69 69 86
69 69 86
69 69 86
69 69 86
69 69 86
69 69 86
69 69 86
69 69 86
69 69 86
69 69 86
69 69 86
69 69 86
69 69 86
69 69 86
69 69 86
69 69 86
69 69 86
69 69 86
69 69 86
69 69 86
69 69 86
69 69 86
69 69 86
69 69 86
69 69 86
69 69 86
69 69 86
69 69 86
69 69 86
69 69 86
69 69 86
69 69 86
69 69 86
69 69 86
69 69 86
69 69 86
69 69 86
69 69 87
69 69 86
69 69 86
69 69 86
69 69 86
69 69 86
69 69 86
69 69 86
69 69 86
69 69 87
69 69 87
69 69 86
69 69 87
69 69 87
69 69 86
69 69 86
69 69 86
69 69 86
69 69 87
69 69 87
69 69 87
69 69 86
69 69 87
69 69 87
69 69 86
69 69 86
69 69 86
69 69 86
69 69 86
69 69 87
69 69 87
69 69 87
69 69 87
69 69 87
69 69 87
69 69 87
69 69 87
69 69 87
69 69 87
69 69 87
69 69 87
69 69 87
69 69 87
69 69 87
69 69 87
69 69 87
69 69 87
69 69 87
69 69 87
69 69 87
69 69 87
69 69 87
69 69 87
69 69 87
69 69 87
69 69 87
69 69 87
69 69 87
69 69 87
69 69 87
69 69 87
69 69 87
69 69 87
69 69 87
69 69 87
69 69 87
69 69 87
70 70 87
69 69 87
69 69 87
69 69 87
70 70 87
69 69 87
69 69 87
69 69 87
69 69 87
70 70 87
69 69 87
69 69 87
69 69 87
70 70 87
70 70 87
70 70 87
70 70 87
70 70 87
70 70 87
69 69 87
69 69 87
69 69 87
70 70 87
70 70 87
69 69 87
69 69 87
70 70 87
69 69 87
69 69 87
70 70 87
69 69 87
70 70 87
69 69 87
70 70 87
70 70 87
70 70 87
70 70 87
70 70 87
70 70 87
70 70 87
69 69 87
70 70 87
69 69 87
70 70 87
69 69 87
69 69 87
69 69 87
69 69 87
69 69 87
69 69 87
69 69 87
69 69 87
69 69 87
69 69 87
69 69 87
69 69 87
69 69 87
69 69 87
69 69 87
69 69 87
69 69 87
69 69 87
69 69 87
69 69 87
69 69 87
69 69 87
69 69 87
69 69 87
69 69 87
69 69 87
69 69 87
69 69 87
69 69 87
69 69 87
69 69 87
69 69 87
69 69 87
69 69 87
69 69 87
69 69 87
69 69 87
69 69 87
69 69 87
69 69 87
69 69 87
69 69 87
69 69 87
69 69 87
69 69 87
69 69 87
69 69 87
69 69 87
69 69 87
69 69 87
69 69 87
69 69 87
69 69 87
69 69 87
69 69 87
69 69 87
69 69 87
69 69 87
69 69 87
69 69 87
69 69 87
74 64 65
68 55 46
57 47 41
54 44 40
57 47 42
56 45 41
54 44 40
54 44 40
51 42 38
52 42 38
57 46 42
52 43 39
52 42 39
55 45 41
52 42 38
54 44 40
54 44 40
51 41 38
57 47 42
59 48 43
57 46 42
57 47 42
66 63 76
69 69 87
69 69 87
69 69 87
69 69 87
70 70 87
70 70 87
70 70 87
70 70 87
69 69 87
69 69 87
69 69 87
69 69 87
70 70 87
69 69 87
69 69 87
69 69 87
69 69 87
69 69 87
69 69 87
69 69 87
70 70 87
69 69 87
69 69 87
69 69 87
69 69 87
69 69 87
70 70 87
69 69 87
69 69 87
69 69 87
69 69 87
69 69 87
69 69 87
69 69 87
69 69 87
69 69 86
70 70 87
69 69 87
69 69 87
69 69 86
70 70 87
69 69 87
69 69 87
69 69 87
69 69 87
69 69 87
69 69 87
70 70 87
69 69 87
69 69 86
69 69 87
69 69 86
69 69 87
69 69 86
69 69 86
69 69 86
69 69 86
69 69 86
69 69 86
69 69 86
69 69 87
69 69 86
69 69 86
69 69 86
69 69 86
69 69 86
69 69 86
69 69 86
69 69 86
69 69 86
69 69 86
69 69 86
69 69 86
69 69 86
69 69 86
69 69 86
69 69 86
69 69 86
69 69 86
69 69 86
69 69 86
69 69 86
69 69 86
69 69 86
69 69 86
69 69 86
69 69 86
69 69 86
69 69 86
69 69 87
69 69 86
69 69 86
69 69 86
69 69 86
69 69 86
69 69 86
69 69 86
69 69 86
69 69 86
69 69 86
69 69 86
69 69 86
69 69 86
69 69 86
69 69 86
69 69 86
69 69 86
69 69 86
69 69 86
69 69 86
69 69 86
69 69 86
69 69 86
69 69 86
69 69 86
69 69 86
69 69 86
69 69 86
69 69 86
69 69 86
69 69 86
69 69 86
69 69 86
69 69 86
69 69 86
69 69 86
69 69 86
69 69 86
69 69 86
69 69 86
69 69 86
69 69 86
69 69 86
69 69 86
69 69 86
69 69 86
69 69 86
69 69 86
69 69 86
69 69 86
69 69 86
69 69 86
69 69 86
69 69 86
69 69 86
69 69 86
69 69 86
69 69 86
69 69 86
69 69 86
69 69 86
69 69 86
69 69 86
69 69 86
69 69 86
69 69 86
69 69 86
69 69 86
69 69 86
69 69 86
69 69 86
69 69 86
69 69 86
69 69 86
69 69 86
69 69 86
69 69 86
69 69 86
69 69 86
69 69 86
69 69 86
69 69 86
69 69 86
69 69 86
69 69 86
69 69 86
69 69 86
69 69 86
69 69 86
69 69 86
69 69 86
69 69 86
69 69 86
69 69 86
69 69 86
69 69 86
69 69 86
69 69 86
69 69 86
69 69 86
69 69 86
69 69 86
69 69 86
69 69 86
69 69 86
69 69 86
69 69 86
69 69 86
69 69 86
69 69 86
69 69 86
69 69 86
69 69 87
69 69 86
69 69 86
69 69 86
69 69 86
69 69 87
69 69 86
69 69 86
69 69 87
69 69 87
69 69 87
69 69 86
69 69 86
69 69 86
69 69 87
69 69 87
69 69 86
69 69 87
69 69 87
69 69 86
69 69 87
69 69 87
69 69 86
69 69 87
69 69 87
69 69 87
69 69 87
69 69 87
69 69 87
69 69 87
69 69 87
69 69 87
69 69 87
69 69 87
69 69 87
69 69 87
69 69 87
69 69 87
69 69 87
69 69 87
69 69 87
69 69 87
69 69 87
69 69 87
69 69 87
69 69 87
69 69 87
69 69 87
69 69 87
69 69 87
69 69 87
69 69 87
69 69 87
69 69 87
69 69 87
69 69 87
69 69 87
69 69 87
69 69 87
69 69 87
69 69 87
69 69 87
69 69 87
69 69 87
69 69 87
69 69 87
70 70 87
70 70 87
70 70 87
69 69 87
70 70 87
69 69 87
70 70 87
70 70 87
69 69 87
69 69 87
69 69 87
70 70 87
70 70 87
70 70 87
70 70 87
69 69 87
69 69 87
69 69 87
70 70 87
70 70 87
70 70 87
70 70 87
69 69 87
70 70 87
70 70 87
70 70 87
69 69 87
70 70 87
70 70 87
70 70 87
69 69 87
70 70 87
70 70 87
70 70 87
70 70 87
70 70 87
70 70 87
69 69 87
70 70 87
70 70 87
69 69 87
70 70 87
70 70 87
70 70 87
70 70 87
69 69 87
69 69 87
69 69 87
69 69 87
69 69 87
69 69 87
69 69 87
69 69 87
69 69 87
69 69 87
69 69 87
69 69 87
69 69 87
69 69 87
69 69 87
69 69 87
69 69 87
69 69 87
69 69 87
69 69 87
69 69 87
69 69 87
69 69 87
69 69 87
69 69 87
69 69 87
69 69 87
69 69 87
69 69 87
69 69 87
69 69 87
69 69 87
69 69 87
69 69 87
69 69 87
69 69 87
69 69 87
69 69 87
69 69 87
69 69 87
69 69 87
69 69 87
69 69 87
69 69 87
69 69 87
69 69 87
69 69 87
69 69 87
69 69 87
69 69 87
69 69 87
69 69 87
69 69 87
69 69 87
69 69 87
69 69 87
69 69 87
69 69 87
69 69 87
69 69 87
69 69 87
69 69 87
69 69 87
69 69 87
69 66 78
70 57 47
58 47 42
57 46 42
57 47 42
54 44 40
54 44 40
59 48 44
58 48 43
55 45 40
56 46 41
56 46 41
51 42 38
57 46 42
55 45 41
53 43 39
53 43 39
56 45 41
58 48 43
55 45 40
60 49 44
59 49 47
70 69 86
69 69 87
69 69 87
69 69 87
69 69 87
69 69 87
69 69 87
70 70 87
69 69 87
69 69 87
69 69 87
69 69 87
69 69 87
69 69 87
70 70 87
70 70 87
69 69 87
69 69 87
69 69 87
69 69 87
69 69 87
69 69 87
69 69 87
69 69 87
69 69 87
70 70 87
69 69 87
69 69 87
69 69 87
69 69 87
70 70 87
69 69 87
69 69 87
69 69 87
69 69 87
69 69 87
69 69 87
70 70 87
70 70 87
69 69 87
69 69 87
69 69 87
69 69 87
69 69 87
69 69 87
69 69 86
69 69 87
69 69 87
69 69 86
69 69 87
69 69 87
69 69 87
69 69 86
70 70 87
69 69 87
70 70 87
69 69 86
69 69 87
69 69 86
69 69 87
69 69 87
69 69 87
69 69 87
69 69 86
69 69 86
69 69 86
69 69 86
69 69 86
69 69 86
69 69 86
69 69 86
69 69 86
69 69 86
69 69 86
69 69 86
69 69 86
69 69 86
69 69 86
69 69 86
69 69 86
69 69 86
69 69 86
69 69 87
69 69 87
69 69 86
69 69 86
69 69 86
69 69 86
69 69 86
69 69 87
69 69 86
69 69 86
69 69 86
69 69 86
69 69 86
69 69 86
69 69 86
69 69 86
69 69 86
69 69 86
69 69 86
69 69 86
69 69 86
69 69 86
69 69 86
69 69 86
69 69 86
69 69 86
69 69 86
69 69 86
69 69 86
69 69 86
69 69 86
69 69 86
69 69 86
69 69 86
69 69 86
69 69 86
69 69 86
69 69 86
69 69 86
69 69 86
69 69 86
69 69 86
69 69 86
69 69 86
69 69 86
69 69 86
69 69 86
69 69 86
69 69 86
69 69 86
69 69 86
69 69 86
69 69 86
69 69 86
69 69 86
69 69 86
69 69 86
69 69 86
69 69 86
69 69 86
69 69 86
69 69 86
69 69 86
69 69 86
69 69 86
69 69 86
69 69 86
69 69 86
69 69 86
69 69 86
69 69 86
69 69 86
69 69 86
69 69 86
69 69 86
69 69 86
69 69 86
69 69 86
69 69 86
69 69 86
69 69 86
69 69 86
69 69 86
69 69 86
69 69 86
69 69 86
69 69 86
69 69 86
69 69 86
69 69 86
69 69 86
69 69 86
69 69 86
69 69 86
69 69 86
69 69 86
69 69 86
69 69 86
69 69 86
69 69 86
69 69 86
69 69 86
69 69 86
69 69 86
69 69 86
69 69 86
69 69 86
69 69 86
69 69 86
69 69 86
69 69 86
69 69 86
69 69 86
69 69 86
69 69 87
69 69 86
69 69 87
69 69 87
69 69 86
69 69 86
69 69 87
69 69 86
69 69 86
69 69 86
69 69 87
69 69 86
69 69 86
69 69 87
69 69 87
69 69 87
69 69 87
69 69 87
69 69 87
69 69 87
69 69 87
69 69 87
69 69 87
70 70 87
69 69 87
69 69 87
69 69 87
69 69 87
69 69 87
69 69 87
69 69 87
69 69 87
69 69 87
69 69 87
69 69 87
69 69 87
69 69 87
69 69 87
69 69 87
69 69 87
69 69 87
69 69 87
69 69 87
69 69 87
69 69 87
69 69 87
69 69 87
69 69 87
69 69 87
69 69 87
69 69 87
69 69 87
69 69 87
69 69 87
69 69 87
69 69 87
69 69 87
69 69 87
69 69 87
69 69 87
69 69 87
69 69 87
69 69 87
69 69 87
69 69 87
69 69 87
69 69 87
69 69 87
69 69 87
69 69 87
69 69 87
69 69 87
70 70 87
69 69 87
69 69 87
69 69 87
70 70 87
70 70 87
69 69 87
70 70 87
70 70 87
70 70 87
70 70 87
70 70 87
70 70 87
70 70 87
69 69 87
70 70 87
70 70 87
70 70 87
69 69 87
70 70 87
70 70 87
70 70 87
69 69 87
70 70 87
70 70 87
70 70 87
69 69 87
69 69 87
70 70 87
70 70 87
69 69 87
70 70 87
70 70 87
70 70 87
70 70 87
70 70 87
70 70 87
70 70 87
70 70 87
70 70 87
70 70 87
70 70 87
70 70 87
70 70 87
70 70 87
70 70 87
70 70 87
70 70 87
70 70 87
70 70 87
70 70 87
70 70 87
70 70 87
70 70 87
70 70 87
70 70 87
70 70 87
70 70 87
70 70 87
70 70 87
70 70 87
70 70 87
70 70 87
70 70 87
70 70 87
70 70 87
70 70 87
70 70 87
70 70 87
70 70 87
70 70 87
70 70 87
70 70 87
70 70 87
70 70 87
70 70 87
70 70 87
70 70 87
70 70 87
70 70 87
70 70 87
70 70 87
70 70 87
70 70 87
70 70 87
70 70 87
70 70 87
70 70 87
70 70 87
70 70 87
70 70 87
70 70 87
70 70 87
70 70 87
70 70 87
70 70 87
70 70 87
70 70 87
70 70 87
70 70 87
70 70 87
70 70 87
70 70 87
69 69 87
69 69 87
69 69 87
69 69 87
70 70 87
70 70 87
70 70 87
70 70 87
74 62 57
67 54 47
60 49 44
60 49 44
55 45 40
60 49 44
60 49 44
56 46 41
55 45 40
57 46 42
57 46 41
59 48 43
56 46 41
57 46 42
59 48 43
56 45 40
58 48 43
57 47 42
59 48 43
62 50 45
65 60 68
69 69 87
70 70 87
70 70 87
69 69 87
70 70 87
70 70 87
70 70 87
70 70 87
69 69 87
70 70 87
69 69 87
69 69 87
69 69 87
70 70 87
69 69 87
70 70 87
69 69 87
69 69 87
70 70 87
69 69 87
69 69 87
69 69 87
69 69 87
69 69 87
69 69 87
69 69 87
69 69 87
69 69 87
69 69 87
69 69 87
69 69 87
69 69 87
69 69 87
69 69 87
69 69 87
69 69 87
70 70 87
69 69 87
69 69 87
69 69 87
69 69 87
69 69 87
69 69 87
69 69 87
69 69 87
69 69 87
69 69 87
69 69 87
69 69 87
69 69 87
69 69 87
69 69 87
69 69 86
69 69 87
69 69 87
69 69 86
70 70 87
69 69 87
69 69 86
69 69 86
69 69 87
69 69 87
69 69 86
69 69 87
69 69 86
69 69 86
69 69 87
69 69 86
69 69 86
69 69 86
69 69 87
69 69 86
69 69 86
69 69 87
69 69 87
69 69 86
69 69 86
69 69 86
69 69 86
69 69 87
69 69 86
69 69 86
69 69 86
69 69 86
69 69 86
69 69 86
69 69 86
69 69 86
69 69 86
69 69 86
69 69 86
69 69 86
69 69 86
69 69 86
69 69 86
69 69 86
69 69 86
69 69 86
69 69 86
69 69 86
69 69 86
69 69 86
69 69 86
69 69 86
69 69 86
69 69 86
69 69 86
69 69 86
69 69 86
69 69 86
69 69 86
69 69 86
69 69 86
69 69 86
69 69 86
69 69 86
69 69 86
69 69 86
69 69 86
69 69 86
69 69 86
69 69 86
69 69 86
69 69 86
69 69 86
69 69 86
69 69 86
69 69 86
69 69 86
69 69 86
69 69 86
69 69 86
69 69 86
69 69 86
69 69 86
69 69 86
69 69 86
69 69 86
69 69 86
69 69 86
69 69 86
69 69 86
69 69 86
69 69 86
69 69 86
69 69 86
69 69 86
69 69 86
69 69 86
69 69 86
69 69 86
69 69 86
69 69 86
69 69 86
69 69 86
69 69 86
69 69 86
69 69 86
69 69 86
69 69 86
69 69 86
69 69 86
69 69 86
69 69 86
69 69 86
69 69 86
69 69 86
69 69 86
69 69 86
69 69 86
69 69 86
69 69 86
69 69 86
69 69 86
69 69 86
69 69 86
69 69 86
69 69 86
69 69 86
69 69 86
69 69 86
69 69 86
69 69 86
69 69 86
69 69 86
69 69 86
69 69 86
69 69 86
69 69 86
69 69 86
69 69 86
69 69 86
69 69 86
69 69 86
69 69 86
69 69 87
69 69 86
69 69 86
69 69 87
69 69 87
69 69 86
69 69 86
69 69 86
69 69 87
69 69 87
69 69 86
69 69 87
69 69 87
69 69 87
69 69 87
69 69 87
69 69 87
69 69 87
69 69 87
69 69 87
69 69 87
69 69 87
69 69 87
70 70 87
69 69 87
69 69 87
69 69 87
69 69 87
69 69 87
70 70 87
69 69 87
69 69 87
69 69 87
69 69 87
69 69 87
69 69 87
69 69 87
69 69 87
69 69 87
69 69 87
69 69 87
69 69 87
69 69 87
69 69 87
69 69 87
69 69 87
69 69 87
69 69 87
69 69 87
69 69 87
69 69 87
69 69 87
69 69 87
69 69 87
69 69 87
69 69 87
69 69 87
69 69 87
69 69 87
69 69 87
69 69 87
69 69 87
69 69 87
69 69 87
69 69 87
69 69 87
69 69 87
69 69 87
69 69 87
70 70 87
69 69 87
69 69 87
70 70 87
70 70 87
70 70 87
69 69 87
70 70 87
69 69 87
70 70 87
70 70 87
70 70 87
69 69 87
70 70 87
70 70 87
70 70 87
70 70 87
70 70 87
70 70 87
70 70 87
70 70 87
70 70 87
70 70 87
70 70 87
70 70 87
70 70 87
70 70 87
70 70 87
70 70 87
70 70 87
70 70 87
70 70 87
70 70 87
70 70 87
70 70 87
70 70 87
70 70 87
70 70 87
70 70 87
70 70 87
70 70 87
70 70 87
70 70 87
70 70 87
70 70 87
70 70 87
70 70 87
70 70 87
70 70 87
70 70 87
70 70 87
70 70 87
70 70 87
70 70 87
70 70 87
70 70 87
70 70 87
70 70 87
70 70 87
70 70 87
70 70 87
70 70 87
70 70 87
70 70 87
70 70 87
70 70 87
70 70 87
70 70 87
70 70 87
70 70 87
70 70 87
70 70 87
70 70 87
70 70 87
70 70 87
70 70 87
70 70 87
70 70 87
70 70 87
70 70 87
70 70 87
70 70 87
70 70 87
70 70 87
70 70 87
70 70 87
70 70 87
70 70 87
70 70 87
70 70 87
70 70 87
70 70 87
70 70 87
70 70 87
70 70 87
70 70 87
70 70 87
70 70 87
70 70 87
70 70 87
70 70 87
70 70 87
70 70 87
70 70 87
70 70 87
70 70 87
70 70 87
70 70 87
70 70 87
70 70 87
70 70 87
70 70 87
70 70 87
70 70 87
70 70 87
73 69 80
68 55 47
60 49 44
60 49 43
58 47 42
59 48 43
59 48 43
56 46 41
59 48 43
59 48 43
57 47 42
58 47 43
58 47 43
58 47 42
59 48 43
56 46 41
60 49 44
59 48 43
61 50 44
64 54 52
69 68 85
70 70 87
69 69 87
69 69 87
70 70 87
70 70 87
69 69 87
69 69 87
70 70 87
70 70 87
69 69 87
70 70 87
70 70 87
69 69 87
70 70 87
70 70 87
69 69 87
70 70 87
69 69 87
69 69 87
69 69 87
69 69 87
69 69 87
70 70 87
69 69 87
70 70 87
70 70 87
69 69 87
70 70 87
69 69 87
69 69 87
69 69 87
69 69 87
69 69 87
69 69 87
69 69 87
70 70 87
70 70 87
69 69 87
69 69 87
69 69 87
69 69 87
69 69 87
69 69 87
69 69 87
69 69 87
69 69 87
69 69 87
69 69 87
69 69 87
69 69 87
69 69 87
69 69 87
69 69 87
69 69 87
69 69 87
69 69 87
69 69 87
69 69 87
70 70 87
69 69 87
69 69 87
69 69 87
69 69 86
69 69 87
69 69 86
69 69 87
69 69 86
69 69 87
69 69 86
69 69 87
69 69 87
69 69 87
69 69 86
69 69 87
69 69 86
69 69 86
69 69 86
69 69 86
69 69 86
69 69 86
69 69 87
69 69 86
69 69 86
69 69 86
69 69 87
69 69 86
69 69 86
69 69 86
69 69 86
69 69 86
69 69 86
69 69 87
69 69 86
69 69 86
69 69 86
69 69 86
69 69 86
69 69 86
69 69 86
69 69 86
69 69 86
69 69 86
69 69 86
69 69 86
69 69 86
69 69 86
69 69 86
69 69 86
69 69 86
69 69 86
69 69 86
69 69 86
69 69 86
69 69 86
69 69 86
69 69 86
69 69 86
69 69 86
69 69 86
69 69 86
69 69 86
69 69 86
69 69 86
69 69 86
69 69 86
69 69 86
69 69 86
69 69 86
69 69 86
69 69 86
69 69 86
69 69 86
69 69 86
69 69 86
69 69 86
69 69 86
69 69 86
69 69 86
69 69 86
69 69 86
69 69 86
69 69 86
69 69 86
69 69 86
69 69 86
69 69 86
69 69 86
69 69 86
69 69 86
69 69 86
69 69 86
69 69 86
69 69 86
69 69 86
69 69 86
69 69 86
69 69 86
69 69 86
69 69 86
69 69 86
69 69 86
69 69 86
69 69 86
69 69 86
69 69 86
69 69 86
69 69 86
69 69 86
69 69 86
69 69 86
69 69 86
69 69 86
69 69 86
69 69 86
69 69 86
69 69 86
69 69 86
69 69 86
69 69 86
69 69 86
69 69 86
69 69 86
69 69 86
69 69 86
69 69 86
69 69 86
69 69 86
69 69 86
69 69 86
69 69 86
69 69 87
69 69 87
69 69 87
69 69 87
69 69 87
69 69 87
69 69 86
69 69 87
69 69 87
70 70 87
69 69 86
69 69 87
69 69 86
69 69 87
69 69 87
69 69 87
69 69 87
69 69 87
69 69 87
69 69 87
69 69 87
69 69 87
69 69 87
69 69 87
69 69 87
69 69 87
69 69 87
69 69 87
69 69 87
69 69 87
69 69 87
69 69 87
69 69 87
69 69 87
69 69 87
69 69 87
69 69 87
69 69 87
69 69 87
69 69 87
69 69 87
69 69 87
69 69 87
69 69 87
69 69 87
69 69 87
69 69 87
69 69 87
69 69 87
69 69 87
69 69 87
69 69 87
69 69 87
69 69 87
69 69 87
69 69 87
69 69 87
69 69 87
69 69 87
69 69 87
69 69 87
69 69 87
69 69 87
69 69 87
69 69 87
69 69 87
69 69 87
69 69 87
69 69 87
69 69 87
69 69 87
69 69 87
69 69 87
70 70 87
70 70 87
70 70 87
70 70 87
70 70 87
70 70 87
70 70 87
70 70 87
70 70 87
70 70 87
70 70 87
70 70 87
70 70 87
70 70 87
70 70 87
70 70 87
70 70 87
70 70 87
70 70 87
70 70 87
70 70 87
70 70 87
70 70 87
70 70 87
70 70 87
70 70 87
70 70 87
70 70 87
70 70 87
70 70 87
70 70 87
70 70 87
70 70 87
70 70 87
70 70 87
70 70 87
70 70 87
70 70 87
70 70 87
70 70 87
70 70 87
70 70 87
70 70 87
70 70 87
70 70 87
70 70 87
70 70 87
70 70 87
70 70 87
70 70 87
70 70 87
70 70 87
70 70 87
70 70 87
70 70 87
70 70 87
70 70 87
70 70 87
70 70 87
70 70 87
70 70 87
70 70 87
70 70 87
70 70 87
70 70 87
70 70 87
70 70 87
70 70 87
70 70 87
70 70 87
70 70 87
70 70 87
70 70 87
70 70 87
70 70 87
70 70 87
70 70 87
70 70 87
70 70 87
70 70 87
70 70 87
70 70 87
70 70 87
70 70 87
70 70 87
70 70 87
70 70 87
70 70 87
70 70 87
70 70 87
70 70 87
70 70 87
70 70 87
70 70 87
70 70 87
70 70 87
70 70 87
70 70 87
70 70 87
70 70 87
70 70 87
70 70 87
70 70 87
70 70 87
70 70 87
70 70 87
70 70 87
70 70 87
70 70 87
70 70 87
70 70 87
70 70 87
70 70 87
70 70 87
70 70 87
70 70 87
70 70 87
72 65 70
65 53 47
63 51 45
61 50 44
61 50 44
60 49 44
62 50 45
62 51 45
61 50 45
59 48 43
60 49 44
58 48 42
59 48 43
59 48 43
62 51 45
60 49 43
63 51 45
60 49 45
69 66 79
70 70 87
70 70 87
70 70 87
70 70 87
70 70 87
70 70 87
70 70 87
70 70 87
70 70 87
70 70 87
70 70 87
70 70 87
70 70 87
69 69 87
70 70 87
70 70 87
69 69 87
70 70 87
70 70 87
70 70 87
70 70 87
70 70 87
70 70 87
69 69 87
70 70 87
69 69 87
70 70 87
69 69 87
69 69 87
70 70 87
69 69 87
69 69 87
69 69 87
69 69 87
70 70 87
69 69 87
69 69 87
69 69 87
69 69 87
69 69 87
70 70 87
69 69 87
70 70 87
70 70 87
70 70 87
69 69 87
70 70 87
69 69 87
69 69 87
69 69 87
69 69 87
69 69 87
70 70 87
70 70 87
69 69 87
69 69 87
69 69 87
69 69 87
70 70 87
70 70 87
70 70 87
69 69 87
70 70 87
69 69 87
69 69 87
69 69 87
69 69 87
69 69 87
69 69 86
69 69 87
69 69 87
69 69 87
69 69 87
69 69 87
69 69 86
69 69 87
69 69 87
69 69 87
69 69 87
69 69 87
69 69 87
69 69 87
69 69 86
69 69 86
69 69 86
69 69 86
69 69 86
69 69 86
69 69 86
69 69 87
69 69 86
69 69 86
69 69 86
69 69 86
69 69 86
69 69 86
69 69 86
69 69 86
69 69 86
69 69 86
69 69 86
69 69 86
69 69 87
69 69 86
69 69 86
69 69 86
69 69 86
69 69 86
69 69 86
69 69 86
69 69 86
69 69 86
69 69 86
69 69 86
69 69 86
69 69 86
69 69 86
69 69 86
69 69 86
69 69 86
69 69 86
69 69 86
69 69 86
69 69 86
69 69 86
69 69 86
69 69 86
69 69 86
69 69 86
69 69 86
69 69 86
69 69 86
69 69 86
69 69 86
69 69 86
69 69 86
69 69 86
69 69 86
69 69 86
69 69 86
69 69 86
69 69 86
69 69 86
69 69 86
69 69 86
69 69 86
69 69 86
69 69 86
69 69 86
69 69 86
69 69 86
69 69 86
69 69 86
69 69 86
69 69 86
69 69 86
69 69 86
69 69 86
69 69 86
69 69 86
69 69 86
69 69 86
69 69 86
69 69 86
69 69 86
69 69 86
69 69 86
69 69 86
69 69 86
69 69 86
69 69 86
69 69 86
69 69 86
69 69 86
69 69 86
69 69 86
69 69 86
69 69 86
69 69 86
69 69 86
69 69 86
69 69 86
69 69 86
69 69 86
69 69 86
69 69 86
69 69 86
69 69 86
69 69 86
69 69 86
69 69 87
69 69 87
69 69 87
69 69 87
69 69 87
69 69 87
69 69 87
69 69 87
70 70 87
69 69 87
69 69 87
69 69 87
69 69 87
69 69 87
69 69 87
69 69 87
69 69 87
69 69 87
69 69 87
69 69 87
69 69 87
69 69 87
69 69 87
69 69 87
69 69 87
70 70 87
70 70 87
69 69 87
70 70 87
69 69 87
70 70 87
69 69 87
69 69 87
69 69 87
69 69 87
69 69 87
69 69 87
69 69 87
69 69 87
69 69 87
69 69 87
69 69 87
69 69 87
69 69 87
69 69 87
69 69 87
69 69 87
69 69 87
69 69 87
69 69 87
69 69 87
69 69 87
69 69 87
69 69 87
69 69 87
69 69 87
69 69 87
69 69 87
69 69 87
69 69 87
69 69 87
69 69 87
69 69 87
69 69 87
69 69 87
70 70 87
70 70 87
70 70 87
70 70 87
70 70 87
70 70 87
70 70 87
70 70 87
70 70 87
70 70 87
70 70 87
70 70 87
70 70 87
70 70 87
70 70 87
70 70 87
70 70 87
70 70 87
70 70 87
70 70 87
70 70 87
70 70 87
70 70 87
70 70 87
70 70 87
70 70 87
70 70 87
70 70 87
70 70 87
70 70 87
70 70 87
70 70 87
70 70 87
70 70 87
70 70 87
70 70 87
70 70 87
70 70 87
70 70 87
70 70 87
70 70 87
70 70 87
70 70 87
70 70 87
70 70 87
70 70 87
70 70 87
70 70 87
70 70 87
70 70 87
70 70 87
70 70 87
70 70 87
70 70 87
70 70 87
70 70 87
70 70 87
70 70 87
70 70 87
70 70 87
70 70 87
70 70 87
70 70 87
70 70 87
70 70 87
70 70 87
70 70 87
70 70 87
70 70 87
70 70 87
70 70 87
70 70 87
70 70 87
70 70 87
70 70 87
70 70 87
70 70 87
70 70 87
70 70 87
70 70 87
70 70 87
70 70 87
70 70 87
70 70 87
70 70 87
70 70 87
70 70 87
70 70 87
70 70 87
70 70 87
70 70 87
70 70 87
70 70 87
70 70 87
70 70 87
70 70 87
70 70 87
70 70 87
70 70 87
70 70 87
70 70 87
70 70 87
70 70 87
70 70 87
70 70 87
70 70 87
70 70 87
70 70 87
70 70 87
70 70 87
70 70 87
70 70 87
70 70 87
70 70 87
70 70 87
70 70 87
70 70 87
70 70 87
70 70 87
70 70 87
70 70 87
70 70 87
70 70 87
70 70 87
70 70 87
70 70 87
70 70 87
66 60 66
62 51 45
65 53 47
66 53 47
63 51 45
60 49 44
63 51 46
59 48 43
63 52 46
61 49 44
61 50 44
62 50 45
63 51 46
63 51 45
63 51 45
67 55 49
69 65 76
70 70 87
70 70 87
70 70 87
70 70 87
70 70 87
70 70 87
70 70 87
70 70 87
70 70 87
70 70 87
70 70 87
70 70 87
70 70 87
70 70 87
70 70 87
70 70 87
70 70 87
70 70 87
70 70 87
70 70 87
70 70 87
70 70 87
70 70 87
70 70 87
70 70 87
69 69 87
70 70 87
69 69 87
69 69 87
69 69 87
70 70 87
70 70 87
70 70 87
70 70 87
69 69 87
69 69 87
70 70 87
70 70 87
70 70 87
70 70 87
70 70 87
70 70 87
70 70 87
70 70 87
70 70 87
70 70 87
69 69 87
69 69 87
69 69 87
69 69 87
69 69 87
69 69 87
70 70 87
69 69 87
69 69 87
70 70 87
69 69 87
69 69 87
69 69 87
69 69 87
69 69 87
69 69 87
69 69 87
69 69 87
70 70 87
69 69 87
69 69 87
69 69 87
69 69 87
69 69 87
69 69 87
69 69 87
69 69 87
69 69 87
69 69 87
69 69 87
69 69 86
69 69 87
69 69 87
69 69 86
69 69 87
69 69 86
69 69 87
69 69 87
69 69 87
69 69 86
69 69 87
69 69 87
69 69 87
69 69 87
69 69 87
69 69 87
69 69 87
69 69 87
69 69 86
69 69 86
69 69 86
69 69 86
69 69 86
69 69 86
69 69 86
69 69 86
69 69 86
69 69 86
69 69 86
69 69 86
69 69 86
69 69 86
69 69 86
69 69 86
69 69 86
69 69 86
69 69 86
69 69 86
69 69 86
69 69 86
69 69 86
69 69 86
69 69 86
69 69 86
69 69 86
69 69 86
69 69 86
69 69 86
69 69 86
69 69 86
69 69 86
69 69 86
69 69 86
69 69 86
69 69 86
69 69 86
69 69 86
69 69 86
69 69 86
69 69 86
69 69 86
69 69 86
69 69 86
69 69 86
69 69 86
69 69 86
69 69 86
69 69 86
69 69 86
69 69 86
69 69 86
69 69 86
69 69 86
69 69 86
69 69 86
69 69 86
69 69 86
69 69 86
69 69 86
69 69 86
69 69 86
69 69 86
69 69 86
69 69 86
69 69 86
69 69 86
69 69 86
69 69 86
69 69 86
69 69 86
69 69 86
69 69 86
69 69 86
69 69 86
69 69 86
69 69 86
69 69 86
69 69 86
69 69 86
69 69 86
69 69 86
69 69 86
69 69 86
69 69 86
69 69 86
69 69 86
69 69 86
69 69 86
69 69 86
69 69 86
69 69 86
69 69 87
69 69 87
69 69 87
69 69 87
69 69 87
69 69 87
69 69 87
69 69 87
69 69 87
69 69 87
69 69 87
69 69 87
69 69 87
69 69 87
69 69 87
69 69 87
69 69 87
69 69 87
69 69 87
69 69 87
70 70 87
69 69 87
69 69 87
69 69 87
69 69 87
69 69 87
70 70 87
69 69 87
69 69 87
69 69 87
69 69 87
69 69 87
69 69 87
69 69 87
69 69 87
69 69 87
69 69 87
69 69 87
69 69 87
69 69 87
69 69 87
69 69 87
69 69 87
69 69 87
69 69 87
69 69 87
69 69 87
69 69 87
69 69 87
69 69 87
69 69 87
69 69 87
69 69 87
69 69 87
69 69 87
69 69 87
69 69 87
69 69 87
69 69 87
70 70 87
70 70 87
70 70 87
70 70 87
70 70 87
70 70 87
70 70 87
70 70 87
70 70 87
70 70 87
70 70 87
70 70 87
70 70 87
70 70 87
70 70 87
70 70 87
70 70 87
70 70 87
70 70 87
70 70 87
70 70 87
70 70 87
70 70 87
70 70 87
70 70 87
70 70 87
70 70 87
70 70 87
70 70 87
70 70 87
70 70 87
70 70 87
70 70 87
70 70 87
70 70 87
70 70 87
70 70 87
70 70 87
70 70 87
70 70 87
70 70 87
70 70 87
70 70 87
70 70 87
70 70 87
70 70 87
70 70 87
70 70 87
70 70 87
70 70 87
70 70 87
70 70 87
70 70 87
70 70 87
70 70 87
70 70 87
70 70 87
70 70 87
70 70 87
70 70 87
70 70 87
70 70 87
70 70 87
70 70 87
70 70 87
70 70 87
70 70 87
70 70 87
70 70 87
70 70 87
70 70 87
70 70 87
70 70 87
70 70 87
70 70 87
70 70 87
70 70 87
70 70 87
70 70 87
70 70 87
70 70 87
70 70 87
70 70 87
70 70 87
70 70 87
70 70 87
70 70 87
70 70 87
70 70 87
70 70 87
70 70 87
70 70 87
70 70 87
70 70 87
70 70 87
70 70 87
70 70 87
70 70 87
70 70 87
70 70 87
70 70 87
70 70 87
70 70 87
70 70 87
70 70 87
70 70 87
70 70 87
70 70 87
70 70 87
70 70 87
70 70 87
70 70 87
70 70 87
70 70 87
70 70 87
70 70 87
70 70 87
70 70 87
70 70 87
70 70 87
70 70 87
70 70 87
70 70 87
70 70 87
70 70 87
70 70 87
70 70 87
70 70 87
70 70 87
70 70 87
70 70 87
70 70 87
70 70 87
70 70 87
70 70 87
70 70 87
70 70 87
70 70 87
67 63 72
66 54 49
66 54 47
63 51 45
65 53 46
61 49 44
61 50 44
61 50 44
61 50 44
64 52 46
65 53 47
63 51 46
66 54 48
65 55 52
68 65 78
70 70 87
70 70 87
70 70 87
70 70 87
70 70 87
70 70 87
70 70 87
70 70 87
70 70 87
70 70 87
70 70 87
70 70 87
70 70 87
70 70 87
70 70 87
70 70 87
70 70 87
70 70 87
70 70 87
70 70 87
70 70 87
70 70 87
70 70 87
70 70 87
70 70 87
70 70 87
70 70 87
70 70 87
70 70 87
70 70 87
70 70 87
70 70 87
70 70 87
70 70 87
70 70 87
70 70 87
70 70 87
70 70 87
70 70 87
70 70 87
70 70 87
70 70 87
69 69 87
70 70 87
69 69 87
70 70 87
69 69 87
69 69 87
70 70 87
69 69 87
70 70 87
69 69 87
69 69 87
69 69 87
69 69 87
70 70 87
70 70 87
69 69 87
70 70 87
69 69 87
69 69 87
69 69 87
69 69 87
69 69 87
69 69 87
69 69 87
69 69 87
69 69 87
69 69 87
69 69 87
69 69 87
69 69 87
69 69 87
69 69 87
69 69 87
69 69 87
69 69 87
69 69 87
69 69 87
69 69 87
69 69 87
69 69 87
69 69 87
69 69 87
69 69 87
69 69 87
69 69 87
69 69 87
69 69 87
69 69 86
69 69 87
69 69 86
69 69 87
69 69 86
69 69 87
69 69 86
69 69 86
69 69 87
69 69 87
69 69 87
69 69 86
69 69 86
69 69 86
69 69 86
69 69 86
69 69 86
69 69 86
69 69 86
69 69 87
69 69 86
69 69 86
69 69 86
69 69 86
69 69 86
69 69 86
69 69 86
69 69 86
69 69 86
69 69 86
69 69 86
69 69 86
69 69 86
69 69 86
69 69 86
69 69 86
69 69 86
69 69 86
69 69 86
69 69 86
69 69 86
69 69 86
69 69 86
69 69 86
69 69 86
69 69 86
69 69 86
69 69 86
69 69 86
69 69 86
69 69 86
69 69 86
69 69 86
69 69 86
69 69 86
69 69 86
69 69 86
69 69 86
69 69 86
69 69 86
69 69 86
69 69 86
69 69 86
69 69 86
69 69 86
69 69 86
69 69 86
69 69 86
69 69 86
69 69 86
69 69 86
69 69 86
69 69 86
69 69 86
69 69 86
69 69 86
69 69 86
69 69 86
69 69 86
69 69 86
69 69 86
69 69 86
69 69 86
69 69 86
69 69 86
69 69 86
69 69 86
69 69 86
69 69 86
69 69 86
69 69 86
69 69 86
69 69 86
69 69 86
69 69 86
69 69 86
69 69 86
69 69 87
69 69 87
69 69 87
69 69 87
69 69 87
69 69 87
69 69 87
69 69 87
69 69 87
69 69 87
69 69 87
69 69 87
69 69 87
69 69 87
70 70 87
69 69 87
69 69 87
70 70 87
69 69 87
70 70 87
69 69 87
69 69 87
70 70 87
69 69 87
69 69 87
69 69 87
69 69 87
69 69 87
69 69 87
69 69 87
69 69 87
70 70 87
70 70 87
70 70 87
70 70 87
70 70 87
69 69 87
69 69 87
69 69 87
69 69 87
69 69 87
69 69 87
69 69 87
69 69 87
69 69 87
69 69 87
69 69 87
69 69 87
69 69 87
69 69 87
69 69 87
69 69 87
70 70 87
70 70 87
70 70 87
70 70 87
70 70 87
70 70 87
70 70 87
70 70 87
70 70 87
70 70 87
70 70 87
70 70 87
70 70 87
70 70 87
70 70 87
70 70 87
70 70 87
70 70 87
70 70 87
70 70 87
70 70 87
70 70 87
70 70 87
70 70 87
70 70 87
70 70 87
70 70 87
70 70 87
70 70 87
70 70 87
70 70 87
70 70 87
70 70 87
70 70 87
70 70 87
70 70 87
70 70 87
70 70 87
70 70 87
70 70 87
70 70 87
70 70 87
70 70 87
70 70 87
70 70 87
70 70 87
70 70 87
70 70 87
70 70 87
70 70 87
70 70 87
70 70 87
70 70 87
70 70 87
70 70 87
70 70 87
70 70 87
70 70 87
70 70 87
70 70 87
70 70 87
70 70 87
70 70 87
70 70 87
70 70 87
70 70 87
70 70 87
70 70 87
70 70 87
70 70 87
70 70 87
70 70 87
70 70 87
70 70 87
70 70 87
70 70 87
70 70 87
70 70 87
70 70 87
70 70 87
70 70 87
70 70 87
70 70 87
70 70 87
70 70 87
70 70 87
70 70 87
70 70 87
70 70 87
70 70 87
70 70 87
70 70 87
70 70 87
70 70 87
70 70 87
70 70 87
70 70 87
70 70 87
70 70 87
70 70 87
70 70 87
70 70 87
70 70 87
70 70 87
70 70 87
70 70 87
70 70 87
70 70 87
70 70 87
70 70 87
70 70 87
70 70 87
70 70 87
70 70 87
70 70 87
70 70 87
70 70 87
70 70 87
70 70 87
70 70 87
70 70 87
70 70 87
70 70 87
70 70 87
70 70 87
70 70 87
70 70 87
70 70 87
70 70 87
70 70 87
70 70 87
70 70 87
70 70 87
70 70 87
70 70 87
70 70 87
70 70 87
70 70 87
70 70 87
70 70 87
70 70 87
70 70 87
70 70 87
70 70 87
70 70 87
70 70 87
70 70 87
70 70 87
71 69 84
67 60 65
63 51 46
66 54 47
67 55 48
67 54 48
63 52 45
68 55 48
62 50 44
66 54 47
66 55 51
69 63 70
70 69 85
70 70 87
70 70 87
70 70 87
70 70 87
70 70 87
70 70 87
70 70 87
70 70 87
70 70 87
70 70 87
70 70 87
70 70 87
70 70 87
70 70 87
70 70 87
70 70 87
70 70 87
70 70 87
70 70 87
70 70 87
70 70 87
70 70 87
70 70 87
70 70 87
70 70 87
70 70 87
70 70 87
70 70 87
70 70 87
70 70 87
70 70 87
70 70 87
70 70 87
70 70 87
70 70 87
70 70 87
70 70 87
70 70 87
70 70 87
70 70 87
70 70 87
70 70 87
70 70 87
70 70 87
70 70 87
70 70 87
69 69 87
70 70 87
70 70 87
69 69 87
70 70 87
70 70 87
69 69 87
69 69 87
70 70 87
69 69 87
70 70 87
69 69 87
70 70 87
70 70 87
70 70 87
69 69 87
70 70 87
69 69 87
69 69 87
69 69 87
70 70 87
69 69 87
69 69 87
70 70 87
69 69 87
70 70 87
70 70 87
69 69 87
69 69 87
69 69 87
69 69 87
69 69 87
69 69 87
69 69 87
69 69 87
69 69 87
69 69 87
69 69 87
70 70 87
69 69 87
69 69 87
69 69 87
69 69 87
69 69 87
69 69 87
69 69 87
69 69 87
69 69 86
69 69 87
69 69 87
69 69 87
69 69 87
69 69 86
69 69 86
69 69 87
69 69 87
69 69 87
69 69 87
69 69 86
69 69 87
69 69 87
69 69 86
69 69 87
69 69 86
69 69 86
69 69 86
69 69 87
69 69 86
69 69 86
69 69 87
69 69 86
69 69 86
69 69 86
69 69 86
69 69 86
69 69 86
69 69 86
69 69 86
69 69 86
69 69 86
69 69 86
69 69 86
69 69 86
69 69 86
69 69 86
69 69 86
69 69 86
69 69 86
69 69 86
69 69 87
69 69 86
69 69 86
69 69 86
69 69 86
69 69 86
69 69 86
69 69 86
69 69 86
69 69 86
69 69 86
69 69 86
69 69 86
69 69 86
69 69 86
69 69 86
69 69 86
69 69 86
69 69 86
69 69 86
69 69 86
69 69 86
69 69 86
69 69 86
69 69 86
69 69 86
69 69 86
69 69 86
69 69 86
69 69 86
69 69 86
69 69 86
69 69 86
69 69 86
69 69 86
69 69 86
69 69 86
69 69 86
69 69 86
69 69 86
69 69 86
69 69 86
69 69 86
69 69 86
69 69 86
69 69 86
69 69 86
69 69 87
69 69 87
69 69 87
69 69 87
69 69 87
69 69 87
69 69 87
69 69 87
69 69 87
69 69 87
69 69 87
69 69 87
69 69 87
69 69 87
69 69 87
69 69 87
69 69 87
69 69 87
69 69 87
69 69 87
69 69 87
69 69 87
69 69 87
70 70 87
69 69 87
69 69 87
70 70 87
70 70 87
70 70 87
69 69 87
70 70 87
70 70 87
70 70 87
70 70 87
69 69 87
69 69 87
70 70 87
70 70 87
70 70 87
69 69 87
69 69 87
69 69 87
69 69 87
69 69 87
69 69 87
69 69 87
69 69 87
69 69 87
69 69 87
70 70 87
70 70 87
70 70 87
70 70 87
70 70 87
70 70 87
70 70 87
70 70 87
70 70 87
70 70 87
70 70 87
70 70 87
70 70 87
70 70 87
70 70 87
70 70 87
70 70 87
70 70 87
70 70 87
70 70 87
70 70 87
70 70 87
70 70 87
70 70 87
70 70 87
70 70 87
70 70 87
70 70 87
70 70 87
70 70 87
70 70 87
70 70 87
70 70 87
70 70 87
70 70 87
70 70 87
70 70 87
70 70 87
70 70 87
70 70 87
70 70 87
70 70 87
70 70 87
70 70 87
70 70 87
70 70 87
70 70 87
70 70 87
70 70 87
70 70 87
70 70 87
70 70 87
70 70 87
70 70 87
70 70 87
70 70 87
70 70 87
70 70 87
70 70 87
70 70 87
70 70 87
70 70 87
70 70 87
70 70 87
70 70 87
70 70 87
70 70 87
70 70 87
70 70 87
70 70 87
70 70 87
70 70 87
70 70 87
70 70 87
70 70 87
70 70 87
70 70 87
70 70 87
70 70 87
70 70 87
70 70 87
70 70 87
70 70 87
70 70 87
70 70 87
70 70 87
70 70 87
70 70 87
70 70 87
70 70 87
70 70 87
70 70 87
70 70 87
70 70 87
70 70 87
70 70 87
70 70 87
70 70 87
70 70 87
70 70 87
70 70 87
70 70 87
70 70 87
70 70 87
70 70 87
70 70 87
70 70 87
70 70 87
70 70 87
70 70 87
70 70 87
70 70 87
70 70 87
70 70 87
70 70 87
70 70 87
70 70 87
70 70 87
70 70 87
70 70 87
70 70 87
70 70 87
70 70 87
70 70 87
70 70 87
70 70 87
70 70 87
70 70 87
70 70 87
70 70 87
70 70 87
70 70 87
70 70 87
70 70 87
70 70 87
70 70 87
70 70 87
70 70 87
70 70 87
70 70 87
70 70 87
70 70 87
70 70 87
70 70 87
70 70 87
70 70 87
70 70 87
70 70 87
70 70 87
70 70 87
70 70 87
70 70 87
70 70 87
70 70 87
70 70 87
70 70 87
70 70 87
70 70 87
70 69 85
70 66 76
69 62 68
67 59 62
67 59 61
66 59 63
70 64 70
69 66 78
70 69 86
70 70 87
70 70 87
70 70 87
70 70 87
70 70 87
70 70 87
70 70 87
70 70 87
70 70 87
70 70 87
70 70 87
70 70 87
70 70 87
70 70 87
70 70 87
70 70 87
70 70 87
70 70 87
70 70 87
70 70 87
70 70 87
70 70 87
70 70 87
70 70 87
70 70 87
70 70 87
70 70 87
70 70 87
70 70 87
70 70 87
70 70 87
70 70 87
70 70 87
70 70 87
70 70 87
70 70 87
70 70 87
70 70 87
70 70 87
70 70 87
70 70 87
70 70 87
70 70 87
70 70 87
70 70 87
70 70 87
70 70 87
70 70 87
70 70 87
70 70 87
69 69 87
70 70 87
69 69 87
70 70 87
70 70 87
70 70 87
70 70 87
70 70 87
70 70 87
70 70 87
70 70 87
70 70 87
70 70 87
70 70 87
69 69 87
70 70 87
70 70 87
69 69 87
70 70 87
69 69 87
69 69 87
69 69 87
69 69 87
69 69 87
69 69 87
70 70 87
70 70 87
70 70 87
69 69 87
69 69 87
69 69 87
69 69 87
70 70 87
69 69 87
69 69 87
69 69 87
69 69 87
69 69 87
70 70 87
69 69 87
70 70 87
69 69 87
69 69 87
69 69 87
69 69 87
69 69 87
69 69 87
69 69 87
69 69 87
69 69 87
69 69 87
69 69 87
69 69 86
69 69 87
69 69 87
69 69 87
69 69 87
69 69 86
69 69 86
69 69 86
69 69 86
69 69 87
69 69 87
69 69 87
70 70 87
69 69 86
69 69 86
69 69 87
69 69 86
69 69 86
69 69 86
69 69 86
70 70 87
69 69 86
69 69 86
69 69 86
69 69 86
69 69 86
69 69 86
69 69 86
69 69 87
69 69 86
69 69 86
69 69 86
69 69 86
69 69 86
69 69 86
69 69 86
69 69 86
69 69 86
69 69 86
69 69 86
69 69 86
69 69 86
69 69 86
69 69 86
69 69 86
69 69 86
69 69 87
69 69 86
69 69 86
69 69 86
69 69 86
69 69 86
69 69 86
69 69 86
69 69 86
69 69 86
69 69 86
69 69 86
69 69 86
69 69 86
69 69 86
69 69 86
69 69 86
69 69 86
69 69 86
69 69 86
69 69 86
69 69 86
69 69 86
69 69 86
69 69 86
69 69 86
69 69 86
69 69 86
69 69 86
69 69 86
69 69 87
69 69 87
69 69 87
69 69 87
69 69 87
69 69 87
69 69 87
69 69 87
69 69 87
69 69 87
69 69 87
70 70 87
70 70 87
69 69 87
69 69 87
69 69 87
69 69 87
69 69 87
69 69 87
69 69 87
69 69 87
69 69 87
70 70 87
69 69 87
70 70 87
70 70 87
69 69 87
69 69 87
70 70 87
69 69 87
69 69 87
70 70 87
69 69 87
69 69 87
70 70 87
70 70 87
69 69 87
70 70 87
70 70 87
70 70 87
70 70 87
70 70 87
70 70 87
70 70 87
69 69 87
69 69 87
69 69 87
70 70 87
70 70 87
70 70 87
70 70 87
70 70 87
70 70 87
70 70 87
70 70 87
70 70 87
70 70 87
70 70 87
70 70 87
70 70 87
70 70 87
70 70 87
70 70 87
70 70 87
70 70 87
70 70 87
70 70 87
70 70 87
70 70 87
70 70 87
70 70 87
70 70 87
70 70 87
70 70 87
70 70 87
70 70 87
70 70 87
70 70 87
70 70 87
70 70 87
70 70 87
70 70 87
70 70 87
70 70 87
70 70 87
70 70 87
70 70 87
70 70 87
70 70 87
70 70 87
70 70 87
70 70 87
70 70 87
70 70 87
70 70 87
70 70 87
70 70 87
70 70 87
70 70 87
70 70 87
70 70 87
70 70 87
70 70 87
70 70 87
70 70 87
70 70 87
70 70 87
70 70 87
70 70 87
70 70 87
70 70 87
70 70 87
70 70 87
70 70 87
70 70 87
70 70 87
70 70 87
70 70 87
70 70 87
70 70 87
70 70 87
70 70 87
70 70 87
70 70 87
70 70 87
70 70 87
70 70 87
70 70 87
70 70 87
70 70 87
70 70 87
70 70 87
70 70 87
70 70 87
70 70 87
70 70 87
70 70 87
70 70 87
70 70 87
70 70 87
70 70 87
70 70 87
70 70 87
70 70 87
70 70 87
70 70 87
70 70 87
70 70 87
70 70 87
70 70 87
70 70 87
70 70 87
70 70 87
70 70 87
70 70 87
70 70 87
70 70 87
70 70 87
70 70 87
70 70 87
70 70 87
70 70 87
70 70 87
70 70 87
70 70 87
70 70 87
70 70 87
70 70 87
70 70 87
70 70 87
70 70 87
70 70 87
70 70 87
70 70 87
70 70 87
70 70 87
70 70 87
70 70 87
70 70 87
70 70 87
70 70 87
70 70 87
70 70 87
70 70 87
70 70 87
70 70 87
70 70 87
70 70 87
70 70 87
70 70 87
70 70 87
70 70 87
70 70 87
70 70 87
70 70 87
70 70 87
70 70 87
70 70 87
70 70 87
70 70 87
70 70 87
70 70 87
70 70 87
70 70 87
70 70 87
70 70 87
70 70 87
70 70 87
70 70 87
70 70 87
70 70 87
70 70 87
70 70 87
70 70 87
70 70 87
70 70 87
70 70 87
70 70 87
70 70 87
70 70 87
70 70 87
70 70 87
70 70 87
70 70 87
70 70 87
70 70 87
70 70 87
70 70 87
70 70 87
70 70 87
70 70 87
70 70 87
70 70 87
70 70 87
70 70 87
70 70 87
70 70 87
70 70 87
70 70 87
70 70 87
70 70 87
70 70 87
70 70 87
70 70 87
70 70 87
70 70 87
70 70 87
70 70 87
70 70 87
70 70 87
70 70 87
70 70 87
70 70 87
70 70 87
70 70 87
70 70 87
70 70 87
70 70 87
70 70 87
70 70 87
70 70 87
70 70 87
70 70 87
70 70 87
70 70 87
70 70 87
70 70 87
70 70 87
70 70 87
70 70 87
70 70 87
70 70 87
70 70 87
70 70 87
70 70 87
70 70 87
70 70 87
70 70 87
70 70 87
70 70 87
70 70 87
70 70 87
69 69 87
70 70 87
70 70 87
70 70 87
70 70 87
69 69 87
69 69 87
70 70 87
70 70 87
70 70 87
70 70 87
69 69 87
69 69 87
69 69 87
69 69 87
69 69 87
70 70 87
69 69 87
69 69 87
70 70 87
69 69 87
69 69 87
70 70 87
69 69 87
69 69 87
69 69 87
69 69 87
70 70 87
69 69 87
69 69 87
69 69 87
69 69 87
69 69 87
69 69 87
69 69 87
69 69 87
69 69 87
69 69 87
69 69 87
69 69 87
70 70 87
69 69 87
69 69 87
69 69 87
69 69 87
69 69 87
69 69 87
69 69 87
69 69 87
69 69 87
69 69 86
69 69 86
69 69 87
69 69 87
69 69 87
69 69 86
69 69 87
69 69 87
69 69 87
69 69 86
69 69 86
69 69 87
69 69 86
69 69 86
69 69 86
69 69 86
69 69 86
69 69 86
69 69 86
69 69 86
69 69 86
69 69 86
69 69 86
69 69 86
69 69 86
69 69 86
69 69 86
69 69 86
69 69 86
69 69 86
69 69 86
69 69 86
69 69 86
69 69 86
69 69 86
69 69 86
69 69 86
69 69 86
69 69 86
69 69 86
69 69 86
69 69 86
69 69 86
69 69 86
69 69 86
69 69 86
69 69 86
69 69 86
69 69 86
69 69 86
69 69 86
69 69 86
69 69 86
69 69 86
69 69 86
69 69 86
69 69 86
69 69 86
69 69 86
69 69 86
69 69 86
69 69 86
69 69 87
69 69 87
69 69 87
69 69 87
69 69 87
69 69 87
69 69 87
69 69 87
69 69 87
69 69 87
69 69 87
69 69 87
69 69 87
69 69 87
70 70 87
69 69 87
69 69 87
69 69 87
69 69 87
69 69 87
70 70 87
69 69 87
69 69 87
69 69 87
70 70 87
69 69 87
69 69 87
70 70 87
70 70 87
70 70 87
70 70 87
70 70 87
69 69 87
69 69 87
70 70 87
70 70 87
70 70 87
69 69 87
69 69 87
70 70 87
69 69 87
70 70 87
70 70 87
70 70 87
70 70 87
70 70 87
70 70 87
70 70 87
70 70 87
70 70 87
70 70 87
70 70 87
70 70 87
70 70 87
70 70 87
70 70 87
70 70 87
70 70 87
70 70 87
70 70 87
70 70 87
70 70 87
70 70 87
70 70 87
70 70 87
70 70 87
70 70 87
70 70 87
70 70 87
70 70 87
70 70 87
70 70 87
70 70 87
70 70 87
70 70 87
70 70 87
70 70 87
70 70 87
70 70 87
70 70 87
70 70 87
70 70 87
70 70 87
70 70 87
70 70 87
70 70 87
70 70 87
70 70 87
70 70 87
70 70 87
70 70 87
70 70 87
70 70 87
70 70 87
70 70 87
70 70 87
70 70 87
70 70 87
70 70 87
70 70 87
70 70 87
70 70 87
70 70 87
70 70 87
70 70 87
70 70 87
70 70 87
70 70 87
70 70 87
70 70 87
70 70 87
70 70 87
70 70 87
70 70 87
70 70 87
70 70 87
70 70 87
70 70 87
70 70 87
70 70 87
70 70 87
70 70 87
70 70 87
70 70 87
70 70 87
70 70 87
70 70 87
70 70 87
70 70 87
70 70 87
70 70 87
70 70 87
70 70 87
70 70 87
70 70 87
70 70 87
70 70 87
70 70 87
70 70 87
70 70 87
70 70 87
70 70 87
70 70 87
70 70 87
70 70 87
70 70 87
70 70 87
70 70 87
70 70 87
70 70 87
70 70 87
70 70 87
70 70 87
70 70 87
70 70 87
70 70 87
70 70 87
70 70 87
70 70 87
70 70 87
70 70 87
70 70 87
70 70 87
70 70 87
70 70 87
70 70 87
70 70 87
70 70 87
70 70 87
70 70 87
70 70 87
70 70 87
70 70 87
70 70 87
70 70 87
70 70 87
70 70 87
70 70 87
70 70 87
70 70 87
70 70 87
70 70 87
70 70 87
70 70 87
70 70 87
70 70 87
70 70 87
70 70 87
70 70 87
70 70 87
70 70 87
70 70 87
70 70 87
70 70 87
70 70 87
70 70 88
70 70 87
70 70 87
70 70 87
70 70 87
70 70 87
70 70 87
70 70 87
70 70 87
70 70 87
70 70 87
70 70 87
70 70 87
70 70 87
70 70 87
70 70 87
70 70 87
70 70 87
70 70 87
70 70 87
70 70 87
70 70 87
70 70 87
70 70 87
70 70 87
70 70 87
70 70 87
70 70 87
70 70 87
70 70 87
70 70 87
70 70 87
70 70 87
70 70 87
70 70 87
70 70 87
70 70 87
70 70 87
70 70 87
70 70 87
70 70 87
70 70 87
70 70 87
70 70 87
70 70 87
70 70 87
70 70 87
70 70 87
70 70 87
70 70 87
70 70 87
70 70 87
70 70 87
70 70 87
70 70 87
70 70 87
70 70 87
70 70 87
70 70 87
70 70 87
70 70 87
70 70 87
70 70 87
70 70 87
70 70 87
70 70 87
70 70 87
70 70 87
70 70 87
70 70 87
70 70 87
70 70 87
70 70 87
70 70 87
70 70 87
70 70 87
70 70 87
70 70 87
70 70 87
70 70 87
70 70 87
70 70 87
70 70 87
70 70 87
70 70 87
70 70 87
70 70 87
70 70 87
70 70 87
70 70 87
70 70 87
70 70 87
70 70 87
70 70 87
70 70 87
70 70 87
70 70 87
70 70 87
69 69 87
70 70 87
69 69 87
69 69 87
70 70 87
70 70 87
70 70 87
70 70 87
69 69 87
70 70 87
70 70 87
70 70 87
69 69 87
70 70 87
69 69 87
70 70 87
69 69 87
69 69 87
69 69 87
69 69 87
69 69 87
69 69 87
70 70 87
70 70 87
70 70 87
70 70 87
70 70 87
70 70 87
69 69 87
69 69 87
69 69 87
69 69 87
69 69 87
69 69 87
69 69 87
69 69 87
70 70 87
69 69 87
69 69 87
69 69 87
69 69 87
69 69 87
69 69 87
69 69 87
69 69 87
69 69 87
69 69 87
69 69 87
69 69 87
69 69 87
69 69 86
69 69 87
70 70 87
69 69 86
69 69 86
69 69 87
69 69 87
69 69 86
69 69 86
69 69 86
69 69 87
69 69 86
69 69 87
69 69 86
69 69 86
69 69 86
69 69 86
69 69 86
69 69 86
69 69 86
69 69 86
69 69 86
69 69 86
69 69 86
69 69 86
69 69 86
69 69 86
69 69 86
69 69 86
69 69 86
69 69 86
69 69 86
69 69 86
69 69 86
69 69 86
69 69 86
69 69 86
69 69 86
69 69 86
69 69 86
69 69 86
69 69 86
69 69 86
69 69 86
69 69 86
69 69 86
69 69 86
69 69 86
69 69 86
69 69 86
69 69 86
69 69 87
69 69 87
69 69 87
69 69 87
69 69 87
69 69 87
69 69 87
69 69 87
69 69 87
69 69 87
69 69 87
69 69 87
69 69 87
69 69 87
69 69 87
69 69 87
69 69 87
69 69 87
70 70 87
69 69 87
69 69 87
69 69 87
69 69 87
69 69 87
69 69 87
69 69 87
69 69 87
70 70 87
69 69 87
69 69 87
70 70 87
70 70 87
70 70 87
70 70 87
70 70 87
70 70 87
69 69 87
70 70 87
69 69 87
70 70 87
70 70 87
70 70 87
69 69 87
70 70 87
70 70 87
70 70 87
70 70 87
70 70 87
70 70 87
70 70 87
70 70 87
70 70 87
70 70 87
70 70 87
70 70 87
70 70 87
70 70 87
70 70 87
70 70 87
70 70 87
70 70 87
70 70 87
70 70 87
70 70 87
70 70 87
70 70 87
70 70 87
70 70 87
70 70 87
70 70 87
70 70 87
70 70 87
70 70 87
70 70 87
70 70 87
70 70 87
70 70 87
70 70 87
70 70 87
70 70 87
70 70 87
70 70 87
70 70 87
70 70 87
70 70 87
70 70 87
70 70 87
70 70 87
70 70 87
70 70 87
70 70 87
70 70 87
70 70 87
70 70 87
70 70 87
70 70 87
70 70 87
70 70 87
70 70 87
70 70 87
70 70 87
70 70 87
70 70 87
70 70 87
70 70 87
70 70 87
70 70 87
70 70 87
70 70 87
70 70 87
70 70 87
70 70 87
70 70 87
70 70 87
70 70 87
70 70 87
70 70 87
70 70 87
70 70 87
70 70 87
70 70 87
70 70 87
70 70 87
70 70 87
70 70 87
70 70 87
70 70 87
70 70 87
70 70 87
70 70 87
70 70 87
70 70 88
70 70 87
70 70 87
70 70 87
70 70 87
70 70 87
70 70 87
70 70 87
70 70 87
70 70 87
70 70 87
70 70 87
70 70 87
70 70 87
70 70 87
70 70 87
70 70 87
70 70 87
70 70 87
70 70 87
70 70 87
70 70 87
70 70 87
70 70 87
70 70 87
70 70 87
70 70 87
70 70 87
70 70 87
70 70 87
70 70 87
70 70 87
70 70 87
70 70 87
70 70 87
70 70 87
70 70 87
70 70 87
70 70 87
70 70 87
70 70 87
70 70 87
70 70 87
70 70 87
70 70 87
70 70 87
70 70 87
70 70 87
70 70 87
70 70 87
70 70 87
70 70 87
70 70 87
70 70 87
70 70 87
70 70 87
70 70 87
70 70 87
70 70 87
70 70 87
70 70 87
70 70 87
70 70 88
70 70 88
70 70 87
70 70 87
70 70 87
70 70 87
70 70 87
70 70 87
70 70 87
70 70 87
70 70 87
70 70 87
70 70 87
70 70 87
70 70 87
70 70 87
70 70 87
70 70 87
70 70 87
70 70 87
70 70 87
70 70 87
70 70 87
70 70 87
70 70 87
70 70 87
70 70 87
70 70 87
70 70 87
70 70 87
70 70 88
70 70 87
70 70 87
70 70 87
70 70 87
70 70 87
70 70 87
70 70 87
70 70 87
70 70 87
70 70 87
70 70 87
70 70 87
70 70 87
70 70 87
70 70 87
70 70 87
70 70 87
70 70 88
70 70 87
70 70 87
70 70 87
70 70 87
70 70 87
70 70 87
70 70 87
70 70 87
70 70 87
70 70 87
70 70 87
70 70 87
70 70 87
70 70 87
70 70 87
70 70 87
70 70 87
70 70 87
70 70 87
70 70 87
70 70 87
70 70 87
70 70 87
70 70 87
70 70 87
70 70 87
70 70 87
70 70 87
70 70 87
70 70 87
70 70 87
70 70 87
70 70 87
70 70 87
70 70 87
70 70 87
70 70 87
70 70 87
70 70 87
70 70 87
70 70 87
70 70 87
70 70 87
70 70 87
70 70 87
70 70 87
70 70 87
70 70 87
70 70 87
70 70 87
70 70 87
70 70 87
70 70 87
70 70 87
70 70 87
70 70 87
70 70 87
70 70 87
70 70 87
70 70 87
70 70 87
70 70 87
70 70 87
70 70 87
70 70 87
70 70 87
70 70 87
70 70 87
70 70 87
70 70 87
70 70 87
69 69 87
70 70 87
69 69 87
70 70 87
70 70 87
70 70 87
70 70 87
70 70 87
70 70 87
69 69 87
69 69 87
69 69 87
69 69 87
70 70 87
70 70 87
69 69 87
69 69 87
69 69 87
70 70 87
70 70 87
69 69 87
69 69 87
69 69 87
69 69 87
69 69 87
69 69 87
69 69 87
69 69 87
69 69 87
69 69 87
69 69 87
69 69 87
69 69 87
69 69 87
69 69 87
69 69 87
69 69 87
69 69 87
69 69 87
69 69 87
69 69 86
69 69 87
69 69 86
69 69 87
69 69 87
69 69 87
69 69 87
69 69 86
69 69 86
69 69 86
69 69 87
69 69 87
69 69 86
69 69 86
69 69 86
69 69 87
69 69 86
69 69 86
69 69 86
69 69 86
69 69 86
69 69 86
69 69 86
69 69 86
69 69 86
69 69 86
69 69 86
69 69 87
69 69 87
69 69 86
69 69 86
69 69 86
69 69 86
69 69 86
69 69 86
69 69 86
69 69 86
69 69 86
69 69 86
69 69 86
69 69 86
69 69 86
69 69 87
69 69 87
69 69 87
69 69 87
69 69 87
69 69 87
69 69 87
69 69 87
69 69 87
69 69 87
69 69 87
69 69 87
69 69 87
69 69 87
69 69 87
69 69 87
69 69 87
69 69 87
69 69 87
69 69 87
69 69 87
69 69 87
69 69 87
70 70 87
69 69 87
69 69 87
70 70 87
70 70 87
70 70 87
69 69 87
70 70 87
69 69 87
69 69 87
70 70 87
69 69 87
70 70 87
70 70 87
70 70 87
69 69 87
70 70 87
70 70 87
70 70 87
70 70 87
70 70 87
70 70 87
70 70 87
70 70 87
70 70 87
70 70 87
70 70 87
70 70 87
70 70 87
70 70 87
70 70 87
70 70 87
70 70 87
70 70 87
70 70 87
70 70 87
70 70 87
70 70 87
70 70 87
70 70 87
70 70 87
70 70 87
70 70 87
70 70 87
70 70 87
70 70 87
70 70 87
70 70 87
70 70 87
70 70 87
70 70 87
70 70 87
70 70 87
70 70 87
70 70 87
70 70 87
70 70 87
70 70 87
70 70 87
70 70 87
70 70 87
70 70 87
70 70 87
70 70 87
70 70 87
70 70 87
70 70 87
70 70 87
70 70 87
70 70 87
70 70 87
70 70 87
70 70 87
70 70 87
70 70 87
70 70 87
70 70 87
70 70 87
70 70 87
70 70 87
70 70 87
70 70 87
70 70 87
70 70 87
70 70 87
70 70 87
70 70 87
70 70 87
70 70 87
70 70 87
70 70 87
70 70 87
70 70 87
70 70 87
70 70 87
70 70 87
70 70 87
70 70 87
70 70 87
70 70 87
70 70 87
70 70 87
70 70 88
70 70 87
70 70 87
70 70 87
70 70 87
70 70 87
70 70 87
70 70 87
70 70 87
70 70 87
70 70 87
70 70 87
70 70 87
70 70 87
70 70 87
70 70 87
70 70 87
70 70 87
70 70 87
70 70 87
70 70 87
70 70 87
70 70 87
70 70 87
70 70 87
70 70 87
70 70 87
70 70 87
70 70 87
70 70 87
70 70 87
70 70 87
70 70 87
70 70 87
70 70 87
70 70 87
70 70 87
70 70 87
70 70 87
70 70 87
70 70 87
70 70 87
70 70 87
70 70 87
70 70 87
70 70 87
70 70 87
70 70 87
70 70 87
70 70 87
70 70 87
70 70 87
70 70 87
70 70 87
70 70 87
70 70 87
70 70 87
70 70 87
70 70 87
70 70 87
70 70 87
70 70 87
70 70 87
70 70 87
70 70 87
70 70 87
70 70 87
70 70 87
70 70 87
70 70 87
70 70 87
70 70 88
70 70 87
70 70 87
70 70 87
70 70 87
70 70 87
70 70 88
70 70 87
70 70 87
70 70 87
70 70 87
70 70 87
70 70 87
70 70 87
70 70 87
70 70 87
70 70 87
70 70 87
70 70 87
70 70 87
70 70 87
70 70 87
70 70 87
70 70 87
70 70 87
70 70 87
70 70 87
70 70 87
70 70 87
70 70 87
70 70 87
70 70 87
70 70 87
70 70 87
70 70 87
70 70 87
70 70 87
70 70 87
70 70 87
70 70 87
70 70 87
70 70 87
70 70 87
70 70 87
70 70 87
70 70 87
70 70 87
70 70 87
70 70 87
70 70 87
70 70 87
70 70 87
70 70 87
70 70 87
70 70 87
70 70 87
70 70 87
70 70 87
70 70 87
70 70 87
70 70 87
70 70 87
70 70 87
70 70 87
70 70 87
70 70 87
70 70 87
70 70 87
70 70 87
70 70 87
70 70 87
70 70 87
70 70 87
70 70 87
70 70 87
70 70 87
70 70 87
70 70 87
70 70 87
70 70 87
70 70 87
70 70 87
70 70 87
70 70 87
70 70 87
70 70 87
70 70 87
70 70 87
70 70 87
70 70 87
70 70 87
70 70 87
70 70 87
70 70 87
70 70 87
70 70 87
70 70 87
70 70 87
70 70 87
70 70 87
70 70 87
70 70 87
70 70 87
70 70 87
70 70 87
70 70 87
70 70 87
70 70 87
70 70 87
70 70 87
70 70 87
70 70 87
70 70 87
70 70 87
70 70 87
70 70 87
70 70 87
70 70 87
70 70 87
70 70 87
70 70 87
69 69 87
70 70 87
70 70 87
69 69 87
70 70 87
70 70 87
69 69 87
70 70 87
69 69 87
69 69 87
70 70 87
69 69 87
69 69 87
69 69 87
69 69 87
69 69 87
70 70 87
69 69 87
69 69 87
69 69 87
69 69 87
69 69 87
69 69 87
69 69 87
70 70 87
69 69 87
69 69 87
69 69 87
69 69 87
69 69 87
69 69 87
69 69 87
69 69 87
69 69 87
69 69 87
69 69 87
69 69 87
69 69 87
69 69 87
69 69 87
69 69 87
69 69 87
69 69 87
69 69 87
69 69 87
69 69 87
69 69 87
69 69 87
69 69 87
69 69 87
70 70 87
69 69 86
69 69 86
69 69 87
69 69 87
69 69 87
69 69 86
69 69 86
69 69 86
69 69 86
69 69 87
69 69 86
69 69 86
69 69 87
69 69 86
69 69 86
69 69 86
70 70 87
69 69 86
69 69 86
69 69 86
69 69 86
69 69 86
69 69 86
69 69 86
69 69 86
69 69 86
69 69 86
69 69 87
69 69 87
69 69 87
69 69 87
69 69 87
69 69 87
69 69 87
69 69 87
69 69 87
69 69 87
69 69 87
69 69 87
69 69 87
69 69 87
69 69 87
69 69 87
69 69 87
69 69 87
69 69 87
69 69 87
69 69 87
69 69 87
69 69 87
69 69 87
69 69 87
69 69 87
70 70 87
69 69 87
69 69 87
69 69 87
70 70 87
69 69 87
70 70 87
70 70 87
70 70 87
69 69 87
70 70 87
70 70 87
70 70 87
70 70 87
70 70 87
70 70 87
70 70 87
70 70 87
70 70 87
70 70 87
70 70 87
70 70 87
70 70 87
70 70 87
70 70 87
70 70 87
70 70 87
70 70 87
70 70 87
70 70 87
70 70 87
70 70 87
70 70 87
70 70 87
70 70 87
70 70 87
70 70 87
70 70 87
70 70 87
70 70 87
70 70 87
70 70 87
70 70 87
70 70 87
70 70 87
70 70 87
70 70 87
70 70 87
70 70 87
70 70 87
70 70 87
70 70 87
70 70 87
70 70 87
70 70 87
70 70 87
70 70 87
70 70 87
70 70 87
70 70 87
70 70 87
70 70 87
70 70 87
70 70 87
70 70 87
70 70 87
70 70 87
70 70 87
70 70 87
70 70 87
70 70 87
70 70 87
70 70 87
70 70 87
70 70 87
70 70 87
70 70 87
70 70 87
70 70 87
70 70 87
70 70 87
70 70 87
70 70 87
70 70 87
70 70 87
70 70 87
70 70 87
70 70 87
70 70 87
70 70 87
70 70 87
70 70 87
70 70 87
70 70 87
70 70 87
70 70 87
70 70 87
70 70 87
70 70 87
70 70 87
70 70 87
70 70 87
70 70 87
70 70 87
70 70 87
70 70 87
70 70 87
70 70 87
70 70 87
70 70 88
70 70 87
70 70 87
70 70 88
70 70 87
70 70 87
70 70 87
70 70 87
70 70 87
70 70 87
70 70 87
70 70 87
70 70 87
70 70 87
70 70 87
70 70 87
70 70 87
70 70 87
70 70 87
70 70 87
70 70 87
70 70 87
70 70 87
70 70 87
70 70 87
70 70 87
70 70 87
70 70 87
70 70 87
70 70 87
70 70 87
70 70 87
70 70 87
70 70 87
70 70 87
70 70 87
70 70 87
70 70 87
70 70 87
70 70 87
70 70 87
70 70 87
70 70 87
70 70 87
70 70 87
70 70 87
70 70 87
70 70 87
70 70 87
70 70 87
70 70 87
70 70 87
70 70 87
70 70 87
70 70 87
70 70 87
70 70 87
70 70 87
70 70 88
70 70 87
70 70 87
70 70 87
70 70 87
70 70 87
70 70 87
70 70 87
70 70 88
70 70 87
70 70 87
70 70 88
70 70 87
70 70 87
70 70 87
70 70 88
70 70 87
70 70 87
70 70 88
70 70 87
70 70 87
70 70 87
70 70 88
70 70 88
70 70 87
70 70 88
70 70 88
70 70 88
70 70 87
70 70 88
70 70 87
70 70 88
70 70 87
70 70 87
70 70 87
70 70 87
70 70 88
70 70 88
70 70 87
70 70 87
70 70 87
70 70 87
70 70 87
70 70 87
70 70 87
70 70 87
70 70 87
70 70 88
70 70 87
70 70 87
70 70 87
70 70 88
70 70 87
70 70 87
70 70 87
70 70 87
70 70 87
70 70 87
70 70 87
70 70 87
70 70 87
70 70 87
70 70 87
70 70 87
70 70 87
70 70 87
70 70 87
70 70 87
70 70 87
70 70 87
70 70 87
70 70 87
70 70 87
70 70 87
70 70 87
70 70 87
70 70 88
70 70 87
70 70 87
70 70 87
70 70 87
70 70 87
70 70 87
70 70 87
70 70 87
70 70 87
70 70 87
70 70 87
70 70 87
70 70 87
70 70 87
70 70 87
70 70 87
70 70 87
70 70 87
70 70 87
69 69 87
66 66 82
61 61 76
60 60 73
61 61 75
64 64 79
69 69 86
70 70 87
70 70 87
70 70 87
70 70 87
70 70 87
70 70 87
70 70 87
70 70 87
70 70 87
70 70 87
70 70 87
70 70 87
70 70 87
70 70 87
70 70 87
70 70 87
70 70 87
70 70 87
70 70 87
70 70 87
70 70 87
70 70 87
70 70 87
70 70 87
70 70 87
70 70 87
70 70 87
70 70 87
70 70 87
70 70 87
70 70 87
70 70 87
70 70 87
69 69 87
69 69 87
69 69 87
69 69 87
69 69 87
69 69 87
69 69 87
69 69 87
69 69 87
69 69 87
69 69 87
69 69 87
69 69 87
69 69 87
69 69 87
69 69 87
69 69 87
69 69 87
69 69 87
69 69 87
69 69 87
69 69 87
69 69 87
69 69 87
69 69 87
69 69 87
69 69 87
69 69 87
69 69 87
69 69 87
69 69 87
69 69 87
69 69 87
69 69 87
69 69 87
69 69 87
69 69 87
69 69 87
70 70 87
69 69 87
69 69 87
70 70 87
69 69 86
69 69 87
69 69 87
69 69 86
69 69 87
69 69 87
69 69 86
69 69 87
69 69 86
69 69 86
69 69 87
69 69 87
69 69 86
69 69 86
69 69 86
69 69 87
69 69 86
69 69 87
69 69 87
69 69 86
69 69 86
69 69 86
69 69 86
69 69 86
69 69 87
69 69 87
69 69 87
69 69 87
69 69 87
69 69 87
69 69 87
69 69 87
69 69 87
69 69 87
69 69 87
69 69 87
69 69 87
69 69 87
69 69 87
69 69 87
69 69 87
69 69 87
69 69 87
69 69 87
69 69 87
69 69 87
69 69 87
69 69 87
69 69 87
69 69 87
69 69 87
69 69 87
69 69 87
70 70 87
70 70 87
70 70 87
70 70 87
70 70 87
70 70 87
70 70 87
70 70 87
69 69 87
70 70 87
69 69 87
70 70 87
70 70 87
70 70 87
70 70 87
70 70 87
70 70 87
70 70 87
70 70 87
70 70 87
70 70 87
70 70 87
70 70 87
70 70 87
70 70 87
70 70 87
70 70 87
70 70 87
70 70 87
70 70 87
70 70 87
70 70 87
70 70 87
70 70 87
70 70 87
70 70 87
70 70 87
70 70 87
70 70 87
70 70 87
70 70 87
70 70 87
70 70 87
70 70 87
70 70 87
70 70 87
70 70 87
70 70 87
70 70 87
70 70 87
70 70 87
70 70 87
70 70 87
70 70 87
70 70 87
70 70 87
70 70 87
70 70 87
70 70 87
70 70 87
70 70 87
70 70 87
70 70 87
70 70 87
70 70 87
70 70 87
70 70 87
70 70 87
70 70 87
70 70 87
70 70 87
70 70 87
70 70 87
70 70 87
70 70 87
70 70 87
70 70 87
70 70 87
70 70 87
70 70 87
70 70 87
70 70 87
70 70 87
70 70 87
70 70 87
70 70 87
70 70 87
70 70 87
70 70 87
70 70 87
70 70 87
70 70 88
70 70 87
70 70 87
70 70 87
70 70 87
70 70 87
70 70 87
70 70 87
70 70 87
70 70 87
70 70 88
70 70 87
70 70 87
70 70 87
70 70 87
70 70 87
70 70 87
70 70 87
70 70 87
70 70 88
70 70 88
70 70 87
70 70 87
70 70 87
70 70 87
70 70 87
70 70 87
70 70 87
70 70 87
70 70 87
70 70 87
70 70 87
70 70 87
70 70 87
70 70 87
70 70 87
70 70 87
70 70 87
70 70 87
70 70 87
70 70 87
70 70 87
70 70 87
70 70 87
70 70 87
70 70 87
70 70 87
70 70 87
70 70 87
70 70 87
70 70 87
70 70 87
70 70 87
70 70 87
70 70 87
70 70 87
70 70 87
70 70 87
70 70 87
70 70 87
70 70 87
70 70 87
70 70 87
70 70 87
70 70 87
70 70 87
70 70 87
70 70 87
70 70 87
70 70 87
70 70 87
70 70 87
70 70 87
70 70 87
70 70 87
70 70 87
70 70 87
70 70 88
70 70 87
70 70 88
70 70 87
70 70 88
70 70 88
70 70 87
70 70 88
70 70 88
70 70 87
70 70 87
70 70 88
70 70 88
70 70 88
70 70 87
70 70 87
70 70 88
70 70 87
70 70 88
70 70 88
70 70 87
70 70 88
70 70 87
70 70 87
70 70 88
70 70 87
70 70 87
70 70 88
70 70 87
70 70 87
70 70 87
70 70 87
70 70 88
70 70 87
70 70 87
70 70 87
70 70 87
70 70 87
70 70 87
70 70 87
70 70 87
70 70 87
70 70 87
70 70 87
70 70 87
70 70 87
70 70 87
70 70 87
70 70 87
70 70 87
70 70 87
70 70 87
70 70 87
70 70 87
70 70 87
70 70 87
70 70 88
70 70 88
70 70 87
70 70 87
70 70 87
70 70 87
70 70 87
70 70 87
70 70 87
70 70 87
70 70 87
70 70 87
70 70 87
70 70 87
70 70 87
70 70 87
70 70 87
70 70 87
70 70 87
70 70 87
70 70 87
70 70 87
70 70 87
70 70 87
70 70 87
70 70 87
70 70 87
70 70 87
70 70 87
70 70 87
70 70 87
70 70 87
70 70 87
70 70 87
70 70 87
70 70 87
70 70 87
70 70 87
70 70 87
68 67 84
57 56 69
46 44 52
42 39 45
40 38 44
40 38 44
38 36 42
42 39 46
40 38 46
52 51 62
62 62 77
70 70 87
70 70 87
70 70 87
70 70 87
70 70 87
70 70 87
70 70 87
70 70 87
70 70 87
70 70 87
70 70 87
70 70 87
70 70 87
70 70 87
70 70 87
70 70 87
70 70 87
70 70 87
70 70 87
70 70 87
70 70 87
70 70 87
70 70 87
70 70 87
70 70 87
70 70 87
70 70 87
70 70 87
70 70 87
70 70 87
70 70 87
70 70 87
70 70 87
70 70 87
70 70 87
70 70 87
70 70 87
69 69 87
69 69 87
69 69 87
69 69 87
69 69 87
69 69 87
69 69 87
69 69 87
69 69 87
69 69 87
69 69 87
69 69 87
69 69 87
69 69 87
69 69 87
69 69 87
69 69 87
69 69 87
69 69 87
69 69 87
69 69 87
69 69 87
69 69 87
69 69 87
69 69 87
69 69 87
69 69 87
69 69 87
69 69 87
69 69 87
69 69 87
69 69 87
69 69 87
69 69 87
69 69 87
69 69 87
69 69 87
69 69 87
69 69 87
69 69 87
69 69 87
70 70 87
69 69 87
69 69 87
69 69 87
69 69 87
69 69 87
69 69 87
69 69 87
69 69 86
69 69 87
69 69 87
69 69 87
69 69 87
69 69 86
69 69 87
69 69 87
69 69 87
69 69 87
69 69 87
69 69 87
69 69 87
69 69 87
69 69 87
69 69 87
69 69 87
69 69 87
69 69 87
69 69 87
69 69 87
69 69 87
69 69 87
69 69 87
69 69 87
69 69 87
69 69 87
69 69 87
69 69 87
69 69 87
69 69 87
69 69 87
69 69 87
69 69 87
69 69 87
69 69 87
69 69 87
69 69 87
69 69 87
70 70 87
70 70 87
70 70 87
69 69 87
70 70 87
70 70 87
70 70 87
70 70 87
70 70 87
70 70 87
70 70 87
70 70 87
70 70 87
70 70 87
70 70 87
70 70 87
70 70 87
70 70 87
70 70 87
70 70 87
70 70 87
70 70 87
70 70 87
70 70 87
70 70 87
70 70 87
70 70 87
70 70 87
70 70 87
70 70 87
70 70 87
70 70 87
70 70 87
70 70 87
70 70 87
70 70 87
70 70 87
70 70 87
70 70 87
70 70 87
70 70 87
70 70 87
70 70 87
70 70 87
70 70 87
70 70 87
70 70 87
70 70 87
70 70 87
70 70 87
70 70 87
70 70 87
70 70 87
70 70 87
70 70 87
70 70 87
70 70 87
70 70 87
70 70 87
70 70 87
70 70 87
70 70 87
70 70 87
70 70 87
70 70 87
70 70 87
70 70 87
70 70 87
70 70 87
70 70 87
70 70 87
70 70 87
70 70 87
70 70 87
70 70 87
70 70 87
70 70 87
70 70 87
70 70 87
70 70 87
70 70 87
70 70 87
70 70 87
70 70 87
70 70 87
70 70 87
70 70 87
70 70 88
70 70 87
70 70 87
70 70 87
70 70 87
70 70 87
70 70 87
70 70 87
70 70 87
70 70 87
70 70 87
70 70 87
70 70 87
70 70 87
70 70 88
70 70 88
70 70 88
70 70 88
70 70 87
70 70 88
70 70 87
70 70 88
70 70 87
70 70 87
70 70 87
70 70 88
70 70 88
70 70 87
70 70 87
70 70 87
70 70 87
70 70 87
70 70 87
70 70 87
70 70 87
70 70 87
70 70 87
70 70 87
70 70 87
70 70 87
70 70 87
70 70 87
70 70 87
70 70 87
70 70 87
70 70 87
70 70 87
70 70 87
70 70 87
70 70 87
70 70 87
70 70 87
70 70 87
70 70 87
70 70 87
70 70 87
70 70 87
70 70 87
70 70 87
70 70 87
70 70 87
70 70 87
70 70 87
70 70 87
70 70 87
70 70 87
70 70 87
70 70 87
70 70 87
70 70 87
70 70 87
70 70 87
70 70 87
70 70 87
70 70 87
70 70 87
70 70 87
70 70 87
70 70 87
70 70 88
70 70 88
70 70 88
70 70 88
70 70 88
70 70 87
70 70 88
70 70 87
70 70 87
70 70 87
70 70 87
70 70 88
70 70 87
70 70 88
70 70 87
70 70 88
70 70 88
70 70 88
70 70 87
70 70 88
70 70 87
70 70 87
70 70 87
70 70 88
70 70 88
70 70 88
70 70 88
70 70 87
70 70 88
70 70 88
70 70 87
70 70 88
70 70 88
70 70 88
70 70 87
70 70 87
70 70 87
70 70 87
70 70 87
70 70 87
70 70 87
70 70 87
70 70 88
70 70 88
70 70 88
70 70 88
70 70 87
70 70 87
70 70 87
70 70 87
70 70 87
70 70 87
70 70 87
70 70 87
70 70 88
70 70 87
70 70 87
70 70 87
70 70 87
70 70 87
70 70 87
70 70 87
70 70 88
70 70 87
70 70 88
70 70 88
70 70 88
70 70 87
70 70 87
70 70 87
70 70 87
70 70 87
70 70 87
70 70 87
70 70 87
70 70 87
70 70 88
70 70 87
70 70 87
70 70 87
70 70 87
70 70 87
70 70 87
70 70 87
70 70 87
70 70 87
70 70 87
70 70 87
70 70 87
70 70 87
70 70 87
70 70 87
70 70 87
70 70 87
70 70 87
70 70 87
70 70 87
60 59 72
44 42 48
45 43 47
41 39 44
41 39 45
43 40 47
40 38 44
37 35 42
40 38 45
38 36 43
41 39 45
40 38 45
51 50 61
68 68 85
70 70 87
70 70 87
70 70 87
70 70 87
70 70 87
70 70 87
70 70 87
70 70 87
70 70 87
70 70 87
70 70 87
70 70 87
70 70 87
70 70 87
70 70 87
70 70 87
70 70 87
70 70 87
70 70 87
70 70 87
70 70 87
70 70 87
70 70 87
70 70 87
70 70 87
70 70 87
70 70 87
70 70 87
70 70 87
70 70 87
70 70 87
70 70 87
70 70 87
70 70 87
70 70 87
70 70 87
70 70 87
70 70 87
70 70 87
70 70 87
70 70 87
69 69 87
69 69 87
69 69 87
69 69 87
69 69 87
69 69 87
69 69 87
69 69 87
69 69 87
69 69 87
69 69 87
69 69 87
69 69 87
69 69 87
69 69 87
69 69 87
69 69 87
69 69 87
69 69 87
69 69 87
69 69 87
69 69 87
69 69 87
69 69 87
69 69 87
69 69 87
69 69 87
69 69 87
69 69 87
69 69 87
69 69 87
69 69 87
69 69 87
69 69 87
69 69 87
69 69 87
69 69 87
69 69 87
69 69 87
69 69 87
69 69 86
69 69 87
69 69 87
69 69 87
69 69 87
69 69 87
69 69 87
69 69 87
69 69 87
69 69 87
69 69 87
69 69 87
69 69 87
69 69 87
69 69 87
69 69 87
69 69 87
69 69 87
69 69 87
69 69 87
69 69 87
69 69 87
69 69 87
69 69 87
69 69 87
69 69 87
69 69 87
69 69 87
69 69 87
69 69 87
69 69 87
69 69 87
69 69 87
69 69 87
69 69 87
69 69 87
69 69 87
69 69 87
69 69 87
69 69 87
70 70 87
70 70 87
70 70 87
70 70 87
70 70 87
70 70 87
70 70 87
70 70 87
70 70 87
70 70 87
70 70 87
70 70 87
70 70 87
70 70 87
70 70 87
70 70 87
70 70 87
70 70 87
70 70 87
70 70 87
70 70 87
70 70 87
70 70 87
70 70 87
70 70 87
70 70 87
70 70 87
70 70 87
70 70 87
70 70 87
70 70 87
70 70 87
70 70 87
70 70 87
70 70 87
70 70 87
70 70 87
70 70 87
70 70 87
70 70 87
70 70 87
70 70 87
70 70 87
70 70 87
70 70 87
70 70 87
70 70 87
70 70 87
70 70 87
70 70 87
70 70 87
70 70 87
70 70 87
70 70 87
70 70 87
70 70 87
70 70 87
70 70 87
70 70 87
70 70 87
70 70 87
70 70 87
70 70 87
70 70 87
70 70 87
70 70 87
70 70 87
70 70 87
70 70 87
70 70 87
70 70 87
70 70 87
70 70 87
70 70 87
70 70 88
70 70 87
70 70 87
70 70 87
70 70 87
70 70 87
70 70 88
70 70 87
70 70 88
70 70 87
70 70 87
70 70 87
70 70 88
70 70 87
70 70 88
70 70 87
70 70 88
70 70 87
70 70 88
70 70 87
70 70 88
70 70 87
70 70 87
70 70 88
70 70 87
70 70 87
70 70 87
70 70 87
70 70 88
70 70 87
70 70 88
70 70 88
70 70 88
70 70 87
70 70 88
70 70 87
70 70 87
70 70 87
70 70 87
70 70 88
70 70 87
70 70 87
70 70 87
70 70 87
70 70 87
70 70 87
70 70 87
70 70 87
70 70 87
70 70 87
70 70 87
70 70 87
70 70 87
70 70 87
70 70 87
70 70 87
70 70 87
70 70 87
70 70 87
70 70 87
70 70 87
70 70 87
70 70 87
70 70 87
70 70 88
70 70 88
70 70 88
70 70 88
70 70 88
70 70 88
70 70 88
70 70 88
70 70 88
70 70 88
70 70 88
70 70 88
70 70 88
70 70 88
70 70 88
70 70 88
70 70 88
70 70 88
70 70 88
70 70 88
70 70 88
70 70 88
70 70 88
70 70 88
70 70 88
70 70 88
70 70 88
70 70 88
70 70 88
70 70 88
70 70 88
70 70 88
70 70 88
70 70 88
70 70 88
70 70 88
70 70 88
70 70 88
70 70 88
70 70 88
70 70 88
70 70 88
70 70 88
70 70 88
70 70 88
70 70 88
70 70 88
70 70 88
70 70 88
70 70 88
70 70 88
70 70 88
70 70 88
70 70 88
70 70 88
70 70 88
70 70 88
70 70 87
70 70 88
70 70 88
70 70 88
70 70 88
70 70 88
70 70 87
70 70 88
70 70 88
70 70 87
70 70 88
70 70 88
70 70 88
70 70 87
70 70 88
70 70 88
70 70 88
70 70 88
70 70 88
70 70 87
70 70 88
70 70 87
70 70 88
70 70 88
70 70 87
70 70 88
70 70 88
70 70 87
70 70 88
70 70 87
70 70 88
70 70 87
70 70 87
70 70 87
70 70 87
70 70 88
70 70 87
70 70 87
70 70 88
70 70 87
70 70 87
70 70 88
70 70 87
70 70 87
70 70 88
70 70 87
70 70 87
70 70 87
70 70 87
70 70 87
70 70 87
70 70 87
70 70 87
70 70 87
70 70 87
70 70 87
70 70 87
70 70 87
70 70 87
70 70 87
70 70 87
70 70 87
70 70 87
70 70 87
70 70 87
70 70 87
70 70 87
70 70 87
70 70 87
57 55 67
46 44 49
46 43 48
46 43 49
43 41 46
41 39 46
41 38 45
39 37 44
39 37 44
40 38 45
41 39 46
42 39 46
42 40 47
40 38 45
45 44 52
65 65 81
70 70 87
70 70 87
70 70 87
70 70 87
70 70 87
70 70 87
70 70 87
70 70 87
70 70 87
70 70 87
70 70 87
70 70 87
70 70 87
70 70 87
70 70 87
70 70 87
70 70 87
70 70 87
70 70 87
70 70 87
70 70 87
70 70 87
70 70 87
70 70 87
70 70 87
70 70 87
70 70 87
70 70 87
70 70 87
70 70 87
70 70 87
70 70 87
70 70 87
70 70 87
70 70 87
70 70 87
70 70 87
70 70 87
70 70 87
70 70 87
70 70 87
70 70 87
70 70 87
70 70 87
70 70 87
69 69 87
69 69 87
69 69 87
69 69 87
69 69 87
69 69 87
69 69 87
69 69 87
69 69 87
69 69 87
69 69 87
69 69 87
69 69 87
69 69 87
69 69 87
69 69 87
69 69 87
69 69 87
69 69 87
69 69 87
69 69 87
69 69 87
69 69 87
69 69 87
69 69 87
69 69 87
69 69 87
69 69 87
69 69 87
69 69 87
69 69 87
69 69 87
69 69 87
69 69 87
69 69 87
69 69 87
69 69 87
69 69 87
69 69 87
69 69 87
69 69 87
69 69 87
69 69 87
69 69 87
69 69 87
69 69 87
69 69 87
69 69 87
69 69 87
69 69 87
69 69 87
69 69 87
69 69 87
69 69 87
69 69 87
69 69 87
69 69 87
69 69 87
69 69 87
69 69 87
69 69 87
69 69 87
69 69 87
69 69 87
69 69 87
69 69 87
69 69 87
69 69 87
69 69 87
69 69 87
69 69 87
69 69 87
70 70 87
70 70 87
70 70 87
70 70 87
70 70 87
70 70 87
70 70 87
70 70 87
70 70 87
70 70 87
70 70 87
70 70 87
70 70 87
70 70 87
70 70 87
70 70 87
70 70 87
70 70 87
70 70 87
70 70 87
70 70 87
70 70 87
70 70 87
70 70 87
70 70 87
70 70 87
70 70 87
70 70 87
70 70 87
70 70 87
70 70 87
70 70 87
70 70 87
70 70 87
70 70 87
70 70 87
70 70 87
70 70 87
70 70 87
70 70 87
70 70 87
70 70 87
70 70 87
70 70 87
70 70 87
70 70 87
70 70 87
70 70 87
70 70 87
70 70 87
70 70 87
70 70 87
70 70 87
70 70 87
70 70 87
70 70 87
70 70 87
70 70 87
70 70 87
70 70 87
70 70 87
70 70 87
70 70 87
70 70 87
70 70 87
70 70 87
70 70 87
70 70 87
70 70 87
70 70 87
70 70 87
70 70 87
70 70 87
70 70 87
70 70 87
70 70 87
70 70 87
70 70 87
70 70 87
70 70 87
70 70 87
70 70 88
70 70 87
70 70 87
70 70 87
70 70 87
70 70 87
70 70 87
70 70 87
70 70 88
70 70 87
70 70 88
70 70 88
70 70 87
70 70 87
70 70 87
70 70 87
70 70 88
70 70 88
70 70 88
70 70 87
70 70 88
70 70 87
70 70 88
70 70 87
70 70 88
70 70 88
70 70 87
70 70 88
70 70 88
70 70 88
70 70 88
70 70 88
70 70 88
70 70 88
70 70 87
70 70 87
70 70 87
70 70 87
70 70 88
70 70 88
70 70 88
70 70 88
70 70 88
70 70 88
70 70 88
70 70 88
70 70 88
70 70 88
70 70 88
70 70 88
70 70 88
70 70 88
70 70 88
70 70 88
70 70 88
70 70 88
70 70 88
70 70 88
70 70 88
70 70 88
70 70 88
70 70 88
70 70 88
70 70 88
70 70 88
70 70 88
70 70 88
70 70 88
70 70 88
70 70 88
70 70 88
70 70 88
70 70 88
70 70 88
70 70 88
70 70 88
70 70 88
70 70 88
70 70 88
70 70 88
70 70 88
70 70 88
70 70 88
70 70 88
70 70 88
70 70 88
70 70 88
70 70 88
70 70 88
70 70 88
70 70 88
70 70 88
70 70 88
70 70 88
70 70 88
70 70 88
70 70 88
70 70 88
70 70 88
70 70 88
70 70 88
70 70 88
70 70 88
70 70 88
70 70 88
70 70 88
70 70 88
70 70 88
70 70 88
70 70 88
70 70 88
70 70 88
70 70 88
70 70 88
70 70 88
70 70 88
70 70 88
70 70 88
70 70 88
70 70 88
70 70 88
70 70 88
70 70 88
70 70 88
70 70 88
70 70 88
70 70 88
70 70 88
70 70 88
70 70 88
70 70 88
70 70 88
70 70 88
70 70 88
70 70 88
70 70 88
70 70 88
70 70 88
70 70 87
70 70 88
70 70 88
70 70 87
70 70 88
70 70 88
70 70 88
70 70 87
70 70 88
70 70 88
70 70 88
70 70 87
70 70 87
70 70 87
70 70 88
70 70 88
70 70 87
70 70 88
70 70 87
70 70 88
70 70 88
70 70 87
70 70 87
70 70 88
70 70 88
70 70 87
70 70 88
70 70 88
70 70 87
70 70 87
70 70 87
70 70 87
70 70 87
70 70 87
70 70 87
70 70 87
70 70 87
70 70 87
70 70 87
70 70 87
70 70 87
70 70 87
70 70 87
70 70 87
70 70 87
70 70 87
70 70 87
60 59 71
48 46 51
46 43 48
47 45 50
44 41 47
42 40 46
42 40 46
44 41 47
42 40 46
41 39 45
43 41 48
41 39 45
40 38 45
41 39 45
43 41 47
45 42 49
47 45 52
68 67 84
70 70 87
70 70 87
70 70 87
70 70 87
70 70 87
70 70 87
70 70 87
70 70 87
70 70 87
70 70 87
70 70 87
70 70 87
70 70 87
70 70 87
70 70 87
70 70 87
70 70 87
70 70 87
70 70 87
70 70 87
70 70 87
70 70 87
70 70 87
70 70 87
70 70 87
70 70 87
70 70 87
70 70 87
70 70 87
70 70 87
70 70 87
70 70 87
70 70 87
70 70 87
70 70 87
70 70 87
70 70 87
70 70 87
70 70 87
70 70 87
70 70 87
70 70 87
70 70 87
70 70 87
70 70 87
70 70 87
70 70 87
70 70 87
70 70 87
70 70 87
69 69 87
69 69 87
69 69 87
69 69 87
69 69 87
69 69 87
69 69 87
69 69 87
69 69 87
69 69 87
69 69 87
69 69 87
69 69 87
69 69 87
69 69 87
69 69 87
69 69 87
69 69 87
69 69 87
69 69 87
69 69 87
69 69 87
69 69 87
69 69 87
69 69 87
69 69 87
69 69 87
69 69 87
69 69 87
69 69 87
69 69 87
69 69 87
69 69 87
69 69 87
69 69 87
69 69 87
69 69 87
69 69 87
69 69 87
69 69 87
69 69 87
69 69 87
69 69 87
69 69 87
69 69 87
69 69 87
69 69 87
69 69 87
69 69 87
69 69 87
69 69 87
69 69 87
69 69 87
69 69 87
69 69 87
69 69 87
69 69 87
69 69 87
69 69 87
69 69 87
69 69 87
70 70 87
70 70 87
70 70 87
70 70 87
70 70 87
70 70 87
70 70 87
70 70 87
70 70 87
70 70 87
70 70 87
70 70 87
70 70 87
70 70 87
70 70 87
70 70 87
70 70 87
70 70 87
70 70 87
70 70 87
70 70 87
70 70 87
70 70 87
70 70 87
70 70 87
70 70 87
70 70 87
70 70 87
70 70 87
70 70 87
70 70 87
70 70 87
70 70 87
70 70 87
70 70 87
70 70 87
70 70 87
70 70 87
70 70 87
70 70 87
70 70 87
70 70 87
70 70 87
70 70 87
70 70 87
70 70 87
70 70 87
70 70 87
70 70 87
70 70 87
70 70 87
70 70 87
70 70 87
70 70 87
70 70 87
70 70 87
70 70 87
70 70 87
70 70 87
70 70 87
70 70 87
70 70 87
70 70 87
70 70 87
70 70 87
70 70 87
70 70 87
70 70 87
70 70 87
70 70 87
70 70 87
70 70 87
70 70 87
70 70 87
70 70 87
70 70 87
70 70 87
70 70 88
70 70 87
70 70 87
70 70 87
70 70 88
70 70 87
70 70 87
70 70 88
70 70 87
70 70 87
70 70 87
70 70 87
70 70 87
70 70 87
70 70 88
70 70 88
70 70 87
70 70 87
70 70 87
70 70 87
70 70 88
70 70 88
70 70 88
70 70 88
70 70 88
70 70 88
70 70 88
70 70 87
70 70 88
71 71 88
70 70 88
70 70 88
70 70 88
70 70 88
70 70 88
70 70 88
70 70 88
70 70 88
70 70 88
70 70 88
70 70 88
70 70 88
70 70 88
70 70 88
70 70 88
70 70 88
70 70 88
70 70 88
70 70 88
70 70 88
70 70 88
70 70 88
70 70 88
70 70 88
70 70 88
70 70 88
70 70 88
70 70 88
70 70 88
70 70 88
70 70 88
70 70 88
70 70 88
70 70 88
70 70 88
70 70 88
70 70 88
70 70 88
70 70 88
70 70 88
70 70 88
70 70 88
70 70 88
70 70 88
70 70 88
70 70 88
70 70 88
70 70 88
70 70 88
70 70 88
70 70 88
70 70 88
70 70 88
70 70 88
70 70 88
70 70 88
70 70 88
70 70 88
70 70 88
70 70 88
70 70 88
70 70 88
70 70 88
70 70 88
70 70 88
70 70 88
70 70 88
70 70 88
70 70 88
70 70 88
70 70 88
70 70 88
70 70 88
70 70 88
70 70 88
70 70 88
70 70 88
70 70 88
70 70 88
71 71 88
71 71 88
70 70 88
70 70 88
70 70 88
70 70 88
70 70 88
70 70 88
70 70 88
70 70 88
70 70 88
70 70 88
70 70 88
70 70 88
70 70 88
70 70 88
70 70 88
70 70 88
70 70 88
70 70 88
70 70 88
70 70 88
70 70 88
70 70 88
70 70 88
70 70 88
70 70 88
70 70 88
70 70 88
70 70 88
71 71 88
70 70 88
70 70 88
70 70 88
70 70 88
70 70 88
70 70 88
70 70 88
70 70 88
70 70 88
70 70 88
70 70 88
70 70 88
70 70 88
70 70 88
70 70 88
70 70 88
70 70 88
70 70 88
70 70 88
70 70 88
70 70 88
70 70 88
70 70 88
70 70 87
70 70 87
70 70 88
70 70 88
71 71 88
70 70 88
70 70 88
70 70 87
70 70 87
70 70 87
70 70 88
70 70 87
70 70 87
70 70 87
70 70 87
70 70 87
70 70 87
70 70 87
70 70 87
70 70 87
70 70 87
70 70 87
70 70 87
70 70 87
70 70 87
70 70 87
70 70 87
70 70 87
70 70 87
70 70 87
67 66 81
50 47 53
47 44 49
49 46 51
46 44 50
43 41 47
45 42 48
43 41 47
44 42 48
43 41 47
43 41 47
42 40 47
41 38 45
41 39 45
44 41 48
42 40 46
42 40 46
42 39 46
51 50 59
70 70 87
70 70 87
70 70 87
70 70 87
70 70 87
70 70 87
70 70 87
70 70 87
70 70 87
70 70 87
70 70 87
70 70 87
70 70 87
70 70 87
70 70 87
70 70 87
70 70 87
70 70 87
70 70 87
70 70 87
70 70 87
70 70 87
70 70 87
70 70 87
70 70 87
70 70 87
70 70 87
70 70 87
70 70 87
70 70 87
70 70 87
70 70 87
70 70 87
70 70 87
70 70 87
70 70 87
70 70 87
70 70 87
70 70 87
70 70 87
70 70 87
70 70 87
70 70 87
70 70 87
70 70 87
70 70 87
70 70 87
70 70 87
70 70 87
70 70 87
70 70 87
70 70 87
70 70 87
70 70 87
70 70 87
69 69 87
69 69 87
69 69 87
69 69 87
69 69 87
69 69 87
69 69 87
69 69 87
69 69 87
69 69 87
69 69 87
69 69 87
69 69 87
69 69 87
69 69 87
69 69 87
69 69 87
69 69 87
69 69 87
69 69 87
69 69 87
69 69 87
69 69 87
69 69 87
69 69 87
69 69 87
69 69 87
69 69 87
69 69 87
69 69 87
69 69 87
69 69 87
69 69 87
69 69 87
69 69 87
69 69 87
69 69 87
69 69 87
69 69 87
69 69 87
69 69 87
69 69 87
69 69 87
69 69 87
69 69 87
69 69 87
69 69 87
69 69 87
69 69 87
69 69 87
70 70 87
70 70 87
70 70 87
70 70 87
70 70 87
70 70 87
70 70 87
70 70 87
70 70 87
70 70 87
70 70 87
70 70 87
70 70 87
70 70 87
70 70 87
70 70 87
70 70 87
70 70 87
70 70 87
70 70 87
70 70 87
70 70 87
70 70 87
70 70 87
70 70 87
70 70 87
70 70 87
70 70 87
70 70 87
70 70 87
70 70 87
70 70 87
70 70 87
70 70 87
70 70 87
70 70 87
70 70 87
70 70 87
70 70 87
70 70 87
70 70 87
70 70 87
70 70 87
70 70 87
70 70 87
70 70 87
70 70 87
70 70 87
70 70 87
70 70 87
70 70 87
70 70 87
70 70 87
70 70 87
70 70 87
70 70 87
70 70 87
70 70 87
70 70 87
70 70 87
70 70 87
70 70 87
70 70 87
70 70 87
70 70 87
70 70 87
70 70 87
70 70 87
70 70 87
70 70 87
70 70 87
70 70 87
70 70 87
70 70 87
70 70 87
70 70 87
70 70 87
70 70 87
70 70 87
70 70 87
70 70 87
70 70 87
70 70 87
70 70 87
70 70 88
70 70 87
70 70 88
70 70 87
70 70 88
70 70 88
70 70 87
70 70 87
70 70 88
70 70 88
70 70 88
70 70 88
70 70 88
70 70 88
70 70 88
70 70 88
70 70 87
70 70 87
70 70 88
71 71 88
70 70 88
70 70 88
70 70 88
70 70 88
70 70 88
70 70 88
70 70 88
70 70 88
70 70 88
70 70 88
70 70 88
70 70 88
70 70 88
70 70 88
70 70 88
70 70 88
70 70 88
70 70 88
70 70 88
70 70 88
70 70 88
70 70 88
70 70 88
70 70 88
70 70 88
70 70 88
70 70 88
70 70 88
70 70 88
70 70 88
70 70 88
70 70 88
70 70 88
70 70 88
70 70 88
70 70 88
70 70 88
70 70 88
70 70 88
70 70 88
70 70 88
70 70 88
70 70 88
70 70 88
70 70 88
70 70 88
70 70 88
70 70 88
70 70 88
70 70 88
70 70 88
70 70 88
70 70 88
70 70 88
70 70 88
70 70 88
70 70 88
70 70 88
70 70 88
70 70 88
70 70 88
70 70 88
70 70 88
70 70 88
70 70 88
70 70 88
70 70 88
70 70 88
70 70 88
70 70 88
70 70 88
70 70 88
70 70 88
70 70 88
70 70 88
70 70 88
70 70 88
70 70 88
70 70 88
71 71 88
70 70 88
70 70 88
70 70 88
70 70 88
71 71 88
70 70 88
70 70 88
70 70 88
70 70 88
70 70 88
70 70 88
70 70 88
70 70 88
71 71 88
70 70 88
70 70 88
70 70 88
70 70 88
70 70 88
70 70 88
70 70 88
70 70 88
70 70 88
70 70 88
70 70 88
70 70 88
70 70 88
70 70 88
70 70 88
70 70 88
70 70 88
71 71 88
70 70 88
70 70 88
70 70 88
70 70 88
70 70 88
70 70 88
70 70 88
70 70 88
70 70 88
70 70 88
70 70 88
70 70 88
70 70 88
70 70 88
70 70 88
70 70 88
70 70 88
70 70 88
70 70 88
70 70 88
70 70 88
70 70 88
70 70 88
70 70 88
70 70 88
70 70 88
70 70 88
70 70 88
70 70 88
70 70 88
70 70 88
70 70 88
70 70 88
70 70 88
70 70 88
70 70 88
70 70 87
70 70 87
70 70 87
70 70 87
70 70 87
70 70 87
70 70 87
70 70 87
70 70 87
70 70 87
70 70 87
70 70 87
70 70 87
70 70 87
70 70 87
70 70 87
70 70 87
70 70 87
70 70 87
70 70 87
70 70 87
70 70 87
70 70 87
70 70 87
56 54 64
49 47 51
49 46 51
48 45 51
48 45 51
45 42 48
45 42 48
42 40 46
43 41 46
42 40 46
45 43 49
44 41 47
45 43 49
43 41 46
44 42 48
43 41 47
43 41 47
43 41 47
48 45 51
62 61 75
70 70 87
70 70 87
70 70 87
70 70 87
70 70 87
70 70 87
70 70 87
70 70 87
70 70 87
70 70 87
70 70 87
70 70 87
70 70 87
70 70 87
70 70 87
70 70 87
70 70 87
70 70 87
70 70 87
70 70 87
70 70 87
70 70 87
70 70 87
70 70 87
70 70 87
70 70 87
70 70 87
70 70 87
70 70 87
70 70 87
70 70 87
70 70 87
70 70 87
70 70 87
70 70 87
70 70 87
70 70 87
70 70 87
70 70 87
70 70 87
70 70 87
70 70 87
70 70 87
70 70 87
70 70 87
70 70 87
70 70 87
70 70 87
70 70 87
70 70 87
70 70 87
70 70 87
70 70 87
70 70 87
70 70 87
70 70 87
70 70 87
70 70 87
70 70 87
70 70 87
69 69 87
69 69 87
69 69 87
69 69 87
69 69 87
69 69 87
69 69 87
69 69 87
69 69 87
69 69 87
69 69 87
69 69 87
69 69 87
69 69 87
69 69 87
69 69 87
69 69 87
69 69 87
69 69 87
69 69 87
69 69 87
69 69 87
69 69 87
69 69 87
69 69 87
69 69 87
69 69 87
69 69 87
69 69 87
69 69 87
69 69 87
69 69 87
69 69 87
69 69 87
69 69 87
69 69 87
69 69 87
69 69 87
69 69 87
70 70 87
70 70 87
70 70 87
70 70 87
70 70 87
70 70 87
70 70 87
70 70 87
70 70 87
70 70 87
70 70 87
70 70 87
70 70 87
70 70 87
70 70 87
70 70 87
70 70 87
70 70 87
70 70 87
70 70 87
70 70 87
70 70 87
70 70 87
70 70 87
70 70 87
70 70 87
70 70 87
70 70 87
70 70 87
70 70 87
70 70 87
70 70 87
70 70 87
70 70 87
70 70 87
70 70 87
70 70 87
70 70 87
70 70 87
70 70 87
70 70 87
70 70 87
70 70 87
70 70 87
70 70 87
70 70 87
70 70 87
70 70 87
70 70 87
70 70 87
70 70 87
70 70 87
70 70 87
70 70 87
70 70 87
70 70 87
70 70 87
70 70 87
70 70 87
70 70 87
70 70 87
70 70 87
70 70 87
70 70 87
70 70 87
70 70 87
70 70 87
70 70 87
70 70 87
70 70 87
70 70 87
70 70 87
70 70 87
70 70 87
70 70 87
70 70 87
70 70 87
70 70 87
70 70 87
70 70 87
70 70 87
70 70 87
70 70 87
70 70 87
70 70 87
70 70 88
70 70 88
70 70 87
70 70 88
70 70 87
70 70 88
70 70 87
70 70 88
70 70 87
70 70 88
70 70 88
70 70 87
70 70 88
70 70 87
70 70 88
71 71 88
70 70 88
70 70 88
70 70 88
70 70 88
70 70 88
70 70 88
70 70 88
70 70 88
70 70 88
70 70 88
70 70 88
70 70 88
70 70 88
70 70 88
70 70 88
70 70 88
70 70 88
70 70 88
70 70 88
70 70 88
70 70 88
70 70 88
70 70 88
70 70 88
70 70 88
70 70 88
70 70 88
70 70 88
70 70 88
70 70 88
70 70 88
70 70 88
70 70 88
70 70 88
70 70 88
70 70 88
70 70 88
70 70 88
70 70 88
70 70 88
70 70 88
70 70 88
70 70 88
70 70 88
70 70 88
70 70 88
70 70 88
70 70 88
70 70 88
70 70 88
70 70 88
70 70 88
70 70 88
70 70 88
70 70 88
70 70 88
70 70 88
70 70 88
70 70 88
70 70 88
70 70 88
70 70 88
70 70 88
70 70 88
70 70 88
70 70 88
70 70 88
70 70 88
70 70 88
70 70 88
70 70 88
70 70 88
70 70 88
70 70 88
71 71 88
70 70 88
71 71 88
71 71 88
70 70 88
70 70 88
70 70 88
70 70 88
71 71 88
70 70 88
70 70 88
70 70 88
70 70 88
70 70 88
70 70 88
70 70 88
70 70 88
70 70 88
70 70 88
71 71 88
70 70 88
70 70 88
70 70 88
70 70 88
71 71 88
70 70 88
70 70 88
70 70 88
70 70 88
70 70 88
70 70 88
70 70 88
70 70 88
70 70 88
70 70 88
70 70 88
70 70 88
70 70 88
71 71 88
70 70 88
71 71 88
71 71 88
71 71 88
71 71 88
70 70 88
70 70 88
70 70 88
70 70 88
70 70 88
70 70 88
71 71 88
70 70 88
70 70 88
70 70 88
70 70 88
70 70 88
70 70 88
70 70 88
70 70 88
70 70 88
70 70 88
70 70 88
70 70 88
70 70 88
70 70 88
70 70 88
70 70 88
70 70 88
70 70 88
70 70 88
70 70 88
70 70 88
70 70 88
70 70 88
70 70 88
70 70 88
70 70 88
70 70 88
70 70 88
70 70 88
70 70 88
70 70 88
70 70 88
70 70 88
70 70 88
70 70 88
70 70 88
70 70 88
70 70 88
70 70 88
70 70 88
70 70 88
70 70 87
70 70 87
70 70 87
70 70 87
70 70 87
70 70 87
70 70 87
70 70 87
70 70 87
70 70 87
70 70 87
70 70 87
70 70 87
68 68 84
53 50 55
54 51 54
51 49 54
50 47 53
50 47 52
47 45 50
47 45 50
46 44 50
46 43 49
45 43 49
46 43 49
45 43 49
46 43 50
44 42 47
46 43 49
46 44 49
45 42 48
47 44 50
48 45 51
54 51 59
70 70 87
70 70 87
70 70 87
70 70 87
70 70 87
70 70 87
70 70 87
70 70 87
70 70 87
70 70 87
70 70 87
70 70 87
70 70 87
70 70 87
70 70 87
70 70 87
70 70 87
70 70 87
70 70 87
70 70 87
70 70 87
70 70 87
70 70 87
70 70 87
70 70 87
70 70 87
70 70 87
70 70 87
70 70 87
70 70 87
70 70 87
70 70 87
70 70 87
70 70 87
70 70 87
70 70 87
70 70 87
70 70 87
70 70 87
70 70 87
70 70 87
70 70 87
70 70 87
70 70 87
70 70 87
70 70 87
70 70 87
70 70 87
70 70 87
70 70 87
70 70 87
70 70 87
70 70 87
70 70 87
70 70 87
70 70 87
70 70 87
70 70 87
70 70 87
70 70 87
70 70 87
70 70 87
70 70 87
70 70 87
70 70 87
69 69 87
69 69 87
69 69 87
69 69 87
69 69 87
69 69 87
69 69 87
69 69 87
69 69 87
69 69 87
69 69 87
69 69 87
69 69 87
69 69 87
69 69 87
69 69 87
69 69 87
69 69 87
69 69 87
69 69 87
69 69 87
69 69 87
69 69 87
69 69 87
69 69 87
69 69 87
69 69 87
69 69 87
69 69 87
70 70 87
70 70 87
70 70 87
70 70 87
70 70 87
70 70 87
70 70 87
70 70 87
70 70 87
70 70 87
70 70 87
70 70 87
70 70 87
70 70 87
70 70 87
70 70 87
70 70 87
70 70 87
70 70 87
70 70 87
70 70 87
70 70 87
70 70 87
70 70 87
70 70 87
70 70 87
70 70 87
70 70 87
70 70 87
70 70 87
70 70 87
70 70 87
70 70 87
70 70 87
70 70 87
70 70 87
70 70 87
70 70 87
70 70 87
70 70 87
70 70 87
70 70 87
70 70 87
70 70 87
70 70 87
70 70 87
70 70 87
70 70 87
70 70 87
70 70 87
70 70 87
70 70 87
70 70 87
70 70 87
70 70 87
70 70 87
70 70 87
70 70 87
70 70 87
70 70 87
70 70 87
70 70 87
70 70 87
70 70 87
70 70 87
70 70 87
70 70 87
70 70 87
70 70 87
70 70 87
70 70 87
70 70 87
70 70 87
70 70 87
70 70 87
70 70 87
70 70 87
70 70 87
70 70 87
70 70 87
70 70 87
70 70 87
70 70 87
70 70 87
70 70 87
70 70 87
70 70 87
70 70 87
70 70 88
70 70 87
70 70 88
70 70 88
70 70 88
70 70 88
70 70 88
70 70 88
70 70 88
70 70 88
70 70 88
70 70 88
70 70 88
70 70 88
70 70 88
70 70 88
70 70 88
70 70 88
70 70 88
70 70 88
70 70 88
70 70 88
70 70 88
70 70 88
70 70 88
70 70 88
70 70 88
70 70 88
70 70 88
70 70 88
70 70 88
70 70 88
70 70 88
70 70 88
70 70 88
70 70 88
70 70 88
70 70 88
70 70 88
70 70 88
70 70 88
70 70 88
70 70 88
70 70 88
70 70 88
70 70 88
70 70 88
70 70 88
70 70 88
70 70 88
70 70 88
70 70 88
70 70 88
70 70 88
70 70 88
70 70 88
70 70 88
70 70 88
70 70 88
70 70 88
70 70 88
70 70 88
70 70 88
70 70 88
70 70 88
70 70 88
70 70 88
70 70 88
70 70 88
70 70 88
70 70 88
70 70 88
70 70 88
70 70 88
70 70 88
70 70 88
70 70 88
70 70 88
70 70 88
70 70 88
70 70 88
70 70 88
70 70 88
70 70 88
70 70 88
70 70 88
70 70 88
70 70 88
70 70 88
70 70 88
71 71 88
71 71 88
70 70 88
70 70 88
70 70 88
71 71 88
70 70 88
71 71 88
70 70 88
70 70 88
70 70 88
71 71 88
70 70 88
70 70 88
70 70 88
70 70 88
70 70 88
71 71 88
70 70 88
70 70 88
70 70 88
70 70 88
71 71 88
70 70 88
70 70 88
70 70 88
71 71 88
70 70 88
70 70 88
70 70 88
70 70 88
70 70 88
70 70 88
71 71 88
70 70 88
70 70 88
70 70 88
70 70 88
71 71 88
70 70 88
70 70 88
70 70 88
70 70 88
70 70 88
70 70 88
70 70 88
70 70 88
70 70 88
70 70 88
71 71 88
71 71 88
70 70 88
70 70 88
71 71 88
71 71 88
71 71 88
70 70 88
71 71 88
70 70 88
70 70 88
70 70 88
71 71 88
70 70 88
70 70 88
70 70 88
70 70 88
70 70 88
70 70 88
70 70 88
70 70 88
70 70 88
70 70 88
70 70 88
70 70 88
70 70 88
70 70 88
70 70 88
70 70 88
70 70 88
70 70 88
70 70 88
70 70 88
70 70 88
70 70 88
70 70 88
70 70 88
70 70 88
70 70 88
70 70 88
70 70 88
70 70 88
70 70 88
70 70 88
70 70 88
70 70 88
70 70 88
70 70 88
70 70 88
70 70 88
70 70 88
70 70 88
70 70 88
70 70 88
70 70 87
70 70 87
70 70 87
70 70 87
66 65 78
53 50 55
53 50 54
52 49 54
52 49 54
48 45 50
47 44 49
47 44 50
47 45 50
47 44 50
45 43 48
46 43 49
45 43 49
47 44 50
46 43 49
49 46 52
47 45 51
46 43 49
47 44 49
48 46 51
49 46 52
66 66 81
70 70 87
70 70 87
70 70 87
70 70 87
70 70 87
70 70 87
70 70 87
70 70 87
70 70 87
70 70 87
70 70 87
70 70 87
70 70 87
70 70 87
70 70 87
70 70 87
70 70 87
70 70 87
70 70 87
70 70 87
70 70 87
70 70 87
70 70 87
70 70 87
70 70 87
70 70 87
70 70 87
70 70 87
70 70 87
70 70 87
70 70 87
70 70 87
70 70 87
70 70 87
70 70 87
70 70 87
70 70 87
70 70 87
70 70 87
70 70 87
70 70 87
70 70 87
70 70 87
70 70 87
70 70 87
70 70 87
70 70 87
70 70 87
70 70 87
70 70 87
70 70 87
70 70 87
70 70 87
70 70 87
70 70 87
70 70 87
70 70 87
70 70 87
70 70 87
70 70 87
70 70 87
70 70 87
70 70 87
70 70 87
70 70 87
70 70 87
70 70 87
70 70 87
70 70 87
69 69 87
69 69 87
69 69 87
69 69 87
69 69 87
69 69 87
69 69 87
69 69 87
69 69 87
69 69 87
69 69 87
69 69 87
69 69 87
69 69 87
69 69 87
69 69 87
69 69 87
69 69 87
69 69 87
70 70 87
70 70 87
70 70 87
70 70 87
70 70 87
70 70 87
70 70 87
70 70 87
70 70 87
70 70 87
70 70 87
70 70 87
70 70 87
70 70 87
70 70 87
70 70 87
70 70 87
70 70 87
70 70 87
70 70 87
70 70 87
70 70 87
70 70 87
70 70 87
70 70 87
70 70 87
70 70 87
70 70 87
70 70 87
70 70 87
70 70 87
70 70 87
70 70 87
70 70 87
70 70 87
70 70 87
70 70 87
70 70 87
70 70 87
70 70 87
70 70 87
70 70 87
70 70 87
70 70 87
70 70 87
70 70 87
70 70 87
70 70 87
70 70 87
70 70 87
70 70 87
70 70 87
70 70 87
70 70 87
70 70 87
70 70 87
70 70 87
70 70 87
70 70 87
70 70 87
70 70 87
70 70 87
70 70 87
70 70 87
70 70 87
70 70 87
70 70 87
70 70 87
70 70 87
70 70 87
70 70 87
70 70 87
70 70 87
70 70 87
70 70 87
70 70 87
70 70 87
70 70 87
70 70 87
70 70 87
70 70 87
70 70 87
70 70 87
70 70 87
70 70 87
70 70 87
70 70 87
70 70 87
70 70 87
70 70 87
70 70 87
70 70 88
70 70 88
70 70 88
70 70 88
70 70 88
70 70 88
70 70 88
70 70 88
70 70 88
70 70 88
70 70 88
70 70 88
70 70 88
70 70 88
71 71 88
70 70 88
70 70 88
70 70 88
70 70 88
70 70 88
70 70 88
70 70 88
70 70 88
70 70 88
70 70 88
70 70 88
70 70 88
70 70 88
70 70 88
70 70 88
70 70 88
70 70 88
70 70 88
71 71 88
70 70 88
70 70 88
70 70 88
70 70 88
70 70 88
71 71 88
70 70 88
70 70 88
70 70 88
70 70 88
70 70 88
70 70 88
70 70 88
70 70 88
70 70 88
70 70 88
70 70 88
70 70 88
70 70 88
70 70 88
70 70 88
70 70 88
70 70 88
70 70 88
70 70 88
70 70 88
70 70 88
70 70 88
70 70 88
70 70 88
70 70 88
70 70 88
70 70 88
70 70 88
70 70 88
70 70 88
70 70 88
70 70 88
70 70 88
70 70 88
70 70 88
70 70 88
70 70 88
70 70 88
70 70 88
70 70 88
70 70 88
70 70 88
70 70 88
70 70 88
70 70 88
70 70 88
70 70 88
70 70 88
70 70 88
70 70 88
70 70 88
71 71 88
71 71 88
71 71 88
70 70 88
71 71 88
71 71 88
70 70 88
70 70 88
70 70 88
71 71 88
71 71 88
70 70 88
71 71 88
70 70 88
70 70 88
71 71 88
70 70 88
71 71 88
71 71 88
71 71 88
70 70 88
70 70 88
71 71 88
71 71 88
70 70 88
70 70 88
70 70 88
70 70 88
70 70 88
71 71 88
70 70 88
70 70 88
71 71 88
71 71 88
71 71 88
70 70 88
71 71 88
70 70 88
71 71 88
70 70 88
70 70 88
70 70 88
70 70 88
70 70 88
70 70 88
70 70 88
70 70 88
70 70 88
70 70 88
71 71 88
71 71 88
70 70 88
70 70 88
71 71 88
70 70 88
71 71 88
70 70 88
71 71 88
71 71 88
71 71 88
70 70 88
70 70 88
70 70 88
70 70 88
70 70 88
70 70 88
70 70 88
70 70 88
71 71 88
70 70 88
70 70 88
70 70 88
70 70 88
70 70 88
70 70 88
70 70 88
70 70 88
70 70 88
70 70 88
70 70 88
70 70 88
70 70 88
70 70 88
70 70 88
70 70 88
70 70 88
70 70 88
70 70 88
70 70 88
70 70 88
70 70 88
70 70 88
70 70 88
70 70 88
70 70 88
70 70 88
70 70 88
70 70 88
70 70 88
70 70 88
70 70 88
70 70 88
70 70 88
70 70 88
70 70 88
70 70 88
70 70 88
70 70 88
63 61 72
56 53 57
58 54 58
51 48 53
50 47 52
51 48 53
49 46 52
51 48 53
50 47 53
48 46 51
46 44 49
47 45 50
50 47 53
49 47 52
50 47 53
44 42 48
48 46 51
48 45 50
46 44 49
48 45 51
50 48 53
63 62 75
70 70 87
70 70 87
70 70 87
70 70 87
70 70 87
70 70 87
70 70 87
70 70 87
70 70 87
70 70 87
70 70 87
70 70 87
70 70 87
70 70 87
70 70 87
70 70 87
70 70 87
70 70 87
70 70 87
70 70 87
70 70 87
70 70 87
70 70 87
70 70 87
70 70 87
70 70 87
70 70 87
70 70 87
70 70 87
70 70 87
70 70 87
70 70 87
70 70 87
70 70 87
70 70 87
70 70 87
70 70 87
70 70 87
70 70 87
70 70 87
70 70 87
70 70 87
70 70 87
70 70 87
70 70 87
70 70 87
70 70 87
70 70 87
70 70 87
70 70 87
70 70 87
70 70 87
70 70 87
70 70 87
70 70 87
70 70 87
70 70 87
70 70 87
70 70 87
70 70 87
70 70 87
70 70 87
70 70 87
70 70 87
70 70 87
70 70 87
70 70 87
70 70 87
70 70 87
70 70 87
70 70 87
70 70 87
70 70 87
70 70 87
69 69 87
69 69 87
69 69 87
69 69 87
69 69 87
69 69 87
69 69 87
69 69 87
69 69 87
69 69 87
70 70 87
70 70 87
70 70 87
70 70 87
70 70 87
70 70 87
70 70 87
70 70 87
70 70 87
70 70 87
70 70 87
70 70 87
70 70 87
70 70 87
70 70 87
70 70 87
70 70 87
70 70 87
70 70 87
70 70 87
70 70 87
70 70 87
70 70 87
70 70 87
70 70 87
70 70 87
70 70 87
70 70 87
70 70 87
70 70 87
70 70 87
70 70 87
70 70 87
70 70 87
70 70 87
70 70 87
70 70 87
70 70 87
70 70 87
70 70 87
70 70 87
70 70 87
70 70 87
70 70 87
70 70 87
70 70 87
70 70 87
70 70 87
70 70 87
70 70 87
70 70 87
70 70 87
70 70 87
70 70 87
70 70 87
70 70 87
70 70 88
70 70 87
70 70 87
70 70 87
70 70 87
70 70 87
70 70 87
70 70 87
70 70 87
70 70 87
70 70 87
70 70 87
70 70 87
70 70 87
70 70 87
70 70 87
70 70 87
70 70 87
70 70 87
70 70 87
70 70 87
70 70 87
70 70 87
70 70 87
70 70 87
70 70 87
70 70 87
70 70 87
70 70 87
70 70 87
70 70 87
70 70 87
70 70 88
70 70 88
70 70 88
70 70 88
70 70 88
70 70 88
70 70 88
70 70 88
70 70 88
70 70 88
70 70 88
70 70 88
70 70 88
70 70 88
70 70 88
70 70 88
70 70 88
70 70 88
70 70 88
70 70 88
70 70 88
70 70 88
71 71 88
70 70 88
70 70 88
70 70 88
70 70 88
70 70 88
70 70 88
70 70 88
70 70 88
70 70 88
70 70 88
70 70 88
70 70 88
70 70 88
71 71 88
70 70 88
71 71 88
70 70 88
70 70 88
70 70 88
71 71 88
70 70 88
71 71 88
70 70 88
70 70 88
70 70 88
70 70 88
70 70 88
70 70 88
70 70 88
70 70 88
70 70 88
70 70 88
70 70 88
70 70 88
70 70 88
70 70 88
70 70 88
70 70 88
70 70 88
70 70 88
70 70 88
70 70 88
70 70 88
70 70 88
70 70 88
70 70 88
70 70 88
70 70 88
70 70 88
70 70 88
70 70 88
70 70 88
70 70 88
70 70 88
70 70 88
70 70 88
70 70 88
70 70 88
70 70 88
70 70 88
70 70 88
70 70 88
70 70 88
70 70 88
70 70 88
70 70 88
70 70 88
70 70 88
70 70 88
70 70 88
70 70 88
71 71 88
71 71 88
71 71 88
71 71 88
71 71 88
71 71 88
71 71 88
71 71 88
70 70 88
71 71 88
71 71 88
70 70 88
71 71 88
70 70 88
70 70 88
71 71 88
71 71 88
71 71 88
71 71 88
71 71 88
71 71 88
70 70 88
71 71 88
70 70 88
71 71 88
71 71 88
71 71 88
71 71 88
70 70 88
71 71 88
70 70 88
71 71 88
71 71 88
70 70 88
71 71 88
71 71 88
70 70 88
71 71 88
71 71 88
71 71 88
70 70 88
71 71 88
70 70 88
71 71 88
70 70 88
71 71 88
70 70 88
70 70 88
71 71 88
70 70 88
71 71 88
71 71 88
71 71 88
71 71 88
71 71 88
70 70 88
71 71 88
71 71 88
71 71 88
71 71 88
70 70 88
70 70 88
70 70 88
71 71 88
70 70 88
70 70 88
70 70 88
71 71 88
71 71 88
70 70 88
70 70 88
70 70 88
70 70 88
70 70 88
70 70 88
70 70 88
70 70 88
70 70 88
70 70 88
70 70 88
70 70 88
70 70 88
70 70 88
70 70 88
70 70 88
70 70 88
70 70 88
70 70 88
70 70 88
70 70 88
70 70 88
70 70 88
70 70 88
70 70 88
70 70 88
70 70 88
70 70 88
70 70 88
70 70 88
70 70 88
70 70 88
70 70 88
70 70 88
70 70 88
70 70 88
70 70 88
70 70 88
70 70 88
70 70 88
70 70 88
70 70 88
70 70 88
64 62 72
56 53 57
54 51 56
54 51 55
53 50 55
51 48 53
53 50 55
51 48 53
50 47 52
51 48 54
49 47 52
48 45 51
48 46 51
50 48 53
50 47 52
49 47 52
48 46 51
49 47 52
48 45 50
52 49 54
49 46 51
62 61 72
70 70 87
70 70 87
70 70 87
70 70 87
70 70 87
70 70 87
70 70 87
70 70 87
70 70 87
70 70 87
70 70 87
70 70 87
70 70 87
70 70 87
70 70 87
70 70 87
70 70 87
70 70 87
70 70 87
70 70 87
70 70 87
70 70 87
70 70 87
70 70 87
70 70 87
70 70 87
70 70 87
70 70 87
70 70 87
70 70 87
70 70 87
70 70 87
70 70 87
70 70 87
70 70 87
70 70 87
70 70 87
70 70 87
70 70 87
70 70 87
70 70 87
70 70 87
70 70 87
70 70 87
70 70 87
70 70 87
70 70 87
70 70 87
70 70 87
70 70 87
70 70 87
70 70 87
70 70 87
70 70 87
70 70 87
70 70 87
70 70 87
70 70 87
70 70 87
70 70 87
70 70 87
70 70 87
70 70 87
70 70 87
70 70 87
70 70 87
70 70 87
70 70 87
70 70 87
70 70 87
70 70 87
70 70 87
70 70 87
70 70 87
70 70 87
70 70 87
70 70 87
70 70 87
69 69 87
69 69 87
69 69 87
70 70 87
70 70 87
70 70 87
70 70 87
70 70 87
70 70 87
70 70 87
70 70 87
70 70 87
70 70 87
70 70 87
70 70 87
70 70 87
70 70 87
70 70 87
70 70 87
70 70 87
70 70 87
70 70 87
70 70 87
70 70 87
70 70 87
70 70 87
70 70 87
70 70 87
70 70 87
70 70 87
70 70 87
70 70 87
70 70 87
70 70 87
70 70 87
70 70 87
70 70 87
70 70 87
70 70 87
70 70 87
70 70 87
70 70 87
70 70 87
70 70 87
70 70 87
70 70 87
70 70 87
70 70 87
70 70 87
70 70 87
70 70 87
70 70 87
70 70 87
70 70 87
70 70 87
70 70 87
70 70 87
70 70 87
70 70 87
70 70 87
70 70 87
70 70 87
70 70 87
70 70 87
70 70 87
70 70 87
70 70 87
70 70 87
70 70 87
70 70 87
70 70 87
70 70 87
70 70 87
70 70 87
70 70 87
70 70 87
70 70 87
70 70 87
70 70 87
70 70 87
70 70 87
70 70 87
70 70 87
70 70 87
70 70 87
70 70 87
70 70 87
70 70 88
70 70 88
70 70 88
70 70 88
70 70 88
70 70 88
70 70 88
70 70 88
70 70 88
70 70 88
70 70 88
70 70 88
70 70 88
70 70 88
70 70 88
70 70 88
70 70 88
70 70 88
70 70 88
70 70 88
70 70 88
70 70 88
71 71 88
71 71 88
70 70 88
71 71 88
70 70 88
70 70 88
70 70 88
70 70 88
70 70 88
70 70 88
70 70 88
70 70 88
70 70 88
70 70 88
70 70 88
70 70 88
70 70 88
70 70 88
70 70 88
70 70 88
70 70 88
70 70 88
70 70 88
71 71 88
70 70 88
70 70 88
71 71 88
70 70 88
71 71 88
71 71 88
70 70 88
70 70 88
70 70 88
70 70 88
70 70 88
70 70 88
70 70 88
70 70 88
70 70 88
70 70 88
70 70 88
70 70 88
70 70 88
70 70 88
70 70 88
70 70 88
70 70 88
70 70 88
70 70 88
70 70 88
70 70 88
70 70 88
70 70 88
70 70 88
70 70 88
70 70 88
70 70 88
70 70 88
70 70 88
70 70 88
70 70 88
70 70 88
70 70 88
70 70 88
70 70 88
70 70 88
70 70 88
70 70 88
70 70 88
70 70 88
70 70 88
70 70 88
70 70 88
70 70 88
70 70 88
70 70 88
70 70 88
70 70 88
71 71 88
71 71 88
71 71 88
71 71 88
70 70 88
71 71 88
71 71 88
71 71 88
71 71 88
71 71 88
70 70 88
71 71 88
71 71 88
71 71 88
71 71 88
71 71 88
70 70 88
71 71 88
71 71 88
71 71 88
71 71 88
71 71 88
71 71 88
71 71 88
71 71 88
71 71 88
71 71 88
71 71 88
70 70 88
71 71 88
71 71 88
71 71 88
71 71 88
71 71 88
71 71 88
71 71 88
70 70 88
71 71 88
71 71 88
71 71 88
71 71 88
71 71 88
71 71 88
71 71 88
71 71 88
71 71 88
71 71 88
71 71 88
71 71 88
71 71 88
71 71 88
71 71 88
71 71 88
71 71 88
70 70 88
71 71 88
71 71 88
71 71 88
71 71 88
70 70 88
71 71 88
70 70 88
71 71 88
71 71 88
71 71 88
70 70 88
71 71 88
70 70 88
70 70 88
70 70 88
70 70 88
70 70 88
70 70 88
70 70 88
70 70 88
70 70 88
70 70 88
70 70 88
70 70 88
70 70 88
70 70 88
70 70 88
70 70 88
70 70 88
70 70 88
70 70 88
70 70 88
70 70 88
70 70 88
70 70 88
70 70 88
70 70 88
70 70 88
70 70 88
70 70 88
70 70 88
70 70 88
70 70 88
70 70 88
70 70 88
70 70 88
70 70 88
70 70 88
70 70 88
70 70 88
70 70 88
70 70 88
70 70 88
70 70 88
70 70 88
70 70 88
70 70 88
70 70 88
65 63 74
61 57 61
57 54 58
58 54 58
55 52 56
51 48 53
53 50 55
52 49 54
54 51 56
52 50 55
49 46 51
50 47 52
48 46 51
52 49 54
54 51 56
52 49 54
51 48 53
51 48 53
50 48 53
52 49 54
52 49 54
61 60 71
70 70 87
70 70 87
70 70 87
70 70 87
70 70 87
70 70 87
70 70 87
70 70 87
70 70 87
70 70 87
70 70 87
70 70 87
70 70 87
70 70 87
70 70 87
70 70 87
70 70 87
70 70 87
70 70 87
70 70 87
70 70 87
70 70 87
70 70 87
70 70 87
70 70 87
70 70 87
70 70 87
70 70 87
70 70 87
70 70 87
70 70 87
70 70 87
70 70 87
70 70 87
70 70 87
70 70 87
70 70 87
70 70 87
70 70 87
70 70 87
70 70 87
70 70 87
70 70 87
70 70 87
70 70 87
70 70 87
70 70 87
70 70 87
70 70 87
70 70 87
70 70 87
70 70 87
70 70 87
70 70 87
70 70 87
70 70 87
70 70 87
70 70 87
70 70 87
70 70 87
70 70 87
70 70 87
70 70 87
70 70 87
70 70 87
70 70 87
70 70 87
70 70 87
70 70 87
70 70 87
70 70 87
70 70 87
70 70 87
70 70 87
70 70 87
70 70 87
70 70 87
70 70 87
70 70 87
70 70 87
70 70 87
70 70 87
70 70 87
70 70 87
70 70 87
70 70 87
70 70 87
70 70 87
70 70 87
70 70 87
70 70 87
70 70 87
70 70 87
70 70 87
70 70 87
70 70 87
70 70 87
70 70 87
70 70 87
70 70 87
70 70 87
70 70 87
70 70 87
70 70 87
70 70 87
70 70 87
70 70 87
70 70 87
70 70 87
70 70 87
70 70 87
70 70 87
70 70 87
70 70 87
70 70 87
70 70 87
70 70 87
70 70 87
70 70 87
70 70 87
70 70 87
70 70 87
70 70 87
70 70 87
70 70 87
70 70 87
70 70 87
70 70 87
70 70 87
70 70 87
70 70 87
70 70 87
70 70 88
70 70 87
70 70 88
70 70 87
70 70 87
70 70 87
70 70 87
70 70 87
70 70 87
70 70 87
70 70 87
70 70 87
70 70 87
70 70 87
70 70 87
70 70 87
70 70 87
70 70 87
70 70 87
70 70 87
70 70 87
70 70 87
70 70 87
70 70 87
70 70 87
70 70 87
70 70 88
70 70 88
70 70 88
70 70 88
70 70 88
70 70 88
70 70 88
70 70 88
70 70 88
70 70 88
70 70 88
70 70 88
70 70 88
70 70 88
70 70 88
70 70 88
70 70 88
70 70 88
70 70 88
70 70 88
70 70 88
70 70 88
70 70 88
70 70 88
70 70 88
70 70 88
70 70 88
70 70 88
71 71 88
70 70 88
70 70 88
70 70 88
70 70 88
70 70 88
71 71 88
70 70 88
71 71 88
71 71 88
70 70 88
71 71 88
70 70 88
70 70 88
71 71 88
71 71 88
70 70 88
70 70 88
70 70 88
70 70 88
70 70 88
70 70 88
70 70 88
70 70 88
71 71 88
71 71 88
71 71 88
70 70 88
70 70 88
70 70 88
70 70 88
70 70 88
70 70 88
70 70 88
70 70 88
70 70 88
70 70 88
70 70 88
70 70 88
70 70 88
70 70 88
70 70 88
70 70 88
70 70 88
70 70 88
70 70 88
70 70 88
70 70 88
70 70 88
70 70 88
70 70 88
70 70 88
70 70 88
70 70 88
70 70 88
70 70 88
70 70 88
70 70 88
70 70 88
71 71 88
71 71 88
71 71 88
71 71 88
71 71 88
71 71 88
71 71 88
71 71 88
71 71 88
71 71 88
71 71 88
71 71 88
71 71 88
71 71 88
71 71 88
71 71 88
71 71 88
71 71 88
71 71 88
71 71 88
71 71 88
71 71 88
71 71 88
71 71 88
71 71 88
71 71 88
71 71 88
71 71 88
71 71 88
71 71 88
71 71 88
71 71 88
71 71 88
71 71 88
71 71 88
71 71 88
71 71 88
71 71 88
71 71 88
71 71 88
71 71 88
71 71 88
71 71 88
71 71 88
71 71 88
71 71 88
71 71 88
71 71 88
71 71 88
71 71 88
71 71 88
71 71 88
71 71 88
71 71 88
71 71 88
71 71 88
71 71 88
71 71 88
71 71 88
71 71 88
71 71 88
71 71 88
71 71 88
71 71 88
71 71 88
71 71 88
71 71 88
71 71 88
71 71 88
71 71 88
71 71 88
71 71 88
71 71 88
71 71 88
71 71 88
70 70 88
71 71 88
71 71 88
71 71 88
71 71 88
71 71 88
71 71 88
71 71 88
71 71 88
70 70 88
70 70 88
70 70 88
70 70 88
70 70 88
70 70 88
70 70 88
70 70 88
70 70 88
70 70 88
70 70 88
70 70 88
70 70 88
70 70 88
70 70 88
70 70 88
70 70 88
70 70 88
70 70 88
70 70 88
70 70 88
70 70 88
70 70 88
70 70 88
70 70 88
70 70 88
70 70 88
70 70 88
70 70 88
70 70 88
70 70 88
70 70 88
70 70 88
70 70 88
70 70 88
70 70 88
70 70 88
70 70 88
70 70 88
70 70 88
70 70 88
70 70 88
70 70 88
70 70 88
70 70 88
70 70 88
70 70 88
70 70 88
70 70 88
67 65 77
63 59 61
58 54 58
58 55 59
55 52 57
54 51 55
55 52 56
54 51 56
52 49 54
50 47 52
53 50 55
52 49 55
50 48 53
52 50 55
50 48 53
52 49 54
52 49 54
53 50 55
53 50 55
50 48 52
55 52 57
63 62 73
70 70 88
70 70 88
70 70 88
70 70 88
70 70 87
70 70 87
70 70 87
70 70 87
70 70 87
70 70 87
70 70 87
70 70 87
70 70 87
70 70 87
70 70 87
70 70 87
70 70 87
70 70 87
70 70 87
70 70 87
70 70 87
70 70 87
70 70 87
70 70 87
70 70 87
70 70 87
70 70 87
70 70 87
70 70 87
70 70 87
70 70 87
70 70 87
70 70 87
70 70 87
70 70 87
70 70 87
70 70 87
70 70 87
70 70 87
70 70 87
70 70 87
70 70 87
70 70 87
70 70 87
70 70 87
70 70 87
70 70 87
70 70 87
70 70 87
70 70 87
70 70 87
70 70 87
70 70 87
70 70 87
70 70 87
70 70 87
70 70 87
70 70 87
70 70 87
70 70 87
70 70 87
70 70 87
70 70 87
70 70 87
70 70 87
70 70 87
70 70 87
70 70 87
70 70 87
70 70 87
70 70 87
70 70 87
70 70 87
70 70 87
70 70 87
70 70 87
70 70 87
70 70 87
70 70 87
70 70 87
70 70 87
70 70 87
70 70 87
70 70 87
70 70 87
70 70 87
70 70 87
70 70 87
70 70 87
70 70 87
70 70 87
70 70 87
70 70 87
70 70 87
70 70 87
70 70 87
70 70 87
70 70 87
70 70 87
70 70 87
70 70 87
70 70 87
70 70 87
70 70 87
70 70 87
70 70 87
70 70 87
70 70 87
70 70 87
70 70 87
70 70 87
70 70 87
70 70 87
70 70 87
70 70 87
70 70 87
70 70 87
70 70 87
70 70 87
70 70 87
70 70 87
70 70 88
70 70 87
70 70 87
70 70 87
70 70 87
70 70 87
70 70 87
70 70 87
70 70 87
70 70 87
70 70 87
70 70 88
70 70 88
70 70 87
70 70 87
70 70 88
70 70 87
70 70 87
70 70 87
70 70 87
70 70 87
70 70 87
70 70 87
70 70 87
70 70 87
70 70 87
70 70 87
70 70 87
70 70 87
70 70 87
70 70 88
70 70 88
70 70 88
70 70 88
70 70 88
70 70 88
70 70 88
70 70 88
70 70 88
70 70 88
70 70 88
70 70 88
70 70 88
70 70 88
70 70 88
70 70 88
70 70 88
70 70 88
70 70 88
70 70 88
70 70 88
70 70 88
70 70 88
70 70 88
70 70 88
70 70 88
70 70 88
70 70 88
70 70 88
70 70 88
70 70 88
70 70 88
71 71 88
70 70 88
70 70 88
70 70 88
70 70 88
70 70 88
70 70 88
70 70 88
70 70 88
70 70 88
71 71 88
70 70 88
70 70 88
70 70 88
70 70 88
71 71 88
71 71 88
71 71 88
71 71 88
71 71 88
71 71 88
71 71 88
70 70 88
71 71 88
71 71 88
70 70 88
71 71 88
71 71 88
71 71 88
71 71 88
71 71 88
70 70 88
70 70 88
70 70 88
70 70 88
70 70 88
70 70 88
70 70 88
70 70 88
70 70 88
70 70 88
70 70 88
70 70 88
70 70 88
70 70 88
71 71 88
71 71 88
71 71 88
71 71 88
71 71 88
71 71 88
71 71 88
71 71 88
71 71 88
71 71 88
71 71 88
71 71 88
71 71 88
71 71 88
71 71 88
71 71 88
71 71 88
71 71 88
71 71 88
71 71 88
71 71 88
71 71 88
71 71 88
71 71 88
71 71 88
71 71 88
71 71 88
71 71 88
71 71 88
71 71 88
71 71 88
71 71 88
71 71 88
71 71 88
71 71 88
71 71 88
71 71 88
71 71 88
71 71 88
71 71 88
71 71 88
71 71 88
71 71 88
71 71 88
71 71 88
71 71 88
71 71 88
71 71 88
71 71 88
71 71 88
71 71 88
71 71 88
71 71 88
71 71 88
71 71 88
71 71 88
71 71 88
71 71 88
71 71 88
71 71 88
71 71 88
71 71 88
71 71 88
71 71 88
71 71 88
71 71 88
71 71 88
71 71 88
71 71 88
71 71 88
71 71 88
71 71 88
71 71 88
71 71 88
71 71 88
71 71 88
71 71 88
71 71 88
71 71 88
71 71 88
71 71 88
71 71 88
71 71 88
71 71 88
71 71 88
71 71 88
71 71 88
71 71 88
71 71 88
71 71 88
71 71 88
71 71 88
71 71 88
71 71 88
71 71 88
71 71 88
71 71 88
71 71 88
71 71 88
71 71 88
71 71 88
71 71 88
71 71 88
71 71 88
71 71 88
71 71 88
70 70 88
70 70 88
70 70 88
70 70 88
70 70 88
70 70 88
70 70 88
70 70 88
70 70 88
70 70 88
70 70 88
70 70 88
70 70 88
70 70 88
70 70 88
70 70 88
70 70 88
70 70 88
70 70 88
70 70 88
70 70 88
70 70 88
70 70 88
70 70 88
70 70 88
70 70 88
70 70 88
70 70 88
70 70 88
70 70 88
70 70 88
70 70 88
70 70 88
70 70 88
70 70 88
70 70 88
70 70 88
70 70 88
70 70 88
70 70 88
70 70 88
70 70 88
70 70 88
70 70 88
69 68 83
61 58 61
60 56 60
57 53 57
55 52 56
56 53 57
55 52 56
54 51 55
53 50 55
51 48 53
57 54 58
57 53 58
51 49 53
55 52 57
53 50 55
53 50 55
54 52 56
52 50 54
55 52 56
56 53 57
53 51 55
66 65 79
70 70 88
70 70 88
70 70 88
70 70 88
70 70 88
70 70 88
70 70 88
70 70 88
70 70 88
70 70 88
70 70 88
70 70 87
70 70 87
70 70 87
70 70 87
70 70 87
70 70 87
70 70 87
70 70 87
70 70 87
70 70 87
70 70 87
70 70 87
70 70 87
70 70 87
70 70 87
70 70 87
70 70 87
70 70 87
70 70 87
70 70 87
70 70 87
70 70 87
70 70 87
70 70 87
70 70 87
70 70 87
70 70 87
70 70 87
70 70 87
70 70 87
70 70 87
70 70 87
70 70 87
70 70 87
70 70 87
70 70 87
70 70 87
70 70 87
70 70 87
70 70 87
70 70 87
70 70 87
70 70 87
70 70 87
70 70 87
70 70 87
70 70 87
70 70 87
70 70 87
70 70 87
70 70 87
70 70 87
70 70 87
70 70 87
70 70 87
70 70 87
70 70 87
70 70 87
70 70 87
70 70 87
70 70 87
70 70 87
70 70 87
70 70 87
70 70 87
70 70 87
70 70 87
70 70 87
70 70 87
70 70 87
70 70 87
70 70 87
70 70 87
70 70 87
70 70 87
70 70 87
70 70 87
70 70 87
70 70 87
70 70 87
70 70 87
70 70 87
70 70 87
70 70 87
70 70 87
70 70 87
70 70 87
70 70 87
70 70 87
70 70 87
70 70 87
70 70 87
70 70 87
70 70 87
70 70 87
70 70 87
70 70 87
70 70 87
70 70 87
70 70 87
70 70 87
70 70 87
70 70 87
70 70 87
70 70 88
70 70 88
70 70 87
70 70 87
70 70 87
70 70 87
70 70 87
70 70 88
70 70 87
70 70 87
70 70 88
70 70 87
70 70 87
70 70 87
70 70 88
70 70 88
70 70 87
70 70 88
70 70 88
70 70 88
70 70 88
70 70 87
70 70 87
70 70 87
70 70 87
70 70 87
70 70 87
70 70 87
70 70 87
70 70 87
70 70 88
70 70 88
70 70 88
70 70 88
70 70 88
70 70 88
70 70 88
70 70 88
70 70 88
70 70 88
70 70 88
70 70 88
70 70 88
70 70 88
70 70 88
70 70 88
70 70 88
70 70 88
70 70 88
70 70 88
70 70 88
70 70 88
70 70 88
70 70 88
70 70 88
70 70 88
70 70 88
70 70 88
70 70 88
70 70 88
70 70 88
70 70 88
70 70 88
71 71 88
70 70 88
70 70 88
71 71 88
70 70 88
70 70 88
70 70 88
71 71 88
70 70 88
70 70 88
71 71 88
71 71 88
71 71 88
70 70 88
70 70 88
70 70 88
71 71 88
70 70 88
71 71 88
71 71 88
71 71 88
70 70 88
71 71 88
71 71 88
71 71 88
71 71 88
70 70 88
70 70 88
71 71 88
71 71 88
71 71 88
71 71 88
71 71 88
71 71 88
70 70 88
70 70 88
70 70 88
71 71 88
71 71 88
71 71 88
71 71 88
71 71 88
71 71 88
71 71 88
71 71 88
71 71 88
71 71 88
71 71 88
71 71 88
71 71 88
71 71 88
71 71 88
71 71 88
71 71 88
71 71 88
71 71 88
71 71 88
71 71 88
71 71 88
71 71 88
71 71 88
71 71 88
71 71 88
71 71 88
71 71 88
71 71 88
71 71 88
71 71 88
71 71 88
71 71 88
71 71 88
71 71 88
71 71 88
71 71 88
71 71 88
71 71 88
71 71 88
71 71 88
71 71 88
71 71 88
71 71 88
71 71 88
71 71 88
71 71 88
71 71 88
71 71 88
71 71 88
71 71 88
71 71 88
71 71 88
71 71 88
71 71 88
71 71 88
71 71 88
71 71 88
71 71 88
71 71 88
71 71 88
71 71 88
71 71 88
71 71 88
71 71 88
71 71 88
71 71 88
71 71 88
71 71 88
71 71 88
71 71 88
71 71 88
71 71 88
71 71 88
71 71 88
71 71 88
71 71 88
71 71 88
71 71 88
71 71 88
71 71 88
71 71 88
71 71 88
71 71 88
71 71 88
71 71 88
71 71 88
71 71 88
71 71 88
71 71 88
71 71 88
71 71 88
71 71 88
71 71 88
71 71 88
71 71 88
71 71 88
71 71 88
71 71 88
71 71 88
71 71 88
71 71 88
71 71 88
71 71 88
71 71 88
71 71 88
71 71 88
71 71 88
71 71 88
71 71 88
71 71 88
71 71 88
71 71 88
71 71 88
71 71 88
71 71 88
71 71 88
71 71 88
71 71 88
71 71 88
71 71 88
71 71 88
71 71 88
71 71 88
71 71 88
71 71 88
71 71 88
71 71 88
71 71 88
71 71 88
71 71 88
71 71 88
70 70 88
70 70 88
70 70 88
70 70 88
70 70 88
70 70 88
70 70 88
70 70 88
70 70 88
70 70 88
70 70 88
70 70 88
70 70 88
70 70 88
70 70 88
70 70 88
70 70 88
70 70 88
70 70 88
70 70 88
70 70 88
70 70 88
70 70 88
70 70 88
70 70 88
70 70 88
70 70 88
70 70 88
70 70 88
70 70 88
70 70 88
70 70 88
63 60 66
60 56 59
60 57 61
61 57 62
56 53 58
59 56 60
55 52 56
54 51 56
54 51 55
55 52 57
56 53 58
57 54 58
56 53 58
56 53 57
55 52 57
58 55 59
59 56 60
56 53 57
57 54 58
59 56 60
70 69 86
70 70 88
70 70 88
70 70 88
70 70 88
70 70 88
70 70 88
70 70 88
70 70 88
70 70 88
70 70 88
70 70 88
70 70 88
70 70 88
70 70 88
70 70 88
70 70 88
70 70 88
70 70 87
70 70 87
70 70 87
70 70 87
70 70 87
70 70 87
70 70 87
70 70 87
70 70 87
70 70 87
70 70 87
70 70 87
70 70 87
70 70 87
70 70 87
70 70 87
70 70 87
70 70 87
70 70 87
70 70 87
70 70 87
70 70 87
70 70 87
70 70 87
70 70 87
70 70 87
70 70 87
70 70 87
70 70 87
70 70 87
70 70 87
70 70 87
70 70 87
70 70 87
70 70 87
70 70 87
70 70 87
70 70 87
70 70 87
70 70 87
70 70 87
70 70 87
70 70 87
70 70 87
70 70 87
70 70 87
70 70 87
70 70 87
70 70 87
70 70 87
70 70 87
70 70 87
70 70 87
70 70 87
70 70 87
70 70 87
70 70 87
70 70 87
70 70 87
70 70 87
70 70 87
70 70 87
70 70 87
70 70 87
70 70 87
70 70 87
70 70 87
70 70 87
70 70 87
70 70 87
70 70 87
70 70 87
70 70 87
70 70 87
70 70 87
70 70 87
70 70 87
70 70 87
70 70 87
70 70 87
70 70 87
70 70 87
70 70 87
70 70 87
70 70 87
70 70 87
70 70 87
70 70 87
70 70 87
70 70 87
70 70 87
70 70 88
70 70 87
70 70 87
70 70 87
70 70 87
70 70 87
70 70 87
70 70 87
70 70 88
70 70 88
70 70 87
70 70 88
70 70 87
70 70 87
70 70 87
70 70 88
70 70 87
70 70 88
70 70 88
70 70 87
70 70 88
70 70 87
70 70 87
70 70 88
70 70 88
70 70 87
70 70 88
70 70 88
70 70 87
70 70 87
70 70 87
70 70 88
70 70 88
70 70 88
70 70 88
70 70 88
70 70 88
70 70 88
70 70 88
70 70 88
70 70 88
70 70 88
70 70 88
70 70 88
70 70 88
70 70 88
70 70 88
70 70 88
70 70 88
70 70 88
70 70 88
70 70 88
70 70 88
70 70 88
70 70 88
70 70 88
70 70 88
70 70 88
70 70 88
70 70 88
70 70 88
70 70 88
70 70 88
70 70 88
71 71 88
70 70 88
71 71 88
70 70 88
70 70 88
71 71 88
70 70 88
70 70 88
71 71 88
70 70 88
71 71 88
70 70 88
70 70 88
70 70 88
71 71 88
70 70 88
70 70 88
71 71 88
71 71 88
71 71 88
71 71 88
70 70 88
71 71 88
71 71 88
71 71 88
70 70 88
71 71 88
71 71 88
71 71 88
71 71 88
71 71 88
71 71 88
71 71 88
71 71 88
71 71 88
71 71 88
71 71 88
71 71 88
71 71 88
71 71 88
71 71 88
71 71 88
71 71 88
71 71 88
71 71 88
71 71 88
71 71 88
71 71 88
71 71 88
71 71 88
71 71 88
71 71 88
71 71 88
71 71 88
71 71 88
71 71 88
71 71 88
71 71 88
71 71 88
71 71 88
71 71 88
71 71 88
71 71 88
71 71 88
71 71 88
71 71 88
71 71 88
71 71 88
71 71 88
71 71 88
71 71 88
71 71 88
71 71 88
71 71 88
71 71 88
71 71 88
71 71 88
71 71 88
71 71 88
71 71 88
71 71 88
71 71 88
71 71 88
71 71 88
71 71 88
71 71 88
71 71 88
71 71 88
71 71 88
71 71 88
71 71 88
71 71 88
71 71 88
71 71 88
71 71 88
71 71 88
71 71 88
71 71 88
71 71 88
71 71 88
71 71 88
71 71 88
71 71 88
71 71 88
71 71 88
71 71 88
71 71 88
71 71 88
71 71 88
71 71 88
71 71 88
71 71 88
71 71 88
71 71 88
71 71 88
71 71 88
71 71 88
71 71 88
71 71 88
71 71 88
71 71 88
71 71 88
71 71 88
71 71 88
71 71 88
71 71 88
71 71 88
71 71 88
71 71 88
71 71 88
71 71 88
71 71 88
71 71 88
71 71 88
71 71 88
71 71 88
71 71 88
71 71 88
71 71 88
71 71 88
71 71 88
71 71 88
71 71 88
71 71 88
71 71 88
71 71 88
71 71 88
71 71 88
71 71 88
71 71 88
71 71 88
71 71 88
71 71 88
71 71 88
71 71 88
71 71 88
71 71 88
71 71 88
71 71 88
71 71 88
71 71 88
71 71 88
71 71 88
71 71 88
71 71 88
71 71 88
71 71 88
71 71 88
71 71 88
71 71 88
71 71 88
71 71 88
71 71 88
71 71 88
71 71 88
71 71 88
71 71 88
71 71 88
71 71 88
71 71 88
71 71 88
71 71 88
71 71 88
71 71 88
71 71 88
70 70 88
70 70 88
70 70 88
70 70 88
70 70 88
70 70 88
70 70 88
70 70 88
70 70 88
70 70 88
70 70 88
70 70 88
70 70 88
70 70 88
70 70 88
70 70 88
70 70 88
70 70 88
70 70 88
70 70 88
70 70 88
70 70 88
68 67 78
67 63 66
62 59 63
58 55 59
56 53 57
58 55 59
59 56 60
58 55 59
57 54 58
56 53 58
57 54 58
55 52 56
57 54 59
59 56 60
55 52 56
60 57 61
61 58 62
58 55 59
61 58 62
66 64 73
70 70 88
70 70 88
70 70 88
70 70 88
70 70 88
70 70 88
70 70 88
70 70 88
70 70 88
70 70 88
70 70 88
70 70 88
70 70 88
70 70 88
70 70 88
70 70 88
70 70 88
70 70 88
70 70 88
70 70 88
70 70 88
70 70 88
70 70 88
70 70 88
70 70 87
70 70 87
70 70 87
70 70 87
70 70 87
70 70 87
70 70 87
70 70 87
70 70 87
70 70 87
70 70 87
70 70 87
70 70 87
70 70 87
70 70 87
70 70 87
70 70 87
70 70 87
70 70 87
70 70 87
70 70 87
70 70 87
70 70 87
70 70 87
70 70 87
70 70 87
70 70 87
70 70 87
70 70 87
70 70 87
70 70 87
70 70 87
70 70 87
70 70 87
70 70 87
70 70 87
70 70 87
70 70 87
70 70 87
70 70 87
70 70 87
70 70 87
70 70 87
70 70 87
70 70 87
70 70 87
70 70 87
70 70 87
70 70 87
70 70 87
70 70 87
70 70 87
70 70 87
70 70 87
70 70 87
70 70 87
70 70 87
70 70 87
70 70 87
70 70 87
70 70 87
70 70 87
70 70 87
70 70 87
70 70 87
70 70 87
70 70 87
70 70 87
70 70 87
70 70 87
70 70 87
70 70 87
70 70 87
70 70 87
70 70 87
70 70 87
70 70 87
70 70 87
70 70 87
70 70 88
70 70 88
70 70 87
70 70 87
70 70 87
70 70 87
70 70 87
70 70 87
70 70 87
70 70 87
70 70 87
70 70 87
70 70 87
70 70 87
70 70 87
70 70 87
70 70 87
70 70 87
70 70 87
70 70 88
71 71 88
70 70 88
70 70 88
70 70 88
70 70 88
70 70 87
70 70 88
70 70 87
70 70 88
70 70 88
70 70 88
70 70 87
70 70 88
70 70 88
70 70 88
70 70 88
70 70 88
70 70 88
70 70 88
70 70 88
70 70 88
70 70 88
70 70 88
70 70 88
70 70 88
70 70 88
70 70 88
70 70 88
70 70 88
70 70 88
70 70 88
70 70 88
70 70 88
70 70 88
70 70 88
70 70 88
70 70 88
70 70 88
70 70 88
70 70 88
70 70 88
70 70 88
70 70 88
70 70 88
70 70 88
70 70 88
70 70 88
70 70 88
70 70 88
70 70 88
70 70 88
71 71 88
71 71 88
70 70 88
70 70 88
70 70 88
71 71 88
71 71 88
71 71 88
71 71 88
70 70 88
71 71 88
71 71 88
71 71 88
71 71 88
71 71 88
71 71 88
70 70 88
71 71 88
71 71 88
71 71 88
71 71 88
71 71 88
71 71 88
71 71 88
71 71 88
71 71 88
71 71 88
71 71 88
71 71 88
71 71 88
71 71 88
71 71 88
71 71 88
71 71 88
71 71 88
71 71 88
71 71 88
71 71 88
71 71 88
71 71 88
71 71 88
71 71 88
71 71 88
71 71 88
71 71 88
71 71 88
71 71 88
71 71 88
71 71 88
71 71 88
71 71 88
71 71 88
71 71 88
71 71 88
71 71 88
71 71 88
71 71 88
71 71 88
71 71 88
71 71 88
71 71 88
71 71 88
71 71 88
71 71 88
71 71 88
71 71 88
71 71 88
71 71 88
71 71 88
71 71 88
71 71 88
71 71 88
71 71 88
71 71 88
71 71 88
71 71 88
71 71 88
71 71 88
71 71 88
71 71 88
71 71 88
71 71 88
71 71 88
71 71 88
71 71 88
71 71 88
71 71 88
71 71 88
71 71 88
71 71 88
71 71 88
71 71 88
71 71 88
71 71 88
71 71 88
71 71 88
71 71 88
71 71 88
71 71 88
71 71 88
71 71 88
71 71 88
71 71 88
71 71 88
71 71 88
71 71 88
71 71 88
71 71 88
71 71 88
71 71 88
71 71 88
71 71 88
71 71 88
71 71 88
71 71 88
71 71 88
71 71 88
71 71 88
71 71 88
71 71 88
71 71 88
71 71 88
71 71 88
71 71 88
71 71 88
71 71 88
71 71 88
71 71 88
71 71 88
71 71 88
71 71 88
71 71 88
71 71 88
71 71 88
71 71 88
71 71 88
71 71 88
71 71 88
71 71 88
71 71 88
71 71 88
71 71 88
71 71 88
71 71 88
71 71 88
71 71 88
71 71 88
71 71 88
71 71 88
71 71 88
71 71 88
71 71 88
71 71 88
71 71 88
71 71 88
71 71 88
71 71 88
71 71 88
71 71 88
71 71 88
71 71 88
71 71 88
71 71 88
71 71 88
71 71 88
71 71 88
71 71 88
71 71 88
71 71 88
71 71 88
71 71 88
71 71 88
71 71 88
71 71 88
71 71 88
71 71 88
71 71 88
71 71 88
71 71 88
71 71 88
71 71 88
71 71 88
71 71 88
71 71 88
71 71 88
71 71 88
71 71 88
71 71 88
71 71 88
71 71 88
71 71 88
71 71 88
71 71 88
71 71 88
70 70 88
70 70 88
70 70 88
70 70 88
70 70 88
70 70 88
70 70 88
70 70 88
70 70 88
70 70 88
70 70 88
70 70 88
70 70 88
68 65 71
62 58 62
62 59 63
62 58 62
58 55 59
60 57 61
58 54 58
57 54 58
61 58 62
55 53 57
60 57 61
59 56 60
59 56 59
59 56 60
60 57 61
57 54 58
59 56 60
61 58 63
70 69 85
70 70 88
70 70 88
70 70 88
70 70 88
70 70 88
70 70 88
70 70 88
70 70 88
70 70 88
70 70 88
70 70 88
70 70 88
70 70 88
70 70 88
70 70 88
70 70 88
70 70 88
70 70 88
70 70 88
70 70 88
70 70 88
70 70 88
70 70 88
70 70 88
70 70 88
70 70 88
70 70 88
70 70 88
70 70 88
70 70 87
70 70 87
70 70 87
70 70 87
70 70 87
70 70 87
70 70 87
70 70 87
70 70 87
70 70 87
70 70 87
70 70 87
70 70 87
70 70 87
70 70 87
70 70 87
70 70 87
70 70 87
70 70 87
70 70 87
70 70 87
70 70 87
70 70 87
70 70 87
70 70 87
70 70 87
70 70 87
70 70 87
70 70 87
70 70 87
70 70 87
70 70 87
70 70 87
70 70 87
70 70 87
70 70 87
70 70 87
70 70 87
70 70 87
70 70 87
70 70 87
70 70 87
70 70 87
70 70 87
70 70 87
70 70 87
70 70 87
70 70 87
70 70 87
70 70 87
70 70 87
70 70 87
70 70 87
70 70 87
70 70 87
70 70 87
70 70 87
70 70 87
70 70 87
70 70 87
70 70 87
70 70 87
70 70 87
70 70 87
70 70 87
70 70 87
70 70 87
70 70 87
70 70 87
70 70 87
70 70 87
70 70 87
70 70 87
70 70 87
70 70 87
70 70 87
70 70 87
70 70 87
70 70 87
70 70 87
70 70 87
70 70 87
70 70 88
70 70 87
70 70 87
70 70 87
70 70 87
70 70 88
70 70 87
70 70 87
70 70 88
70 70 88
70 70 87
70 70 88
70 70 88
70 70 88
70 70 87
70 70 88
70 70 88
70 70 88
70 70 88
70 70 88
70 70 88
70 70 88
70 70 88
70 70 88
70 70 88
70 70 88
70 70 88
70 70 88
70 70 88
70 70 88
70 70 88
70 70 88
70 70 88
70 70 88
70 70 88
70 70 88
70 70 88
70 70 88
70 70 88
70 70 88
70 70 88
70 70 88
70 70 88
70 70 88
70 70 88
70 70 88
70 70 88
70 70 88
70 70 88
70 70 88
70 70 88
70 70 88
70 70 88
70 70 88
70 70 88
70 70 88
70 70 88
70 70 88
71 71 88
71 71 88
70 70 88
71 71 88
71 71 88
70 70 88
71 71 88
71 71 88
70 70 88
71 71 88
70 70 88
71 71 88
71 71 88
71 71 88
71 71 88
70 70 88
70 70 88
71 71 88
71 71 88
71 71 88
71 71 88
71 71 88
71 71 88
71 71 88
71 71 88
71 71 88
71 71 88
71 71 88
71 71 88
71 71 88
71 71 88
71 71 88
71 71 88
71 71 88
71 71 88
71 71 88
71 71 88
71 71 88
71 71 88
71 71 88
71 71 88
71 71 88
71 71 88
71 71 88
71 71 88
71 71 88
71 71 88
71 71 88
71 71 88
71 71 88
71 71 88
71 71 88
71 71 88
71 71 88
71 71 88
71 71 88
71 71 88
71 71 88
71 71 88
71 71 88
71 71 88
71 71 88
71 71 88
71 71 88
71 71 88
71 71 88
71 71 88
71 71 88
71 71 88
71 71 88
71 71 88
71 71 88
71 71 88
71 71 88
71 71 88
71 71 88
71 71 88
71 71 88
71 71 88
71 71 88
71 71 88
71 71 88
71 71 88
71 71 88
71 71 88
71 71 88
71 71 88
71 71 88
71 71 88
71 71 88
71 71 88
71 71 88
71 71 88
71 71 88
71 71 88
71 71 88
71 71 88
71 71 88
71 71 88
71 71 88
71 71 88
71 71 88
71 71 88
71 71 88
71 71 88
71 71 88
71 71 88
71 71 88
71 71 88
71 71 88
71 71 88
71 71 88
71 71 88
71 71 88
71 71 88
71 71 88
71 71 88
71 71 88
71 71 88
71 71 88
71 71 88
71 71 88
71 71 88
71 71 88
71 71 88
71 71 88
71 71 88
71 71 88
71 71 88
71 71 88
71 71 88
71 71 88
71 71 88
71 71 88
71 71 88
71 71 88
71 71 88
71 71 88
71 71 88
71 71 88
71 71 88
71 71 88
71 71 88
71 71 88
71 71 88
71 71 88
71 71 88
71 71 88
71 71 88
71 71 88
71 71 88
71 71 88
71 71 88
71 71 88
71 71 88
71 71 88
71 71 88
71 71 88
71 71 88
71 71 88
71 71 88
71 71 88
71 71 88
71 71 88
71 71 88
71 71 88
71 71 88
71 71 88
71 71 88
71 71 88
71 71 88
71 71 88
71 71 88
71 71 88
71 71 88
71 71 88
71 71 88
71 71 88
71 71 88
71 71 88
71 71 88
71 71 88
71 71 88
71 71 88
71 71 88
71 71 88
71 71 88
71 71 88
71 71 88
71 71 88
71 71 88
71 71 88
71 71 88
71 71 88
71 71 88
71 71 88
71 71 88
71 71 88
71 71 88
71 71 88
71 71 88
71 71 88
71 71 88
71 71 88
71 71 88
71 71 88
71 71 88
70 70 88
70 70 88
70 70 88
70 70 88
70 70 88
70 70 85
64 61 65
65 61 65
66 62 66
62 59 62
65 61 65
63 60 64
63 60 63
61 57 61
62 58 62
60 57 61
61 58 62
63 59 63
61 58 62
60 57 60
62 58 62
63 60 64
67 65 78
70 70 88
70 70 88
70 70 88
70 70 88
70 70 88
70 70 88
70 70 88
70 70 88
70 70 88
70 70 88
70 70 88
70 70 88
70 70 88
70 70 88
70 70 88
70 70 88
70 70 88
70 70 88
70 70 88
70 70 88
70 70 88
70 70 88
70 70 88
70 70 88
70 70 88
70 70 88
70 70 88
70 70 88
70 70 88
70 70 88
70 70 88
70 70 88
70 70 88
70 70 88
70 70 88
70 70 88
70 70 87
70 70 87
70 70 87
70 70 87
70 70 87
70 70 87
70 70 87
70 70 87
70 70 87
70 70 87
70 70 87
70 70 87
70 70 87
70 70 87
70 70 87
70 70 87
70 70 87
70 70 87
70 70 87
70 70 87
70 70 87
70 70 87
70 70 87
70 70 87
70 70 87
70 70 87
70 70 87
70 70 87
70 70 87
70 70 87
70 70 87
70 70 87
70 70 87
70 70 87
70 70 87
70 70 87
70 70 87
70 70 87
70 70 87
70 70 87
70 70 87
70 70 87
70 70 87
70 70 87
70 70 87
70 70 87
70 70 87
70 70 87
70 70 87
70 70 87
70 70 87
70 70 87
70 70 87
70 70 87
70 70 87
70 70 87
70 70 87
70 70 87
70 70 87
70 70 87
70 70 87
70 70 87
70 70 87
70 70 87
70 70 87
70 70 88
70 70 87
70 70 87
70 70 87
70 70 87
70 70 87
70 70 88
70 70 88
70 70 87
70 70 87
70 70 87
70 70 88
70 70 88
70 70 88
70 70 87
70 70 87
70 70 88
70 70 88
70 70 88
70 70 88
70 70 87
70 70 88
70 70 87
70 70 88
70 70 88
70 70 88
70 70 88
70 70 88
70 70 88
70 70 88
70 70 88
70 70 88
70 70 88
70 70 88
70 70 88
70 70 88
70 70 88
70 70 88
70 70 88
70 70 88
70 70 88
70 70 88
70 70 88
70 70 88
70 70 88
70 70 88
70 70 88
70 70 88
70 70 88
70 70 88
70 70 88
70 70 88
70 70 88
70 70 88
70 70 88
70 70 88
70 70 88
70 70 88
70 70 88
70 70 88
70 70 88
70 70 88
70 70 88
70 70 88
70 70 88
70 70 88
70 70 88
70 70 88
70 70 88
70 70 88
70 70 88
71 71 88
70 70 88
70 70 88
71 71 88
70 70 88
71 71 88
71 71 88
71 71 88
71 71 88
71 71 88
71 71 88
71 71 88
71 71 88
71 71 88
71 71 88
71 71 88
71 71 88
71 71 88
71 71 88
71 71 88
71 71 88
71 71 88
71 71 88
71 71 88
71 71 88
71 71 88
71 71 88
71 71 88
71 71 88
71 71 88
71 71 88
71 71 88
71 71 88
71 71 88
71 71 88
71 71 88
71 71 88
71 71 88
71 71 88
71 71 88
71 71 88
71 71 88
71 71 88
71 71 88
71 71 88
71 71 88
71 71 88
71 71 88
71 71 88
71 71 88
71 71 88
71 71 88
71 71 88
71 71 88
71 71 88
71 71 88
71 71 88
71 71 88
71 71 88
71 71 88
71 71 88
71 71 88
71 71 88
71 71 88
71 71 88
71 71 88
71 71 88
71 71 88
71 71 88
71 71 88
71 71 88
71 71 88
71 71 88
71 71 88
71 71 88
71 71 88
71 71 88
71 71 88
71 71 88
71 71 88
71 71 88
71 71 88
71 71 88
71 71 88
71 71 88
71 71 88
71 71 88
71 71 88
71 71 88
71 71 88
71 71 88
71 71 88
71 71 88
71 71 88
71 71 88
71 71 88
71 71 88
71 71 88
71 71 88
71 71 88
71 71 88
71 71 88
71 71 88
71 71 88
71 71 88
71 71 88
71 71 88
71 71 88
71 71 88
71 71 88
71 71 88
71 71 88
71 71 88
71 71 88
71 71 88
71 71 88
71 71 88
71 71 88
71 71 88
71 71 88
71 71 89
71 71 88
71 71 88
71 71 88
71 71 88
71 71 88
71 71 88
71 71 88
71 71 88
71 71 88
71 71 88
71 71 88
71 71 88
71 71 88
71 71 88
71 71 88
71 71 88
71 71 88
71 71 88
71 71 88
71 71 88
71 71 88
71 71 88
71 71 88
71 71 88
71 71 88
71 71 88
71 71 88
71 71 88
71 71 88
71 71 88
71 71 88
71 71 88
71 71 88
71 71 88
71 71 88
71 71 88
71 71 88
71 71 88
71 71 88
71 71 88
71 71 88
71 71 88
71 71 88
71 71 88
71 71 88
71 71 88
71 71 88
71 71 88
71 71 88
71 71 88
71 71 88
71 71 88
71 71 88
71 71 88
71 71 88
71 71 88
71 71 88
71 71 88
71 71 88
71 71 88
71 71 88
71 71 88
71 71 88
71 71 88
71 71 88
71 71 88
71 71 88
71 71 88
71 71 88
71 71 88
71 71 88
71 71 88
71 71 88
71 71 88
71 71 88
71 71 88
71 71 88
71 71 88
71 71 88
71 71 88
71 71 88
71 71 88
71 71 88
71 71 88
71 71 88
71 71 88
71 71 88
71 71 88
71 71 88
71 71 88
69 69 84
69 66 71
66 62 65
65 61 65
65 62 65
66 62 65
65 61 65
63 59 63
63 59 63
62 59 62
63 60 63
63 60 64
64 60 64
65 62 65
64 60 64
66 64 75
70 70 88
70 70 88
70 70 88
70 70 88
70 70 88
70 70 88
70 70 88
70 70 88
70 70 88
70 70 88
70 70 88
70 70 88
70 70 88
70 70 88
70 70 88
70 70 88
70 70 88
70 70 88
70 70 88
70 70 88
70 70 88
70 70 88
70 70 88
70 70 88
70 70 88
70 70 88
70 70 88
70 70 88
70 70 88
70 70 88
70 70 88
70 70 88
70 70 88
70 70 88
70 70 88
70 70 88
70 70 88
70 70 88
70 70 88
70 70 88
70 70 88
70 70 88
70 70 87
70 70 87
70 70 87
70 70 87
70 70 87
70 70 87
70 70 87
70 70 87
70 70 87
70 70 87
70 70 87
70 70 87
70 70 87
70 70 87
70 70 87
70 70 87
70 70 87
70 70 87
70 70 87
70 70 87
70 70 87
70 70 87
70 70 87
70 70 87
70 70 87
70 70 87
70 70 87
70 70 87
70 70 87
70 70 87
70 70 87
70 70 87
70 70 87
70 70 87
70 70 87
70 70 87
70 70 87
70 70 87
70 70 87
70 70 87
70 70 87
70 70 87
70 70 87
70 70 87
70 70 87
70 70 87
70 70 87
70 70 87
70 70 87
70 70 87
70 70 87
70 70 87
70 70 87
70 70 87
70 70 87
70 70 87
70 70 87
70 70 87
70 70 87
70 70 87
70 70 87
70 70 88
70 70 87
70 70 87
70 70 87
70 70 88
70 70 87
70 70 88
70 70 88
70 70 88
70 70 88
70 70 88
70 70 87
70 70 87
70 70 88
70 70 88
70 70 88
70 70 88
70 70 88
70 70 88
70 70 88
70 70 88
70 70 88
70 70 88
70 70 88
70 70 88
70 70 88
70 70 88
70 70 88
70 70 88
71 71 88
70 70 88
70 70 88
70 70 88
70 70 88
70 70 88
70 70 88
70 70 88
70 70 88
70 70 88
70 70 88
70 70 88
70 70 88
70 70 88
70 70 88
70 70 88
70 70 88
70 70 88
70 70 88
70 70 88
70 70 88
70 70 88
70 70 88
70 70 88
70 70 88
70 70 88
70 70 88
70 70 88
70 70 88
70 70 88
70 70 88
70 70 88
70 70 88
70 70 88
70 70 88
70 70 88
70 70 88
70 70 88
71 71 88
71 71 88
71 71 88
71 71 88
71 71 88
71 71 88
71 71 88
71 71 88
71 71 88
71 71 88
71 71 88
71 71 88
71 71 88
71 71 88
71 71 88
71 71 88
71 71 88
71 71 88
71 71 88
71 71 88
71 71 88
71 71 88
71 71 88
71 71 88
71 71 88
71 71 88
71 71 88
71 71 88
71 71 88
71 71 88
71 71 88
71 71 88
71 71 88
71 71 88
71 71 88
71 71 88
71 71 88
71 71 88
71 71 88
71 71 88
71 71 88
71 71 88
71 71 88
71 71 88
71 71 88
71 71 88
71 71 88
71 71 88
71 71 88
71 71 88
71 71 88
71 71 88
71 71 88
71 71 88
71 71 88
71 71 88
71 71 88
71 71 88
71 71 88
71 71 88
71 71 88
71 71 88
71 71 88
71 71 88
71 71 88
71 71 88
71 71 88
71 71 88
71 71 88
71 71 88
71 71 88
71 71 88
71 71 88
71 71 88
71 71 88
71 71 88
71 71 88
71 71 88
71 71 88
71 71 88
71 71 88
71 71 88
71 71 88
71 71 88
71 71 88
71 71 88
71 71 88
71 71 88
71 71 88
71 71 88
71 71 88
71 71 88
71 71 88
71 71 88
71 71 88
71 71 88
71 71 88
71 71 88
71 71 88
71 71 88
71 71 88
71 71 88
71 71 88
71 71 88
71 71 88
71 71 88
71 71 88
71 71 88
71 71 88
71 71 88
71 71 88
71 71 88
71 71 88
71 71 88
71 71 89
71 71 88
71 71 88
71 71 88
71 71 88
71 71 88
71 71 88
71 71 88
71 71 88
71 71 88
71 71 88
71 71 88
71 71 88
71 71 88
71 71 88
71 71 88
71 71 88
71 71 88
71 71 88
71 71 88
71 71 88
71 71 88
71 71 88
71 71 88
71 71 88
71 71 88
71 71 88
71 71 88
71 71 88
71 71 88
71 71 88
71 71 88
71 71 88
71 71 88
71 71 88
71 71 88
71 71 88
71 71 88
71 71 88
71 71 88
71 71 88
71 71 88
71 71 88
71 71 88
71 71 88
71 71 88
71 71 88
71 71 88
71 71 88
71 71 88
71 71 88
71 71 88
71 71 88
71 71 88
71 71 88
71 71 88
71 71 88
71 71 88
71 71 88
71 71 88
71 71 88
71 71 88
71 71 88
71 71 88
71 71 88
71 71 88
71 71 88
71 71 88
71 71 88
71 71 88
71 71 88
71 71 88
71 71 88
71 71 88
71 71 88
71 71 88
71 71 88
71 71 88
71 71 88
71 71 88
71 71 88
71 71 88
71 71 88
71 71 88
71 71 88
71 71 88
71 71 88
71 71 88
71 71 88
71 71 88
71 71 88
71 71 88
71 71 88
71 71 88
71 71 88
71 71 88
71 71 88
71 71 88
71 71 88
71 71 88
71 71 88
70 70 86
65 63 72
69 65 68
67 64 67
65 62 65
64 61 64
63 60 63
65 61 65
66 62 66
64 61 64
64 61 64
69 65 69
66 63 68
69 68 82
70 70 88
70 70 88
70 70 88
70 70 88
70 70 88
70 70 88
70 70 88
70 70 88
70 70 88
70 70 88
70 70 88
70 70 88
70 70 88
70 70 88
70 70 88
70 70 88
70 70 88
70 70 88
70 70 88
70 70 88
70 70 88
70 70 88
70 70 88
70 70 88
70 70 88
70 70 88
70 70 88
70 70 88
70 70 88
70 70 88
70 70 88
70 70 88
70 70 88
70 70 88
70 70 88
70 70 88
70 70 88
70 70 88
70 70 88
70 70 88
70 70 88
70 70 88
70 70 88
70 70 88
70 70 88
70 70 88
70 70 88
70 70 88
70 70 88
70 70 87
70 70 87
70 70 87
70 70 87
70 70 87
70 70 87
70 70 87
70 70 87
70 70 87
70 70 87
70 70 87
70 70 87
70 70 87
70 70 87
70 70 87
70 70 87
70 70 87
70 70 87
70 70 87
70 70 87
70 70 87
70 70 87
70 70 87
70 70 87
70 70 87
70 70 87
70 70 87
70 70 87
70 70 87
70 70 87
70 70 87
70 70 87
70 70 87
70 70 87
70 70 87
70 70 87
70 70 87
70 70 87
70 70 87
70 70 87
70 70 87
70 70 87
70 70 87
70 70 87
70 70 87
70 70 87
70 70 87
70 70 87
70 70 87
70 70 87
70 70 87
70 70 87
70 70 88
70 70 87
70 70 87
70 70 88
70 70 87
70 70 87
70 70 87
70 70 88
70 70 88
70 70 88
70 70 88
70 70 88
70 70 87
70 70 88
70 70 88
70 70 88
70 70 88
70 70 88
70 70 88
70 70 88
70 70 88
70 70 88
70 70 88
70 70 88
70 70 88
70 70 88
70 70 88
70 70 88
70 70 88
70 70 88
70 70 88
70 70 88
70 70 88
70 70 88
70 70 88
70 70 88
70 70 88
70 70 88
70 70 88
70 70 88
70 70 88
70 70 88
70 70 88
70 70 88
70 70 88
70 70 88
70 70 88
70 70 88
70 70 88
70 70 88
70 70 88
70 70 88
70 70 88
70 70 88
70 70 88
70 70 88
70 70 88
70 70 88
70 70 88
70 70 88
70 70 88
70 70 88
70 70 88
70 70 88
70 70 88
70 70 88
70 70 88
71 71 88
71 71 88
71 71 88
71 71 88
71 71 88
71 71 88
71 71 88
71 71 88
71 71 88
71 71 88
71 71 88
71 71 88
71 71 88
71 71 88
71 71 88
71 71 88
71 71 88
71 71 88
71 71 88
71 71 88
71 71 88
71 71 88
71 71 88
71 71 88
71 71 88
71 71 88
71 71 88
71 71 88
71 71 88
71 71 88
71 71 88
71 71 88
71 71 88
71 71 88
71 71 88
71 71 88
71 71 88
71 71 88
71 71 88
71 71 88
71 71 88
71 71 88
71 71 88
71 71 88
71 71 88
71 71 88
71 71 88
71 71 88
71 71 88
71 71 88
71 71 88
71 71 88
71 71 88
71 71 88
71 71 88
71 71 88
71 71 88
71 71 88
71 71 88
71 71 88
71 71 88
71 71 88
71 71 88
71 71 88
71 71 88
71 71 88
71 71 88
71 71 88
71 71 88
71 71 88
71 71 88
71 71 88
71 71 88
71 71 88
71 71 88
71 71 88
71 71 88
71 71 88
71 71 88
71 71 88
71 71 88
71 71 88
71 71 88
71 71 88
71 71 88
71 71 88
71 71 88
71 71 88
71 71 88
71 71 88
71 71 88
71 71 88
71 71 88
71 71 88
71 71 88
71 71 88
71 71 88
71 71 88
71 71 88
71 71 88
71 71 88
71 71 88
71 71 88
71 71 88
71 71 88
71 71 88
71 71 88
71 71 89
71 71 89
71 71 89
71 71 88
71 71 89
71 71 88
71 71 88
71 71 88
71 71 88
71 71 89
71 71 88
71 71 88
71 71 88
71 71 88
71 71 88
71 71 88
71 71 88
71 71 88
71 71 88
71 71 88
71 71 88
71 71 88
71 71 88
71 71 88
71 71 88
71 71 88
71 71 88
71 71 88
71 71 88
71 71 88
71 71 88
71 71 88
71 71 88
71 71 88
71 71 88
71 71 88
71 71 88
71 71 88
71 71 88
71 71 88
71 71 88
71 71 88
71 71 88
71 71 88
71 71 88
71 71 88
71 71 88
71 71 88
71 71 88
71 71 88
71 71 88
71 71 88
71 71 88
71 71 88
71 71 88
71 71 88
71 71 88
71 71 88
71 71 88
71 71 88
71 71 88
71 71 88
71 71 88
71 71 88
71 71 88
71 71 88
71 71 88
71 71 88
71 71 88
71 71 88
71 71 88
71 71 88
71 71 88
71 71 88
71 71 88
71 71 88
71 71 88
71 71 88
71 71 88
71 71 88
71 71 88
71 71 88
71 71 88
71 71 88
71 71 88
71 71 88
71 71 88
71 71 88
71 71 88
71 71 88
71 71 88
71 71 88
71 71 88
71 71 88
71 71 88
71 71 88
71 71 88
71 71 88
71 71 88
71 71 88
71 71 88
71 71 88
71 71 88
71 71 88
71 71 88
71 71 88
71 71 88
71 71 88
71 71 88
71 71 88
71 71 88
71 71 88
71 71 88
71 70 85
70 67 76
66 62 66
66 62 65
66 62 65
66 62 66
67 63 67
68 64 67
68 65 71
70 68 79
71 71 87
71 71 88
71 71 88
70 70 88
70 70 88
70 70 88
70 70 88
70 70 88
70 70 88
70 70 88
70 70 88
70 70 88
70 70 88
70 70 88
70 70 88
70 70 88
70 70 88
70 70 88
70 70 88
70 70 88
70 70 88
70 70 88
70 70 88
70 70 88
70 70 88
70 70 88
70 70 88
70 70 88
70 70 88
70 70 88
70 70 88
70 70 88
70 70 88
70 70 88
70 70 88
70 70 88
70 70 88
70 70 88
70 70 88
70 70 88
70 70 88
70 70 88
70 70 88
70 70 88
70 70 88
70 70 88
70 70 88
70 70 88
70 70 88
70 70 88
70 70 88
70 70 88
70 70 88
70 70 88
70 70 88
70 70 88
70 70 87
70 70 87
70 70 87
70 70 87
70 70 87
70 70 87
70 70 87
70 70 87
70 70 87
70 70 87
70 70 87
70 70 87
70 70 87
70 70 87
70 70 87
70 70 87
70 70 87
70 70 87
70 70 87
70 70 87
70 70 87
70 70 87
70 70 87
70 70 87
70 70 87
70 70 87
70 70 87
70 70 87
70 70 87
70 70 87
70 70 87
70 70 87
70 70 87
70 70 87
70 70 87
70 70 87
70 70 87
70 70 87
70 70 87
70 70 87
70 70 87
70 70 87
70 70 87
70 70 87
70 70 88
70 70 88
70 70 88
70 70 87
70 70 87
70 70 88
70 70 88
70 70 87
70 70 88
70 70 87
70 70 88
70 70 87
70 70 88
71 71 88
70 70 88
70 70 88
70 70 88
70 70 88
70 70 88
70 70 88
70 70 88
70 70 88
70 70 88
70 70 88
70 70 88
70 70 88
70 70 88
70 70 88
70 70 88
70 70 88
70 70 88
71 71 88
70 70 88
70 70 88
70 70 88
70 70 88
70 70 88
70 70 88
70 70 88
70 70 88
70 70 88
70 70 88
70 70 88
70 70 88
70 70 88
70 70 88
70 70 88
70 70 88
70 70 88
70 70 88
70 70 88
70 70 88
70 70 88
70 70 88
70 70 88
70 70 88
70 70 88
70 70 88
70 70 88
70 70 88
70 70 88
70 70 88
70 70 88
70 70 88
71 71 88
71 71 88
71 71 88
71 71 88
71 71 88
71 71 88
71 71 88
71 71 88
71 71 88
71 71 88
71 71 88
71 71 88
71 71 88
71 71 88
71 71 88
71 71 88
71 71 88
71 71 88
71 71 88
71 71 88
71 71 88
71 71 88
71 71 88
71 71 88
71 71 88
71 71 88
71 71 88
71 71 88
71 71 88
71 71 88
71 71 88
71 71 88
71 71 88
71 71 88
71 71 88
71 71 88
71 71 88
71 71 88
71 71 88
71 71 88
71 71 88
71 71 88
71 71 88
71 71 88
71 71 88
71 71 88
71 71 88
71 71 88
71 71 88
71 71 88
71 71 88
71 71 88
71 71 88
71 71 88
71 71 88
71 71 88
71 71 88
71 71 88
71 71 88
71 71 88
71 71 88
71 71 88
71 71 88
71 71 88
71 71 88
71 71 88
71 71 88
71 71 88
71 71 88
71 71 88
71 71 88
71 71 88
71 71 88
71 71 88
71 71 88
71 71 88
71 71 88
71 71 88
71 71 88
71 71 88
71 71 88
71 71 88
71 71 88
71 71 88
71 71 88
71 71 88
71 71 88
71 71 88
71 71 88
71 71 88
71 71 88
71 71 88
71 71 88
71 71 88
71 71 89
71 71 88
71 71 88
71 71 88
71 71 88
71 71 88
71 71 88
71 71 88
71 71 88
71 71 88
71 71 88
71 71 89
71 71 88
71 71 88
71 71 88
71 71 88
71 71 88
71 71 88
71 71 88
71 71 88
71 71 88
71 71 88
71 71 88
71 71 88
71 71 88
71 71 88
71 71 88
71 71 88
71 71 89
71 71 88
71 71 88
71 71 88
71 71 88
71 71 88
71 71 88
71 71 88
71 71 89
71 71 88
71 71 88
71 71 88
71 71 88
71 71 88
71 71 88
71 71 89
71 71 88
71 71 89
71 71 89
71 71 88
71 71 89
71 71 88
71 71 88
71 71 88
71 71 88
71 71 88
71 71 88
71 71 88
71 71 88
71 71 88
71 71 88
71 71 88
71 71 88
71 71 88
71 71 88
71 71 88
71 71 88
71 71 88
71 71 88
71 71 88
71 71 88
71 71 88
71 71 88
71 71 88
71 71 88
71 71 88
71 71 88
71 71 88
71 71 88
71 71 88
71 71 88
71 71 88
71 71 88
71 71 88
71 71 88
71 71 88
71 71 88
71 71 88
71 71 88
71 71 88
71 71 88
71 71 88
71 71 88
71 71 88
71 71 88
71 71 88
71 71 88
71 71 88
71 71 88
71 71 88
71 71 88
71 71 88
71 71 88
71 71 88
71 71 88
71 71 88
71 71 88
71 71 88
71 71 88
71 71 88
71 71 88
71 71 88
71 71 88
71 71 88
71 71 88
71 71 88
71 71 88
71 71 88
71 71 88
71 71 88
71 71 88
71 71 88
71 71 88
71 71 88
71 71 88
71 71 88
71 71 88
71 71 88
71 71 88
71 71 88
71 71 88
71 71 88
71 71 88
71 71 88
71 71 88
71 71 88
71 71 88
70 70 85
70 69 82
70 69 82
69 69 83
71 70 86
71 71 88
71 71 88
71 71 88
71 71 88
71 71 88
71 71 88
71 71 88
71 71 88
71 71 88
71 71 88
71 71 88
71 71 88
70 70 88
70 70 88
70 70 88
70 70 88
70 70 88
70 70 88
70 70 88
70 70 88
70 70 88
70 70 88
70 70 88
70 70 88
70 70 88
70 70 88
70 70 88
70 70 88
70 70 88
70 70 88
70 70 88
70 70 88
70 70 88
70 70 88
70 70 88
70 70 88
70 70 88
70 70 88
70 70 88
70 70 88
70 70 88
70 70 88
70 70 88
70 70 88
70 70 88
70 70 88
70 70 88
70 70 88
70 70 88
70 70 88
70 70 88
70 70 88
70 70 88
70 70 88
70 70 88
70 70 88
70 70 88
70 70 88
70 70 88
70 70 88
70 70 88
70 70 88
70 70 88
70 70 87
70 70 87
70 70 87
70 70 87
70 70 87
70 70 87
70 70 87
70 70 87
70 70 87
70 70 87
70 70 87
70 70 87
70 70 87
70 70 87
70 70 87
70 70 87
70 70 87
70 70 87
70 70 87
70 70 87
70 70 87
70 70 87
70 70 87
70 70 87
70 70 87
70 70 87
70 70 87
70 70 87
70 70 87
70 70 87
70 70 87
70 70 87
70 70 87
70 70 87
70 70 87
70 70 87
70 70 87
70 70 87
70 70 87
70 70 88
70 70 88
70 70 87
70 70 87
70 70 88
70 70 87
70 70 88
70 70 88
70 70 88
70 70 88
70 70 88
70 70 88
70 70 88
70 70 88
70 70 88
70 70 88
70 70 88
70 70 88
70 70 88
70 70 88
70 70 88
70 70 88
70 70 88
70 70 88
70 70 88
70 70 88
70 70 88
71 71 88
70 70 88
71 71 88
70 70 88
71 71 88
70 70 88
70 70 88
70 70 88
70 70 88
70 70 88
70 70 88
70 70 88
70 70 88
70 70 88
70 70 88
70 70 88
70 70 88
70 70 88
70 70 88
70 70 88
70 70 88
70 70 88
70 70 88
70 70 88
70 70 88
70 70 88
70 70 88
70 70 88
70 70 88
70 70 88
70 70 88
71 71 88
71 71 88
71 71 88
71 71 88
71 71 88
71 71 88
71 71 88
71 71 88
71 71 88
71 71 88
71 71 88
71 71 88
71 71 88
71 71 88
71 71 88
71 71 88
71 71 88
71 71 88
71 71 88
71 71 88
71 71 88
71 71 88
71 71 88
71 71 88
71 71 88
71 71 88
71 71 88
71 71 88
71 71 88
71 71 88
71 71 88
71 71 88
71 71 88
71 71 88
71 71 88
71 71 88
71 71 88
71 71 88
71 71 88
71 71 88
71 71 88
71 71 88
71 71 88
71 71 88
71 71 88
71 71 88
71 71 88
71 71 88
71 71 88
71 71 88
71 71 88
71 71 88
71 71 88
71 71 88
71 71 88
71 71 88
71 71 88
71 71 88
71 71 88
71 71 88
71 71 88
71 71 88
71 71 88
71 71 88
71 71 88
71 71 88
71 71 88
71 71 88
71 71 88
71 71 88
71 71 88
71 71 88
71 71 88
71 71 88
71 71 88
71 71 88
71 71 88
71 71 88
71 71 88
71 71 88
71 71 88
71 71 88
71 71 88
71 71 88
71 71 88
71 71 88
71 71 88
71 71 88
71 71 88
71 71 88
71 71 88
71 71 88
71 71 88
71 71 88
71 71 88
71 71 88
71 71 88
71 71 88
71 71 88
71 71 88
71 71 89
71 71 89
71 71 89
71 71 88
71 71 88
71 71 88
71 71 88
71 71 88
71 71 88
71 71 88
71 71 88
71 71 88
71 71 88
71 71 88
71 71 89
71 71 88
71 71 88
71 71 89
71 71 89
71 71 89
71 71 88
71 71 88
71 71 88
71 71 88
71 71 88
71 71 89
71 71 88
71 71 88
71 71 89
71 71 88
71 71 88
71 71 89
71 71 89
71 71 88
71 71 88
71 71 88
71 71 88
71 71 88
71 71 89
71 71 89
71 71 88
71 71 89
71 71 88
71 71 88
71 71 88
71 71 88
71 71 88
71 71 88
71 71 88
71 71 88
71 71 88
71 71 88
71 71 88
71 71 88
71 71 88
71 71 88
71 71 88
71 71 88
71 71 88
71 71 88
71 71 88
71 71 88
71 71 88
71 71 88
71 71 88
71 71 88
71 71 88
71 71 88
71 71 88
71 71 88
71 71 88
71 71 88
71 71 88
71 71 88
71 71 88
71 71 88
71 71 88
71 71 88
71 71 88
71 71 88
71 71 88
71 71 88
71 71 88
71 71 88
71 71 88
71 71 88
71 71 88
71 71 88
71 71 88
71 71 88
71 71 88
71 71 88
71 71 88
71 71 88
71 71 88
71 71 88
71 71 88
71 71 88
71 71 88
71 71 88
71 71 88
71 71 88
71 71 88
71 71 88
71 71 88
71 71 88
71 71 88
71 71 88
71 71 88
71 71 88
71 71 88
71 71 88
71 71 88
71 71 88
71 71 88
71 71 88
71 71 88
71 71 88
71 71 88
71 71 88
71 71 88
71 71 88
71 71 88
71 71 88
71 71 88
71 71 88
71 71 88
71 71 88
71 71 88
71 71 88
71 71 88
71 71 88
71 71 88
71 71 88
71 71 88
71 71 88
71 71 88
71 71 88
71 71 88
71 71 88
71 71 88
71 71 88
71 71 88
71 71 88
71 71 88
71 71 88
71 71 88
71 71 88
71 71 88
71 71 88
71 71 88
71 71 88
71 71 88
71 71 88
71 71 88
71 71 88
71 71 88
71 71 88
70 70 88
70 70 88
70 70 88
70 70 88
70 70 88
70 70 88
70 70 88
70 70 88
70 70 88
70 70 88
70 70 88
70 70 88
70 70 88
70 70 88
70 70 88
70 70 88
70 70 88
70 70 88
70 70 88
70 70 88
70 70 88
70 70 88
70 70 88
70 70 88
70 70 88
70 70 88
70 70 88
70 70 88
70 70 88
70 70 88
70 70 88
70 70 88
70 70 88
70 70 88
70 70 88
70 70 88
70 70 88
70 70 88
70 70 88
70 70 88
70 70 88
70 70 88
70 70 88
70 70 88
70 70 88
70 70 88
70 70 88
70 70 88
70 70 88
70 70 87
70 70 87
70 70 87
70 70 87
70 70 87
70 70 87
70 70 87
70 70 87
70 70 87
70 70 87
70 70 87
70 70 87
70 70 87
70 70 87
70 70 87
70 70 87
70 70 87
70 70 87
70 70 87
70 70 87
70 70 87
70 70 87
70 70 87
70 70 87
70 70 87
70 70 87
70 70 87
70 70 87
70 70 87
70 70 87
70 70 87
70 70 87
70 70 87
70 70 88
70 70 88
70 70 87
70 70 87
70 70 87
70 70 88
70 70 88
70 70 88
71 71 88
70 70 88
70 70 88
70 70 88
71 71 88
70 70 88
70 70 88
70 70 88
70 70 88
70 70 88
70 70 88
71 71 88
70 70 88
70 70 88
70 70 88
70 70 88
70 70 88
70 70 88
70 70 88
70 70 88
70 70 88
70 70 88
71 71 88
70 70 88
70 70 88
70 70 88
70 70 88
70 70 88
70 70 88
70 70 88
70 70 88
70 70 88
70 70 88
70 70 88
70 70 88
70 70 88
70 70 88
70 70 88
70 70 88
70 70 88
70 70 88
70 70 88
70 70 88
70 70 88
70 70 88
70 70 88
71 71 88
71 71 88
71 71 88
71 71 88
71 71 88
71 71 88
71 71 88
71 71 88
71 71 88
71 71 88
71 71 88
71 71 88
71 71 88
71 71 88
71 71 88
71 71 88
71 71 88
71 71 88
71 71 88
71 71 88
71 71 88
71 71 88
71 71 88
71 71 88
71 71 88
71 71 88
71 71 88
71 71 88
71 71 88
71 71 88
71 71 88
71 71 88
71 71 88
71 71 88
71 71 88
71 71 88
71 71 88
71 71 88
71 71 88
71 71 88
71 71 88
71 71 88
71 71 88
71 71 88
71 71 88
71 71 88
71 71 88
71 71 88
71 71 88
71 71 88
71 71 88
71 71 88
71 71 88
71 71 88
71 71 88
71 71 88
71 71 88
71 71 88
71 71 88
71 71 88
71 71 88
71 71 88
71 71 88
71 71 88
71 71 88
71 71 88
71 71 88
71 71 88
71 71 88
71 71 88
71 71 88
71 71 88
71 71 88
71 71 88
71 71 88
71 71 88
71 71 88
71 71 88
71 71 88
71 71 88
71 71 88
71 71 88
71 71 88
71 71 88
71 71 88
71 71 88
71 71 88
71 71 88
71 71 88
71 71 88
71 71 88
71 71 88
71 71 88
71 71 88
71 71 88
71 71 88
71 71 88
71 71 88
71 71 88
71 71 88
71 71 88
71 71 88
71 71 89
71 71 89
71 71 88
71 71 88
71 71 89
71 71 89
71 71 88
71 71 88
71 71 89
71 71 88
71 71 88
71 71 88
71 71 89
71 71 88
71 71 89
71 71 88
71 71 89
71 71 88
71 71 89
71 71 88
71 71 88
71 71 89
71 71 89
71 71 89
71 71 88
71 71 89
71 71 88
71 71 88
71 71 89
71 71 88
71 71 88
71 71 88
71 71 88
71 71 89
71 71 88
71 71 89
71 71 89
71 71 88
71 71 88
71 71 89
71 71 88
71 71 89
71 71 88
71 71 89
71 71 89
71 71 89
71 71 89
71 71 88
71 71 89
71 71 88
71 71 88
71 71 88
71 71 88
71 71 88
71 71 88
71 71 88
71 71 88
71 71 88
71 71 88
71 71 88
71 71 88
71 71 88
71 71 88
71 71 88
71 71 88
71 71 88
71 71 88
71 71 88
71 71 88
71 71 88
71 71 88
71 71 88
71 71 88
71 71 88
71 71 88
71 71 88
71 71 88
71 71 88
71 71 88
71 71 88
71 71 88
71 71 88
71 71 88
71 71 88
71 71 88
71 71 88
71 71 88
71 71 88
71 71 88
71 71 88
71 71 88
71 71 88
71 71 88
71 71 88
71 71 88
71 71 88
71 71 88
71 71 88
71 71 88
71 71 88
71 71 88
71 71 88
71 71 88
71 71 88
71 71 88
71 71 88
71 71 88
71 71 88
71 71 88
71 71 88
71 71 88
71 71 88
71 71 88
71 71 88
71 71 88
71 71 88
71 71 88
71 71 88
71 71 88
71 71 88
71 71 88
71 71 88
71 71 88
71 71 88
71 71 88
71 71 88
71 71 88
71 71 88
71 71 88
71 71 88
71 71 88
71 71 88
71 71 88
71 71 88
71 71 88
71 71 88
71 71 88
71 71 88
71 71 88
71 71 88
71 71 88
71 71 88
71 71 88
71 71 88
71 71 88
71 71 88
71 71 88
71 71 88
71 71 88
71 71 88
71 71 88
71 71 88
71 71 88
71 71 88
71 71 88
71 71 88
71 71 88
71 71 88
71 71 88
71 71 88
71 71 88
71 71 88
71 71 88
71 71 88
71 71 88
71 71 88
71 71 88
71 71 88
70 70 88
70 70 88
70 70 88
70 70 88
70 70 88
70 70 88
70 70 88
70 70 88
70 70 88
70 70 88
70 70 88
70 70 88
70 70 88
70 70 88
70 70 88
70 70 88
70 70 88
70 70 88
70 70 88
70 70 88
70 70 88
70 70 88
70 70 88
70 70 88
70 70 88
70 70 88
70 70 88
70 70 88
70 70 88
70 70 88
70 70 88
70 70 88
70 70 88
70 70 88
70 70 88
70 70 88
70 70 88
70 70 88
70 70 88
70 70 88
70 70 88
70 70 88
70 70 88
70 70 88
70 70 88
70 70 88
70 70 88
70 70 88
70 70 87
70 70 87
70 70 87
70 70 87
70 70 87
70 70 87
70 70 87
70 70 87
70 70 87
70 70 87
70 70 87
70 70 87
70 70 87
70 70 87
70 70 87
70 70 87
70 70 87
70 70 87
70 70 87
70 70 87
70 70 87
70 70 87
70 70 87
70 70 87
70 70 87
70 70 87
70 70 87
70 70 87
70 70 88
70 70 88
71 71 88
70 70 88
70 70 88
70 70 88
70 70 88
70 70 88
70 70 88
70 70 88
70 70 88
70 70 88
70 70 88
70 70 88
70 70 88
70 70 88
70 70 88
71 71 88
70 70 88
70 70 88
70 70 88
70 70 88
70 70 88
70 70 88
70 70 88
70 70 88
70 70 88
70 70 88
71 71 88
71 71 88
70 70 88
70 70 88
71 71 88
70 70 88
70 70 88
70 70 88
70 70 88
70 70 88
70 70 88
70 70 88
70 70 88
70 70 88
70 70 88
70 70 88
70 70 88
70 70 88
70 70 88
70 70 88
71 71 88
71 71 88
71 71 88
71 71 88
71 71 88
71 71 88
71 71 88
71 71 88
71 71 88
71 71 88
71 71 88
71 71 88
71 71 88
71 71 88
71 71 88
71 71 88
71 71 88
71 71 88
71 71 88
71 71 88
71 71 88
71 71 88
71 71 88
71 71 88
71 71 88
71 71 88
71 71 88
71 71 88
71 71 88
71 71 88
71 71 88
71 71 88
71 71 88
71 71 88
71 71 88
71 71 88
71 71 88
71 71 88
71 71 88
71 71 88
71 71 88
71 71 88
71 71 88
71 71 88
71 71 88
71 71 88
71 71 88
71 71 88
71 71 88
71 71 88
71 71 88
71 71 88
71 71 88
71 71 88
71 71 88
71 71 88
71 71 88
71 71 88
71 71 88
71 71 88
71 71 88
71 71 88
71 71 88
71 71 88
71 71 88
71 71 88
71 71 88
71 71 88
71 71 88
71 71 88
71 71 88
71 71 88
71 71 88
71 71 88
71 71 88
71 71 88
71 71 88
71 71 88
71 71 88
71 71 88
71 71 88
71 71 88
71 71 88
71 71 88
71 71 88
71 71 88
71 71 88
71 71 88
71 71 88
71 71 88
71 71 88
71 71 88
71 71 88
71 71 88
71 71 88
71 71 88
71 71 88
71 71 88
71 71 88
71 71 88
71 71 89
71 71 89
71 71 88
71 71 88
71 71 88
71 71 89
71 71 89
71 71 89
71 71 88
71 71 89
71 71 89
71 71 89
71 71 89
71 71 89
71 71 89
71 71 89
71 71 89
71 71 89
71 71 88
71 71 89
71 71 89
71 71 88
71 71 89
71 71 89
71 71 88
71 71 89
71 71 89
71 71 89
71 71 88
71 71 89
71 71 89
71 71 89
71 71 89
71 71 89
71 71 89
71 71 89
71 71 89
71 71 88
71 71 89
71 71 89
71 71 89
71 71 88
71 71 89
71 71 89
71 71 88
71 71 89
71 71 88
71 71 89
71 71 88
71 71 89
71 71 88
71 71 89
71 71 89
71 71 89
71 71 88
71 71 88
71 71 88
71 71 88
71 71 88
71 71 88
71 71 88
71 71 88
71 71 88
71 71 88
71 71 88
71 71 88
71 71 88
71 71 88
71 71 88
71 71 88
71 71 88
71 71 88
71 71 88
71 71 88
71 71 88
71 71 88
71 71 88
71 71 88
71 71 88
71 71 88
71 71 88
71 71 88
71 71 88
71 71 88
71 71 88
71 71 88
71 71 88
71 71 88
71 71 88
71 71 88
71 71 88
71 71 88
71 71 88
71 71 88
71 71 88
71 71 88
71 71 88
71 71 88
71 71 88
71 71 88
71 71 88
71 71 88
71 71 88
71 71 88
71 71 88
71 71 88
71 71 88
71 71 88
71 71 88
71 71 88
71 71 88
71 71 88
71 71 88
71 71 88
71 71 88
71 71 88
71 71 88
71 71 88
71 71 88
71 71 88
71 71 88
71 71 88
71 71 88
71 71 88
71 71 88
71 71 88
71 71 88
71 71 88
71 71 88
71 71 88
71 71 88
71 71 88
71 71 88
71 71 88
71 71 88
71 71 88
71 71 88
71 71 88
71 71 88
71 71 88
71 71 88
71 71 88
71 71 88
71 71 88
71 71 88
71 71 88
71 71 88
71 71 88
71 71 88
71 71 88
71 71 88
71 71 88
71 71 88
71 71 88
71 71 88
71 71 88
71 71 88
71 71 88
71 71 88
71 71 88
71 71 88
71 71 88
71 71 88
71 71 88
71 71 88
71 71 88
71 71 88
71 71 88
71 71 88
71 71 88
71 71 88
71 71 88
71 71 88
71 71 88
71 71 88
71 71 88
71 71 88
71 71 88
71 71 88
71 71 88
71 71 88
71 71 88
70 70 88
70 70 88
70 70 88
70 70 88
70 70 88
70 70 88
70 70 88
70 70 88
70 70 88
70 70 88
70 70 88
70 70 88
70 70 88
70 70 88
70 70 88
70 70 88
70 70 88
70 70 88
70 70 88
70 70 88
70 70 88
70 70 88
70 70 88
70 70 88
70 70 88
70 70 88
70 70 88
70 70 88
70 70 88
70 70 88
70 70 88
70 70 88
70 70 88
70 70 88
70 70 88
70 70 88
70 70 88
70 70 88
70 70 88
70 70 88
70 70 88
70 70 88
70 70 88
70 70 88
70 70 88
70 70 88
70 70 88
70 70 87
70 70 87
70 70 87
70 70 87
70 70 87
70 70 87
70 70 87
70 70 87
70 70 87
70 70 87
70 70 87
70 70 87
70 70 87
70 70 87
70 70 87
70 70 87
70 70 87
70 70 87
70 70 87
70 70 87
70 70 88
70 70 88
70 70 88
70 70 88
70 70 88
70 70 88
70 70 88
70 70 88
70 70 88
70 70 88
71 71 88
70 70 88
70 70 88
70 70 88
70 70 88
70 70 88
70 70 88
71 71 88
70 70 88
70 70 88
70 70 88
71 71 88
70 70 88
70 70 88
71 71 88
70 70 88
71 71 88
70 70 88
71 71 88
71 71 88
70 70 88
70 70 88
71 71 88
70 70 88
71 71 88
70 70 88
70 70 88
70 70 88
70 70 88
70 70 88
70 70 88
70 70 88
70 70 88
70 70 88
70 70 88
70 70 88
71 71 88
71 71 88
71 71 88
71 71 88
71 71 88
71 71 88
71 71 88
71 71 88
71 71 88
71 71 88
71 71 88
71 71 88
71 71 88
71 71 88
71 71 88
71 71 88
71 71 88
71 71 88
71 71 88
71 71 88
71 71 88
71 71 88
71 71 88
71 71 88
71 71 88
71 71 88
71 71 88
71 71 88
71 71 88
71 71 88
71 71 88
71 71 88
71 71 88
71 71 88
71 71 88
71 71 88
71 71 88
71 71 88
71 71 88
71 71 88
71 71 88
71 71 88
71 71 88
71 71 88
71 71 88
71 71 88
71 71 88
71 71 88
71 71 88
71 71 88
71 71 88
71 71 88
71 71 88
71 71 88
71 71 88
71 71 88
71 71 88
71 71 88
71 71 89
71 71 88
71 71 88
71 71 88
71 71 88
71 71 88
71 71 88
71 71 88
71 71 88
71 71 88
71 71 88
71 71 88
71 71 88
71 71 88
71 71 88
71 71 88
71 71 88
71 71 88
71 71 88
71 71 88
71 71 88
71 71 88
71 71 88
71 71 88
71 71 88
71 71 88
71 71 88
71 71 88
71 71 88
71 71 88
71 71 88
71 71 88
71 71 88
71 71 88
71 71 88
71 71 88
71 71 88
71 71 88
71 71 88
71 71 88
71 71 88
71 71 88
71 71 88
71 71 88
71 71 89
71 71 88
71 71 89
71 71 89
71 71 89
71 71 88
71 71 88
71 71 89
71 71 89
71 71 89
71 71 89
71 71 89
71 71 89
71 71 89
71 71 89
71 71 88
71 71 88
71 71 89
71 71 89
71 71 89
71 71 89
71 71 89
71 71 89
72 72 89
71 71 89
71 71 89
71 71 89
71 71 89
71 71 89
71 71 89
71 71 89
71 71 89
71 71 89
71 71 89
71 71 89
71 71 89
71 71 89
71 71 89
71 71 89
71 71 89
71 71 89
71 71 89
71 71 89
71 71 89
71 71 89
71 71 89
71 71 89
71 71 89
71 71 89
71 71 89
71 71 89
71 71 89
71 71 89
71 71 89
71 71 89
71 71 89
71 71 89
71 71 89
71 71 89
71 71 89
71 71 89
71 71 89
71 71 89
71 71 89
71 71 89
71 71 88
71 71 88
71 71 88
71 71 88
71 71 88
71 71 88
71 71 88
71 71 88
71 71 88
71 71 88
71 71 88
71 71 88
71 71 88
71 71 88
71 71 88
71 71 88
71 71 88
71 71 88
71 71 88
71 71 88
71 71 88
71 71 88
71 71 88
71 71 88
71 71 88
71 71 88
71 71 88
71 71 88
71 71 88
71 71 88
71 71 88
71 71 88
71 71 88
71 71 88
71 71 88
71 71 88
71 71 88
71 71 88
71 71 88
71 71 88
71 71 88
71 71 88
71 71 88
71 71 88
71 71 88
71 71 88
71 71 88
71 71 88
71 71 88
71 71 88
71 71 88
71 71 88
71 71 88
71 71 88
71 71 88
71 71 88
71 71 88
71 71 88
71 71 88
71 71 88
71 71 88
71 71 88
71 71 88
71 71 88
71 71 88
71 71 88
71 71 88
71 71 88
71 71 88
71 71 88
71 71 88
71 71 88
71 71 88
71 71 88
71 71 88
71 71 88
71 71 88
71 71 88
71 71 88
71 71 88
71 71 88
71 71 88
71 71 88
71 71 88
71 71 88
71 71 88
71 71 88
71 71 88
71 71 88
71 71 88
71 71 88
71 71 88
71 71 88
71 71 88
71 71 88
71 71 88
71 71 88
71 71 88
71 71 88
71 71 88
71 71 88
71 71 88
71 71 88
71 71 88
71 71 88
71 71 88
71 71 88
71 71 88
71 71 88
71 71 88
71 71 88
71 71 88
71 71 88
71 71 88
71 71 88
71 71 88
71 71 88
71 71 88
71 71 88
71 71 88
71 71 88
71 71 88
71 71 88
71 71 88
71 71 88
70 70 88
70 70 88
70 70 88
70 70 88
70 70 88
70 70 88
70 70 88
70 70 88
70 70 88
70 70 88
70 70 88
70 70 88
70 70 88
70 70 88
70 70 88
70 70 88
70 70 88
70 70 88
70 70 88
70 70 88
70 70 88
70 70 88
70 70 88
70 70 88
70 70 88
70 70 88
70 70 88
70 70 88
70 70 88
70 70 88
70 70 88
70 70 88
70 70 88
70 70 88
70 70 88
70 70 88
70 70 88
70 70 88
70 70 88
70 70 88
70 70 88
70 70 88
70 70 88
70 70 88
70 70 88
70 70 88
70 70 87
70 70 87
70 70 87
70 70 87
70 70 87
70 70 87
70 70 87
70 70 87
70 70 87
70 70 87
70 70 87
70 70 88
70 70 88
70 70 88
70 70 88
70 70 88
70 70 88
70 70 88
70 70 88
70 70 88
70 70 88
70 70 88
70 70 88
71 71 88
70 70 88
70 70 88
70 70 88
70 70 88
70 70 88
70 70 88
71 71 88
71 71 88
70 70 88
70 70 88
71 71 88
70 70 88
70 70 88
70 70 88
71 71 88
70 70 88
70 70 88
71 71 88
71 71 88
70 70 88
70 70 88
71 71 88
70 70 88
70 70 88
70 70 88
70 70 88
70 70 88
70 70 88
70 70 88
70 70 88
70 70 88
70 70 88
70 70 88
71 71 88
71 71 88
71 71 88
71 71 88
71 71 88
71 71 88
71 71 88
71 71 88
71 71 88
71 71 88
71 71 88
71 71 88
71 71 88
71 71 88
71 71 88
71 71 88
71 71 88
71 71 88
71 71 88
71 71 88
71 71 88
71 71 88
71 71 88
71 71 88
71 71 88
71 71 88
71 71 88
71 71 88
71 71 88
71 71 88
71 71 88
71 71 88
71 71 88
71 71 88
71 71 88
71 71 88
71 71 88
71 71 88
71 71 88
71 71 88
71 71 88
71 71 88
71 71 88
71 71 88
71 71 88
71 71 88
71 71 88
71 71 88
71 71 88
71 71 88
71 71 88
71 71 88
71 71 88
71 71 88
71 71 88
71 71 88
71 71 89
71 71 88
71 71 88
71 71 88
71 71 88
71 71 88
71 71 88
71 71 88
71 71 88
71 71 88
71 71 88
71 71 88
71 71 88
71 71 88
71 71 88
71 71 88
71 71 88
71 71 88
71 71 88
71 71 88
71 71 88
71 71 88
71 71 88
71 71 88
71 71 88
71 71 88
71 71 88
71 71 88
71 71 88
71 71 88
71 71 88
71 71 88
71 71 88
71 71 88
71 71 88
71 71 88
71 71 88
71 71 88
71 71 88
71 71 88
71 71 88
71 71 88
71 71 88
71 71 88
71 71 88
71 71 88
71 71 88
71 71 88
71 71 88
71 71 89
71 71 89
71 71 89
71 71 89
71 71 89
71 71 89
71 71 89
71 71 89
71 71 89
71 71 89
71 71 89
71 71 89
71 71 89
71 71 89
71 71 89
71 71 89
71 71 89
71 71 89
71 71 89
71 71 89
71 71 89
71 71 89
71 71 89
71 71 89
71 71 89
71 71 89
71 71 89
71 71 89
71 71 89
71 71 89
71 71 89
71 71 89
71 71 89
71 71 89
71 71 89
71 71 89
71 71 89
71 71 89
71 71 89
71 71 89
71 71 89
71 71 89
71 71 89
71 71 89
71 71 89
71 71 89
71 71 89
71 71 89
71 71 89
71 71 89
71 71 89
71 71 89
71 71 89
71 71 89
71 71 89
71 71 89
71 71 89
71 71 89
71 71 89
71 71 89
71 71 89
71 71 89
71 71 89
71 71 89
71 71 89
71 71 89
71 71 89
71 71 89
71 71 89
71 71 89
71 71 89
71 71 89
71 71 89
71 71 89
71 71 89
71 71 89
71 71 89
71 71 89
71 71 89
71 71 89
71 71 89
71 71 89
71 71 89
71 71 89
71 71 89
71 71 89
71 71 89
71 71 89
71 71 89
71 71 88
71 71 88
71 71 88
71 71 88
71 71 88
71 71 88
71 71 88
71 71 88
71 71 88
71 71 88
71 71 88
71 71 88
71 71 88
71 71 88
71 71 88
71 71 88
71 71 88
71 71 88
71 71 88
71 71 88
71 71 88
71 71 88
71 71 88
71 71 88
71 71 88
71 71 88
71 71 88
71 71 88
71 71 88
71 71 88
71 71 88
71 71 88
71 71 88
71 71 88
71 71 88
71 71 88
71 71 88
71 71 88
71 71 88
71 71 88
71 71 88
71 71 88
71 71 88
71 71 88
71 71 88
71 71 88
71 71 88
71 71 88
71 71 88
71 71 88
71 71 88
71 71 88
71 71 88
71 71 88
71 71 88
71 71 88
71 71 88
71 71 88
71 71 88
71 71 88
71 71 88
71 71 88
71 71 88
71 71 88
71 71 88
71 71 88
71 71 88
71 71 88
71 71 88
71 71 88
71 71 88
71 71 88
71 71 88
71 71 88
71 71 88
71 71 88
71 71 88
71 71 88
71 71 88
71 71 88
71 71 88
71 71 88
71 71 88
71 71 88
71 71 88
71 71 88
71 71 88
71 71 88
71 71 88
71 71 88
71 71 88
71 71 88
71 71 88
71 71 88
71 71 88
71 71 88
71 71 88
71 71 88
71 71 88
71 71 88
71 71 88
71 71 88
71 71 88
71 71 88
71 71 88
71 71 88
71 71 88
71 71 88
70 70 88
70 70 88
70 70 88
70 70 88
71 71 88
70 70 88
71 71 88
70 70 88
70 70 88
70 70 88
70 70 88
70 70 88
70 70 88
70 70 88
70 70 88
70 70 88
70 70 88
70 70 88
70 70 88
70 70 88
70 70 88
70 70 88
70 70 88
70 70 88
70 70 88
70 70 88
70 70 88
70 70 88
70 70 88
70 70 88
70 70 88
70 70 88
70 70 88
70 70 88
70 70 88
70 70 88
70 70 88
70 70 88
70 70 88
70 70 88
70 70 88
70 70 88
70 70 88
70 70 88
70 70 88
70 70 88
70 70 87
70 70 87
70 70 87
70 70 88
70 70 88
70 70 88
70 70 88
70 70 88
70 70 88
70 70 88
70 70 88
70 70 88
70 70 88
70 70 88
70 70 88
70 70 88
71 71 88
71 71 88
70 70 88
71 71 88
70 70 88
70 70 88
71 71 88
71 71 88
70 70 88
70 70 88
70 70 88
70 70 88
70 70 88
70 70 88
70 70 88
70 70 88
70 70 88
71 71 88
70 70 88
71 71 88
71 71 88
71 71 88
71 71 88
70 70 88
71 71 88
71 71 88
71 71 88
71 71 88
70 70 88
70 70 88
71 71 88
71 71 88
71 71 88
71 71 88
71 71 88
71 71 88
71 71 88
71 71 88
71 71 88
71 71 88
71 71 88
71 71 88
71 71 88
71 71 88
71 71 88
71 71 88
71 71 88
71 71 88
71 71 88
71 71 88
71 71 88
71 71 88
71 71 88
71 71 88
71 71 88
71 71 88
71 71 88
71 71 88
71 71 88
71 71 88
71 71 88
71 71 88
71 71 88
71 71 88
71 71 88
71 71 88
71 71 88
71 71 89
71 71 88
71 71 88
71 71 88
71 71 88
71 71 88
71 71 88
71 71 88
71 71 88
71 71 88
71 71 88
71 71 88
71 71 88
71 71 88
71 71 88
71 71 88
71 71 88
71 71 88
71 71 88
71 71 88
71 71 88
71 71 88
71 71 88
71 71 88
71 71 88
71 71 88
71 71 89
71 71 88
71 71 88
71 71 88
71 71 88
71 71 88
71 71 88
71 71 88
71 71 88
71 71 88
71 71 88
71 71 88
71 71 88
71 71 88
71 71 88
71 71 88
71 71 88
71 71 88
71 71 88
71 71 88
71 71 88
71 71 88
71 71 88
71 71 88
71 71 88
71 71 88
71 71 88
71 71 88
71 71 88
71 71 88
71 71 88
71 71 88
71 71 88
71 71 88
71 71 88
71 71 88
71 71 88
71 71 89
71 71 89
71 71 89
71 71 89
71 71 89
71 71 89
71 71 89
71 71 89
71 71 89
71 71 89
71 71 89
71 71 89
71 71 89
71 71 89
71 71 89
71 71 89
71 71 89
71 71 89
71 71 89
71 71 89
71 71 89
71 71 89
71 71 89
71 71 89
71 71 89
71 71 89
71 71 89
71 71 89
71 71 89
71 71 89
71 71 89
71 71 89
71 71 89
71 71 89
71 71 89
71 71 89
71 71 89
71 71 89
71 71 89
71 71 89
71 71 89
71 71 89
71 71 89
71 71 89
71 71 89
71 71 89
71 71 89
71 71 89
71 71 89
71 71 89
71 71 89
71 71 89
71 71 89
71 71 89
71 71 89
71 71 89
71 71 89
71 71 89
71 71 89
71 71 89
71 71 89
71 71 89
71 71 89
71 71 89
71 71 89
71 71 89
71 71 89
71 71 89
71 71 89
71 71 89
71 71 89
71 71 89
71 71 89
71 71 89
71 71 89
71 71 89
71 71 89
71 71 89
71 71 89
71 71 89
71 71 89
71 71 89
71 71 89
71 71 89
71 71 89
71 71 89
71 71 89
71 71 89
71 71 89
71 71 89
71 71 89
71 71 89
71 71 89
71 71 89
71 71 89
71 71 89
71 71 89
71 71 89
71 71 89
71 71 89
71 71 89
71 71 89
71 71 89
71 71 89
71 71 89
71 71 89
71 71 89
71 71 89
71 71 89
71 71 89
71 71 89
71 71 89
71 71 89
71 71 89
71 71 88
71 71 88
71 71 88
71 71 88
71 71 88
71 71 88
71 71 88
71 71 88
71 71 88
71 71 88
71 71 88
71 71 88
71 71 88
71 71 88
71 71 88
71 71 88
71 71 88
71 71 88
71 71 88
71 71 88
71 71 88
71 71 88
71 71 88
71 71 88
71 71 88
71 71 88
71 71 88
71 71 88
71 71 88
71 71 88
71 71 88
71 71 88
71 71 88
71 71 88
71 71 88
71 71 88
71 71 88
71 71 88
71 71 88
71 71 88
71 71 88
71 71 88
71 71 88
71 71 88
71 71 88
71 71 88
71 71 88
71 71 88
71 71 88
71 71 88
71 71 88
71 71 88
71 71 88
71 71 88
71 71 88
71 71 88
71 71 88
71 71 88
71 71 88
71 71 88
71 71 88
71 71 88
71 71 88
71 71 88
71 71 88
71 71 88
71 71 88
71 71 88
71 71 88
71 71 88
71 71 88
71 71 88
71 71 88
71 71 88
71 71 88
71 71 88
71 71 88
71 71 88
71 71 88
71 71 88
71 71 88
71 71 88
71 71 88
71 71 88
71 71 88
71 71 88
71 71 88
71 71 88
71 71 88
71 71 88
71 71 88
71 71 88
71 71 88
71 71 88
71 71 88
71 71 88
71 71 88
71 71 88
71 71 88
71 71 88
71 71 88
71 71 88
71 71 88
71 71 88
71 71 88
71 71 88
71 71 88
70 70 88
70 70 88
71 71 88
70 70 88
70 70 88
70 70 88
70 70 88
70 70 88
70 70 88
70 70 88
70 70 88
70 70 88
70 70 88
70 70 88
70 70 88
70 70 88
70 70 88
70 70 88
70 70 88
70 70 88
70 70 88
70 70 88
70 70 88
70 70 88
70 70 88
70 70 88
70 70 88
70 70 88
70 70 88
70 70 88
70 70 88
70 70 88
70 70 88
70 70 88
70 70 88
70 70 88
70 70 88
70 70 88
70 70 88
70 70 88
70 70 88
70 70 88
70 70 88
70 70 88
70 70 88
70 70 88
70 70 88
70 70 88
70 70 88
70 70 88
70 70 88
70 70 88
71 71 88
70 70 88
70 70 88
71 71 88
71 71 88
71 71 88
70 70 88
71 71 88
71 71 88
71 71 88
71 71 88
71 71 88
70 70 88
70 70 88
71 71 88
71 71 88
70 70 88
71 71 88
70 70 88
71 71 88
71 71 88
71 71 88
71 71 88
71 71 88
71 71 88
71 71 88
71 71 88
71 71 88
71 71 88
71 71 88
71 71 88
71 71 88
71 71 88
71 71 88
71 71 88
71 71 88
71 71 88
71 71 88
71 71 88
71 71 88
71 71 88
71 71 88
71 71 88
71 71 88
71 71 88
71 71 88
71 71 88
71 71 88
71 71 88
71 71 88
71 71 88
71 71 88
71 71 88
71 71 88
71 71 88
71 71 88
71 71 88
71 71 88
71 71 88
71 71 88
71 71 88
71 71 88
71 71 88
71 71 88
71 71 88
71 71 88
71 71 88
71 71 88
71 71 88
71 71 89
71 71 88
71 71 88
71 71 88
71 71 88
71 71 88
71 71 88
71 71 88
71 71 88
71 71 89
71 71 88
71 71 88
71 71 88
71 71 89
71 71 88
71 71 88
71 71 88
71 71 88
71 71 88
71 71 88
71 71 88
71 71 88
71 71 88
71 71 89
71 71 88
71 71 88
71 71 88
71 71 88
71 71 88
71 71 88
71 71 88
71 71 88
71 71 88
71 71 88
71 71 88
71 71 88
71 71 88
71 71 88
71 71 88
71 71 88
71 71 88
71 71 88
71 71 88
71 71 88
71 71 88
71 71 88
71 71 88
71 71 89
71 71 89
71 71 89
71 71 89
71 71 89
71 71 89
71 71 89
71 71 89
71 71 89
71 71 89
71 71 89
71 71 89
71 71 89
71 71 89
71 71 89
71 71 89
71 71 89
71 71 89
71 71 89
71 71 89
71 71 89
71 71 89
71 71 89
71 71 89
71 71 89
71 71 89
71 71 89
71 71 89
71 71 89
71 71 89
71 71 89
71 71 89
71 71 89
71 71 89
71 71 89
71 71 89
71 71 89
71 71 89
71 71 89
71 71 89
71 71 89
71 71 89
71 71 89
71 71 89
72 72 89
71 71 89
71 71 89
71 71 89
72 72 89
71 71 89
71 71 89
71 71 89
72 72 89
71 71 89
71 71 89
71 71 89
71 71 89
71 71 89
71 71 89
71 71 89
71 71 89
71 71 89
71 71 89
71 71 89
71 71 89
71 71 89
71 71 89
71 71 89
71 71 89
71 71 89
71 71 89
71 71 89
71 71 89
71 71 89
71 71 89
71 71 89
71 71 89
71 71 89
71 71 89
71 71 89
71 71 89
71 71 89
71 71 89
71 71 89
71 71 89
71 71 89
71 71 89
71 71 89
71 71 89
71 71 89
71 71 89
71 71 89
71 71 89
71 71 89
71 71 89
71 71 89
71 71 89
71 71 89
71 71 89
71 71 89
71 71 89
71 71 89
71 71 89
71 71 89
71 71 89
71 71 89
71 71 89
71 71 89
71 71 89
71 71 89
71 71 89
71 71 89
71 71 89
71 71 89
71 71 89
71 71 89
71 71 89
71 71 89
71 71 89
71 71 89
71 71 89
71 71 89
71 71 89
71 71 89
71 71 89
71 71 89
71 71 89
71 71 89
71 71 89
71 71 89
71 71 89
71 71 89
71 71 89
71 71 89
71 71 89
71 71 89
71 71 88
71 71 88
71 71 88
71 71 88
71 71 88
71 71 88
71 71 88
71 71 88
71 71 88
71 71 88
71 71 88
71 71 88
71 71 88
71 71 88
71 71 88
71 71 88
71 71 88
71 71 88
71 71 88
71 71 88
71 71 88
71 71 88
71 71 88
71 71 88
71 71 88
71 71 88
71 71 88
71 71 88
71 71 88
71 71 88
71 71 88
71 71 88
71 71 88
71 71 88
71 71 88
71 71 88
71 71 88
71 71 89
71 71 88
71 71 88
71 71 88
71 71 88
71 71 88
71 71 88
71 71 88
71 71 89
71 71 88
71 71 89
71 71 88
71 71 88
71 71 88
71 71 88
71 71 88
71 71 88
71 71 88
71 71 88
71 71 88
71 71 88
71 71 88
71 71 88
71 71 88
71 71 88
71 71 88
71 71 88
71 71 88
71 71 88
71 71 88
71 71 88
71 71 88
71 71 88
71 71 88
71 71 88
71 71 88
71 71 88
71 71 88
71 71 88
71 71 88
71 71 88
71 71 88
71 71 88
71 71 88
71 71 88
71 71 88
71 71 88
71 71 88
71 71 88
71 71 88
71 71 88
71 71 88
71 71 88
71 71 88
71 71 88
71 71 88
71 71 88
70 70 88
71 71 88
70 70 88
71 71 88
71 71 88
71 71 88
71 71 88
71 71 88
70 70 88
71 71 88
70 70 88
71 71 88
71 71 88
70 70 88
70 70 88
70 70 88
70 70 88
70 70 88
70 70 88
70 70 88
70 70 88
70 70 88
70 70 88
70 70 88
70 70 88
70 70 88
70 70 88
70 70 88
70 70 88
70 70 88
70 70 88
70 70 88
70 70 88
70 70 88
70 70 88
70 70 88
70 70 88
70 70 88
70 70 88
70 70 88
70 70 88
70 70 88
70 70 88
71 71 88
70 70 88
70 70 88
70 70 88
70 70 88
70 70 88
70 70 88
71 71 88
70 70 88
70 70 88
70 70 88
70 70 88
71 71 88
70 70 88
70 70 88
71 71 88
70 70 88
71 71 88
71 71 88
70 70 88
71 71 88
71 71 88
70 70 88
71 71 88
70 70 88
71 71 88
71 71 88
71 71 88
70 70 88
71 71 88
71 71 88
71 71 88
71 71 88
71 71 88
71 71 88
71 71 88
71 71 88
71 71 88
71 71 88
71 71 88
71 71 88
71 71 88
71 71 88
71 71 88
71 71 88
71 71 88
71 71 88
71 71 88
71 71 88
71 71 88
71 71 88
71 71 88
71 71 88
71 71 88
71 71 88
71 71 88
71 71 88
71 71 88
71 71 88
71 71 88
71 71 88
71 71 88
71 71 88
71 71 88
71 71 88
71 71 88
71 71 88
71 71 88
71 71 88
71 71 88
71 71 88
71 71 88
71 71 88
71 71 88
71 71 88
71 71 88
71 71 88
71 71 88
71 71 88
71 71 88
71 71 88
71 71 88
71 71 88
71 71 88
71 71 89
71 71 88
71 71 88
71 71 88
71 71 88
71 71 88
71 71 88
71 71 88
71 71 88
71 71 88
71 71 88
71 71 89
71 71 88
71 71 88
71 71 88
71 71 88
71 71 88
71 71 88
71 71 89
71 71 88
71 71 88
71 71 88
71 71 88
71 71 88
71 71 88
71 71 88
71 71 88
71 71 88
71 71 88
71 71 88
71 71 88
71 71 88
71 71 88
71 71 89
71 71 89
71 71 89
71 71 89
71 71 89
71 71 89
71 71 89
71 71 89
71 71 89
71 71 89
71 71 89
71 71 89
71 71 89
71 71 89
71 71 89
71 71 89
71 71 89
71 71 89
71 71 89
71 71 89
71 71 89
71 71 89
71 71 89
71 71 89
71 71 89
71 71 89
71 71 89
71 71 89
71 71 89
71 71 89
71 71 89
71 71 89
71 71 89
71 71 89
71 71 89
71 71 89
71 71 89
71 71 89
71 71 89
71 71 89
71 71 89
71 71 89
71 71 89
71 71 89
71 71 89
71 71 89
71 71 89
71 71 89
71 71 89
72 72 89
71 71 89
71 71 89
71 71 89
71 71 89
72 72 89
71 71 89
72 72 89
71 71 89
71 71 89
71 71 89
71 71 89
71 71 89
71 71 89
71 71 89
71 71 89
72 72 89
71 71 89
71 71 89
71 71 89
71 71 89
71 71 89
71 71 89
71 71 89
71 71 89
71 71 89
71 71 89
71 71 89
71 71 89
71 71 89
71 71 89
71 71 89
71 71 89
71 71 89
71 71 89
71 71 89
71 71 89
71 71 89
71 71 89
71 71 89
71 71 89
71 71 89
71 71 89
71 71 89
71 71 89
71 71 89
71 71 89
71 71 89
71 71 89
71 71 89
71 71 89
71 71 89
71 71 89
71 71 89
71 71 89
71 71 89
71 71 89
71 71 89
71 71 89
71 71 89
71 71 89
71 71 89
71 71 89
71 71 89
71 71 89
71 71 89
71 71 89
71 71 89
71 71 89
71 71 89
71 71 89
71 71 89
71 71 89
71 71 89
71 71 89
71 71 89
71 71 89
71 71 89
71 71 89
71 71 89
71 71 89
71 71 89
71 71 89
71 71 89
71 71 89
71 71 89
71 71 89
71 71 89
71 71 89
71 71 89
71 71 89
71 71 89
71 71 89
71 71 89
71 71 89
71 71 89
71 71 89
71 71 89
71 71 89
71 71 89
71 71 89
71 71 89
71 71 89
71 71 89
71 71 89
71 71 89
71 71 89
71 71 88
71 71 88
71 71 88
71 71 88
71 71 88
71 71 88
71 71 88
71 71 88
71 71 88
71 71 88
71 71 88
71 71 88
71 71 88
71 71 88
71 71 88
71 71 89
71 71 88
71 71 88
71 71 88
71 71 88
71 71 88
71 71 89
71 71 88
71 71 88
71 71 88
71 71 89
71 71 89
71 71 88
71 71 88
71 71 89
71 71 88
71 71 88
71 71 88
71 71 89
71 71 88
71 71 88
71 71 88
71 71 88
71 71 88
71 71 88
71 71 88
71 71 89
71 71 88
71 71 88
71 71 88
71 71 88
71 71 88
71 71 88
71 71 88
71 71 88
71 71 88
71 71 88
71 71 88
71 71 88
71 71 88
71 71 88
71 71 88
71 71 88
71 71 88
71 71 88
71 71 88
71 71 88
71 71 88
71 71 88
71 71 88
71 71 88
71 71 88
71 71 88
71 71 88
71 71 88
71 71 88
71 71 88
71 71 88
71 71 88
71 71 88
71 71 88
71 71 88
71 71 88
71 71 88
71 71 88
71 71 88
71 71 88
71 71 88
71 71 88
71 71 88
71 71 88
71 71 88
71 71 88
70 70 88
71 71 88
71 71 88
71 71 88
71 71 88
71 71 88
71 71 88
71 71 88
71 71 88
70 70 88
71 71 88
71 71 88
70 70 88
70 70 88
71 71 88
70 70 88
70 70 88
71 71 88
70 70 88
70 70 88
70 70 88
70 70 88
70 70 88
70 70 88
70 70 88
70 70 88
70 70 88
70 70 88
70 70 88
70 70 88
70 70 88
70 70 88
70 70 88
70 70 88
70 70 88
70 70 88
70 70 88
70 70 88
70 70 88
71 71 88
70 70 88
70 70 88
70 70 88
70 70 88
70 70 88
71 71 88
71 71 88
70 70 88
71 71 88
71 71 88
71 71 88
71 71 88
71 71 88
70 70 88
70 70 88
71 71 88
71 71 88
71 71 88
71 71 88
70 70 88
71 71 88
71 71 88
70 70 88
71 71 88
71 71 88
71 71 88
71 71 88
71 71 88
71 71 88
71 71 88
71 71 88
71 71 88
71 71 88
71 71 88
71 71 88
71 71 88
71 71 88
71 71 88
71 71 88
71 71 88
71 71 88
71 71 88
71 71 88
71 71 88
71 71 88
71 71 88
71 71 88
71 71 88
71 71 88
71 71 88
71 71 88
71 71 88
71 71 88
71 71 88
71 71 88
71 71 88
71 71 88
71 71 88
71 71 88
71 71 88
71 71 88
71 71 88
71 71 88
71 71 88
71 71 88
71 71 88
71 71 88
71 71 88
71 71 88
71 71 88
71 71 88
71 71 88
71 71 88
71 71 88
71 71 88
71 71 88
71 71 88
71 71 88
71 71 88
71 71 88
71 71 88
71 71 88
71 71 88
71 71 88
71 71 89
71 71 88
71 71 89
71 71 89
71 71 89
71 71 88
71 71 88
71 71 88
71 71 89
71 71 88
71 71 88
71 71 89
71 71 89
71 71 89
71 71 89
71 71 88
71 71 89
71 71 89
71 71 88
71 71 88
71 71 88
71 71 88
71 71 88
71 71 89
71 71 89
71 71 89
71 71 89
71 71 89
71 71 89
71 71 89
71 71 89
71 71 89
71 71 89
71 71 89
71 71 89
71 71 89
71 71 89
71 71 89
71 71 89
71 71 89
71 71 89
71 71 89
71 71 89
71 71 89
71 71 89
71 71 89
71 71 89
71 71 89
71 71 89
71 71 89
71 71 89
71 71 89
71 71 89
71 71 89
71 71 89
71 71 89
71 71 89
71 71 89
71 71 89
71 71 89
71 71 89
71 71 89
71 71 89
71 71 89
71 71 89
71 71 89
71 71 89
71 71 89
71 71 89
71 71 89
71 71 89
71 71 89
71 71 89
71 71 89
71 71 89
72 72 89
71 71 89
71 71 89
71 71 89
72 72 89
71 71 89
71 71 89
71 71 89
71 71 89
71 71 89
71 71 89
71 71 89
71 71 89
71 71 89
71 71 89
71 71 89
71 71 89
71 71 89
72 72 89
72 72 89
71 71 89
71 71 89
71 71 89
71 71 89
71 71 89
71 71 89
71 71 89
71 71 89
71 71 89
71 71 89
71 71 89
71 71 89
71 71 89
71 71 89
71 71 89
71 71 89
71 71 89
71 71 89
71 71 89
71 71 89
71 71 89
71 71 89
71 71 89
71 71 89
71 71 89
71 71 89
71 71 89
71 71 89
71 71 89
71 71 89
71 71 89
71 71 89
71 71 89
71 71 89
71 71 89
71 71 89
71 71 89
71 71 89
71 71 89
71 71 89
71 71 89
71 71 89
71 71 89
71 71 89
71 71 89
71 71 89
71 71 89
71 71 89
71 71 89
71 71 89
71 71 89
71 71 89
71 71 89
71 71 89
71 71 89
71 71 89
71 71 89
71 71 89
71 71 89
71 71 89
71 71 89
71 71 89
71 71 89
71 71 89
71 71 89
71 71 89
71 71 89
71 71 89
71 71 89
71 71 89
71 71 89
71 71 89
71 71 89
71 71 89
71 71 89
71 71 89
71 71 89
71 71 89
71 71 89
71 71 89
71 71 89
71 71 89
71 71 89
71 71 89
71 71 89
71 71 89
71 71 89
71 71 89
71 71 89
71 71 89
71 71 89
71 71 89
71 71 89
71 71 89
71 71 89
71 71 89
71 71 89
71 71 89
71 71 89
71 71 89
71 71 89
71 71 89
71 71 88
71 71 89
71 71 89
71 71 89
71 71 88
71 71 89
71 71 89
71 71 89
71 71 89
71 71 89
71 71 89
71 71 89
71 71 88
71 71 89
71 71 88
71 71 88
71 71 88
71 71 88
71 71 88
71 71 88
71 71 88
71 71 88
71 71 89
71 71 88
71 71 88
71 71 88
71 71 89
71 71 88
71 71 88
71 71 88
71 71 88
71 71 88
71 71 88
71 71 88
71 71 88
71 71 89
71 71 88
71 71 88
71 71 88
71 71 88
71 71 88
71 71 88
71 71 88
71 71 88
71 71 88
71 71 88
71 71 88
71 71 88
71 71 88
71 71 88
71 71 88
71 71 88
71 71 88
71 71 88
71 71 88
71 71 88
71 71 88
71 71 88
71 71 88
71 71 88
71 71 88
71 71 88
71 71 88
71 71 88
71 71 88
71 71 88
71 71 88
71 71 88
71 71 88
71 71 88
71 71 88
71 71 88
71 71 88
71 71 88
71 71 88
71 71 88
71 71 88
71 71 88
71 71 88
71 71 88
71 71 88
71 71 88
71 71 88
71 71 88
71 71 88
71 71 88
71 71 88
70 70 88
71 71 88
71 71 88
71 71 88
71 71 88
70 70 88
71 71 88
70 70 88
70 70 88
71 71 88
70 70 88
71 71 88
70 70 88
71 71 88
70 70 88
71 71 88
70 70 88
70 70 88
70 70 88
70 70 88
70 70 88
70 70 88
70 70 88
70 70 88
70 70 88
70 70 88
70 70 88
70 70 88
70 70 88
70 70 88
71 71 88
70 70 88
70 70 88
70 70 88
71 71 88
70 70 88
70 70 88
70 70 88
71 71 88
71 71 88
71 71 88
70 70 88
71 71 88
70 70 88
71 71 88
71 71 88
70 70 88
70 70 88
70 70 88
71 71 88
71 71 88
71 71 88
71 71 88
71 71 88
71 71 88
71 71 88
71 71 88
71 71 88
71 71 88
71 71 88
71 71 88
71 71 88
71 71 88
71 71 88
71 71 88
71 71 88
71 71 88
71 71 88
71 71 88
71 71 88
71 71 88
71 71 88
71 71 88
71 71 88
71 71 88
71 71 88
71 71 88
71 71 88
71 71 88
71 71 88
71 71 88
71 71 88
71 71 88
71 71 88
71 71 88
71 71 88
71 71 88
71 71 88
71 71 88
71 71 88
71 71 88
71 71 88
71 71 88
71 71 88
71 71 88
71 71 88
71 71 89
71 71 88
71 71 88
71 71 89
71 71 88
71 71 88
71 71 88
71 71 88
71 71 88
71 71 89
71 71 88
71 71 88
71 71 89
71 71 88
71 71 88
71 71 89
71 71 88
71 71 89
71 71 88
71 71 88
71 71 88
71 71 88
71 71 88
71 71 89
71 71 89
71 71 89
71 71 88
71 71 89
71 71 89
71 71 88
71 71 89
71 71 89
71 71 89
71 71 89
71 71 89
71 71 89
71 71 89
71 71 89
71 71 89
71 71 89
71 71 89
71 71 89
71 71 89
71 71 89
71 71 89
71 71 89
71 71 89
71 71 89
71 71 89
71 71 89
71 71 89
71 71 89
71 71 89
71 71 89
71 71 89
71 71 89
71 71 89
71 71 89
71 71 89
71 71 89
71 71 89
71 71 89
71 71 89
71 71 89
71 71 89
71 71 89
71 71 89
71 71 89
71 71 89
71 71 89
71 71 89
71 71 89
71 71 89
71 71 89
71 71 89
71 71 89
71 71 89
71 71 89
71 71 89
71 71 89
72 72 89
71 71 89
71 71 89
71 71 89
71 71 89
71 71 89
71 71 89
71 71 89
71 71 89
71 71 89
72 72 89
71 71 89
71 71 89
72 72 89
71 71 89
71 71 89
71 71 89
71 71 89
71 71 89
71 71 89
72 72 89
71 71 89
71 71 89
71 71 89
72 72 89
71 71 89
71 71 89
71 71 89
72 72 89
72 72 89
71 71 89
72 72 89
71 71 89
71 71 89
71 71 89
71 71 89
71 71 89
71 71 89
71 71 89
72 72 89
72 72 89
71 71 89
71 71 89
72 72 89
71 71 89
72 72 89
71 71 89
71 71 89
71 71 89
71 71 89
71 71 89
71 71 89
71 71 89
71 71 89
71 71 89
71 71 89
71 71 89
71 71 89
71 71 89
71 71 89
71 71 89
71 71 89
71 71 89
71 71 89
71 71 89
71 71 89
71 71 89
71 71 89
71 71 89
71 71 89
71 71 89
71 71 89
71 71 89
71 71 89
71 71 89
71 71 89
71 71 89
71 71 89
71 71 89
71 71 89
71 71 89
71 71 89
71 71 89
71 71 89
71 71 89
71 71 89
71 71 89
71 71 89
71 71 89
71 71 89
71 71 89
71 71 89
71 71 89
71 71 89
71 71 89
71 71 89
71 71 89
71 71 89
71 71 89
71 71 89
71 71 89
71 71 89
71 71 89
71 71 89
71 71 89
71 71 89
71 71 89
71 71 89
71 71 89
71 71 89
71 71 89
71 71 89
71 71 89
71 71 89
71 71 89
71 71 89
71 71 89
71 71 89
71 71 89
71 71 89
71 71 89
71 71 89
71 71 89
71 71 89
71 71 89
71 71 89
71 71 89
71 71 89
71 71 89
71 71 89
71 71 89
71 71 89
71 71 89
72 72 89
71 71 89
71 71 89
71 71 89
71 71 89
71 71 89
71 71 89
71 71 89
71 71 89
71 71 89
71 71 89
71 71 89
71 71 89
71 71 89
71 71 89
71 71 89
71 71 89
71 71 89
71 71 89
71 71 89
71 71 88
71 71 89
71 71 88
71 71 88
71 71 88
71 71 89
71 71 88
71 71 89
71 71 88
71 71 88
71 71 88
71 71 88
71 71 88
71 71 88
71 71 88
71 71 88
71 71 88
71 71 88
71 71 88
71 71 89
71 71 88
71 71 88
71 71 88
71 71 88
71 71 88
71 71 89
71 71 88
71 71 89
71 71 88
71 71 88
71 71 88
71 71 88
71 71 88
71 71 88
71 71 88
71 71 88
71 71 88
71 71 88
71 71 88
71 71 88
71 71 88
71 71 88
71 71 88
71 71 88
71 71 88
71 71 88
71 71 88
71 71 88
71 71 88
71 71 88
71 71 88
71 71 88
71 71 88
71 71 88
71 71 88
71 71 88
71 71 88
71 71 88
71 71 88
71 71 88
71 71 88
71 71 88
71 71 88
71 71 88
71 71 88
71 71 88
71 71 88
71 71 88
71 71 88
71 71 88
71 71 88
71 71 88
71 71 88
70 70 88
71 71 88
71 71 88
71 71 88
71 71 88
71 71 88
70 70 88
71 71 88
71 71 88
70 70 88
71 71 88
70 70 88
70 70 88
70 70 88
70 70 88
70 70 88
70 70 88
70 70 88
70 70 88
70 70 88
70 70 88
71 71 88
70 70 88
70 70 88
70 70 88
71 71 88
71 71 88
71 71 88
71 71 88
70 70 88
71 71 88
71 71 88
71 71 88
71 71 88
70 70 88
70 70 88
71 71 88
70 70 88
71 71 88
70 70 88
71 71 88
71 71 88
71 71 88
71 71 88
71 71 88
71 71 88
71 71 88
71 71 88
71 71 88
71 71 88
71 71 88
71 71 88
71 71 88
71 71 88
71 71 88
71 71 88
71 71 88
71 71 88
71 71 88
71 71 88
71 71 88
71 71 88
71 71 88
71 71 88
71 71 88
71 71 88
71 71 88
71 71 88
71 71 88
71 71 88
71 71 88
71 71 88
71 71 88
71 71 88
71 71 88
71 71 88
71 71 88
71 71 88
71 71 88
71 71 88
71 71 88
71 71 88
71 71 88
71 71 88
71 71 88
71 71 88
71 71 88
71 71 88
71 71 88
71 71 88
71 71 88
71 71 88
71 71 88
71 71 88
71 71 88
71 71 88
71 71 88
71 71 88
71 71 88
71 71 88
71 71 88
71 71 89
71 71 88
71 71 88
71 71 88
71 71 88
71 71 88
71 71 88
71 71 89
71 71 88
71 71 88
71 71 89
71 71 88
71 71 89
71 71 89
71 71 89
71 71 89
71 71 89
71 71 88
71 71 89
71 71 89
71 71 89
71 71 89
71 71 89
71 71 89
71 71 89
71 71 89
71 71 89
71 71 89
71 71 89
71 71 89
71 71 89
71 71 89
71 71 89
71 71 89
71 71 89
71 71 89
71 71 89
71 71 89
71 71 89
71 71 89
71 71 89
71 71 89
71 71 89
71 71 89
71 71 89
71 71 89
71 71 89
71 71 89
71 71 89
71 71 89
71 71 89
71 71 89
71 71 89
71 71 89
71 71 89
71 71 89
71 71 89
71 71 89
71 71 89
71 71 89
71 71 89
71 71 89
71 71 89
71 71 89
71 71 89
71 71 89
71 71 89
71 71 89
71 71 89
71 71 89
71 71 89
71 71 89
71 71 89
71 71 89
71 71 89
71 71 89
71 71 89
71 71 89
71 71 89
71 71 89
71 71 89
71 71 89
71 71 89
71 71 89
71 71 89
71 71 89
72 72 89
72 72 89
71 71 89
71 71 89
71 71 89
71 71 89
71 71 89
71 71 89
72 72 89
71 71 89
71 71 89
71 71 89
71 71 89
71 71 89
72 72 89
72 72 89
72 72 89
72 72 89
71 71 89
71 71 89
72 72 89
71 71 89
71 71 89
71 71 89
71 71 89
72 72 89
72 72 89
71 71 89
71 71 89
71 71 89
71 71 89
72 72 89
71 71 89
71 71 89
71 71 89
71 71 89
71 71 89
71 71 89
71 71 89
71 71 89
71 71 89
71 71 89
71 71 89
71 71 89
71 71 89
71 71 89
71 71 89
71 71 89
71 71 89
71 71 89
71 71 89
71 71 89
71 71 89
71 71 89
71 71 89
71 71 89
71 71 89
71 71 89
71 71 89
71 71 89
71 71 89
71 71 89
71 71 89
71 71 89
71 71 89
71 71 89
71 71 89
71 71 89
71 71 89
71 71 89
71 71 89
71 71 89
71 71 89
71 71 89
71 71 89
71 71 89
71 71 89
71 71 89
71 71 89
71 71 89
71 71 89
71 71 89
71 71 89
71 71 89
71 71 89
71 71 89
71 71 89
71 71 89
71 71 89
71 71 89
71 71 89
71 71 89
71 71 89
71 71 89
71 71 89
71 71 89
71 71 89
71 71 89
71 71 89
71 71 89
71 71 89
71 71 89
71 71 89
71 71 89
71 71 89
71 71 89
71 71 89
71 71 89
71 71 89
71 71 89
71 71 89
71 71 89
71 71 89
71 71 89
71 71 89
71 71 89
71 71 89
71 71 89
71 71 89
71 71 89
71 71 89
71 71 89
71 71 89
71 71 89
71 71 89
71 71 89
71 71 89
71 71 89
71 71 89
71 71 89
71 71 89
71 71 89
71 71 89
71 71 89
71 71 89
71 71 89
71 71 89
71 71 89
71 71 89
71 71 89
71 71 89
71 71 88
71 71 88
71 71 88
71 71 89
71 71 89
71 71 88
71 71 89
71 71 89
71 71 88
71 71 88
71 71 89
71 71 88
71 71 88
71 71 88
71 71 88
71 71 88
71 71 88
71 71 88
71 71 88
71 71 88
71 71 88
71 71 88
71 71 88
71 71 88
71 71 88
71 71 88
71 71 88
71 71 88
71 71 88
71 71 88
71 71 88
71 71 88
71 71 88
71 71 88
71 71 88
71 71 88
71 71 88
71 71 88
71 71 88
71 71 88
71 71 88
71 71 88
71 71 88
71 71 88
71 71 88
71 71 88
71 71 88
71 71 88
71 71 88
71 71 88
71 71 88
71 71 88
71 71 88
71 71 88
71 71 88
71 71 88
71 71 88
71 71 88
71 71 88
71 71 88
71 71 88
71 71 88
71 71 88
71 71 88
71 71 88
71 71 88
71 71 88
71 71 88
71 71 88
71 71 88
71 71 88
71 71 88
71 71 88
71 71 88
71 71 88
71 71 88
70 70 88
71 71 88
70 70 88
70 70 88
71 71 88
70 70 88
71 71 88
71 71 88
70 70 88
71 71 88
71 71 88
70 70 88
70 70 88
70 70 88
71 71 88
70 70 88
70 70 88
70 70 88
70 70 88
71 71 88
70 70 88
71 71 88
70 70 88
70 70 88
70 70 88
71 71 88
70 70 88
71 71 88
70 70 88
71 71 88
70 70 88
71 71 88
71 71 88
71 71 88
71 71 88
71 71 88
71 71 88
71 71 88
71 71 88
71 71 88
71 71 88
71 71 88
71 71 88
71 71 88
71 71 88
71 71 88
71 71 88
71 71 88
71 71 88
71 71 88
71 71 88
71 71 88
71 71 88
71 71 88
71 71 88
71 71 88
71 71 88
71 71 88
71 71 88
71 71 88
71 71 88
71 71 88
71 71 88
71 71 88
71 71 88
71 71 88
71 71 88
71 71 88
71 71 88
71 71 88
71 71 88
71 71 88
71 71 88
71 71 88
71 71 88
71 71 88
71 71 88
71 71 88
71 71 88
71 71 88
71 71 88
71 71 88
71 71 88
71 71 88
71 71 88
71 71 88
71 71 88
71 71 88
71 71 88
71 71 88
71 71 88
71 71 88
71 71 89
71 71 89
71 71 89
71 71 88
71 71 88
71 71 89
71 71 88
71 71 89
71 71 88
71 71 89
71 71 89
71 71 89
71 71 89
71 71 89
71 71 89
71 71 89
71 71 89
71 71 88
71 71 89
71 71 89
71 71 89
71 71 89
71 71 89
71 71 89
71 71 89
71 71 89
71 71 89
71 71 89
71 71 89
71 71 89
71 71 89
71 71 89
71 71 89
71 71 89
71 71 89
71 71 89
71 71 89
71 71 89
71 71 89
71 71 89
71 71 89
71 71 89
71 71 89
71 71 89
71 71 89
71 71 89
71 71 89
71 71 89
71 71 89
71 71 89
71 71 89
71 71 89
71 71 89
71 71 89
71 71 89
71 71 89
71 71 89
71 71 89
71 71 89
71 71 89
71 71 89
71 71 89
71 71 89
71 71 89
71 71 89
71 71 89
71 71 89
71 71 89
71 71 89
71 71 89
71 71 89
71 71 89
71 71 89
71 71 89
71 71 89
72 72 89
71 71 89
71 71 89
71 71 89
71 71 89
71 71 89
71 71 89
71 71 89
71 71 89
72 72 89
71 71 89
72 72 89
72 72 89
71 71 89
72 72 89
71 71 89
72 72 89
71 71 89
72 72 89
71 71 89
71 71 89
71 71 89
71 71 89
72 72 89
72 72 89
72 72 89
72 72 89
71 71 89
72 72 89
71 71 89
71 71 89
71 71 89
72 72 89
71 71 89
71 71 89
71 71 89
72 72 89
71 71 89
71 71 89
71 71 89
71 71 89
71 71 89
71 71 89
72 72 89
72 72 89
71 71 89
71 71 89
71 71 89
71 71 89
71 71 89
71 71 89
71 71 89
71 71 89
71 71 89
71 71 89
71 71 89
71 71 89
71 71 89
71 71 89
71 71 89
71 71 89
71 71 89
71 71 89
71 71 89
71 71 89
71 71 89
71 71 89
71 71 89
71 71 89
71 71 89
71 71 89
71 71 89
71 71 89
71 71 89
71 71 89
71 71 89
71 71 89
71 71 89
71 71 89
71 71 89
71 71 89
71 71 89
71 71 89
71 71 89
71 71 89
71 71 89
71 71 89
71 71 89
71 71 89
71 71 89
71 71 89
71 71 89
71 71 89
71 71 89
71 71 89
71 71 89
71 71 89
71 71 89
71 71 89
71 71 89
71 71 89
71 71 89
71 71 89
71 71 89
71 71 89
71 71 89
71 71 89
71 71 89
71 71 89
71 71 89
71 71 89
71 71 89
71 71 89
71 71 89
71 71 89
71 71 89
71 71 89
71 71 89
71 71 89
71 71 89
71 71 89
71 71 89
71 71 89
71 71 89
71 71 89
71 71 89
72 72 89
71 71 89
71 71 89
71 71 89
71 71 89
71 71 89
71 71 89
71 71 89
71 71 89
71 71 89
71 71 89
71 71 89
71 71 89
71 71 89
71 71 89
71 71 89
71 71 89
71 71 89
71 71 89
71 71 89
71 71 89
71 71 89
71 71 89
71 71 89
71 71 89
71 71 89
71 71 89
71 71 89
71 71 89
71 71 89
71 71 89
71 71 89
71 71 89
71 71 89
71 71 89
71 71 89
71 71 89
71 71 89
71 71 89
71 71 89
71 71 89
71 71 89
71 71 89
71 71 88
71 71 88
71 71 89
71 71 89
71 71 89
71 71 89
71 71 88
71 71 88
71 71 88
71 71 89
71 71 88
71 71 88
71 71 88
71 71 88
71 71 88
71 71 88
71 71 89
71 71 89
71 71 88
71 71 88
71 71 88
71 71 88
71 71 88
71 71 88
71 71 88
71 71 88
71 71 88
71 71 88
71 71 88
71 71 88
71 71 88
71 71 88
71 71 88
71 71 88
71 71 88
71 71 88
71 71 88
71 71 88
71 71 88
71 71 88
71 71 88
71 71 88
71 71 88
71 71 88
71 71 88
71 71 88
71 71 88
71 71 88
71 71 88
71 71 88
71 71 88
71 71 88
71 71 88
71 71 88
71 71 88
71 71 88
71 71 88
71 71 88
71 71 88
71 71 88
71 71 88
71 71 88
71 71 88
71 71 88
71 71 88
71 71 88
71 71 88
71 71 88
71 71 88
71 71 88
71 71 88
71 71 88
71 71 88
71 71 88
70 70 88
70 70 88
71 71 88
70 70 88
70 70 88
71 71 88
71 71 88
71 71 88
70 70 88
70 70 88
70 70 88
71 71 88
71 71 88
71 71 88
71 71 88
71 71 88
71 71 88
70 70 88
71 71 88
71 71 88
71 71 88
71 71 88
71 71 88
71 71 88
71 71 88
71 71 88
71 71 88
71 71 88
71 71 88
71 71 88
71 71 88
71 71 88
71 71 88
71 71 88
71 71 88
71 71 88
71 71 88
71 71 88
71 71 88
71 71 88
71 71 88
71 71 88
71 71 88
71 71 88
71 71 88
71 71 88
71 71 88
71 71 88
71 71 88
71 71 88
71 71 88
71 71 88
71 71 88
71 71 88
71 71 88
71 71 88
71 71 88
71 71 88
71 71 88
71 71 88
71 71 88
71 71 88
71 71 88
71 71 88
71 71 88
71 71 88
71 71 88
71 71 88
71 71 88
71 71 88
71 71 88
71 71 88
71 71 88
71 71 88
71 71 88
71 71 88
71 71 89
71 71 89
71 71 88
71 71 89
71 71 89
71 71 88
71 71 89
71 71 89
71 71 89
71 71 89
71 71 89
71 71 88
71 71 89
71 71 88
71 71 88
71 71 89
71 71 89
71 71 89
71 71 88
71 71 89
71 71 89
71 71 89
71 71 89
71 71 89
71 71 89
71 71 89
72 72 89
71 71 89
71 71 89
71 71 89
71 71 89
71 71 89
71 71 89
71 71 89
71 71 89
71 71 89
71 71 89
71 71 89
71 71 89
71 71 89
71 71 89
71 71 89
71 71 89
71 71 89
71 71 89
71 71 89
71 71 89
71 71 89
71 71 89
71 71 89
71 71 89
71 71 89
71 71 89
71 71 89
71 71 89
71 71 89
71 71 89
71 71 89
71 71 89
71 71 89
71 71 89
71 71 89
71 71 89
71 71 89
71 71 89
71 71 89
71 71 89
71 71 89
71 71 89
71 71 89
71 71 89
71 71 89
71 71 89
71 71 89
71 71 89
71 71 89
71 71 89
71 71 89
71 71 89
71 71 89
72 72 89
71 71 89
71 71 89
72 72 89
72 72 89
72 72 89
72 72 89
72 72 89
71 71 89
72 72 89
72 72 89
72 72 89
71 71 89
71 71 89
71 71 89
72 72 89
71 71 89
71 71 89
71 71 89
72 72 89
71 71 89
72 72 89
72 72 89
72 72 89
71 71 89
71 71 89
71 71 89
72 72 89
72 72 89
72 72 89
71 71 89
71 71 89
72 72 89
72 72 89
72 72 89
72 72 89
72 72 89
71 71 89
71 71 89
72 72 89
71 71 89
72 72 89
72 72 89
72 72 89
72 72 89
72 72 89
71 71 89
71 71 89
71 71 89
71 71 89
71 71 89
71 71 89
71 71 89
71 71 89
71 71 89
71 71 89
71 71 89
71 71 89
71 71 89
71 71 89
71 71 89
71 71 89
71 71 89
71 71 89
71 71 89
71 71 89
71 71 89
71 71 89
71 71 89
71 71 89
71 71 89
71 71 89
71 71 89
71 71 89
71 71 89
71 71 89
71 71 89
71 71 89
71 71 89
71 71 89
71 71 89
71 71 89
71 71 89
71 71 89
71 71 89
71 71 89
71 71 89
71 71 89
71 71 89
71 71 89
71 71 89
71 71 89
71 71 89
71 71 89
71 71 89
71 71 89
71 71 89
71 71 89
71 71 89
71 71 89
71 71 89
71 71 89
71 71 89
71 71 89
71 71 89
71 71 89
71 71 89
71 71 89
71 71 89
71 71 89
71 71 89
71 71 89
71 71 89
71 71 89
71 71 89
71 71 89
71 71 89
71 71 89
71 71 89
71 71 89
71 71 89
72 72 89
71 71 89
71 71 89
71 71 89
72 72 89
71 71 89
71 71 89
71 71 89
71 71 89
71 71 89
71 71 89
71 71 89
71 71 89
71 71 89
71 71 89
71 71 89
71 71 89
71 71 89
71 71 89
71 71 89
71 71 89
72 72 89
71 71 89
71 71 89
71 71 89
71 71 89
71 71 89
71 71 89
71 71 89
71 71 89
71 71 89
71 71 89
71 71 89
71 71 89
71 71 89
71 71 89
71 71 89
71 71 89
71 71 89
71 71 89
71 71 89
71 71 89
71 71 89
71 71 89
71 71 89
71 71 89
71 71 89
71 71 89
71 71 89
71 71 89
71 71 89
71 71 89
71 71 89
71 71 89
71 71 89
71 71 89
71 71 89
71 71 89
71 71 89
71 71 89
71 71 89
71 71 88
71 71 89
71 71 88
71 71 88
71 71 88
71 71 88
71 71 88
71 71 89
71 71 89
71 71 88
71 71 88
71 71 88
71 71 88
71 71 89
71 71 88
71 71 88
71 71 88
71 71 88
71 71 88
71 71 88
71 71 88
71 71 88
71 71 88
71 71 88
71 71 88
71 71 88
71 71 88
71 71 88
71 71 88
71 71 88
71 71 88
71 71 88
71 71 88
71 71 88
71 71 88
71 71 88
71 71 88
71 71 88
71 71 88
71 71 88
71 71 88
71 71 88
71 71 88
71 71 88
71 71 88
71 71 88
71 71 88
71 71 88
71 71 88
71 71 88
71 71 88
71 71 88
71 71 88
71 71 88
71 71 88
71 71 88
71 71 88
71 71 88
71 71 88
71 71 88
71 71 88
71 71 88
71 71 88
71 71 88
71 71 88
71 71 88
71 71 88
71 71 88
71 71 88
71 71 88
70 70 88
70 70 88
71 71 88
71 71 88
71 71 88
70 70 88
71 71 88
71 71 88
71 71 88
71 71 88
71 71 88
71 71 88
71 71 88
71 71 88
71 71 88
71 71 88
71 71 88
71 71 88
71 71 88
71 71 88
71 71 88
71 71 88
71 71 88
71 71 88
71 71 88
71 71 88
71 71 88
71 71 88
71 71 88
71 71 88
71 71 88
71 71 88
71 71 88
71 71 88
71 71 88
71 71 88
71 71 88
71 71 88
71 71 88
71 71 88
71 71 88
71 71 88
71 71 88
71 71 88
71 71 88
71 71 88
71 71 88
71 71 88
71 71 88
71 71 88
71 71 88
71 71 88
71 71 88
71 71 88
71 71 88
71 71 88
71 71 88
71 71 88
71 71 88
71 71 88
71 71 88
71 71 88
71 71 88
71 71 88
71 71 88
71 71 88
71 71 89
71 71 88
71 71 88
71 71 89
71 71 88
71 71 88
71 71 88
71 71 89
71 71 89
71 71 89
71 71 89
71 71 89
71 71 89
71 71 89
71 71 89
71 71 89
71 71 89
71 71 89
71 71 89
71 71 89
71 71 89
71 71 89
71 71 89
71 71 89
71 71 89
71 71 89
71 71 89
71 71 89
71 71 89
71 71 89
71 71 89
71 71 89
71 71 89
71 71 89
71 71 89
72 72 89
71 71 89
71 71 89
71 71 89
71 71 89
71 71 89
71 71 89
71 71 89
71 71 89
71 71 89
71 71 89
71 71 89
71 71 89
71 71 89
71 71 89
71 71 89
71 71 89
71 71 89
71 71 89
71 71 89
71 71 89
71 71 89
71 71 89
71 71 89
71 71 89
71 71 89
71 71 89
71 71 89
71 71 89
71 71 89
71 71 89
71 71 89
71 71 89
71 71 89
71 71 89
71 71 89
71 71 89
71 71 89
71 71 89
71 71 89
71 71 89
71 71 89
72 72 89
71 71 89
72 72 89
72 72 89
71 71 89
72 72 89
72 72 89
71 71 89
72 72 89
71 71 89
72 72 89
71 71 89
72 72 89
72 72 89
71 71 89
71 71 89
72 72 89
72 72 89
72 72 89
72 72 89
72 72 89
72 72 89
71 71 89
72 72 89
71 71 89
72 72 89
71 71 89
72 72 89
72 72 89
72 72 89
72 72 89
72 72 89
72 72 89
72 72 89
71 71 89
72 72 89
72 72 89
72 72 89
72 72 89
71 71 89
72 72 89
72 72 89
72 72 89
72 72 89
72 72 89
72 72 89
72 72 89
72 72 89
71 71 89
71 71 89
71 71 89
71 71 89
71 71 89
71 71 89
71 71 89
71 71 89
71 71 89
71 71 89
71 71 89
71 71 89
71 71 89
71 71 89
71 71 89
71 71 89
71 71 89
71 71 89
71 71 89
71 71 89
71 71 89
71 71 89
71 71 89
71 71 89
71 71 89
71 71 89
71 71 89
71 71 89
71 71 89
71 71 89
71 71 89
71 71 89
71 71 89
71 71 89
71 71 89
71 71 89
71 71 89
71 71 89
71 71 89
71 71 89
71 71 89
71 71 89
71 71 89
71 71 89
71 71 89
71 71 89
71 71 89
71 71 89
71 71 89
71 71 89
71 71 89
71 71 89
71 71 89
71 71 89
71 71 89
71 71 89
71 71 89
71 71 89
71 71 89
71 71 89
71 71 89
71 71 89
71 71 89
71 71 89
71 71 89
71 71 89
71 71 89
71 71 89
71 71 89
71 71 89
71 71 89
71 71 89
71 71 89
71 71 89
71 71 89
72 72 89
71 71 89
71 71 89
71 71 89
71 71 89
71 71 89
71 71 89
71 71 89
71 71 89
71 71 89
71 71 89
71 71 89
71 71 89
71 71 89
71 71 89
71 71 89
71 71 89
71 71 89
72 72 89
71 71 89
71 71 89
71 71 89
71 71 89
71 71 89
71 71 89
71 71 89
71 71 89
71 71 89
71 71 89
71 71 89
71 71 89
71 71 89
71 71 89
71 71 89
71 71 89
71 71 89
71 71 89
71 71 89
71 71 89
71 71 89
71 71 89
72 72 89
71 71 89
71 71 89
71 71 89
71 71 89
71 71 89
71 71 89
71 71 89
71 71 89
71 71 89
71 71 89
71 71 89
71 71 89
71 71 89
71 71 89
71 71 89
71 71 89
71 71 89
71 71 89
71 71 89
71 71 89
71 71 89
71 71 88
71 71 89
71 71 88
71 71 89
71 71 89
71 71 89
71 71 89
71 71 88
71 71 88
71 71 89
71 71 89
71 71 89
71 71 88
71 71 88
71 71 88
71 71 88
71 71 88
71 71 88
71 71 88
71 71 88
71 71 88
71 71 88
71 71 88
71 71 88
71 71 88
71 71 88
71 71 88
71 71 88
71 71 88
71 71 88
71 71 88
71 71 88
71 71 88
71 71 88
71 71 88
71 71 88
71 71 88
71 71 88
71 71 88
71 71 88
71 71 88
71 71 88
71 71 88
71 71 88
71 71 88
71 71 88
71 71 88
71 71 88
71 71 88
71 71 88
71 71 88
71 71 88
71 71 88
71 71 88
71 71 88
71 71 88
71 71 88
71 71 88
71 71 88
71 71 88
71 71 88
71 71 88
71 71 88
71 71 88
71 71 88
71 71 88
71 71 88
70 70 88
71 71 88
71 71 88
71 71 88
71 71 88
71 71 88
71 71 88
71 71 88
71 71 88
71 71 88
71 71 88
71 71 88
71 71 88
71 71 88
71 71 88
71 71 88
71 71 88
71 71 88
71 71 88
71 71 88
71 71 88
71 71 88
71 71 88
71 71 88
71 71 88
71 71 88
71 71 88
71 71 88
71 71 88
71 71 88
71 71 88
71 71 88
71 71 88
71 71 88
71 71 88
71 71 88
71 71 88
71 71 88
71 71 88
71 71 88
71 71 88
71 71 88
71 71 88
71 71 88
71 71 88
71 71 88
71 71 88
71 71 88
71 71 88
71 71 88
71 71 88
71 71 88
71 71 88
71 71 88
71 71 88
71 71 88
71 71 88
71 71 88
71 71 88
71 71 88
71 71 88
71 71 88
71 71 88
71 71 88
71 71 88
71 71 88
71 71 88
71 71 88
71 71 88
71 71 88
71 71 89
71 71 89
71 71 89
71 71 88
71 71 89
71 71 88
71 71 89
71 71 89
71 71 89
71 71 89
71 71 89
71 71 89
71 71 89
71 71 89
71 71 89
71 71 89
71 71 89
71 71 89
72 72 89
71 71 89
71 71 89
71 71 89
71 71 89
71 71 89
71 71 89
71 71 89
71 71 89
71 71 89
71 71 89
71 71 89
71 71 89
71 71 89
71 71 89
71 71 89
71 71 89
71 71 89
71 71 89
71 71 89
71 71 89
71 71 89
71 71 89
71 71 89
71 71 89
71 71 89
71 71 89
71 71 89
71 71 89
71 71 89
71 71 89
71 71 89
71 71 89
71 71 89
71 71 89
71 71 89
71 71 89
71 71 89
71 71 89
71 71 89
71 71 89
71 71 89
71 71 89
71 71 89
71 71 89
71 71 89
71 71 89
71 71 89
71 71 89
71 71 89
71 71 89
71 71 89
71 71 89
71 71 89
71 71 89
71 71 89
71 71 89
72 72 89
72 72 89
72 72 89
71 71 89
71 71 89
72 72 89
72 72 89
71 71 89
72 72 89
72 72 89
72 72 89
72 72 89
71 71 89
72 72 89
71 71 89
72 72 89
72 72 89
72 72 89
72 72 89
72 72 89
72 72 89
72 72 89
71 71 89
72 72 89
72 72 89
72 72 89
72 72 89
72 72 89
72 72 89
72 72 89
72 72 89
72 72 89
72 72 89
72 72 89
72 72 89
72 72 89
72 72 89
72 72 89
72 72 89
72 72 89
72 72 89
72 72 89
72 72 89
72 72 89
72 72 89
72 72 89
72 72 89
72 72 89
72 72 89
72 72 89
72 72 89
72 72 89
72 72 89
72 72 89
72 72 89
72 72 89
72 72 89
72 72 89
72 72 89
72 72 89
72 72 89
72 72 89
72 72 89
72 72 89
72 72 89
72 72 89
72 72 89
72 72 89
72 72 89
72 72 89
72 72 89
72 72 89
72 72 89
72 72 89
72 72 89
72 72 89
72 72 89
72 72 89
72 72 89
72 72 89
72 72 89
72 72 89
72 72 89
72 72 89
72 72 89
72 72 89
72 72 89
72 72 89
71 71 89
71 71 89
71 71 89
71 71 89
71 71 89
71 71 89
71 71 89
71 71 89
71 71 89
71 71 89
71 71 89
71 71 89
71 71 89
71 71 89
71 71 89
71 71 89
71 71 89
71 71 89
71 71 89
71 71 89
71 71 89
71 71 89
71 71 89
71 71 89
71 71 89
71 71 89
71 71 89
71 71 89
71 71 89
71 71 89
71 71 89
71 71 89
72 72 89
71 71 89
72 72 89
71 71 89
72 72 89
71 71 89
71 71 89
71 71 89
71 71 89
72 72 89
72 72 89
72 72 89
72 72 89
71 71 89
71 71 89
71 71 89
72 72 89
72 72 89
71 71 89
71 71 89
72 72 89
71 71 89
71 71 89
71 71 89
71 71 89
71 71 89
72 72 89
71 71 89
72 72 89
71 71 89
72 72 89
71 71 89
71 71 89
71 71 89
72 72 89
71 71 89
71 71 89
71 71 89
71 71 89
71 71 89
71 71 89
71 71 89
71 71 89
71 71 89
71 71 89
71 71 89
71 71 89
71 71 89
71 71 89
71 71 89
71 71 89
71 71 89
71 71 89
71 71 89
71 71 89
71 71 89
71 71 89
71 71 89
71 71 89
71 71 89
71 71 89
71 71 89
71 71 89
71 71 89
71 71 89
71 71 89
71 71 89
71 71 89
71 71 88
71 71 89
71 71 88
71 71 89
71 71 89
71 71 88
71 71 89
71 71 89
71 71 88
71 71 88
71 71 89
71 71 88
71 71 88
71 71 88
71 71 88
71 71 88
71 71 88
71 71 88
71 71 89
71 71 88
71 71 88
71 71 88
71 71 88
71 71 88
71 71 88
71 71 88
71 71 88
71 71 88
71 71 88
71 71 88
71 71 88
71 71 88
71 71 88
71 71 88
71 71 88
71 71 88
71 71 88
71 71 88
71 71 88
71 71 88
71 71 88
71 71 88
71 71 88
71 71 88
71 71 88
71 71 88
71 71 88
71 71 88
71 71 88
71 71 88
71 71 88
71 71 88
71 71 88
71 71 88
71 71 88
71 71 88
71 71 88
71 71 88
71 71 88
71 71 88
71 71 88
71 71 88
71 71 88
71 71 88
71 71 88
71 71 88
71 71 88
71 71 88
71 71 88
71 71 88
71 71 88
71 71 88
70 70 88
71 71 88
71 71 88
71 71 88
71 71 88
71 71 88
71 71 88
71 71 88
71 71 88
71 71 88
71 71 88
71 71 88
71 71 88
71 71 88
71 71 88
71 71 88
71 71 88
71 71 88
71 71 88
71 71 88
71 71 88
71 71 88
71 71 88
71 71 88
71 71 88
71 71 88
71 71 88
71 71 88
71 71 88
71 71 88
71 71 88
71 71 88
71 71 88
71 71 88
71 71 88
71 71 88
71 71 88
71 71 88
71 71 88
71 71 88
71 71 88
71 71 88
71 71 88
71 71 88
71 71 88
71 71 88
71 71 88
71 71 88
71 71 88
71 71 88
71 71 88
71 71 88
71 71 88
71 71 88
71 71 88
71 71 88
71 71 88
71 71 88
71 71 88
71 71 88
71 71 88
71 71 88
71 71 89
71 71 89
71 71 89
71 71 88
71 71 88
71 71 89
71 71 89
71 71 89
71 71 89
71 71 89
71 71 89
71 71 89
71 71 89
71 71 89
71 71 89
71 71 89
71 71 89
71 71 89
71 71 89
71 71 89
71 71 89
71 71 89
72 72 89
71 71 89
71 71 89
71 71 89
71 71 89
71 71 89
71 71 89
71 71 89
71 71 89
71 71 89
72 72 89
71 71 89
71 71 89
71 71 89
71 71 89
71 71 89
71 71 89
71 71 89
71 71 89
71 71 89
71 71 89
71 71 89
71 71 89
71 71 89
71 71 89
71 71 89
71 71 89
71 71 89
71 71 89
71 71 89
71 71 89
71 71 89
71 71 89
71 71 89
71 71 89
71 71 89
71 71 89
71 71 89
71 71 89
71 71 89
71 71 89
71 71 89
71 71 89
71 71 89
71 71 89
71 71 89
71 71 89
71 71 89
71 71 89
71 71 89
71 71 89
71 71 89
71 71 89
71 71 89
72 72 89
72 72 89
72 72 89
72 72 89
72 72 89
72 72 89
71 71 89
72 72 89
72 72 89
72 72 89
71 71 89
72 72 89
71 71 89
72 72 89
72 72 89
72 72 89
71 71 89
72 72 89
72 72 89
72 72 89
72 72 89
72 72 89
72 72 89
72 72 89
72 72 89
72 72 89
72 72 89
72 72 89
72 72 89
72 72 89
72 72 89
72 72 89
72 72 89
72 72 89
72 72 89
72 72 89
72 72 89
72 72 89
72 72 89
72 72 89
72 72 89
72 72 89
72 72 89
72 72 89
72 72 89
72 72 89
72 72 89
72 72 89
72 72 89
72 72 89
72 72 89
72 72 89
72 72 89
72 72 89
72 72 89
72 72 89
72 72 89
72 72 89
72 72 89
72 72 89
72 72 89
72 72 89
72 72 89
72 72 89
72 72 89
72 72 89
72 72 89
72 72 89
72 72 89
72 72 89
72 72 89
72 72 89
72 72 89
72 72 89
72 72 89
72 72 89
72 72 89
72 72 89
72 72 89
72 72 89
72 72 89
72 72 89
72 72 89
72 72 89
72 72 89
72 72 89
72 72 89
72 72 89
72 72 89
72 72 89
72 72 89
72 72 89
72 72 89
72 72 89
72 72 89
72 72 89
72 72 89
72 72 89
72 72 89
72 72 89
72 72 89
72 72 89
72 72 89
72 72 89
72 72 89
72 72 89
72 72 89
72 72 89
71 71 89
71 71 89
71 71 89
71 71 89
71 71 89
71 71 89
71 71 89
71 71 89
71 71 89
72 72 89
71 71 89
71 71 89
72 72 89
72 72 89
71 71 89
72 72 89
72 72 89
72 72 89
71 71 89
71 71 89
72 72 89
72 72 89
72 72 89
71 71 89
71 71 89
72 72 89
72 72 89
72 72 89
72 72 89
71 71 89
72 72 89
72 72 89
71 71 89
71 71 89
71 71 89
71 71 89
72 72 89
72 72 89
71 71 89
71 71 89
71 71 89
72 72 89
71 71 89
71 71 89
71 71 89
71 71 89
71 71 89
71 71 89
71 71 89
71 71 89
71 71 89
72 72 89
71 71 89
72 72 89
71 71 89
71 71 89
71 71 89
71 71 89
71 71 89
71 71 89
71 71 89
71 71 89
71 71 89
71 71 89
71 71 89
71 71 89
71 71 89
71 71 89
71 71 89
71 71 89
71 71 89
71 71 89
71 71 89
71 71 89
71 71 89
71 71 89
71 71 89
71 71 89
71 71 89
71 71 89
71 71 89
71 71 89
71 71 89
71 71 89
71 71 89
71 71 89
71 71 89
71 71 89
71 71 89
71 71 89
71 71 89
71 71 89
71 71 89
71 71 88
71 71 89
71 71 88
71 71 89
71 71 89
71 71 89
71 71 88
71 71 89
71 71 88
71 71 88
71 71 88
71 71 88
71 71 88
71 71 88
71 71 88
71 71 88
71 71 88
71 71 88
71 71 88
71 71 88
71 71 88
71 71 88
71 71 88
71 71 88
71 71 88
71 71 88
71 71 88
71 71 88
71 71 88
71 71 88
71 71 88
71 71 88
71 71 88
71 71 88
71 71 88
71 71 88
70 70 87
62 64 82
54 57 75
50 54 72
51 55 74
56 58 76
64 65 83
71 71 88
71 71 88
71 71 88
71 71 88
71 71 88
71 71 88
71 71 88
71 71 88
71 71 88
71 71 88
71 71 88
71 71 88
71 71 88
71 71 88
71 71 88
71 71 88
71 71 88
71 71 88
71 71 88
71 71 88
71 71 88
71 71 88
71 71 88
71 71 88
71 71 88
71 71 88
71 71 88
71 71 88
71 71 88
71 71 88
71 71 88
71 71 88
71 71 88
71 71 88
71 71 88
71 71 88
71 71 88
71 71 88
71 71 88
71 71 88
71 71 88
71 71 88
71 71 88
71 71 88
71 71 88
71 71 88
71 71 88
71 71 88
71 71 88
71 71 88
71 71 88
71 71 88
71 71 88
71 71 88
71 71 88
71 71 88
71 71 88
71 71 88
71 71 88
71 71 88
71 71 88
71 71 88
71 71 88
71 71 88
71 71 88
71 71 88
71 71 88
71 71 88
71 71 88
71 71 88
71 71 88
71 71 88
71 71 88
71 71 88
71 71 88
71 71 88
71 71 88
71 71 88
71 71 88
71 71 88
71 71 88
71 71 89
71 71 89
71 71 89
71 71 89
71 71 89
71 71 89
71 71 89
71 71 89
71 71 89
71 71 89
71 71 89
72 72 89
71 71 89
71 71 89
71 71 89
71 71 89
71 71 89
71 71 89
71 71 89
71 71 89
71 71 89
71 71 89
71 71 89
71 71 89
71 71 89
71 71 89
71 71 89
71 71 89
71 71 89
71 71 89
71 71 89
71 71 89
71 71 89
71 71 89
71 71 89
71 71 89
71 71 89
71 71 89
71 71 89
71 71 89
71 71 89
71 71 89
71 71 89
71 71 89
71 71 89
71 71 89
71 71 89
71 71 89
71 71 89
71 71 89
71 71 89
71 71 89
71 71 89
71 71 89
71 71 89
71 71 89
71 71 89
71 71 89
71 71 89
71 71 89
71 71 89
71 71 89
71 71 89
71 71 89
71 71 89
71 71 89
71 71 89
71 71 89
71 71 89
71 71 89
71 71 89
71 71 89
71 71 89
71 71 89
72 72 89
72 72 89
72 72 89
72 72 89
72 72 89
72 72 89
72 72 89
72 72 89
72 72 89
72 72 89
72 72 89
72 72 89
72 72 89
72 72 89
72 72 89
72 72 89
72 72 89
72 72 89
72 72 89
72 72 89
72 72 89
72 72 89
72 72 89
72 72 89
72 72 89
72 72 89
72 72 89
72 72 89
72 72 89
72 72 89
72 72 89
72 72 89
72 72 89
72 72 89
72 72 89
72 72 89
72 72 89
72 72 89
72 72 89
72 72 89
72 72 89
72 72 89
72 72 89
72 72 89
72 72 89
72 72 89
72 72 89
72 72 89
72 72 89
72 72 89
72 72 89
72 72 89
72 72 89
72 72 89
72 72 89
72 72 89
72 72 89
72 72 89
72 72 89
72 72 89
72 72 89
72 72 89
72 72 89
72 72 89
72 72 89
72 72 89
72 72 89
72 72 89
72 72 89
72 72 89
72 72 89
72 72 89
72 72 89
72 72 89
72 72 89
72 72 89
72 72 89
72 72 89
72 72 89
72 72 89
72 72 89
72 72 89
72 72 89
72 72 89
72 72 89
72 72 89
72 72 89
72 72 89
72 72 89
72 72 89
72 72 89
72 72 89
72 72 89
72 72 89
72 72 89
72 72 89
72 72 89
72 72 89
72 72 89
72 72 89
72 72 89
72 72 89
72 72 89
72 72 89
72 72 89
72 72 89
72 72 89
72 72 89
72 72 89
72 72 89
72 72 89
72 72 89
72 72 89
72 72 89
72 72 89
72 72 89
72 72 89
72 72 89
72 72 89
72 72 89
72 72 89
72 72 89
72 72 89
72 72 89
72 72 89
72 72 89
72 72 89
72 72 89
71 71 89
72 72 89
72 72 89
72 72 89
71 71 89
72 72 89
71 71 89
72 72 89
71 71 89
72 72 89
72 72 89
72 72 89
71 71 89
71 71 89
72 72 89
72 72 89
72 72 89
71 71 89
72 72 89
72 72 89
71 71 89
71 71 89
72 72 89
72 72 89
71 71 89
72 72 89
72 72 89
71 71 89
71 71 89
71 71 89
71 71 89
71 71 89
71 71 89
71 71 89
71 71 89
71 71 89
72 72 89
71 71 89
71 71 89
71 71 89
71 71 89
71 71 89
71 71 89
71 71 89
71 71 89
71 71 89
71 71 89
71 71 89
71 71 89
71 71 89
71 71 89
71 71 89
71 71 89
71 71 89
71 71 89
71 71 89
71 71 89
71 71 89
71 71 89
71 71 89
71 71 89
71 71 89
71 71 89
71 71 89
71 71 89
71 71 89
71 71 89
71 71 89
71 71 89
71 71 89
71 71 89
71 71 89
71 71 89
71 71 89
71 71 89
71 71 89
71 71 88
71 71 89
71 71 89
71 71 88
71 71 88
71 71 89
71 71 88
71 71 89
71 71 89
71 71 88
71 71 88
71 71 88
71 71 89
71 71 88
71 71 88
71 71 88
71 71 88
71 71 88
71 71 88
71 71 88
71 71 88
71 71 88
71 71 88
71 71 88
71 71 88
71 71 88
71 71 88
71 71 88
71 71 88
71 71 88
71 71 88
71 71 88
70 70 88
55 58 76
32 41 61
28 40 62
27 38 60
25 36 57
26 38 59
27 38 60
27 38 60
36 44 64
57 60 79
70 70 88
71 71 88
71 71 88
71 71 88
71 71 88
71 71 88
71 71 88
71 71 88
71 71 88
71 71 88
71 71 88
71 71 88
71 71 88
71 71 88
71 71 88
71 71 88
71 71 88
71 71 88
71 71 88
71 71 88
71 71 88
71 71 88
71 71 88
71 71 88
71 71 88
71 71 88
71 71 88
71 71 88
71 71 88
71 71 88
71 71 88
71 71 88
71 71 88
71 71 88
71 71 88
71 71 88
71 71 88
71 71 88
71 71 88
71 71 88
71 71 88
71 71 88
71 71 88
71 71 88
71 71 88
71 71 88
71 71 88
71 71 88
71 71 88
71 71 88
71 71 88
71 71 88
71 71 88
71 71 88
71 71 88
71 71 88
71 71 88
71 71 88
71 71 88
71 71 88
71 71 88
71 71 88
71 71 88
71 71 88
71 71 88
71 71 88
71 71 88
71 71 88
71 71 88
71 71 88
71 71 88
71 71 88
71 71 88
71 71 88
71 71 89
71 71 89
71 71 89
71 71 89
71 71 89
71 71 89
71 71 89
71 71 89
71 71 89
71 71 89
71 71 89
71 71 89
71 71 89
71 71 89
71 71 89
71 71 89
71 71 89
71 71 89
71 71 89
71 71 89
71 71 89
71 71 89
71 71 89
71 71 89
71 71 89
71 71 89
71 71 89
71 71 89
71 71 89
71 71 89
71 71 89
71 71 89
71 71 89
71 71 89
72 72 89
72 72 89
71 71 89
71 71 89
71 71 89
71 71 89
71 71 89
71 71 89
71 71 89
71 71 89
71 71 89
71 71 89
71 71 89
71 71 89
71 71 89
71 71 89
71 71 89
71 71 89
71 71 89
71 71 89
71 71 89
71 71 89
71 71 89
71 71 89
71 71 89
71 71 89
71 71 89
71 71 89
71 71 89
71 71 89
71 71 89
71 71 89
71 71 89
71 71 89
71 71 89
71 71 89
71 71 89
71 71 89
71 71 89
71 71 89
72 72 89
72 72 89
72 72 89
72 72 89
72 72 89
72 72 89
72 72 89
72 72 89
72 72 89
72 72 89
72 72 89
72 72 89
72 72 89
72 72 90
72 72 89
72 72 89
72 72 89
72 72 89
72 72 89
72 72 89
72 72 89
72 72 89
72 72 89
72 72 89
72 72 89
72 72 89
72 72 89
72 72 89
72 72 89
72 72 89
72 72 89
72 72 89
72 72 89
72 72 89
72 72 89
72 72 89
72 72 89
72 72 89
72 72 89
72 72 89
72 72 89
72 72 89
72 72 89
72 72 89
72 72 89
72 72 89
72 72 89
72 72 89
72 72 89
72 72 89
72 72 89
72 72 89
72 72 89
72 72 89
72 72 89
72 72 89
72 72 89
72 72 89
72 72 89
72 72 89
72 72 89
72 72 89
72 72 89
72 72 89
72 72 89
72 72 89
72 72 89
72 72 89
72 72 89
72 72 89
72 72 89
72 72 89
72 72 89
72 72 89
72 72 89
72 72 89
72 72 89
72 72 89
72 72 89
72 72 89
72 72 89
72 72 89
72 72 89
72 72 89
72 72 89
72 72 89
72 72 89
72 72 89
72 72 89
72 72 89
72 72 89
72 72 89
72 72 89
72 72 89
72 72 89
72 72 89
72 72 89
72 72 89
72 72 89
72 72 89
72 72 89
72 72 89
72 72 89
72 72 89
72 72 89
72 72 89
72 72 89
72 72 89
72 72 89
72 72 89
72 72 89
72 72 89
72 72 89
72 72 89
72 72 89
72 72 89
72 72 89
72 72 89
72 72 89
72 72 89
72 72 89
72 72 89
72 72 89
72 72 89
72 72 89
72 72 89
72 72 89
72 72 89
72 72 89
72 72 89
72 72 89
72 72 89
72 72 89
72 72 89
72 72 89
72 72 89
72 72 89
72 72 89
72 72 89
72 72 89
72 72 89
72 72 89
72 72 89
72 72 89
72 72 89
72 72 89
72 72 89
71 71 89
72 72 89
72 72 89
72 72 89
72 72 89
72 72 89
72 72 89
72 72 89
72 72 89
72 72 89
72 72 89
72 72 89
72 72 89
72 72 89
72 72 89
71 71 89
71 71 89
72 72 89
71 71 89
71 71 89
72 72 89
72 72 89
71 71 89
72 72 89
71 71 89
71 71 89
71 71 89
71 71 89
71 71 89
71 71 89
72 72 89
71 71 89
71 71 89
71 71 89
71 71 89
71 71 89
71 71 89
71 71 89
71 71 89
71 71 89
71 71 89
72 72 89
71 71 89
72 72 89
71 71 89
72 72 89
71 71 89
71 71 89
71 71 89
71 71 89
71 71 89
71 71 89
71 71 89
71 71 89
71 71 89
71 71 89
71 71 89
71 71 89
71 71 89
71 71 89
71 71 89
71 71 89
71 71 89
71 71 89
71 71 89
71 71 89
71 71 89
71 71 88
71 71 89
71 71 88
71 71 89
71 71 88
71 71 88
71 71 89
71 71 89
71 71 89
71 71 88
71 71 89
71 71 88
71 71 88
71 71 88
71 71 89
71 71 89
71 71 89
71 71 88
71 71 88
71 71 88
71 71 88
71 71 88
71 71 88
71 71 88
71 71 89
71 71 88
68 69 87
42 49 69
28 40 60
28 40 61
28 40 62
25 36 56
26 37 58
27 38 60
25 36 58
25 36 57
25 36 56
26 37 58
40 46 65
67 68 85
71 71 88
71 71 88
71 71 88
71 71 88
71 71 88
71 71 88
71 71 88
71 71 88
71 71 88
71 71 88
71 71 88
71 71 88
71 71 88
71 71 88
71 71 88
71 71 88
71 71 88
71 71 88
71 71 88
71 71 88
71 71 88
71 71 88
71 71 88
71 71 88
71 71 88
71 71 88
71 71 88
71 71 88
71 71 88
71 71 88
71 71 88
71 71 89
71 71 88
71 71 88
71 71 88
71 71 88
71 71 88
71 71 89
71 71 88
71 71 88
71 71 88
71 71 88
71 71 88
71 71 88
71 71 88
71 71 88
71 71 88
71 71 88
71 71 88
71 71 88
71 71 88
71 71 88
71 71 88
71 71 88
71 71 88
71 71 88
71 71 88
71 71 88
71 71 88
71 71 88
71 71 88
71 71 88
71 71 88
71 71 88
71 71 88
71 71 88
71 71 88
71 71 89
71 71 89
71 71 89
71 71 89
71 71 89
71 71 89
71 71 89
71 71 89
71 71 89
71 71 89
71 71 89
71 71 89
71 71 89
71 71 89
71 71 89
71 71 89
71 71 89
71 71 89
71 71 89
71 71 89
72 72 89
71 71 89
71 71 89
71 71 89
71 71 89
71 71 89
71 71 89
71 71 89
71 71 89
71 71 89
71 71 89
71 71 89
71 71 89
72 72 89
72 72 89
72 72 89
71 71 89
71 71 89
71 71 89
72 72 89
71 71 89
72 72 89
71 71 89
71 71 89
71 71 89
71 71 89
71 71 89
71 71 89
71 71 89
71 71 89
71 71 89
71 71 89
71 71 89
71 71 89
71 71 89
71 71 89
71 71 89
71 71 89
71 71 89
71 71 89
71 71 89
71 71 89
71 71 89
71 71 89
71 71 89
71 71 89
71 71 89
71 71 89
71 71 89
71 71 89
72 72 89
72 72 89
72 72 89
72 72 89
72 72 89
72 72 89
72 72 89
72 72 89
72 72 89
72 72 89
72 72 89
72 72 89
72 72 89
72 72 89
72 72 89
72 72 89
72 72 89
72 72 89
72 72 89
72 72 89
72 72 89
72 72 89
72 72 89
72 72 89
72 72 89
72 72 89
72 72 89
72 72 89
72 72 89
72 72 89
72 72 89
72 72 89
72 72 89
72 72 89
72 72 89
72 72 89
72 72 89
72 72 89
72 72 89
72 72 89
72 72 89
72 72 89
72 72 89
72 72 89
72 72 89
72 72 89
72 72 89
72 72 89
72 72 89
72 72 89
72 72 89
72 72 89
72 72 89
72 72 89
72 72 89
72 72 89
72 72 89
72 72 89
72 72 89
72 72 89
72 72 89
72 72 89
72 72 89
72 72 89
72 72 89
72 72 89
72 72 89
72 72 89
72 72 89
72 72 89
72 72 89
72 72 89
72 72 89
72 72 89
72 72 89
72 72 89
72 72 89
72 72 89
72 72 89
72 72 89
72 72 89
72 72 89
72 72 89
72 72 89
72 72 89
72 72 89
72 72 89
72 72 89
72 72 89
72 72 89
72 72 89
72 72 89
72 72 89
72 72 89
72 72 89
72 72 89
72 72 89
72 72 89
72 72 89
72 72 89
72 72 89
72 72 89
72 72 89
72 72 89
72 72 89
72 72 89
72 72 89
72 72 89
72 72 89
72 72 89
72 72 89
72 72 89
72 72 89
72 72 89
72 72 89
72 72 89
72 72 89
72 72 89
72 72 89
72 72 89
72 72 89
72 72 89
72 72 89
72 72 89
72 72 89
72 72 89
72 72 89
72 72 89
72 72 89
72 72 89
72 72 89
72 72 89
72 72 89
72 72 89
72 72 89
72 72 89
72 72 89
72 72 89
72 72 89
72 72 89
72 72 89
72 72 89
72 72 89
72 72 89
72 72 89
72 72 89
72 72 89
72 72 89
72 72 89
72 72 89
72 72 89
72 72 89
72 72 89
72 72 89
72 72 89
72 72 89
71 71 89
71 71 89
72 72 89
72 72 89
72 72 89
72 72 89
72 72 89
72 72 89
72 72 89
71 71 89
72 72 89
72 72 89
72 72 89
72 72 89
72 72 89
71 71 89
72 72 89
72 72 89
71 71 89
72 72 89
72 72 89
72 72 89
71 71 89
71 71 89
72 72 89
71 71 89
71 71 89
71 71 89
71 71 89
71 71 89
71 71 89
71 71 89
71 71 89
71 71 89
71 71 89
71 71 89
71 71 89
71 71 89
71 71 89
71 71 89
72 72 89
71 71 89
71 71 89
71 71 89
71 71 89
71 71 89
72 72 89
71 71 89
72 72 89
71 71 89
71 71 89
71 71 89
71 71 89
71 71 89
71 71 89
71 71 89
71 71 89
71 71 89
71 71 89
71 71 89
71 71 89
71 71 89
71 71 89
71 71 89
71 71 89
71 71 89
71 71 89
71 71 89
71 71 89
71 71 89
71 71 89
71 71 89
71 71 89
71 71 89
71 71 89
71 71 89
71 71 89
71 71 89
71 71 88
71 71 88
71 71 89
71 71 88
71 71 88
71 71 88
71 71 88
71 71 88
71 71 88
71 71 88
71 71 88
71 71 88
71 71 88
71 71 88
70 70 88
41 49 69
31 43 65
31 44 65
29 42 63
28 40 62
28 40 62
27 39 61
26 37 58
25 36 57
25 35 56
26 37 58
26 37 58
26 37 58
34 43 63
66 67 85
71 71 88
71 71 88
71 71 88
71 71 88
71 71 88
71 71 88
71 71 88
71 71 88
71 71 88
71 71 88
71 71 88
71 71 88
71 71 88
71 71 88
71 71 88
71 71 88
71 71 88
71 71 88
71 71 88
71 71 88
71 71 88
71 71 88
71 71 88
71 71 88
71 71 88
71 71 88
71 71 88
71 71 88
71 71 88
71 71 88
71 71 88
71 71 88
71 71 88
71 71 88
71 71 88
71 71 88
71 71 88
71 71 88
71 71 88
71 71 88
71 71 88
71 71 88
71 71 88
71 71 88
71 71 88
71 71 88
71 71 88
71 71 88
71 71 88
71 71 88
71 71 88
71 71 88
71 71 88
71 71 88
71 71 88
71 71 88
71 71 88
71 71 88
71 71 88
71 71 88
71 71 88
71 71 89
71 71 89
71 71 89
71 71 89
71 71 89
71 71 89
71 71 89
71 71 89
71 71 89
71 71 89
71 71 89
71 71 89
72 72 89
71 71 89
71 71 89
71 71 89
71 71 89
71 71 89
71 71 89
72 72 89
71 71 89
71 71 89
71 71 89
71 71 89
71 71 89
71 71 89
71 71 89
71 71 89
71 71 89
71 71 89
71 71 89
71 71 89
71 71 89
71 71 89
71 71 89
72 72 89
72 72 89
71 71 89
72 72 89
71 71 89
71 71 89
71 71 89
72 72 89
71 71 89
72 72 89
71 71 89
71 71 89
71 71 89
71 71 89
71 71 89
71 71 89
71 71 89
71 71 89
71 71 89
71 71 89
71 71 89
71 71 89
71 71 89
71 71 89
71 71 89
71 71 89
71 71 89
71 71 89
71 71 89
71 71 89
71 71 89
71 71 89
72 72 89
72 72 89
72 72 89
72 72 89
72 72 89
72 72 89
72 72 89
72 72 89
72 72 89
72 72 89
72 72 89
72 72 89
72 72 89
72 72 89
72 72 89
72 72 89
72 72 89
72 72 89
72 72 89
72 72 89
72 72 89
72 72 89
72 72 89
72 72 89
72 72 89
72 72 89
72 72 89
72 72 89
72 72 89
72 72 89
72 72 89
72 72 89
72 72 89
72 72 89
72 72 89
72 72 89
72 72 89
72 72 89
72 72 89
72 72 89
72 72 89
72 72 89
72 72 89
72 72 89
72 72 89
72 72 89
72 72 89
72 72 89
72 72 89
72 72 89
72 72 89
72 72 89
72 72 89
72 72 89
72 72 89
72 72 89
72 72 89
72 72 89
72 72 89
72 72 89
72 72 89
72 72 89
72 72 89
72 72 89
72 72 89
72 72 89
72 72 89
72 72 89
72 72 89
72 72 89
72 72 89
72 72 89
72 72 89
72 72 89
72 72 89
72 72 89
72 72 89
72 72 89
72 72 89
72 72 89
72 72 89
72 72 89
72 72 89
72 72 89
72 72 89
72 72 89
72 72 89
72 72 89
72 72 89
72 72 89
72 72 89
72 72 89
72 72 89
72 72 89
72 72 89
72 72 89
72 72 89
72 72 89
72 72 89
72 72 89
72 72 89
72 72 89
72 72 89
72 72 89
72 72 89
72 72 89
72 72 89
72 72 89
72 72 89
72 72 89
72 72 89
72 72 89
72 72 89
72 72 89
72 72 89
72 72 89
72 72 89
72 72 89
72 72 89
72 72 89
72 72 89
72 72 89
72 72 89
72 72 89
72 72 89
72 72 89
72 72 89
72 72 89
72 72 89
72 72 89
72 72 89
72 72 89
72 72 89
72 72 89
72 72 89
72 72 89
72 72 89
72 72 89
72 72 89
72 72 89
72 72 89
72 72 89
72 72 89
72 72 89
72 72 89
72 72 89
72 72 89
72 72 89
72 72 89
72 72 89
72 72 89
72 72 89
72 72 89
72 72 89
72 72 89
72 72 89
72 72 89
72 72 89
72 72 89
72 72 89
72 72 89
72 72 89
72 72 89
72 72 89
72 72 89
72 72 89
72 72 89
72 72 89
72 72 89
72 72 89
72 72 89
72 72 89
72 72 89
72 72 89
72 72 89
72 72 89
72 72 89
72 72 89
72 72 89
72 72 89
72 72 89
72 72 89
71 71 89
72 72 89
72 72 89
72 72 89
72 72 89
71 71 89
72 72 89
71 71 89
71 71 89
71 71 89
72 72 89
71 71 89
71 71 89
71 71 89
71 71 89
72 72 89
71 71 89
71 71 89
71 71 89
72 72 89
72 72 89
71 71 89
71 71 89
71 71 89
72 72 89
71 71 89
71 71 89
71 71 89
71 71 89
71 71 89
71 71 89
71 71 89
71 71 89
71 71 89
71 71 89
72 72 89
71 71 89
71 71 89
71 71 89
71 71 89
71 71 89
71 71 89
71 71 89
71 71 89
71 71 89
71 71 89
71 71 89
71 71 89
71 71 89
71 71 89
71 71 89
71 71 89
71 71 89
71 71 89
71 71 89
71 71 89
71 71 89
71 71 89
71 71 89
71 71 89
71 71 89
71 71 89
71 71 89
71 71 89
71 71 88
71 71 88
71 71 89
71 71 88
71 71 89
71 71 89
71 71 88
71 71 89
71 71 88
71 71 89
54 59 77
31 44 66
31 43 65
31 43 65
28 40 61
30 43 64
28 40 62
27 39 60
26 37 58
27 39 60
27 39 60
25 36 56
27 39 61
27 38 60
28 40 62
39 48 69
70 70 87
71 71 88
71 71 88
71 71 88
71 71 88
71 71 88
71 71 88
71 71 88
71 71 88
71 71 88
71 71 88
71 71 88
71 71 88
71 71 88
71 71 88
71 71 88
71 71 88
71 71 88
71 71 88
71 71 88
71 71 88
71 71 88
71 71 88
71 71 88
71 71 88
71 71 88
71 71 88
71 71 88
71 71 88
71 71 88
71 71 88
71 71 88
71 71 88
71 71 88
71 71 88
71 71 88
71 71 88
71 71 88
71 71 88
71 71 88
71 71 88
71 71 88
71 71 88
71 71 88
71 71 88
71 71 88
71 71 88
71 71 88
71 71 88
71 71 88
71 71 88
71 71 88
71 71 88
71 71 88
71 71 88
71 71 88
71 71 89
71 71 89
71 71 89
71 71 89
71 71 89
71 71 89
71 71 89
71 71 89
71 71 89
71 71 89
71 71 89
71 71 89
71 71 89
71 71 89
72 72 89
71 71 89
71 71 89
71 71 89
71 71 89
71 71 89
71 71 89
71 71 89
71 71 89
71 71 89
71 71 89
71 71 89
71 71 89
71 71 89
71 71 89
71 71 89
72 72 89
72 72 89
71 71 89
71 71 89
71 71 89
71 71 89
71 71 89
71 71 89
71 71 89
71 71 89
71 71 89
71 71 89
71 71 89
71 71 89
72 72 89
71 71 89
72 72 89
72 72 89
71 71 89
71 71 89
71 71 89
71 71 89
71 71 89
71 71 89
71 71 89
71 71 89
71 71 89
71 71 89
71 71 89
71 71 89
71 71 89
71 71 89
71 71 89
71 71 89
72 72 89
72 72 89
72 72 89
72 72 89
72 72 89
72 72 89
72 72 89
72 72 89
72 72 89
72 72 89
72 72 89
72 72 89
72 72 89
72 72 89
72 72 89
72 72 89
72 72 89
72 72 89
72 72 89
72 72 89
72 72 89
72 72 89
72 72 89
72 72 89
72 72 89
72 72 89
72 72 89
72 72 89
72 72 89
72 72 89
72 72 90
72 72 89
72 72 89
72 72 89
72 72 89
72 72 89
72 72 89
72 72 89
72 72 89
72 72 89
72 72 89
72 72 89
72 72 89
72 72 89
72 72 89
72 72 89
72 72 89
72 72 89
72 72 89
72 72 89
72 72 89
72 72 89
72 72 89
72 72 89
72 72 89
72 72 90
72 72 89
72 72 89
72 72 89
72 72 89
72 72 89
72 72 89
72 72 89
72 72 89
72 72 89
72 72 89
72 72 89
72 72 89
72 72 89
72 72 89
72 72 89
72 72 89
72 72 89
72 72 89
72 72 89
72 72 89
72 72 89
72 72 89
72 72 89
72 72 89
72 72 89
72 72 89
72 72 89
72 72 89
72 72 89
72 72 89
72 72 89
72 72 89
72 72 89
72 72 89
72 72 89
72 72 89
72 72 89
72 72 89
72 72 89
72 72 89
72 72 89
72 72 89
72 72 89
72 72 89
72 72 89
72 72 89
72 72 89
72 72 89
72 72 89
72 72 89
72 72 89
72 72 89
72 72 89
72 72 89
72 72 89
72 72 89
72 72 89
72 72 89
72 72 89
72 72 89
72 72 89
72 72 89
72 72 89
72 72 89
72 72 89
72 72 89
72 72 89
72 72 89
72 72 89
72 72 89
72 72 89
72 72 89
72 72 89
72 72 89
72 72 89
72 72 89
72 72 89
72 72 89
72 72 89
72 72 89
72 72 89
72 72 89
72 72 89
72 72 89
72 72 89
72 72 89
72 72 89
72 72 89
72 72 89
72 72 89
72 72 89
72 72 89
72 72 89
72 72 89
72 72 89
72 72 89
72 72 89
72 72 89
72 72 89
72 72 89
72 72 89
72 72 89
72 72 89
72 72 89
72 72 89
72 72 89
72 72 89
72 72 89
72 72 89
72 72 89
72 72 89
72 72 89
72 72 89
72 72 89
72 72 89
72 72 89
72 72 89
72 72 89
72 72 89
72 72 89
72 72 89
72 72 89
72 72 89
72 72 89
72 72 89
72 72 89
72 72 89
72 72 89
72 72 89
72 72 89
72 72 89
72 72 89
72 72 89
72 72 89
72 72 89
72 72 89
71 71 89
72 72 89
72 72 89
72 72 89
72 72 89
71 71 89
72 72 89
71 71 89
71 71 89
71 71 89
71 71 89
71 71 89
71 71 89
72 72 89
72 72 89
71 71 89
71 71 89
71 71 89
71 71 89
71 71 89
71 71 89
72 72 89
72 72 89
71 71 89
71 71 89
71 71 89
71 71 89
71 71 89
71 71 89
72 72 89
72 72 89
71 71 89
71 71 89
72 72 89
71 71 89
71 71 89
71 71 89
71 71 89
71 71 89
71 71 89
71 71 89
71 71 89
71 71 89
71 71 89
71 71 89
71 71 89
71 71 89
71 71 89
71 71 89
71 71 89
71 71 89
71 71 89
71 71 89
71 71 89
71 71 89
71 71 89
71 71 89
71 71 89
71 71 89
71 71 89
71 71 89
71 71 89
71 71 89
71 71 89
71 71 89
71 71 89
71 71 89
71 71 88
71 71 88
71 71 88
71 71 89
70 71 88
39 52 75
31 43 64
31 44 65
30 43 64
29 41 62
30 42 64
30 42 65
29 42 64
29 42 63
27 39 60
28 40 62
27 38 60
28 40 62
28 39 61
28 40 61
29 42 63
53 57 76
71 71 88
71 71 88
71 71 88
71 71 88
71 71 88
71 71 88
71 71 88
71 71 88
71 71 88
71 71 88
71 71 88
71 71 88
71 71 88
71 71 88
71 71 88
71 71 88
71 71 88
71 71 88
71 71 88
71 71 88
71 71 88
71 71 88
71 71 88
71 71 88
71 71 88
71 71 88
71 71 88
71 71 88
71 71 88
71 71 88
71 71 88
71 71 89
71 71 89
71 71 88
71 71 88
71 71 88
71 71 88
71 71 88
71 71 88
71 71 88
71 71 88
71 71 88
71 71 88
71 71 88
71 71 88
71 71 88
71 71 88
71 71 88
71 71 88
71 71 88
71 71 88
71 71 89
71 71 89
71 71 89
71 71 89
71 71 89
71 71 89
71 71 89
71 71 89
71 71 89
71 71 89
71 71 89
71 71 89
71 71 89
71 71 89
71 71 89
71 71 89
71 71 89
71 71 89
71 71 89
71 71 89
71 71 89
71 71 89
71 71 89
71 71 89
71 71 89
71 71 89
72 72 89
71 71 89
71 71 89
72 72 89
72 72 89
71 71 89
72 72 89
72 72 89
71 71 89
71 71 89
71 71 89
72 72 89
72 72 89
71 71 89
71 71 89
71 71 89
71 71 89
71 71 89
71 71 89
72 72 89
72 72 89
72 72 89
71 71 89
71 71 89
72 72 89
72 72 89
71 71 89
71 71 89
71 71 89
71 71 89
71 71 89
71 71 89
71 71 89
71 71 89
71 71 89
72 72 89
72 72 89
72 72 89
72 72 89
72 72 89
72 72 89
72 72 89
72 72 89
72 72 89
72 72 89
72 72 89
72 72 89
72 72 89
72 72 89
72 72 89
72 72 89
72 72 89
72 72 89
72 72 89
72 72 89
72 72 89
72 72 89
72 72 89
72 72 89
72 72 89
72 72 89
72 72 89
72 72 89
72 72 89
72 72 89
72 72 89
72 72 89
72 72 89
72 72 89
72 72 89
72 72 89
72 72 89
72 72 89
72 72 89
72 72 89
72 72 89
72 72 89
72 72 89
72 72 89
72 72 89
72 72 90
72 72 89
72 72 89
72 72 89
72 72 89
72 72 89
72 72 89
72 72 90
72 72 89
72 72 89
72 72 89
72 72 89
72 72 89
72 72 89
72 72 89
72 72 89
72 72 89
72 72 89
72 72 89
72 72 89
72 72 89
72 72 89
72 72 89
72 72 89
72 72 89
72 72 89
72 72 90
72 72 89
72 72 89
72 72 89
72 72 89
72 72 89
72 72 89
72 72 89
72 72 89
72 72 89
72 72 89
72 72 89
72 72 89
72 72 89
72 72 89
72 72 89
72 72 89
72 72 89
72 72 89
72 72 89
72 72 89
72 72 89
72 72 89
72 72 89
72 72 89
72 72 89
72 72 89
72 72 89
72 72 89
72 72 89
72 72 89
72 72 89
72 72 89
72 72 89
72 72 89
72 72 89
72 72 89
72 72 89
72 72 89
72 72 89
72 72 89
72 72 89
72 72 89
72 72 89
72 72 89
72 72 89
72 72 89
72 72 89
72 72 89
72 72 89
72 72 89
72 72 89
72 72 89
72 72 89
72 72 89
72 72 89
72 72 89
72 72 89
72 72 89
72 72 89
72 72 89
72 72 89
72 72 89
72 72 89
72 72 89
72 72 89
72 72 89
72 72 89
72 72 89
72 72 89
72 72 89
72 72 89
72 72 89
72 72 89
72 72 89
72 72 89
72 72 89
72 72 89
72 72 89
72 72 89
72 72 89
72 72 89
72 72 89
72 72 89
72 72 89
72 72 89
72 72 89
72 72 89
72 72 89
72 72 89
72 72 89
72 72 89
72 72 89
72 72 89
72 72 89
72 72 89
72 72 89
72 72 89
72 72 89
72 72 89
72 72 89
72 72 89
72 72 89
72 72 89
72 72 89
72 72 89
72 72 89
72 72 89
72 72 89
72 72 89
72 72 89
72 72 89
72 72 89
72 72 89
72 72 89
72 72 89
72 72 89
72 72 89
72 72 89
72 72 89
72 72 89
72 72 89
72 72 89
72 72 89
72 72 89
72 72 89
72 72 89
72 72 89
72 72 89
72 72 89
72 72 89
72 72 89
71 71 89
72 72 89
72 72 89
72 72 89
72 72 89
71 71 89
72 72 89
72 72 89
71 71 89
72 72 89
72 72 89
72 72 89
72 72 89
72 72 89
71 71 89
71 71 89
72 72 89
72 72 89
72 72 89
71 71 89
72 72 89
71 71 89
72 72 89
71 71 89
72 72 89
72 72 89
71 71 89
72 72 89
71 71 89
71 71 89
71 71 89
71 71 89
71 71 89
72 72 89
71 71 89
71 71 89
71 71 89
71 71 89
71 71 89
71 71 89
71 71 89
71 71 89
71 71 89
72 72 89
71 71 89
71 71 89
71 71 89
71 71 89
71 71 89
71 71 89
71 71 89
71 71 89
71 71 89
71 71 89
71 71 89
71 71 89
71 71 89
71 71 89
71 71 89
71 71 89
71 71 89
71 71 89
71 71 89
71 71 89
71 71 89
71 71 89
71 71 89
63 65 84
33 47 68
34 48 70
34 49 72
31 45 66
30 43 64
30 42 63
29 42 63
28 40 62
28 40 62
29 42 63
29 41 62
29 42 64
29 41 63
30 42 64
29 42 63
30 43 65
33 44 65
69 70 87
71 71 88
71 71 88
71 71 88
71 71 88
71 71 88
71 71 88
71 71 88
71 71 88
71 71 88
71 71 88
71 71 88
71 71 88
71 71 88
71 71 88
71 71 88
71 71 88
71 71 88
71 71 88
71 71 88
71 71 88
71 71 88
71 71 88
71 71 88
71 71 88
71 71 88
71 71 88
71 71 88
71 71 88
71 71 88
71 71 88
71 71 88
71 71 89
71 71 88
71 71 88
71 71 88
71 71 88
71 71 88
71 71 88
71 71 88
71 71 88
71 71 88
71 71 88
71 71 88
71 71 88
71 71 88
71 71 89
71 71 89
71 71 89
71 71 89
71 71 89
71 71 89
71 71 89
71 71 89
71 71 89
71 71 89
71 71 89
71 71 89
71 71 89
71 71 89
71 71 89
71 71 89
71 71 89
71 71 89
71 71 89
71 71 89
71 71 89
71 71 89
71 71 89
71 71 89
71 71 89
71 71 89
71 71 89
71 71 89
71 71 89
71 71 89
71 71 89
71 71 89
71 71 89
71 71 89
71 71 89
71 71 89
72 72 89
71 71 89
71 71 89
71 71 89
71 71 89
72 72 89
71 71 89
72 72 89
71 71 89
72 72 89
72 72 89
71 71 89
72 72 89
72 72 89
72 72 89
71 71 89
72 72 89
71 71 89
72 72 89
71 71 89
71 71 89
71 71 89
71 71 89
71 71 89
72 72 89
72 72 89
72 72 89
72 72 89
72 72 89
72 72 89
72 72 89
72 72 89
72 72 89
72 72 89
72 72 89
72 72 89
72 72 89
72 72 89
72 72 89
72 72 89
72 72 89
72 72 89
72 72 89
72 72 89
72 72 89
72 72 89
72 72 89
72 72 89
72 72 89
72 72 89
72 72 89
72 72 89
72 72 89
72 72 89
72 72 89
72 72 89
72 72 89
72 72 89
72 72 89
72 72 89
72 72 89
72 72 89
72 72 89
72 72 89
72 72 89
72 72 89
72 72 89
72 72 89
72 72 89
72 72 90
72 72 89
72 72 89
72 72 89
72 72 89
72 72 89
72 72 89
72 72 89
72 72 89
72 72 89
72 72 89
72 72 89
72 72 89
72 72 89
72 72 89
72 72 89
72 72 89
72 72 89
72 72 89
72 72 89
72 72 89
72 72 89
72 72 89
72 72 89
72 72 89
72 72 89
72 72 89
72 72 89
72 72 89
72 72 89
72 72 89
72 72 89
72 72 89
72 72 89
72 72 89
72 72 89
72 72 89
72 72 89
72 72 89
72 72 89
72 72 89
72 72 89
72 72 89
72 72 89
72 72 89
72 72 89
72 72 89
72 72 89
72 72 89
72 72 89
72 72 89
72 72 89
72 72 89
72 72 89
72 72 89
72 72 89
72 72 89
72 72 89
72 72 89
72 72 89
72 72 89
72 72 89
72 72 89
72 72 89
72 72 89
72 72 89
72 72 89
72 72 89
72 72 89
72 72 89
72 72 89
72 72 89
72 72 89
72 72 89
72 72 89
72 72 89
72 72 89
72 72 89
72 72 89
72 72 89
72 72 89
72 72 89
72 72 89
72 72 89
72 72 89
72 72 89
72 72 89
72 72 89
72 72 89
72 72 89
72 72 89
72 72 89
72 72 89
72 72 89
72 72 89
72 72 89
72 72 89
72 72 89
72 72 89
72 72 89
72 72 89
72 72 89
72 72 89
72 72 89
72 72 89
72 72 89
72 72 89
72 72 89
72 72 89
72 72 89
72 72 89
72 72 89
72 72 89
72 72 89
72 72 89
72 72 89
72 72 89
72 72 89
72 72 89
72 72 89
72 72 89
72 72 89
72 72 89
72 72 89
72 72 89
72 72 89
72 72 89
72 72 89
72 72 89
72 72 89
72 72 89
72 72 89
72 72 89
72 72 89
72 72 89
72 72 89
72 72 89
72 72 89
72 72 89
72 72 89
72 72 89
72 72 89
72 72 89
72 72 89
72 72 89
72 72 89
72 72 89
72 72 89
72 72 89
72 72 89
72 72 89
72 72 89
72 72 89
72 72 89
72 72 89
72 72 89
72 72 89
72 72 89
72 72 89
72 72 89
72 72 89
72 72 89
72 72 89
72 72 89
72 72 89
72 72 89
72 72 89
72 72 89
72 72 89
71 71 89
72 72 89
72 72 89
72 72 89
72 72 89
72 72 89
72 72 89
71 71 89
71 71 89
72 72 89
71 71 89
72 72 89
72 72 89
72 72 89
72 72 89
72 72 89
72 72 89
72 72 89
71 71 89
71 71 89
71 71 89
72 72 89
71 71 89
71 71 89
71 71 89
71 71 89
72 72 89
71 71 89
71 71 89
71 71 89
72 72 89
71 71 89
71 71 89
71 71 89
71 71 89
71 71 89
71 71 89
71 71 89
71 71 89
72 72 89
71 71 89
71 71 89
71 71 89
71 71 89
71 71 89
71 71 89
71 71 89
71 71 89
71 71 89
71 71 89
71 71 89
71 71 89
71 71 89
71 71 89
71 71 89
71 71 89
71 71 89
71 71 89
71 71 89
71 71 89
71 71 88
71 71 88
58 63 82
36 52 75
36 51 74
33 47 68
34 48 70
31 44 65
31 44 66
31 44 66
30 43 64
30 43 66
30 42 64
32 45 67
29 41 62
30 43 65
30 43 65
29 42 64
31 43 65
31 44 66
61 64 83
71 71 88
71 71 88
71 71 88
71 71 88
71 71 88
71 71 88
71 71 88
71 71 89
71 71 88
71 71 88
71 71 88
71 71 88
71 71 88
71 71 88
71 71 88
71 71 88
71 71 88
71 71 88
71 71 88
71 71 88
71 71 88
71 71 88
71 71 88
71 71 88
71 71 88
71 71 88
71 71 88
71 71 89
71 71 88
71 71 88
71 71 89
71 71 88
71 71 88
71 71 88
71 71 88
71 71 88
71 71 88
71 71 88
71 71 88
71 71 88
71 71 88
71 71 89
71 71 89
71 71 89
71 71 89
71 71 89
71 71 89
71 71 89
71 71 89
71 71 89
71 71 89
71 71 89
71 71 89
71 71 89
71 71 89
71 71 89
71 71 89
71 71 89
71 71 89
71 71 89
71 71 89
71 71 89
71 71 89
71 71 89
71 71 89
71 71 89
71 71 89
71 71 89
71 71 89
71 71 89
71 71 89
71 71 89
71 71 89
71 71 89
72 72 89
72 72 89
72 72 89
71 71 89
72 72 89
71 71 89
72 72 89
71 71 89
72 72 89
71 71 89
72 72 89
72 72 89
71 71 89
72 72 89
72 72 89
72 72 89
72 72 89
72 72 89
71 71 89
72 72 89
71 71 89
71 71 89
72 72 89
72 72 89
72 72 89
72 72 89
72 72 89
72 72 89
72 72 89
72 72 89
72 72 89
72 72 89
72 72 89
72 72 89
72 72 89
72 72 89
72 72 89
72 72 89
72 72 89
72 72 89
72 72 89
72 72 89
72 72 89
72 72 89
72 72 89
72 72 89
72 72 89
72 72 89
72 72 89
72 72 89
72 72 89
72 72 89
72 72 89
72 72 89
72 72 89
72 72 89
72 72 89
72 72 89
72 72 89
72 72 89
72 72 89
72 72 89
72 72 89
72 72 89
72 72 89
72 72 89
72 72 89
72 72 89
72 72 89
72 72 89
72 72 89
72 72 89
72 72 89
72 72 89
72 72 89
72 72 89
72 72 89
72 72 89
72 72 89
72 72 89
72 72 89
72 72 89
72 72 89
72 72 89
72 72 90
72 72 89
72 72 89
72 72 90
72 72 89
72 72 89
72 72 89
72 72 90
72 72 89
72 72 89
72 72 89
72 72 89
72 72 89
72 72 89
72 72 89
72 72 90
72 72 89
72 72 89
72 72 89
72 72 89
72 72 89
72 72 89
72 72 89
72 72 89
72 72 89
72 72 89
72 72 89
72 72 89
72 72 89
72 72 89
72 72 89
72 72 89
72 72 89
72 72 89
72 72 89
72 72 89
72 72 89
72 72 89
72 72 89
72 72 89
72 72 89
72 72 89
72 72 89
72 72 89
72 72 89
72 72 89
72 72 89
72 72 89
72 72 89
72 72 89
72 72 89
72 72 89
72 72 89
72 72 89
72 72 89
72 72 89
72 72 89
72 72 89
72 72 89
72 72 89
72 72 89
72 72 89
72 72 89
72 72 89
72 72 89
72 72 89
72 72 89
72 72 89
72 72 89
72 72 89
72 72 89
72 72 89
72 72 89
72 72 89
72 72 89
72 72 89
72 72 89
72 72 89
72 72 89
72 72 89
72 72 89
72 72 89
72 72 89
72 72 89
72 72 89
72 72 89
72 72 89
72 72 89
72 72 89
72 72 89
72 72 89
72 72 89
72 72 89
72 72 89
72 72 89
72 72 89
72 72 89
72 72 89
72 72 89
72 72 89
72 72 89
72 72 89
72 72 89
72 72 90
72 72 89
72 72 89
72 72 89
72 72 89
72 72 89
72 72 89
72 72 89
72 72 89
72 72 89
72 72 90
72 72 89
72 72 89
72 72 89
72 72 89
72 72 89
72 72 89
72 72 89
72 72 89
72 72 89
72 72 89
72 72 89
72 72 89
72 72 89
72 72 89
72 72 89
72 72 89
72 72 89
72 72 89
72 72 89
72 72 89
72 72 89
72 72 89
72 72 89
72 72 89
72 72 89
72 72 89
72 72 89
72 72 89
72 72 89
72 72 89
72 72 89
72 72 89
72 72 89
72 72 89
72 72 89
72 72 89
72 72 89
72 72 89
72 72 89
72 72 89
72 72 89
72 72 89
72 72 89
72 72 89
72 72 89
72 72 89
72 72 89
72 72 89
72 72 89
72 72 89
72 72 89
72 72 89
72 72 89
72 72 89
72 72 89
72 72 89
72 72 89
72 72 89
72 72 89
71 71 89
72 72 89
72 72 89
72 72 89
71 71 89
72 72 89
71 71 89
72 72 89
72 72 89
71 71 89
71 71 89
71 71 89
71 71 89
71 71 89
71 71 89
72 72 89
71 71 89
72 72 89
71 71 89
71 71 89
71 71 89
71 71 89
71 71 89
71 71 89
71 71 89
71 71 89
71 71 89
72 72 89
71 71 89
72 72 89
71 71 89
71 71 89
71 71 89
71 71 89
72 72 89
71 71 89
71 71 89
71 71 89
71 71 89
71 71 89
71 71 89
71 71 89
71 71 89
71 71 89
71 71 89
71 71 89
71 71 89
71 71 89
71 71 89
71 71 89
57 62 81
37 53 76
36 52 75
35 49 71
34 48 70
34 48 71
32 46 68
32 45 67
32 46 69
32 45 67
31 44 65
30 43 64
31 43 65
32 46 68
32 45 67
31 44 65
33 47 69
34 48 71
55 61 82
71 71 88
71 71 88
71 71 88
71 71 88
71 71 88
71 71 88
71 71 88
71 71 88
71 71 88
71 71 88
71 71 88
71 71 88
71 71 88
71 71 88
71 71 88
71 71 88
71 71 88
71 71 88
71 71 88
71 71 88
71 71 88
71 71 88
71 71 88
71 71 89
71 71 89
71 71 89
71 71 88
71 71 88
71 71 88
71 71 89
71 71 89
71 71 88
71 71 88
71 71 88
71 71 88
71 71 88
71 71 89
71 71 89
71 71 89
71 71 89
71 71 89
71 71 89
71 71 89
71 71 89
71 71 89
71 71 89
71 71 89
71 71 89
71 71 89
71 71 89
71 71 89
71 71 89
71 71 89
71 71 89
71 71 89
71 71 89
71 71 89
71 71 89
71 71 89
71 71 89
71 71 89
71 71 89
71 71 89
71 71 89
72 72 89
71 71 89
71 71 89
71 71 89
71 71 89
71 71 89
72 72 89
72 72 89
71 71 89
71 71 89
71 71 89
71 71 89
71 71 89
72 72 89
72 72 89
72 72 89
72 72 89
72 72 89
72 72 89
71 71 89
72 72 89
72 72 89
72 72 89
71 71 89
72 72 89
72 72 89
72 72 89
72 72 89
72 72 89
72 72 89
72 72 89
72 72 89
72 72 89
72 72 89
72 72 89
72 72 89
72 72 89
72 72 89
72 72 89
72 72 89
72 72 89
72 72 89
72 72 89
72 72 89
72 72 89
72 72 89
72 72 89
72 72 89
72 72 89
72 72 89
72 72 89
72 72 89
72 72 89
72 72 89
72 72 89
72 72 89
72 72 89
72 72 89
72 72 89
72 72 89
72 72 89
72 72 89
72 72 89
72 72 89
72 72 89
72 72 89
72 72 89
72 72 89
72 72 89
72 72 89
72 72 89
72 72 89
72 72 89
72 72 89
72 72 89
72 72 89
72 72 89
72 72 89
72 72 89
72 72 89
72 72 90
72 72 89
72 72 89
72 72 89
72 72 89
72 72 89
72 72 89
72 72 90
72 72 89
72 72 89
72 72 89
72 72 90
72 72 89
72 72 89
72 72 89
72 72 89
72 72 89
72 72 89
72 72 90
72 72 89
72 72 89
72 72 89
72 72 89
72 72 89
72 72 89
72 72 89
72 72 89
72 72 89
72 72 89
72 72 90
72 72 90
72 72 89
72 72 89
72 72 89
72 72 89
72 72 89
72 72 89
72 72 89
72 72 89
72 72 89
72 72 89
72 72 89
72 72 89
72 72 89
72 72 89
72 72 89
72 72 89
72 72 89
72 72 89
72 72 89
72 72 89
72 72 89
72 72 89
72 72 89
72 72 89
72 72 89
72 72 89
72 72 89
72 72 89
72 72 89
72 72 89
72 72 89
72 72 89
72 72 89
72 72 89
72 72 89
72 72 89
72 72 89
72 72 89
72 72 89
72 72 89
72 72 89
72 72 89
72 72 89
72 72 89
72 72 89
72 72 89
72 72 89
72 72 89
72 72 89
72 72 89
72 72 89
72 72 89
72 72 89
72 72 89
72 72 89
72 72 89
72 72 89
72 72 89
72 72 89
72 72 89
72 72 89
72 72 89
72 72 89
72 72 89
72 72 89
72 72 89
72 72 90
72 72 90
72 72 89
72 72 89
72 72 90
72 72 89
72 72 89
72 72 89
72 72 89
72 72 89
72 72 89
72 72 90
72 72 89
72 72 89
72 72 90
72 72 89
72 72 89
72 72 89
72 72 89
72 72 89
72 72 89
72 72 89
72 72 89
72 72 89
72 72 89
72 72 89
72 72 89
72 72 90
72 72 89
72 72 89
72 72 89
72 72 90
72 72 89
72 72 89
72 72 90
72 72 89
72 72 89
72 72 89
72 72 89
72 72 89
72 72 89
72 72 89
72 72 89
72 72 89
72 72 89
72 72 89
72 72 89
72 72 89
72 72 89
72 72 89
72 72 89
72 72 89
72 72 89
72 72 89
72 72 89
72 72 89
72 72 89
72 72 89
72 72 89
72 72 89
72 72 89
72 72 89
72 72 89
72 72 89
72 72 89
72 72 89
72 72 89
72 72 89
72 72 89
72 72 89
72 72 89
72 72 89
72 72 89
72 72 89
72 72 89
72 72 89
72 72 89
72 72 89
72 72 89
72 72 89
72 72 89
72 72 89
72 72 89
72 72 89
72 72 89
72 72 89
72 72 89
72 72 89
72 72 89
72 72 89
72 72 89
72 72 89
72 72 89
72 72 89
71 71 89
72 72 89
71 71 89
72 72 89
72 72 89
72 72 89
72 72 89
71 71 89
72 72 89
71 71 89
72 72 89
72 72 89
71 71 89
72 72 89
71 71 89
71 71 89
71 71 89
72 72 89
72 72 89
71 71 89
71 71 89
71 71 89
71 71 89
71 71 89
71 71 89
71 71 89
71 71 89
71 71 89
71 71 89
71 71 89
71 71 89
71 71 89
71 71 89
71 71 89
71 71 89
71 71 89
71 71 89
71 71 89
71 71 89
71 71 89
71 71 89
71 71 89
71 71 89
71 71 89
71 71 89
71 71 89
62 68 88
38 54 78
38 54 77
34 48 69
36 51 74
35 50 73
31 44 65
34 48 70
33 47 70
34 48 71
33 46 68
32 45 68
31 45 66
31 44 66
33 47 69
32 45 67
32 46 68
34 48 72
52 60 80
71 71 88
71 71 88
71 71 88
71 71 88
71 71 88
71 71 88
71 71 88
71 71 88
71 71 88
71 71 88
71 71 88
71 71 88
71 71 88
71 71 88
71 71 88
71 71 88
71 71 88
71 71 88
71 71 88
71 71 88
71 71 89
71 71 88
71 71 88
71 71 88
71 71 89
71 71 88
71 71 89
71 71 89
71 71 89
71 71 88
71 71 88
71 71 88
71 71 89
71 71 89
71 71 89
71 71 89
71 71 89
71 71 89
71 71 89
71 71 89
71 71 89
71 71 89
71 71 89
71 71 89
71 71 89
71 71 89
71 71 89
71 71 89
71 71 89
71 71 89
71 71 89
71 71 89
71 71 89
71 71 89
71 71 89
71 71 89
71 71 89
71 71 89
71 71 89
71 71 89
71 71 89
71 71 89
71 71 89
71 71 89
71 71 89
71 71 89
71 71 89
71 71 89
72 72 89
71 71 89
72 72 89
71 71 89
72 72 89
72 72 89
72 72 89
71 71 89
72 72 89
72 72 89
72 72 89
71 71 89
72 72 89
71 71 89
72 72 89
72 72 89
72 72 89
72 72 89
72 72 89
72 72 89
72 72 89
72 72 89
72 72 89
72 72 89
72 72 89
72 72 89
72 72 89
72 72 89
72 72 89
72 72 89
72 72 89
72 72 89
72 72 89
72 72 89
72 72 89
72 72 89
72 72 89
72 72 89
72 72 89
72 72 89
72 72 89
72 72 89
72 72 89
72 72 89
72 72 89
72 72 89
72 72 89
72 72 89
72 72 89
72 72 89
72 72 89
72 72 89
72 72 89
72 72 89
72 72 89
72 72 89
72 72 89
72 72 89
72 72 89
72 72 89
72 72 89
72 72 89
72 72 89
72 72 89
72 72 89
72 72 89
72 72 89
72 72 90
72 72 89
72 72 89
72 72 90
72 72 89
72 72 89
72 72 89
72 72 89
72 72 89
72 72 90
72 72 89
72 72 89
72 72 89
72 72 89
72 72 89
72 72 89
72 72 90
72 72 89
72 72 89
72 72 89
72 72 89
72 72 89
72 72 89
72 72 89
72 72 90
72 72 89
72 72 89
72 72 90
72 72 89
72 72 90
72 72 90
72 72 89
72 72 89
72 72 90
72 72 89
72 72 90
72 72 89
72 72 89
72 72 90
72 72 89
72 72 89
72 72 89
72 72 89
72 72 89
72 72 89
72 72 89
72 72 89
72 72 89
72 72 89
72 72 89
72 72 89
72 72 89
72 72 89
72 72 89
72 72 89
72 72 89
72 72 89
72 72 89
72 72 89
72 72 89
72 72 89
72 72 89
72 72 89
72 72 89
72 72 89
72 72 89
72 72 89
72 72 89
72 72 89
72 72 89
72 72 89
72 72 89
72 72 89
72 72 89
72 72 89
72 72 89
72 72 89
72 72 89
72 72 89
72 72 89
72 72 89
72 72 89
72 72 89
72 72 89
72 72 89
72 72 89
72 72 89
72 72 89
72 72 89
72 72 89
72 72 89
72 72 89
72 72 89
72 72 89
72 72 89
72 72 89
72 72 89
72 72 89
72 72 89
72 72 89
72 72 89
72 72 89
72 72 90
72 72 89
72 72 90
72 72 90
72 72 90
72 72 89
72 72 90
72 72 89
72 72 89
72 72 90
72 72 89
72 72 89
72 72 89
72 72 89
72 72 89
72 72 89
72 72 89
72 72 90
72 72 89
72 72 89
72 72 89
72 72 89
72 72 89
72 72 89
72 72 89
72 72 89
72 72 89
72 72 89
72 72 89
72 72 90
72 72 89
72 72 89
72 72 89
72 72 89
72 72 89
72 72 89
72 72 89
72 72 89
72 72 89
72 72 89
72 72 89
72 72 89
72 72 89
72 72 89
72 72 89
72 72 89
72 72 89
72 72 89
72 72 89
72 72 89
72 72 89
72 72 89
72 72 89
72 72 89
72 72 89
72 72 89
72 72 89
72 72 89
72 72 89
72 72 89
72 72 89
72 72 89
72 72 89
72 72 89
72 72 89
72 72 89
72 72 89
72 72 89
72 72 89
72 72 89
72 72 89
72 72 89
72 72 89
72 72 89
72 72 89
72 72 89
72 72 89
72 72 89
72 72 89
72 72 89
72 72 89
72 72 89
72 72 89
72 72 89
72 72 89
72 72 89
72 72 89
72 72 89
72 72 89
72 72 89
72 72 89
72 72 89
72 72 89
72 72 89
72 72 89
72 72 89
72 72 89
72 72 89
72 72 89
72 72 89
72 72 89
72 72 89
72 72 89
72 72 89
72 72 89
71 71 89
72 72 89
71 71 89
72 72 89
71 71 89
72 72 89
72 72 89
72 72 89
72 72 89
71 71 89
72 72 89
71 71 89
71 71 89
71 71 89
71 71 89
71 71 89
71 71 89
71 71 89
72 72 89
71 71 89
72 72 89
71 71 89
71 71 89
71 71 89
71 71 89
71 71 89
71 71 89
71 71 89
72 72 89
71 71 89
71 71 89
71 71 89
71 71 89
71 71 89
71 71 89
71 71 89
71 71 89
71 71 89
71 71 89
67 69 87
39 56 79
38 54 77
37 52 75
36 51 73
35 50 73
34 49 71
34 48 71
34 48 71
35 49 72
35 50 73
33 47 69
34 48 70
34 49 71
31 44 65
35 49 72
34 49 72
35 50 73
54 61 81
71 71 88
71 71 88
71 71 89
71 71 89
71 71 89
71 71 88
71 71 88
71 71 89
71 71 88
71 71 88
71 71 88
71 71 88
71 71 88
71 71 88
71 71 88
71 71 88
71 71 88
71 71 88
71 71 88
71 71 88
71 71 89
71 71 89
71 71 89
71 71 88
71 71 89
71 71 89
71 71 89
71 71 89
71 71 89
71 71 89
71 71 89
71 71 89
71 71 89
71 71 89
71 71 89
71 71 89
71 71 89
71 71 89
71 71 89
71 71 89
71 71 89
71 71 89
71 71 89
71 71 89
71 71 89
71 71 89
71 71 89
71 71 89
71 71 89
71 71 89
71 71 89
71 71 89
71 71 89
71 71 89
71 71 89
71 71 89
71 71 89
71 71 89
71 71 89
71 71 89
71 71 89
71 71 89
72 72 89
71 71 89
72 72 89
71 71 89
71 71 89
72 72 89
72 72 89
71 71 89
72 72 89
71 71 89
72 72 89
71 71 89
72 72 89
72 72 89
72 72 89
72 72 89
71 71 89
71 71 89
71 71 89
71 71 89
72 72 89
72 72 89
72 72 89
72 72 89
72 72 89
72 72 89
72 72 89
72 72 89
72 72 89
72 72 89
72 72 89
72 72 89
72 72 89
72 72 89
72 72 89
72 72 89
72 72 89
72 72 89
72 72 89
72 72 89
72 72 89
72 72 89
72 72 89
72 72 89
72 72 89
72 72 89
72 72 89
72 72 89
72 72 89
72 72 89
72 72 89
72 72 89
72 72 89
72 72 89
72 72 89
72 72 89
72 72 89
72 72 89
72 72 89
72 72 89
72 72 89
72 72 89
72 72 89
72 72 89
72 72 89
72 72 89
72 72 89
72 72 89
72 72 89
72 72 89
72 72 89
72 72 89
72 72 89
72 72 89
72 72 89
72 72 89
72 72 89
72 72 89
72 72 89
72 72 90
72 72 90
72 72 89
72 72 89
72 72 89
72 72 89
72 72 89
72 72 89
72 72 89
72 72 89
72 72 90
72 72 89
72 72 89
72 72 89
72 72 90
72 72 89
72 72 89
72 72 90
72 72 89
72 72 89
72 72 89
72 72 90
72 72 90
72 72 90
72 72 89
72 72 89
72 72 90
72 72 90
72 72 89
72 72 89
72 72 90
72 72 90
72 72 90
72 72 89
72 72 89
72 72 89
72 72 90
72 72 89
72 72 89
72 72 89
72 72 89
72 72 89
72 72 89
72 72 89
72 72 89
72 72 89
72 72 89
72 72 89
72 72 89
72 72 89
72 72 89
72 72 89
72 72 89
72 72 89
72 72 89
72 72 89
72 72 89
72 72 89
72 72 89
72 72 89
72 72 89
72 72 89
72 72 89
72 72 89
72 72 89
72 72 89
72 72 89
72 72 89
72 72 89
72 72 89
72 72 89
72 72 89
72 72 89
72 72 89
72 72 89
72 72 89
72 72 89
72 72 89
72 72 89
72 72 89
72 72 89
72 72 89
72 72 89
72 72 89
72 72 89
72 72 89
72 72 89
72 72 89
72 72 89
72 72 89
72 72 89
72 72 89
72 72 89
72 72 89
72 72 89
72 72 90
72 72 90
72 72 90
72 72 90
72 72 89
72 72 90
72 72 89
72 72 89
72 72 90
72 72 90
72 72 90
72 72 90
72 72 89
72 72 90
72 72 89
72 72 89
72 72 90
72 72 90
72 72 90
72 72 90
72 72 89
72 72 89
72 72 90
72 72 90
72 72 89
72 72 89
72 72 90
72 72 90
72 72 89
72 72 90
72 72 89
72 72 90
72 72 90
72 72 90
72 72 90
72 72 90
72 72 89
72 72 89
72 72 89
72 72 90
72 72 89
72 72 89
72 72 89
72 72 89
72 72 89
72 72 89
72 72 89
72 72 90
72 72 89
72 72 89
72 72 90
72 72 89
72 72 89
72 72 89
72 72 89
72 72 89
72 72 90
72 72 89
72 72 89
72 72 89
72 72 89
72 72 89
72 72 89
72 72 89
72 72 89
72 72 89
72 72 89
72 72 89
72 72 89
72 72 89
72 72 89
72 72 89
72 72 89
72 72 89
72 72 89
72 72 89
72 72 89
72 72 89
72 72 89
72 72 89
72 72 89
72 72 89
72 72 89
72 72 89
72 72 89
72 72 89
72 72 89
72 72 89
72 72 89
72 72 89
72 72 89
72 72 89
72 72 89
72 72 89
72 72 89
72 72 89
72 72 89
72 72 89
72 72 89
72 72 89
72 72 89
72 72 89
72 72 89
72 72 89
72 72 89
72 72 89
72 72 89
72 72 89
72 72 89
72 72 89
72 72 89
71 71 89
71 71 89
72 72 89
71 71 89
72 72 89
72 72 89
72 72 89
71 71 89
72 72 89
72 72 89
72 72 89
72 72 89
72 72 89
72 72 89
71 71 89
72 72 89
71 71 89
72 72 89
71 71 89
71 71 89
71 71 89
71 71 89
71 71 89
71 71 89
71 71 89
72 72 89
71 71 89
71 71 89
71 71 89
71 71 89
71 71 89
71 71 89
71 71 89
71 71 89
71 71 89
48 60 82
40 56 81
39 55 78
37 52 75
36 51 74
38 54 77
34 48 70
34 49 71
33 48 69
33 47 69
35 50 72
34 49 71
35 49 72
36 51 74
34 49 71
34 48 71
35 49 72
60 64 83
71 71 89
71 71 88
71 71 89
71 71 89
71 71 89
71 71 88
71 71 88
71 71 88
71 71 88
71 71 88
71 71 88
71 71 88
71 71 88
71 71 88
71 71 88
71 71 88
71 71 89
71 71 88
71 71 89
71 71 89
71 71 89
71 71 88
71 71 89
71 71 89
71 71 89
71 71 89
71 71 89
71 71 89
71 71 89
71 71 89
71 71 89
71 71 89
71 71 89
71 71 89
71 71 89
71 71 89
71 71 89
71 71 89
71 71 89
71 71 89
71 71 89
71 71 89
71 71 89
71 71 89
71 71 89
71 71 89
71 71 89
71 71 89
71 71 89
71 71 89
71 71 89
71 71 89
71 71 89
71 71 89
71 71 89
71 71 89
71 71 89
71 71 89
71 71 89
71 71 89
71 71 89
72 72 89
71 71 89
72 72 89
71 71 89
72 72 89
72 72 89
72 72 89
71 71 89
72 72 89
72 72 89
72 72 89
72 72 89
72 72 89
72 72 89
72 72 89
71 71 89
72 72 89
72 72 89
72 72 89
72 72 89
72 72 89
72 72 89
72 72 89
72 72 89
72 72 89
72 72 89
72 72 89
72 72 89
72 72 89
72 72 89
72 72 89
72 72 89
72 72 89
72 72 89
72 72 89
72 72 89
72 72 89
72 72 89
72 72 89
72 72 89
72 72 89
72 72 89
72 72 89
72 72 89
72 72 89
72 72 89
72 72 89
72 72 89
72 72 89
72 72 89
72 72 89
72 72 89
72 72 89
72 72 89
72 72 89
72 72 89
72 72 89
72 72 89
72 72 89
72 72 89
72 72 89
72 72 89
72 72 89
72 72 89
72 72 89
72 72 89
72 72 89
72 72 89
72 72 89
72 72 89
72 72 89
72 72 89
72 72 89
72 72 90
72 72 89
72 72 89
72 72 89
72 72 89
72 72 89
72 72 89
72 72 89
72 72 90
72 72 89
72 72 89
72 72 90
72 72 89
72 72 90
72 72 90
72 72 89
72 72 89
72 72 90
72 72 90
72 72 89
72 72 90
72 72 89
72 72 89
72 72 89
72 72 90
72 72 90
72 72 89
72 72 89
72 72 90
72 72 90
72 72 89
72 72 89
72 72 90
72 72 90
72 72 90
72 72 90
72 72 90
72 72 90
72 72 90
72 72 90
72 72 90
72 72 90
72 72 90
72 72 89
72 72 89
72 72 89
72 72 90
72 72 90
72 72 90
72 72 90
72 72 90
72 72 90
72 72 90
72 72 90
72 72 90
72 72 90
72 72 90
72 72 90
72 72 90
72 72 90
72 72 90
72 72 90
72 72 90
72 72 90
72 72 90
72 72 90
72 72 90
72 72 90
72 72 90
72 72 90
72 72 90
72 72 90
72 72 90
72 72 90
72 72 90
72 72 90
72 72 90
72 72 90
72 72 90
72 72 90
72 72 90
72 72 90
72 72 90
72 72 90
72 72 90
72 72 90
72 72 90
72 72 90
72 72 90
72 72 90
72 72 90
72 72 90
72 72 90
72 72 90
72 72 90
72 72 90
72 72 90
72 72 90
72 72 90
72 72 90
72 72 90
72 72 90
72 72 90
72 72 90
72 72 90
72 72 90
72 72 90
72 72 90
72 72 90
72 72 90
72 72 90
72 72 90
72 72 89
72 72 89
72 72 90
72 72 90
72 72 90
72 72 90
72 72 90
72 72 90
72 72 90
72 72 89
72 72 90
72 72 89
72 72 90
72 72 89
72 72 90
72 72 90
72 72 90
72 72 89
72 72 89
72 72 90
72 72 90
72 72 89
72 72 90
72 72 89
72 72 90
72 72 89
72 72 90
72 72 89
72 72 89
72 72 89
72 72 89
72 72 90
72 72 89
72 72 89
72 72 89
72 72 90
72 72 89
72 72 89
72 72 89
72 72 89
72 72 89
72 72 89
72 72 89
72 72 89
72 72 89
72 72 89
72 72 89
72 72 89
72 72 89
72 72 89
72 72 89
72 72 89
72 72 89
72 72 89
72 72 89
72 72 89
72 72 89
72 72 89
72 72 90
72 72 89
72 72 89
72 72 89
72 72 89
72 72 89
72 72 89
72 72 89
72 72 89
72 72 89
72 72 89
72 72 89
72 72 89
72 72 89
72 72 89
72 72 89
72 72 89
72 72 89
72 72 89
72 72 89
72 72 89
72 72 89
72 72 89
72 72 89
72 72 89
72 72 89
72 72 89
72 72 89
72 72 89
72 72 89
72 72 89
72 72 89
72 72 89
72 72 89
72 72 89
72 72 89
72 72 89
72 72 89
72 72 89
72 72 89
72 72 89
72 72 89
72 72 89
72 72 89
72 72 89
72 72 89
72 72 89
72 72 89
72 72 89
72 72 89
71 71 89
72 72 89
72 72 89
71 71 89
71 71 89
71 71 89
71 71 89
71 71 89
72 72 89
72 72 89
71 71 89
71 71 89
72 72 89
71 71 89
71 71 89
71 71 89
72 72 89
71 71 89
71 71 89
72 72 89
71 71 89
71 71 89
71 71 89
71 71 89
71 71 89
71 71 89
71 71 89
71 71 89
63 66 85
41 58 81
39 56 79
40 57 81
38 54 77
37 53 75
37 53 76
39 56 80
37 52 75
38 53 77
34 48 70
35 49 72
37 53 76
36 51 73
36 52 75
36 51 73
38 53 75
69 70 87
71 71 89
71 71 88
71 71 89
71 71 89
71 71 89
71 71 88
71 71 88
71 71 89
71 71 89
71 71 89
71 71 88
71 71 88
71 71 89
71 71 89
71 71 88
71 71 88
71 71 89
71 71 88
71 71 89
71 71 89
71 71 89
71 71 89
71 71 89
71 71 89
71 71 89
71 71 89
71 71 89
71 71 89
71 71 89
71 71 89
71 71 89
71 71 89
71 71 89
71 71 89
71 71 89
71 71 89
71 71 89
71 71 89
71 71 89
71 71 89
71 71 89
71 71 89
71 71 89
71 71 89
71 71 89
71 71 89
71 71 89
71 71 89
71 71 89
71 71 89
71 71 89
71 71 89
71 71 89
71 71 89
71 71 89
71 71 89
71 71 89
71 71 89
72 72 89
72 72 89
72 72 89
71 71 89
72 72 89
72 72 89
71 71 89
71 71 89
71 71 89
72 72 89
72 72 89
72 72 89
72 72 89
71 71 89
72 72 89
72 72 89
72 72 89
72 72 89
72 72 89
72 72 89
72 72 89
72 72 89
72 72 89
72 72 89
72 72 89
72 72 89
72 72 89
72 72 89
72 72 89
72 72 89
72 72 89
72 72 89
72 72 89
72 72 89
72 72 89
72 72 89
72 72 89
72 72 89
72 72 89
72 72 89
72 72 89
72 72 89
72 72 89
72 72 89
72 72 89
72 72 89
72 72 89
72 72 89
72 72 89
72 72 89
72 72 89
72 72 89
72 72 89
72 72 89
72 72 89
72 72 89
72 72 89
72 72 89
72 72 89
72 72 89
72 72 89
72 72 89
72 72 89
72 72 89
72 72 89
72 72 89
72 72 89
72 72 89
72 72 89
72 72 89
72 72 89
72 72 89
72 72 89
72 72 89
72 72 89
72 72 89
72 72 89
72 72 89
72 72 89
72 72 89
72 72 90
72 72 90
72 72 90
72 72 89
72 72 89
72 72 90
72 72 90
72 72 90
72 72 90
72 72 89
72 72 89
72 72 90
72 72 89
72 72 89
72 72 90
72 72 90
72 72 90
72 72 90
72 72 89
72 72 90
72 72 90
72 72 90
72 72 89
72 72 90
72 72 90
72 72 90
72 72 90
72 72 90
72 72 90
72 72 90
72 72 90
72 72 90
72 72 90
72 72 90
72 72 90
72 72 90
72 72 90
72 72 90
72 72 90
72 72 90
72 72 90
72 72 90
72 72 90
72 72 90
72 72 90
72 72 90
72 72 90
72 72 90
72 72 90
72 72 90
72 72 90
72 72 90
72 72 90
72 72 90
72 72 90
72 72 90
72 72 90
72 72 90
72 72 90
72 72 90
72 72 90
72 72 90
72 72 90
72 72 90
72 72 90
72 72 90
72 72 90
72 72 90
72 72 90
72 72 90
72 72 90
72 72 90
72 72 90
72 72 90
72 72 90
72 72 90
72 72 90
72 72 90
72 72 90
72 72 90
72 72 90
72 72 90
72 72 90
72 72 90
72 72 90
72 72 90
72 72 90
72 72 90
72 72 90
72 72 90
72 72 90
72 72 90
72 72 90
72 72 90
72 72 90
72 72 90
72 72 90
72 72 90
72 72 90
72 72 90
72 72 90
72 72 90
72 72 90
72 72 90
72 72 90
72 72 90
72 72 90
72 72 90
72 72 90
72 72 90
72 72 90
72 72 90
72 72 90
72 72 90
72 72 90
72 72 90
72 72 90
72 72 90
72 72 90
72 72 90
72 72 90
72 72 90
72 72 90
72 72 90
72 72 90
72 72 89
72 72 90
72 72 90
72 72 90
72 72 90
72 72 90
72 72 89
72 72 90
72 72 90
72 72 89
72 72 90
72 72 89
72 72 89
72 72 90
72 72 90
72 72 89
72 72 90
72 72 90
72 72 90
72 72 89
72 72 89
72 72 89
72 72 89
72 72 90
72 72 90
72 72 90
72 72 89
72 72 90
72 72 89
72 72 89
72 72 89
72 72 89
72 72 89
72 72 89
72 72 89
72 72 89
72 72 89
72 72 89
72 72 89
72 72 89
72 72 89
72 72 89
72 72 89
72 72 89
72 72 89
72 72 89
72 72 89
72 72 89
72 72 89
72 72 89
72 72 89
72 72 89
72 72 89
72 72 89
72 72 89
72 72 89
72 72 89
72 72 90
72 72 89
72 72 89
72 72 89
72 72 89
72 72 89
72 72 89
72 72 89
72 72 89
72 72 89
72 72 89
72 72 89
72 72 89
72 72 89
72 72 89
72 72 89
72 72 89
72 72 89
72 72 89
72 72 89
72 72 89
72 72 89
72 72 89
72 72 89
72 72 89
72 72 89
72 72 89
72 72 89
72 72 89
72 72 89
72 72 89
72 72 89
72 72 89
72 72 89
72 72 89
71 71 89
71 71 89
72 72 89
72 72 89
71 71 89
72 72 89
72 72 89
71 71 89
72 72 89
72 72 89
72 72 89
72 72 89
72 72 89
71 71 89
71 71 89
71 71 89
71 71 89
71 71 89
71 71 89
71 71 89
71 71 89
71 71 89
71 71 89
71 71 89
72 72 89
72 72 89
71 71 89
71 71 89
54 64 85
41 58 81
42 59 83
40 57 81
38 54 77
37 52 75
39 55 79
38 53 77
38 54 77
38 54 78
34 49 70
37 53 76
38 54 78
36 52 74
37 52 75
56 63 84
71 71 89
71 71 89
71 71 89
71 71 89
71 71 89
71 71 88
71 71 89
71 71 89
71 71 89
71 71 89
71 71 89
71 71 89
71 71 89
71 71 89
71 71 89
71 71 89
71 71 89
71 71 89
71 71 89
71 71 89
71 71 89
71 71 89
71 71 89
71 71 89
71 71 89
71 71 89
71 71 89
71 71 89
71 71 89
71 71 89
71 71 89
71 71 89
71 71 89
71 71 89
71 71 89
71 71 89
71 71 89
71 71 89
71 71 89
71 71 89
71 71 89
71 71 89
71 71 89
71 71 89
71 71 89
71 71 89
71 71 89
71 71 89
71 71 89
71 71 89
71 71 89
71 71 89
71 71 89
71 71 89
71 71 89
71 71 89
71 71 89
71 71 89
71 71 89
72 72 89
71 71 89
71 71 89
72 72 89
72 72 89
71 71 89
72 72 89
72 72 89
72 72 89
72 72 89
72 72 89
72 72 89
72 72 89
72 72 89
72 72 89
72 72 89
72 72 89
72 72 89
72 72 89
72 72 89
72 72 89
72 72 89
72 72 89
72 72 89
72 72 89
72 72 89
72 72 89
72 72 89
72 72 89
72 72 89
72 72 89
72 72 89
72 72 89
72 72 89
72 72 89
72 72 89
72 72 89
72 72 89
72 72 89
72 72 89
72 72 89
72 72 89
72 72 89
72 72 89
72 72 89
72 72 89
72 72 89
72 72 89
72 72 89
72 72 89
72 72 89
72 72 89
72 72 89
72 72 89
72 72 89
72 72 89
72 72 89
72 72 89
72 72 89
72 72 89
72 72 89
72 72 89
72 72 89
72 72 89
72 72 89
72 72 89
72 72 89
72 72 89
72 72 89
72 72 89
72 72 89
72 72 89
72 72 89
72 72 89
72 72 89
72 72 90
72 72 90
72 72 89
72 72 90
72 72 90
72 72 89
72 72 89
72 72 90
72 72 90
72 72 89
72 72 90
72 72 90
72 72 90
72 72 90
72 72 90
72 72 90
72 72 89
72 72 90
72 72 90
72 72 90
72 72 90
72 72 90
72 72 90
72 72 90
72 72 90
72 72 90
72 72 90
72 72 90
72 72 90
72 72 90
72 72 90
72 72 90
72 72 90
72 72 90
72 72 90
72 72 90
72 72 90
72 72 90
72 72 90
72 72 90
72 72 90
72 72 90
72 72 90
72 72 90
72 72 90
72 72 90
72 72 90
72 72 90
72 72 90
72 72 90
72 72 90
72 72 90
72 72 90
72 72 90
72 72 90
72 72 90
72 72 90
72 72 90
72 72 90
72 72 90
72 72 90
72 72 90
72 72 90
72 72 90
72 72 90
72 72 90
72 72 90
72 72 90
72 72 90
72 72 90
72 72 90
72 72 90
72 72 90
72 72 90
72 72 90
72 72 90
72 72 90
72 72 90
72 72 90
72 72 90
72 72 90
72 72 90
72 72 90
72 72 90
72 72 90
72 72 90
72 72 90
72 72 90
72 72 90
72 72 90
72 72 90
72 72 90
72 72 90
72 72 90
72 72 90
72 72 90
72 72 90
72 72 90
72 72 90
72 72 90
72 72 90
72 72 90
72 72 90
72 72 90
72 72 90
72 72 90
72 72 90
72 72 90
73 73 90
72 72 90
72 72 90
72 72 90
72 72 90
72 72 90
72 72 90
72 72 90
72 72 90
72 72 90
72 72 90
72 72 90
72 72 90
72 72 90
72 72 90
72 72 90
72 72 90
72 72 90
72 72 90
72 72 90
72 72 90
72 72 90
72 72 90
72 72 90
72 72 90
72 72 90
72 72 90
72 72 90
72 72 90
72 72 90
72 72 90
72 72 90
72 72 90
72 72 90
72 72 90
72 72 90
72 72 90
72 72 90
72 72 90
72 72 89
72 72 90
72 72 89
72 72 89
72 72 89
72 72 90
72 72 90
72 72 89
72 72 90
72 72 89
72 72 89
72 72 89
72 72 89
72 72 89
72 72 89
72 72 89
72 72 89
72 72 89
72 72 90
72 72 89
72 72 89
72 72 89
72 72 90
72 72 89
72 72 89
72 72 89
72 72 90
72 72 89
72 72 90
72 72 89
72 72 90
72 72 89
72 72 89
72 72 89
72 72 89
72 72 89
72 72 89
72 72 89
72 72 89
72 72 89
72 72 89
72 72 89
72 72 89
72 72 89
72 72 89
72 72 89
72 72 89
72 72 89
72 72 89
72 72 89
72 72 89
72 72 89
72 72 89
72 72 89
72 72 89
72 72 89
72 72 89
72 72 89
72 72 89
72 72 89
72 72 89
72 72 89
72 72 89
72 72 89
72 72 89
72 72 89
72 72 89
72 72 89
72 72 89
72 72 89
72 72 89
72 72 89
72 72 89
72 72 89
72 72 89
72 72 89
72 72 89
72 72 89
72 72 89
72 72 89
72 72 89
72 72 89
72 72 89
71 71 89
72 72 89
72 72 89
71 71 89
72 72 89
72 72 89
71 71 89
72 72 89
72 72 89
72 72 89
72 72 89
72 72 89
71 71 89
71 71 89
71 71 89
71 71 89
72 72 89
72 72 89
71 71 89
72 72 89
71 71 89
53 65 87
42 60 84
40 56 79
39 55 79
41 58 82
40 56 80
40 57 81
38 54 77
39 56 80
40 57 81
39 56 79
39 56 79
38 54 77
46 57 79
70 70 88
71 71 89
71 71 89
71 71 89
71 71 89
71 71 89
71 71 89
71 71 89
71 71 89
71 71 89
71 71 89
71 71 88
71 71 89
71 71 88
71 71 89
71 71 89
71 71 89
71 71 89
71 71 89
71 71 89
71 71 89
71 71 89
71 71 89
71 71 89
71 71 89
71 71 89
71 71 89
71 71 89
71 71 89
71 71 89
71 71 89
71 71 89
71 71 89
71 71 89
71 71 89
71 71 89
71 71 89
71 71 89
71 71 89
71 71 89
71 71 89
71 71 89
71 71 89
71 71 89
71 71 89
71 71 89
71 71 89
71 71 89
71 71 89
71 71 89
71 71 89
71 71 89
71 71 89
71 71 89
71 71 89
71 71 89
71 71 89
71 71 89
71 71 89
72 72 89
72 72 89
72 72 89
72 72 89
72 72 89
72 72 89
72 72 89
72 72 89
72 72 89
72 72 89
72 72 89
72 72 89
72 72 89
72 72 89
72 72 89
72 72 89
72 72 89
72 72 89
72 72 89
72 72 89
72 72 89
72 72 89
72 72 89
72 72 89
72 72 89
72 72 89
72 72 89
72 72 89
72 72 89
72 72 89
72 72 89
72 72 89
72 72 89
72 72 89
72 72 89
72 72 89
72 72 89
72 72 89
72 72 89
72 72 89
72 72 89
72 72 89
72 72 89
72 72 89
72 72 89
72 72 89
72 72 89
72 72 89
72 72 89
72 72 89
72 72 89
72 72 89
72 72 89
72 72 89
72 72 89
72 72 89
72 72 89
72 72 89
72 72 89
72 72 89
72 72 89
72 72 89
72 72 89
72 72 89
72 72 89
72 72 89
72 72 89
72 72 89
72 72 89
72 72 89
72 72 89
72 72 89
72 72 89
72 72 89
72 72 90
72 72 89
72 72 89
72 72 90
72 72 90
72 72 89
72 72 89
72 72 90
72 72 90
72 72 89
72 72 90
72 72 89
72 72 90
72 72 90
72 72 90
72 72 90
72 72 90
72 72 90
72 72 90
72 72 90
72 72 90
72 72 90
72 72 90
72 72 90
72 72 90
72 72 90
72 72 90
72 72 90
72 72 90
72 72 90
72 72 90
72 72 90
72 72 90
72 72 90
72 72 90
72 72 90
72 72 90
72 72 90
72 72 90
72 72 90
72 72 90
72 72 90
72 72 90
72 72 90
72 72 90
72 72 90
72 72 90
72 72 90
72 72 90
72 72 90
72 72 90
72 72 90
72 72 90
72 72 90
72 72 90
72 72 90
72 72 90
72 72 90
72 72 90
72 72 90
72 72 90
72 72 90
72 72 90
72 72 90
72 72 90
72 72 90
72 72 90
72 72 90
72 72 90
72 72 90
72 72 90
72 72 90
72 72 90
72 72 90
72 72 90
72 72 90
72 72 90
72 72 90
72 72 90
72 72 90
72 72 90
72 72 90
72 72 90
72 72 90
72 72 90
72 72 90
72 72 90
72 72 90
72 72 90
72 72 90
72 72 90
72 72 90
72 72 90
72 72 90
72 72 90
72 72 90
72 72 90
72 72 90
72 72 90
72 72 90
72 72 90
72 72 90
72 72 90
72 72 90
72 72 90
72 72 90
72 72 90
72 72 90
72 72 90
72 72 90
72 72 90
72 72 90
72 72 90
72 72 90
72 72 90
72 72 90
72 72 90
72 72 90
72 72 90
72 72 90
72 72 90
72 72 90
72 72 90
72 72 90
72 72 90
72 72 90
72 72 90
72 72 90
72 72 90
72 72 90
72 72 90
72 72 90
72 72 90
72 72 90
72 72 90
72 72 90
72 72 90
72 72 90
72 72 90
72 72 90
72 72 90
72 72 90
72 72 90
72 72 90
72 72 90
72 72 90
72 72 90
72 72 90
72 72 90
72 72 90
72 72 89
72 72 90
72 72 89
72 72 90
72 72 90
72 72 90
72 72 90
72 72 90
72 72 89
72 72 89
72 72 90
72 72 89
72 72 90
72 72 90
72 72 90
72 72 90
72 72 89
72 72 89
72 72 90
72 72 89
72 72 90
72 72 89
72 72 90
72 72 89
72 72 89
72 72 90
72 72 89
72 72 89
72 72 89
72 72 89
72 72 89
72 72 89
72 72 90
72 72 89
72 72 89
72 72 89
72 72 89
72 72 89
72 72 89
72 72 89
72 72 89
72 72 89
72 72 89
72 72 89
72 72 89
72 72 89
72 72 89
72 72 89
72 72 89
72 72 89
72 72 89
72 72 89
72 72 89
72 72 89
72 72 89
72 72 89
72 72 89
72 72 89
72 72 89
72 72 89
72 72 89
72 72 89
72 72 89
72 72 89
72 72 89
72 72 89
72 72 89
72 72 89
72 72 89
72 72 89
72 72 89
72 72 89
72 72 89
72 72 89
72 72 89
72 72 89
72 72 89
72 72 89
72 72 89
72 72 89
72 72 89
72 72 89
72 72 89
72 72 89
71 71 89
72 72 89
72 72 89
72 72 89
72 72 89
71 71 89
71 71 89
72 72 89
72 72 89
71 71 89
71 71 89
72 72 89
71 71 89
72 72 89
72 72 89
72 72 89
71 71 89
72 72 89
71 71 89
71 71 89
58 67 88
46 65 91
44 62 87
42 60 84
41 58 81
40 57 81
39 56 80
39 55 79
40 56 80
42 60 84
42 60 85
50 63 86
69 70 88
71 71 89
71 71 89
71 71 89
71 71 89
71 71 89
71 71 89
71 71 89
71 71 89
71 71 89
71 71 89
71 71 89
71 71 89
71 71 89
71 71 89
71 71 89
71 71 89
71 71 89
71 71 89
71 71 89
71 71 89
71 71 89
71 71 89
71 71 89
71 71 89
71 71 89
71 71 89
71 71 89
71 71 89
71 71 89
71 71 89
71 71 89
71 71 89
71 71 89
71 71 89
71 71 89
71 71 89
71 71 89
71 71 89
71 71 89
71 71 89
71 71 89
71 71 89
71 71 89
71 71 89
71 71 89
71 71 89
71 71 89
71 71 89
71 71 89
71 71 89
71 71 89
71 71 89
71 71 89
71 71 89
71 71 89
71 71 89
72 72 89
71 71 89
72 72 89
72 72 89
72 72 89
72 72 89
72 72 89
72 72 89
72 72 89
72 72 89
72 72 89
72 72 89
72 72 89
72 72 89
72 72 89
72 72 89
72 72 89
72 72 89
72 72 89
72 72 89
72 72 89
72 72 89
72 72 89
72 72 89
72 72 89
72 72 89
72 72 89
72 72 89
72 72 89
72 72 89
72 72 89
72 72 89
72 72 89
72 72 89
72 72 89
72 72 89
72 72 89
72 72 89
72 72 89
72 72 89
72 72 89
72 72 89
72 72 89
72 72 89
72 72 89
72 72 89
72 72 89
72 72 89
72 72 89
72 72 89
72 72 89
72 72 89
72 72 89
72 72 89
72 72 89
72 72 89
72 72 89
72 72 89
72 72 89
72 72 89
72 72 89
72 72 89
72 72 89
72 72 89
72 72 89
72 72 89
72 72 89
72 72 89
72 72 89
72 72 89
72 72 89
72 72 89
72 72 89
72 72 90
72 72 90
72 72 90
72 72 90
72 72 90
72 72 89
72 72 90
72 72 90
72 72 90
72 72 90
72 72 90
72 72 90
72 72 90
72 72 90
72 72 90
72 72 90
72 72 90
72 72 90
72 72 90
72 72 90
72 72 90
72 72 90
72 72 90
72 72 90
72 72 90
72 72 90
72 72 90
72 72 90
72 72 90
72 72 90
72 72 90
72 72 90
72 72 90
72 72 90
72 72 90
72 72 90
72 72 90
72 72 90
72 72 90
72 72 90
72 72 90
72 72 90
72 72 90
72 72 90
72 72 90
72 72 90
72 72 90
72 72 90
72 72 90
72 72 90
72 72 90
72 72 90
72 72 90
72 72 90
72 72 90
72 72 90
72 72 90
72 72 90
72 72 90
72 72 90
72 72 90
72 72 90
72 72 90
72 72 90
72 72 90
72 72 90
72 72 90
72 72 90
72 72 90
72 72 90
72 72 90
72 72 90
72 72 90
72 72 90
72 72 90
72 72 90
72 72 90
72 72 90
72 72 90
72 72 90
72 72 90
72 72 90
72 72 90
72 72 90
72 72 90
72 72 90
72 72 90
72 72 90
72 72 90
72 72 90
72 72 90
72 72 90
72 72 90
72 72 90
72 72 90
72 72 90
72 72 90
72 72 90
72 72 90
72 72 90
72 72 90
72 72 90
72 72 90
72 72 90
72 72 90
72 72 90
72 72 90
72 72 90
72 72 90
72 72 90
72 72 90
72 72 90
72 72 90
72 72 90
72 72 90
72 72 90
72 72 90
72 72 90
72 72 90
72 72 90
72 72 90
72 72 90
72 72 90
72 72 90
72 72 90
72 72 90
72 72 90
72 72 90
72 72 90
72 72 90
72 72 90
72 72 90
72 72 90
72 72 90
72 72 90
72 72 90
72 72 90
72 72 90
72 72 90
72 72 90
72 72 90
72 72 90
72 72 90
72 72 90
72 72 90
72 72 90
72 72 90
72 72 90
72 72 90
72 72 90
72 72 90
72 72 90
72 72 90
72 72 90
72 72 90
72 72 90
72 72 90
72 72 90
72 72 90
72 72 90
72 72 90
72 72 90
72 72 90
72 72 90
72 72 90
72 72 90
72 72 89
72 72 89
72 72 90
72 72 90
72 72 90
72 72 89
72 72 90
72 72 90
72 72 90
72 72 89
72 72 89
72 72 90
72 72 89
72 72 90
72 72 90
72 72 90
72 72 90
72 72 90
72 72 90
72 72 89
72 72 90
72 72 89
72 72 89
72 72 90
72 72 89
72 72 89
72 72 89
72 72 89
72 72 90
72 72 89
72 72 90
72 72 89
72 72 89
72 72 90
72 72 89
72 72 89
72 72 89
72 72 89
72 72 89
72 72 89
72 72 89
72 72 89
72 72 89
72 72 89
72 72 89
72 72 89
72 72 89
72 72 89
72 72 89
72 72 89
72 72 89
72 72 89
72 72 89
72 72 89
72 72 89
72 72 89
72 72 89
72 72 89
72 72 89
72 72 89
72 72 89
72 72 89
72 72 89
72 72 89
72 72 89
72 72 89
72 72 89
72 72 89
72 72 89
72 72 89
72 72 89
72 72 89
72 72 89
71 71 89
72 72 89
72 72 89
71 71 89
72 72 89
71 71 89
72 72 89
72 72 89
72 72 89
71 71 89
72 72 89
72 72 89
71 71 89
71 71 89
72 72 89
71 71 89
71 71 89
72 72 89
71 71 89
71 71 89
66 69 87
54 65 87
45 63 88
45 64 89
43 62 86
44 62 87
43 61 86
43 61 86
47 61 84
62 68 89
71 71 88
71 71 89
71 71 89
71 71 89
71 71 89
71 71 89
71 71 89
71 71 89
71 71 89
71 71 89
71 71 89
71 71 89
71 71 89
71 71 89
71 71 89
71 71 89
71 71 89
71 71 89
71 71 89
71 71 89
71 71 89
71 71 89
71 71 89
71 71 89
71 71 89
71 71 89
71 71 89
71 71 89
71 71 89
71 71 89
71 71 89
71 71 89
71 71 89
71 71 89
71 71 89
71 71 89
71 71 89
71 71 89
71 71 89
71 71 89
71 71 89
71 71 89
71 71 89
71 71 89
71 71 89
71 71 89
71 71 89
71 71 89
71 71 89
71 71 89
71 71 89
71 71 89
71 71 89
71 71 89
71 71 89
71 71 89
71 71 89
72 72 89
72 72 89
72 72 89
72 72 89
72 72 89
72 72 89
72 72 89
72 72 89
72 72 89
72 72 89
72 72 89
72 72 89
72 72 89
72 72 89
72 72 89
72 72 89
72 72 89
72 72 89
72 72 89
72 72 89
72 72 89
72 72 89
72 72 89
72 72 89
72 72 89
72 72 89
72 72 89
72 72 89
72 72 89
72 72 89
72 72 89
72 72 89
72 72 89
72 72 89
72 72 89
72 72 89
72 72 89
72 72 89
72 72 89
72 72 89
72 72 89
72 72 89
72 72 89
72 72 89
72 72 89
72 72 89
72 72 89
72 72 89
72 72 89
72 72 89
72 72 89
72 72 89
72 72 89
72 72 89
72 72 89
72 72 89
72 72 89
72 72 89
72 72 89
72 72 89
72 72 89
72 72 89
72 72 89
72 72 89
72 72 89
72 72 89
72 72 89
72 72 89
72 72 89
72 72 89
72 72 89
72 72 89
72 72 90
72 72 90
72 72 90
72 72 90
72 72 90
72 72 90
72 72 90
72 72 90
72 72 90
72 72 90
72 72 90
72 72 90
72 72 90
72 72 90
72 72 90
72 72 90
72 72 90
72 72 90
72 72 90
72 72 90
72 72 90
72 72 90
72 72 90
72 72 90
72 72 90
72 72 90
72 72 90
72 72 90
72 72 90
72 72 90
72 72 90
72 72 90
72 72 90
72 72 90
72 72 90
72 72 90
72 72 90
72 72 90
72 72 90
72 72 90
72 72 90
72 72 90
72 72 90
72 72 90
72 72 90
72 72 90
72 72 90
72 72 90
72 72 90
72 72 90
72 72 90
72 72 90
72 72 90
72 72 90
72 72 90
72 72 90
72 72 90
72 72 90
72 72 90
72 72 90
72 72 90
72 72 90
72 72 90
72 72 90
72 72 90
72 72 90
72 72 90
72 72 90
72 72 90
72 72 90
72 72 90
72 72 90
72 72 90
72 72 90
72 72 90
72 72 90
72 72 90
72 72 90
72 72 90
72 72 90
72 72 90
72 72 90
72 72 90
72 72 90
72 72 90
72 72 90
72 72 90
72 72 90
72 72 90
72 72 90
72 72 90
72 72 90
72 72 90
72 72 90
72 72 90
72 72 90
72 72 90
72 72 90
72 72 90
72 72 90
72 72 90
72 72 90
72 72 90
72 72 90
72 72 90
72 72 90
72 72 90
72 72 90
72 72 90
72 72 90
72 72 90
72 72 90
72 72 90
72 72 90
72 72 90
72 72 90
72 72 90
72 72 90
73 73 90
72 72 90
72 72 90
72 72 90
72 72 90
72 72 90
72 72 90
72 72 90
72 72 90
72 72 90
72 72 90
72 72 90
72 72 90
72 72 90
72 72 90
72 72 90
72 72 90
72 72 90
72 72 90
73 73 90
72 72 90
72 72 90
72 72 90
72 72 90
72 72 90
72 72 90
72 72 90
72 72 90
72 72 90
72 72 90
72 72 90
72 72 90
72 72 90
72 72 90
72 72 90
72 72 90
72 72 90
72 72 90
72 72 90
72 72 90
72 72 90
72 72 90
72 72 90
72 72 90
72 72 90
72 72 90
72 72 90
72 72 90
72 72 90
72 72 90
72 72 90
72 72 90
72 72 90
72 72 90
72 72 90
72 72 90
72 72 89
72 72 90
72 72 90
72 72 90
72 72 89
72 72 90
72 72 89
72 72 90
72 72 90
72 72 89
72 72 90
72 72 89
72 72 89
72 72 89
72 72 89
72 72 90
72 72 90
72 72 90
72 72 89
72 72 89
72 72 90
72 72 89
72 72 89
72 72 89
72 72 89
72 72 89
72 72 89
72 72 89
72 72 89
72 72 89
72 72 89
72 72 89
72 72 89
72 72 89
72 72 89
72 72 89
72 72 89
72 72 89
72 72 89
72 72 89
72 72 89
72 72 89
72 72 89
72 72 89
72 72 89
72 72 89
72 72 89
72 72 89
72 72 89
72 72 89
72 72 89
72 72 89
72 72 89
72 72 89
72 72 89
72 72 89
72 72 89
72 72 89
72 72 89
72 72 89
72 72 89
72 72 89
72 72 89
72 72 89
72 72 89
72 72 89
72 72 89
72 72 89
72 72 89
72 72 89
72 72 89
72 72 89
72 72 89
71 71 89
72 72 89
72 72 89
72 72 89
71 71 89
72 72 89
72 72 89
71 71 89
72 72 89
72 72 89
71 71 89
72 72 89
72 72 89
71 71 89
71 71 89
71 71 89
70 71 89
65 69 89
62 68 88
61 68 88
63 68 88
67 69 88
71 71 89
72 72 89
71 71 89
71 71 89
71 71 89
72 72 89
71 71 89
71 71 89
71 71 89
71 71 89
71 71 89
71 71 89
71 71 89
71 71 89
71 71 89
71 71 89
71 71 89
71 71 89
71 71 89
71 71 89
71 71 89
71 71 89
71 71 89
71 71 89
71 71 89
71 71 89
71 71 89
71 71 89
71 71 89
71 71 89
71 71 89
71 71 89
71 71 89
71 71 89
71 71 89
71 71 89
71 71 89
71 71 89
71 71 89
71 71 89
71 71 89
71 71 89
71 71 89
71 71 89
71 71 89
71 71 89
71 71 89
71 71 89
71 71 89
71 71 89
71 71 89
71 71 89
71 71 89
71 71 89
71 71 89
72 72 89
72 72 89
72 72 89
72 72 89
72 72 89
72 72 89
72 72 89
72 72 89
72 72 89
72 72 89
72 72 89
72 72 89
72 72 89
72 72 89
72 72 89
72 72 89
72 72 89
72 72 89
72 72 89
72 72 89
72 72 89
72 72 89
72 72 89
72 72 89
72 72 89
72 72 89
72 72 89
72 72 89
72 72 89
72 72 89
72 72 89
72 72 89
72 72 89
72 72 89
72 72 89
72 72 89
72 72 89
72 72 89
72 72 89
72 72 89
72 72 89
72 72 89
72 72 89
72 72 89
72 72 89
72 72 89
72 72 89
72 72 89
72 72 89
72 72 89
72 72 89
72 72 89
72 72 89
72 72 89
72 72 89
72 72 89
72 72 89
72 72 89
72 72 89
72 72 89
72 72 89
72 72 89
72 72 89
72 72 89
72 72 89
72 72 89
72 72 89
72 72 89
72 72 89
72 72 89
72 72 90
72 72 90
72 72 90
72 72 90
72 72 90
72 72 90
72 72 90
72 72 90
72 72 90
72 72 90
72 72 90
72 72 90
72 72 90
72 72 90
72 72 90
72 72 90
72 72 90
72 72 90
72 72 90
72 72 90
72 72 90
72 72 90
72 72 90
72 72 90
72 72 90
72 72 90
72 72 90
72 72 90
72 72 90
72 72 90
72 72 90
72 72 90
72 72 90
72 72 90
72 72 90
72 72 90
72 72 90
72 72 90
72 72 90
72 72 90
72 72 90
72 72 90
72 72 90
72 72 90
72 72 90
72 72 90
72 72 90
72 72 90
72 72 90
72 72 90
72 72 90
72 72 90
72 72 90
72 72 90
72 72 90
72 72 90
72 72 90
72 72 90
72 72 90
72 72 90
72 72 90
72 72 90
72 72 90
72 72 90
72 72 90
72 72 90
72 72 90
72 72 90
72 72 90
72 72 90
72 72 90
72 72 90
72 72 90
72 72 90
72 72 90
72 72 90
72 72 90
72 72 90
72 72 90
72 72 90
72 72 90
72 72 90
72 72 90
72 72 90
72 72 90
72 72 90
72 72 90
72 72 90
72 72 90
72 72 90
72 72 90
72 72 90
72 72 90
72 72 90
72 72 90
72 72 90
72 72 90
72 72 90
72 72 90
72 72 90
72 72 90
72 72 90
72 72 90
72 72 90
72 72 90
72 72 90
72 72 90
72 72 90
73 73 90
72 72 90
73 73 90
72 72 90
72 72 90
72 72 90
73 73 90
72 72 90
73 73 90
72 72 90
72 72 90
72 72 90
72 72 90
72 72 90
72 72 90
72 72 90
72 72 90
72 72 90
72 72 90
72 72 90
72 72 90
72 72 90
72 72 90
72 72 90
72 72 90
72 72 90
72 72 90
72 72 90
72 72 90
72 72 90
72 72 90
72 72 90
72 72 90
72 72 90
72 72 90
72 72 90
72 72 90
72 72 90
72 72 90
72 72 90
72 72 90
72 72 90
72 72 90
72 72 90
72 72 90
72 72 90
72 72 90
72 72 90
72 72 90
72 72 90
72 72 90
72 72 90
72 72 90
72 72 90
72 72 90
72 72 90
72 72 90
72 72 90
72 72 90
72 72 90
72 72 90
72 72 90
72 72 90
72 72 90
72 72 90
72 72 90
72 72 90
72 72 90
72 72 90
72 72 90
72 72 90
72 72 90
72 72 90
72 72 90
72 72 90
72 72 90
72 72 90
72 72 90
72 72 90
72 72 90
72 72 90
72 72 90
72 72 90
72 72 89
72 72 90
72 72 90
72 72 90
72 72 90
72 72 90
72 72 90
72 72 89
72 72 89
72 72 89
72 72 90
72 72 90
72 72 89
72 72 89
72 72 90
72 72 90
72 72 90
72 72 89
72 72 89
72 72 89
72 72 89
72 72 89
72 72 89
72 72 90
72 72 89
72 72 89
72 72 89
72 72 89
72 72 89
72 72 89
72 72 89
72 72 89
72 72 90
72 72 89
72 72 89
72 72 89
72 72 89
72 72 89
72 72 89
72 72 89
72 72 89
72 72 89
72 72 89
72 72 89
72 72 89
72 72 89
72 72 89
72 72 89
72 72 89
72 72 89
72 72 89
72 72 89
72 72 89
72 72 89
72 72 89
72 72 89
72 72 89
72 72 89
72 72 89
72 72 89
72 72 89
72 72 89
72 72 89
72 72 89
72 72 89
72 72 89
72 72 89
72 72 89
72 72 89
71 71 89
72 72 89
72 72 89
71 71 89
71 71 89
72 72 89
72 72 89
71 71 89
72 72 89
71 71 89
71 71 89
71 71 89
71 71 89
72 72 89
71 71 89
71 71 89
71 71 89
71 71 89
71 71 89
71 71 89
71 71 89
71 71 89
71 71 89
71 71 89
71 71 89
71 71 89
71 71 89
71 71 89
71 71 89
71 71 89
71 71 89
71 71 89
71 71 89
71 71 89
71 71 89
71 71 89
72 72 89
71 71 89
71 71 89
71 71 89
71 71 89
71 71 89
71 71 89
71 71 89
71 71 89
71 71 89
71 71 89
71 71 89
71 71 89
71 71 89
71 71 89
71 71 89
71 71 89
71 71 89
71 71 89
71 71 89
71 71 89
71 71 89
71 71 89
71 71 89
71 71 89
71 71 89
71 71 89
71 71 89
71 71 89
72 72 89
72 72 89
72 72 89
72 72 89
72 72 89
72 72 89
72 72 89
72 72 89
72 72 89
72 72 89
72 72 89
72 72 89
72 72 89
72 72 89
72 72 89
72 72 89
72 72 89
72 72 89
72 72 89
72 72 89
72 72 89
72 72 89
72 72 89
72 72 90
72 72 89
72 72 89
72 72 89
72 72 89
72 72 89
72 72 89
72 72 89
72 72 89
72 72 90
72 72 89
72 72 89
72 72 89
72 72 90
72 72 89
72 72 89
72 72 89
72 72 89
72 72 89
72 72 89
72 72 89
72 72 89
72 72 89
72 72 89
72 72 89
72 72 89
72 72 89
72 72 89
72 72 89
72 72 89
72 72 89
72 72 89
72 72 89
72 72 89
72 72 89
72 72 89
72 72 89
72 72 89
72 72 89
72 72 89
72 72 89
72 72 89
72 72 89
72 72 89
72 72 89
72 72 89
72 72 90
72 72 90
72 72 90
72 72 90
72 72 90
72 72 90
72 72 90
72 72 90
72 72 90
72 72 90
72 72 90
72 72 90
72 72 90
72 72 90
72 72 90
72 72 90
72 72 90
72 72 90
72 72 90
72 72 90
72 72 90
72 72 90
72 72 90
72 72 90
72 72 90
72 72 90
72 72 90
72 72 90
72 72 90
72 72 90
72 72 90
72 72 90
72 72 90
72 72 90
72 72 90
72 72 90
72 72 90
72 72 90
72 72 90
73 73 90
72 72 90
72 72 90
72 72 90
72 72 90
72 72 90
73 73 90
72 72 90
72 72 90
72 72 90
72 72 90
72 72 90
72 72 90
72 72 90
72 72 90
72 72 90
72 72 90
72 72 90
72 72 90
72 72 90
72 72 90
72 72 90
72 72 90
72 72 90
72 72 90
72 72 90
72 72 90
72 72 90
72 72 90
72 72 90
72 72 90
72 72 90
72 72 90
72 72 90
72 72 90
72 72 90
72 72 90
72 72 90
72 72 90
72 72 90
72 72 90
72 72 90
72 72 90
72 72 90
72 72 90
72 72 90
72 72 90
72 72 90
72 72 90
72 72 90
72 72 90
72 72 90
72 72 90
72 72 90
72 72 90
72 72 90
72 72 90
72 72 90
72 72 90
72 72 90
72 72 90
72 72 90
72 72 90
72 72 90
72 72 90
72 72 90
72 72 90
72 72 90
72 72 90
72 72 90
72 72 90
72 72 90
73 73 90
72 72 90
72 72 90
72 72 90
72 72 90
72 72 90
73 73 90
72 72 90
73 73 90
72 72 90
72 72 90
72 72 90
72 72 90
72 72 90
72 72 90
73 73 90
72 72 90
72 72 90
72 72 90
72 72 90
72 72 90
72 72 90
72 72 90
72 72 90
72 72 90
72 72 90
72 72 90
72 72 90
72 72 90
72 72 90
72 72 90
72 72 90
72 72 90
72 72 90
72 72 90
72 72 90
72 72 90
72 72 90
72 72 90
72 72 90
72 72 90
72 72 90
72 72 90
72 72 90
72 72 90
72 72 90
72 72 90
72 72 90
72 72 90
72 72 90
72 72 90
72 72 90
72 72 90
72 72 90
72 72 90
72 72 90
72 72 90
72 72 90
72 72 90
72 72 90
72 72 90
72 72 90
72 72 90
72 72 90
72 72 90
72 72 90
72 72 90
72 72 90
72 72 90
72 72 90
72 72 90
72 72 90
72 72 90
72 72 90
72 72 90
72 72 90
72 72 90
72 72 90
72 72 90
72 72 90
72 72 90
72 72 90
72 72 90
72 72 90
72 72 90
72 72 90
72 72 90
72 72 90
72 72 90
72 72 90
72 72 90
72 72 89
72 72 90
72 72 90
72 72 90
72 72 90
72 72 90
72 72 89
72 72 90
72 72 89
72 72 90
72 72 89
72 72 89
72 72 90
72 72 90
72 72 89
72 72 89
72 72 90
72 72 89
72 72 89
72 72 89
72 72 90
72 72 89
72 72 89
72 72 89
72 72 90
72 72 89
72 72 89
72 72 89
72 72 89
72 72 89
72 72 90
72 72 89
72 72 89
72 72 89
72 72 89
72 72 89
72 72 89
72 72 89
72 72 89
72 72 89
72 72 89
72 72 89
72 72 89
72 72 89
72 72 89
72 72 89
72 72 89
72 72 89
72 72 89
72 72 89
72 72 89
72 72 89
72 72 89
72 72 89
72 72 89
72 72 89
72 72 89
72 72 89
72 72 89
72 72 89
72 72 89
72 72 89
72 72 89
72 72 89
72 72 89
72 72 89
71 71 89
71 71 89
72 72 89
72 72 89
71 71 89
72 72 89
72 72 89
71 71 89
71 71 89
71 71 89
71 71 89
71 71 89
72 72 89
72 72 89
72 72 89
71 71 89
71 71 89
71 71 89
71 71 89
71 71 89
72 72 89
72 72 89
71 71 89
71 71 89
71 71 89
71 71 89
71 71 89
71 71 89
71 71 89
71 71 89
71 71 89
71 71 89
71 71 89
71 71 89
71 71 89
71 71 89
71 71 89
71 71 89
71 71 89
71 71 89
71 71 89
71 71 89
71 71 89
71 71 89
71 71 89
71 71 89
71 71 89
71 71 89
71 71 89
71 71 89
71 71 89
71 71 89
71 71 89
71 71 89
71 71 89
71 71 89
71 71 89
71 71 89
71 71 89
72 72 89
72 72 89
72 72 89
72 72 89
72 72 89
72 72 89
72 72 89
72 72 89
72 72 89
72 72 89
72 72 89
72 72 89
72 72 89
72 72 89
72 72 89
72 72 89
72 72 89
72 72 89
72 72 89
72 72 89
72 72 89
72 72 89
72 72 89
72 72 89
72 72 89
72 72 89
72 72 89
72 72 89
72 72 89
72 72 89
72 72 89
72 72 89
72 72 89
72 72 89
72 72 89
72 72 89
72 72 89
72 72 89
72 72 89
72 72 89
72 72 89
72 72 89
72 72 89
72 72 89
72 72 90
72 72 89
72 72 89
72 72 89
72 72 89
72 72 89
72 72 89
72 72 89
72 72 89
72 72 89
72 72 89
72 72 89
72 72 89
72 72 89
72 72 89
72 72 89
72 72 89
72 72 89
72 72 89
72 72 89
72 72 89
72 72 89
72 72 89
72 72 90
72 72 90
72 72 90
72 72 90
72 72 90
72 72 90
72 72 90
72 72 90
72 72 90
72 72 90
72 72 90
72 72 90
72 72 90
72 72 90
72 72 90
72 72 90
72 72 90
72 72 90
72 72 90
72 72 90
72 72 90
72 72 90
72 72 90
72 72 90
72 72 90
72 72 90
72 72 90
72 72 90
72 72 90
72 72 90
72 72 90
72 72 90
72 72 90
72 72 90
72 72 90
72 72 90
72 72 90
72 72 90
72 72 90
72 72 90
72 72 90
72 72 90
72 72 90
72 72 90
73 73 90
72 72 90
72 72 90
72 72 90
72 72 90
72 72 90
73 73 90
72 72 90
72 72 90
72 72 90
72 72 90
72 72 90
72 72 90
72 72 90
72 72 90
72 72 90
72 72 90
72 72 90
72 72 90
72 72 90
72 72 90
72 72 90
72 72 90
72 72 90
72 72 90
72 72 90
72 72 90
72 72 90
72 72 90
72 72 90
72 72 90
72 72 90
72 72 90
72 72 90
72 72 90
72 72 90
72 72 90
72 72 90
72 72 90
72 72 90
72 72 90
72 72 90
72 72 90
72 72 90
72 72 90
72 72 90
72 72 90
72 72 90
72 72 90
72 72 90
72 72 90
72 72 90
72 72 90
72 72 90
72 72 90
72 72 90
72 72 90
72 72 90
72 72 90
72 72 90
72 72 90
72 72 90
72 72 90
72 72 90
72 72 90
72 72 90
72 72 90
73 73 90
72 72 90
73 73 90
72 72 90
73 73 90
72 72 90
72 72 90
73 73 90
72 72 90
72 72 90
72 72 90
72 72 90
72 72 90
72 72 90
72 72 90
72 72 90
72 72 90
72 72 90
72 72 90
72 72 90
72 72 90
72 72 90
72 72 90
72 72 90
72 72 90
72 72 90
72 72 90
72 72 90
72 72 90
72 72 90
72 72 90
72 72 90
72 72 90
72 72 90
72 72 90
72 72 90
73 73 90
72 72 90
72 72 90
72 72 90
72 72 90
72 72 90
73 73 90
72 72 90
72 72 90
72 72 90
72 72 90
72 72 90
72 72 90
72 72 90
72 72 90
72 72 90
72 72 90
72 72 90
72 72 90
72 72 90
72 72 90
72 72 90
72 72 90
72 72 90
72 72 90
73 73 90
72 72 90
72 72 90
72 72 90
72 72 90
72 72 90
72 72 90
72 72 90
72 72 90
72 72 90
72 72 90
72 72 90
72 72 90
72 72 90
72 72 90
72 72 90
72 72 90
72 72 90
72 72 90
72 72 90
72 72 90
72 72 90
72 72 90
72 72 90
72 72 90
72 72 90
72 72 90
72 72 90
72 72 90
72 72 90
72 72 90
72 72 90
72 72 90
72 72 90
72 72 90
72 72 90
72 72 90
72 72 90
72 72 90
72 72 89
72 72 90
72 72 90
72 72 90
72 72 90
72 72 89
72 72 89
72 72 89
72 72 89
72 72 89
72 72 89
72 72 89
72 72 89
72 72 89
72 72 89
72 72 89
72 72 89
72 72 89
72 72 89
72 72 89
72 72 89
72 72 89
72 72 89
72 72 89
72 72 89
72 72 89
72 72 89
72 72 89
72 72 89
72 72 89
72 72 89
72 72 89
72 72 89
72 72 89
72 72 89
72 72 89
72 72 89
72 72 89
72 72 89
72 72 89
72 72 89
72 72 89
72 72 89
72 72 89
72 72 89
72 72 89
72 72 89
72 72 89
72 72 89
72 72 89
72 72 89
72 72 89
72 72 89
72 72 89
72 72 89
72 72 89
72 72 89
72 72 89
72 72 89
72 72 90
72 72 89
72 72 89
72 72 89
72 72 89
72 72 89
72 72 89
72 72 89
72 72 89
71 71 89
72 72 89
72 72 89
72 72 89
72 72 89
72 72 89
71 71 89
71 71 89
72 72 89
72 72 89
72 72 89
71 71 89
71 71 89
71 71 89
71 71 89
72 72 89
71 71 89
71 71 89
72 72 89
71 71 89
71 71 89
72 72 89
71 71 89
71 71 89
71 71 89
71 71 89
71 71 89
71 71 89
71 71 89
72 72 89
71 71 89
71 71 89
71 71 89
71 71 89
71 71 89
71 71 89
71 71 89
71 71 89
71 71 89
71 71 89
71 71 89
71 71 89
71 71 89
71 71 89
71 71 89
71 71 89
71 71 89
71 71 89
71 71 89
71 71 89
72 72 89
72 72 89
72 72 89
72 72 89
72 72 89
72 72 89
72 72 89
72 72 89
72 72 89
72 72 89
72 72 89
72 72 89
72 72 89
72 72 89
72 72 89
72 72 89
72 72 89
72 72 89
72 72 89
72 72 89
72 72 89
72 72 89
72 72 89
72 72 89
72 72 89
72 72 89
72 72 89
72 72 89
72 72 89
72 72 89
72 72 89
72 72 89
72 72 89
72 72 89
72 72 89
72 72 89
72 72 89
72 72 89
72 72 89
72 72 89
72 72 89
72 72 89
72 72 89
72 72 89
72 72 89
72 72 90
72 72 89
72 72 89
72 72 89
72 72 89
72 72 89
72 72 89
72 72 89
72 72 89
72 72 89
72 72 89
72 72 89
72 72 89
72 72 89
72 72 89
72 72 89
72 72 89
72 72 89
72 72 89
72 72 89
72 72 90
72 72 90
72 72 90
72 72 90
72 72 90
72 72 90
72 72 90
72 72 90
72 72 90
72 72 90
72 72 90
72 72 90
72 72 90
72 72 90
72 72 90
72 72 90
72 72 90
72 72 90
72 72 90
72 72 90
72 72 90
72 72 90
72 72 90
72 72 90
72 72 90
72 72 90
72 72 90
72 72 90
72 72 90
72 72 90
72 72 90
72 72 90
72 72 90
72 72 90
72 72 90
72 72 90
72 72 90
72 72 90
72 72 90
72 72 90
72 72 90
72 72 90
72 72 90
72 72 90
72 72 90
72 72 90
72 72 90
72 72 90
72 72 90
72 72 90
72 72 90
72 72 90
72 72 90
72 72 90
72 72 90
72 72 90
72 72 90
73 73 90
72 72 90
73 73 90
72 72 90
72 72 90
72 72 90
72 72 90
72 72 90
72 72 90
72 72 90
72 72 90
72 72 90
72 72 90
72 72 90
72 72 90
72 72 90
72 72 90
72 72 90
72 72 90
72 72 90
72 72 90
72 72 90
72 72 90
72 72 90
72 72 90
72 72 90
72 72 90
72 72 90
72 72 90
72 72 90
72 72 90
72 72 90
72 72 90
72 72 90
72 72 90
72 72 90
72 72 90
72 72 90
72 72 90
72 72 90
72 72 90
72 72 90
72 72 90
72 72 90
72 72 90
72 72 90
72 72 90
72 72 90
72 72 90
72 72 90
72 72 90
72 72 90
72 72 90
72 72 90
72 72 90
72 72 90
72 72 90
72 72 90
73 73 90
72 72 90
72 72 90
73 73 90
72 72 90
73 73 90
73 73 90
72 72 90
72 72 90
72 72 90
73 73 90
72 72 90
73 73 90
73 73 90
72 72 90
72 72 90
73 73 90
72 72 90
72 72 90
72 72 90
73 73 90
73 73 90
72 72 90
73 73 90
72 72 90
72 72 90
72 72 90
72 72 90
72 72 90
72 72 90
72 72 90
72 72 90
72 72 90
72 72 90
72 72 90
73 73 90
73 73 90
72 72 90
72 72 90
73 73 90
73 73 90
72 72 90
73 73 90
73 73 90
72 72 90
72 72 90
72 72 90
72 72 90
72 72 90
72 72 90
72 72 90
72 72 90
72 72 90
72 72 90
72 72 90
72 72 90
72 72 90
72 72 90
72 72 90
72 72 90
72 72 90
72 72 90
72 72 90
72 72 90
72 72 90
72 72 90
72 72 90
72 72 90
72 72 90
72 72 90
72 72 90
72 72 90
72 72 90
72 72 90
72 72 90
72 72 90
72 72 90
72 72 90
72 72 90
72 72 90
72 72 90
72 72 90
72 72 90
72 72 90
72 72 90
72 72 90
72 72 90
72 72 90
72 72 90
72 72 90
72 72 90
72 72 90
72 72 90
72 72 90
72 72 90
72 72 90
72 72 90
72 72 90
72 72 90
72 72 90
72 72 90
72 72 90
72 72 90
72 72 90
72 72 90
72 72 90
72 72 90
72 72 89
72 72 89
72 72 89
72 72 89
72 72 89
72 72 89
72 72 89
72 72 89
72 72 89
72 72 89
72 72 89
72 72 89
72 72 89
72 72 89
72 72 89
72 72 89
72 72 89
72 72 89
72 72 89
72 72 89
72 72 89
72 72 89
72 72 89
72 72 89
72 72 89
72 72 89
72 72 89
72 72 89
72 72 89
72 72 89
72 72 89
72 72 89
72 72 89
72 72 89
72 72 89
72 72 89
72 72 89
72 72 89
72 72 89
72 72 89
72 72 89
72 72 89
72 72 89
72 72 89
72 72 89
72 72 89
72 72 89
72 72 89
72 72 89
72 72 89
72 72 89
72 72 89
72 72 89
72 72 89
72 72 89
72 72 89
72 72 89
72 72 89
72 72 89
72 72 89
72 72 89
72 72 89
72 72 89
72 72 89
72 72 89
72 72 89
72 72 89
72 72 89
71 71 89
72 72 89
72 72 89
72 72 89
72 72 89
72 72 89
71 71 89
72 72 89
72 72 89
72 72 89
71 71 89
71 71 89
71 71 89
71 71 89
71 71 89
72 72 89
71 71 89
72 72 89
72 72 89
71 71 89
71 71 89
71 71 89
71 71 89
71 71 89
71 71 89
71 71 89
71 71 89
71 71 89
71 71 89
71 71 89
71 71 89
71 71 89
71 71 89
71 71 89
71 71 89
71 71 89
71 71 89
71 71 89
71 71 89
71 71 89
71 71 89
72 72 89
72 72 89
72 72 89
72 72 89
72 72 89
72 72 89
72 72 89
72 72 89
72 72 89
72 72 89
72 72 89
72 72 89
72 72 89
72 72 89
72 72 89
72 72 89
72 72 89
72 72 89
72 72 89
72 72 89
72 72 89
72 72 89
72 72 89
72 72 89
72 72 89
72 72 89
72 72 89
72 72 89
72 72 89
72 72 89
72 72 89
72 72 89
72 72 89
72 72 89
72 72 89
72 72 89
72 72 89
72 72 89
72 72 89
72 72 89
72 72 90
72 72 89
72 72 89
72 72 89
72 72 89
72 72 89
72 72 90
72 72 89
72 72 90
72 72 89
72 72 89
72 72 89
72 72 89
72 72 89
72 72 89
72 72 89
72 72 89
72 72 89
72 72 89
72 72 89
72 72 89
72 72 89
72 72 89
72 72 90
72 72 90
72 72 90
72 72 90
72 72 90
72 72 90
72 72 90
72 72 90
72 72 90
72 72 90
72 72 90
72 72 90
72 72 90
72 72 90
72 72 90
72 72 90
72 72 90
72 72 90
72 72 90
72 72 90
72 72 90
72 72 90
72 72 90
72 72 90
72 72 90
72 72 90
72 72 90
72 72 90
72 72 90
72 72 90
72 72 90
72 72 90
72 72 90
72 72 90
72 72 90
72 72 90
72 72 90
72 72 90
72 72 90
72 72 90
72 72 90
73 73 90
72 72 90
72 72 90
72 72 90
73 73 90
72 72 90
72 72 90
72 72 90
72 72 90
72 72 90
72 72 90
72 72 90
72 72 90
72 72 90
72 72 90
72 72 90
72 72 90
73 73 90
73 73 90
72 72 90
72 72 90
72 72 90
73 73 90
73 73 90
72 72 90
72 72 90
72 72 90
72 72 90
72 72 90
72 72 90
72 72 90
72 72 90
72 72 90
72 72 90
72 72 90
72 72 90
72 72 90
72 72 90
72 72 90
72 72 90
72 72 90
72 72 90
72 72 90
72 72 90
72 72 90
72 72 90
72 72 90
72 72 90
72 72 90
72 72 90
72 72 90
72 72 90
72 72 90
72 72 90
72 72 90
72 72 90
72 72 90
72 72 90
72 72 90
72 72 90
72 72 90
72 72 90
72 72 90
72 72 90
72 72 90
72 72 90
72 72 90
72 72 90
72 72 90
72 72 90
72 72 90
72 72 90
72 72 90
72 72 90
72 72 90
73 73 90
72 72 90
72 72 90
72 72 90
73 73 90
72 72 90
73 73 90
73 73 90
73 73 90
72 72 90
72 72 90
72 72 90
73 73 90
73 73 90
72 72 90
73 73 90
73 73 90
72 72 90
73 73 90
72 72 90
72 72 90
72 72 90
73 73 90
73 73 90
73 73 90
72 72 90
73 73 90
73 73 90
72 72 90
72 72 90
72 72 90
72 72 90
72 72 90
72 72 90
73 73 90
72 72 90
72 72 90
72 72 90
73 73 90
72 72 90
73 73 90
72 72 90
73 73 90
72 72 90
73 73 90
72 72 90
73 73 90
72 72 90
73 73 90
73 73 90
72 72 90
72 72 90
73 73 90
73 73 90
72 72 90
72 72 90
72 72 90
72 72 90
72 72 90
73 73 90
72 72 90
72 72 90
72 72 90
72 72 90
72 72 90
72 72 90
73 73 90
72 72 90
72 72 90
72 72 90
72 72 90
72 72 90
72 72 90
72 72 90
72 72 90
72 72 90
72 72 90
72 72 90
72 72 90
72 72 90
72 72 90
72 72 90
73 73 90
72 72 90
73 73 90
72 72 90
72 72 90
72 72 90
73 73 90
72 72 90
72 72 90
72 72 90
72 72 90
72 72 90
72 72 90
72 72 90
72 72 90
72 72 90
72 72 90
72 72 90
72 72 90
72 72 90
72 72 90
72 72 90
72 72 90
72 72 90
72 72 90
72 72 90
72 72 90
72 72 90
72 72 90
72 72 90
72 72 90
72 72 90
72 72 90
72 72 90
72 72 90
72 72 90
72 72 89
72 72 89
72 72 89
72 72 89
72 72 89
72 72 89
72 72 89
72 72 89
72 72 89
72 72 89
72 72 89
72 72 89
72 72 89
72 72 89
72 72 89
72 72 89
72 72 89
72 72 89
72 72 89
72 72 89
72 72 89
72 72 89
72 72 89
72 72 89
72 72 89
72 72 89
72 72 89
72 72 89
72 72 89
72 72 89
72 72 89
72 72 89
72 72 89
72 72 89
72 72 89
72 72 89
72 72 89
72 72 89
72 72 89
72 72 89
72 72 89
72 72 89
72 72 89
72 72 89
72 72 89
72 72 89
72 72 89
72 72 89
72 72 89
72 72 89
72 72 89
72 72 89
72 72 89
72 72 89
72 72 89
72 72 89
72 72 89
72 72 89
72 72 89
72 72 89
72 72 89
72 72 89
72 72 89
72 72 89
71 71 89
71 71 89
71 71 89
72 72 89
72 72 89
71 71 89
72 72 89
71 71 89
72 72 89
72 72 89
72 72 89
71 71 89
72 72 89
72 72 89
71 71 89
71 71 89
72 72 89
71 71 89
71 71 89
71 71 89
71 71 89
71 71 89
71 71 89
71 71 89
71 71 89
71 71 89
71 71 89
71 71 89
71 71 89
71 71 89
71 71 89
71 71 89
71 71 89
71 71 89
71 71 89
72 72 89
72 72 89
72 72 89
72 72 89
72 72 89
72 72 89
72 72 89
72 72 89
72 72 89
72 72 89
72 72 89
72 72 89
72 72 89
72 72 89
72 72 89
72 72 89
72 72 89
72 72 89
72 72 89
72 72 89
72 72 89
72 72 89
72 72 89
72 72 89
72 72 89
72 72 89
72 72 89
72 72 89
72 72 89
72 72 89
72 72 89
72 72 89
72 72 89
72 72 89
72 72 89
72 72 89
72 72 89
72 72 89
72 72 89
72 72 89
72 72 89
72 72 90
72 72 89
72 72 89
72 72 90
72 72 89
72 72 90
72 72 90
72 72 89
72 72 89
72 72 90
72 72 90
72 72 90
72 72 90
72 72 89
72 72 89
72 72 89
72 72 89
72 72 89
72 72 89
72 72 89
72 72 89
72 72 90
72 72 90
72 72 90
72 72 90
72 72 90
72 72 90
72 72 90
72 72 90
72 72 90
72 72 90
72 72 90
72 72 90
72 72 90
72 72 90
72 72 90
72 72 90
72 72 90
72 72 90
72 72 90
72 72 90
72 72 90
72 72 90
72 72 90
72 72 90
72 72 90
72 72 90
72 72 90
72 72 90
72 72 90
72 72 90
72 72 90
72 72 90
72 72 90
72 72 90
72 72 90
72 72 90
72 72 90
72 72 90
72 72 90
72 72 90
72 72 90
72 72 90
72 72 90
72 72 90
72 72 90
72 72 90
72 72 90
73 73 90
73 73 90
72 72 90
72 72 90
72 72 90
72 72 90
72 72 90
72 72 90
72 72 90
72 72 90
72 72 90
72 72 90
72 72 90
72 72 90
73 73 90
73 73 90
73 73 90
73 73 90
73 73 90
72 72 90
72 72 90
72 72 90
72 72 90
72 72 90
72 72 90
72 72 90
72 72 90
72 72 90
72 72 90
72 72 90
72 72 90
72 72 90
72 72 90
72 72 90
72 72 90
72 72 90
72 72 90
72 72 90
72 72 90
72 72 90
72 72 90
72 72 90
72 72 90
72 72 90
72 72 90
72 72 90
72 72 90
72 72 90
72 72 90
72 72 90
72 72 90
72 72 90
72 72 90
72 72 90
72 72 90
72 72 90
72 72 90
72 72 90
72 72 90
72 72 90
72 72 90
72 72 90
72 72 90
72 72 90
72 72 90
72 72 90
72 72 90
72 72 90
72 72 90
72 72 90
72 72 90
72 72 90
73 73 90
72 72 90
73 73 90
73 73 90
73 73 90
73 73 90
73 73 90
73 73 90
73 73 90
73 73 90
72 72 90
73 73 90
73 73 90
72 72 90
73 73 90
73 73 90
73 73 90
73 73 90
72 72 90
73 73 90
72 72 90
73 73 90
72 72 90
73 73 90
73 73 90
73 73 90
73 73 90
73 73 90
73 73 90
73 73 90
72 72 90
72 72 90
73 73 90
73 73 90
73 73 90
73 73 90
72 72 90
73 73 90
72 72 90
73 73 90
73 73 90
73 73 90
73 73 90
73 73 90
73 73 90
72 72 90
73 73 90
73 73 90
72 72 90
73 73 90
72 72 90
73 73 90
73 73 90
72 72 90
72 72 90
72 72 90
72 72 90
72 72 90
72 72 90
72 72 90
72 72 90
72 72 90
72 72 90
72 72 90
72 72 90
73 73 90
72 72 90
72 72 90
72 72 90
72 72 90
72 72 90
72 72 90
72 72 90
72 72 90
72 72 90
72 72 90
72 72 90
72 72 90
72 72 90
72 72 90
72 72 90
72 72 90
72 72 90
72 72 90
72 72 90
72 72 90
72 72 90
72 72 90
72 72 90
72 72 90
72 72 90
72 72 90
72 72 90
72 72 90
72 72 90
72 72 90
72 72 90
72 72 90
72 72 90
72 72 90
72 72 90
72 72 90
72 72 90
72 72 90
72 72 90
72 72 90
72 72 90
72 72 90
72 72 90
72 72 90
72 72 90
72 72 90
72 72 90
72 72 90
72 72 90
72 72 90
72 72 90
72 72 90
72 72 90
72 72 90
72 72 90
72 72 90
72 72 90
72 72 90
72 72 90
72 72 89
72 72 89
72 72 89
72 72 89
72 72 89
72 72 89
72 72 89
72 72 89
72 72 89
72 72 89
72 72 89
72 72 89
72 72 89
72 72 89
72 72 89
72 72 89
72 72 89
72 72 89
72 72 89
72 72 89
72 72 89
72 72 89
72 72 89
72 72 89
72 72 89
72 72 89
72 72 89
72 72 89
72 72 89
72 72 89
72 72 89
72 72 89
72 72 89
72 72 89
72 72 89
72 72 89
72 72 89
72 72 89
72 72 89
72 72 89
72 72 89
72 72 89
72 72 89
72 72 89
72 72 89
72 72 89
72 72 89
72 72 89
72 72 89
72 72 89
72 72 89
72 72 89
72 72 89
72 72 89
72 72 89
72 72 89
72 72 89
72 72 89
72 72 89
72 72 89
72 72 89
72 72 89
72 72 89
71 71 89
71 71 89
71 71 89
71 71 89
72 72 89
72 72 89
71 71 89
72 72 89
72 72 89
72 72 89
71 71 89
71 71 89
71 71 89
71 71 89
71 71 89
71 71 89
72 72 89
71 71 89
71 71 89
71 71 89
71 71 89
71 71 89
71 71 89
71 71 89
71 71 89
71 71 89
71 71 89
71 71 89
72 72 89
72 72 89
72 72 89
72 72 89
72 72 89
72 72 89
72 72 89
72 72 89
72 72 89
72 72 89
72 72 89
72 72 89
72 72 89
72 72 89
72 72 89
72 72 89
72 72 89
72 72 89
72 72 89
72 72 89
72 72 89
72 72 89
72 72 89
72 72 89
72 72 89
72 72 89
72 72 89
72 72 89
72 72 89
72 72 89
72 72 89
72 72 89
72 72 89
72 72 89
72 72 89
72 72 89
72 72 89
72 72 89
72 72 89
72 72 89
72 72 90
72 72 89
72 72 90
72 72 89
72 72 89
72 72 90
72 72 89
72 72 90
72 72 89
72 72 89
72 72 90
72 72 90
72 72 89
72 72 89
72 72 90
72 72 90
72 72 89
72 72 89
72 72 89
72 72 89
72 72 90
72 72 90
72 72 90
72 72 90
72 72 90
72 72 90
72 72 90
72 72 90
72 72 90
72 72 90
72 72 90
72 72 90
72 72 90
72 72 90
72 72 90
72 72 90
72 72 90
72 72 90
72 72 90
72 72 90
72 72 90
72 72 90
72 72 90
72 72 90
72 72 90
72 72 90
72 72 90
72 72 90
72 72 90
72 72 90
72 72 90
72 72 90
72 72 90
72 72 90
72 72 90
72 72 90
72 72 90
73 73 90
72 72 90
72 72 90
72 72 90
72 72 90
72 72 90
73 73 90
72 72 90
72 72 90
72 72 90
72 72 90
72 72 90
73 73 90
72 72 90
72 72 90
72 72 90
73 73 90
72 72 90
73 73 90
72 72 90
72 72 90
72 72 90
72 72 90
72 72 90
73 73 90
72 72 90
73 73 90
72 72 90
73 73 90
73 73 90
72 72 90
73 73 90
72 72 90
73 73 90
73 73 90
72 72 90
72 72 90
72 72 90
72 72 90
72 72 90
72 72 90
72 72 90
72 72 90
72 72 90
72 72 90
72 72 90
72 72 90
72 72 90
72 72 90
72 72 90
72 72 90
72 72 90
72 72 90
72 72 90
72 72 90
72 72 90
72 72 90
72 72 90
72 72 90
72 72 90
72 72 90
72 72 90
72 72 90
72 72 90
72 72 90
72 72 90
72 72 90
72 72 90
72 72 90
72 72 90
72 72 90
72 72 90
72 72 90
72 72 90
72 72 90
72 72 90
72 72 90
72 72 90
72 72 90
72 72 90
72 72 90
72 72 90
72 72 90
72 72 90
72 72 90
72 72 90
73 73 90
72 72 90
73 73 90
73 73 90
73 73 90
73 73 90
73 73 90
72 72 90
73 73 90
73 73 90
73 73 90
73 73 90
72 72 90
72 72 90
73 73 90
73 73 90
73 73 90
72 72 90
72 72 90
73 73 90
73 73 90
72 72 90
73 73 90
73 73 90
73 73 90
73 73 90
73 73 90
73 73 90
73 73 90
72 72 90
73 73 90
73 73 90
73 73 90
72 72 90
73 73 90
73 73 90
73 73 90
72 72 90
73 73 90
72 72 90
72 72 90
72 72 90
73 73 90
73 73 90
73 73 90
73 73 90
73 73 90
72 72 90
73 73 90
73 73 90
73 73 90
73 73 90
72 72 90
72 72 90
73 73 90
72 72 90
72 72 90
72 72 90
72 72 90
72 72 90
72 72 90
72 72 90
73 73 90
72 72 90
73 73 90
72 72 90
72 72 90
73 73 90
72 72 90
72 72 90
72 72 90
72 72 90
72 72 90
72 72 90
72 72 90
72 72 90
72 72 90
72 72 90
73 73 90
72 72 90
72 72 90
72 72 90
72 72 90
72 72 90
72 72 90
72 72 90
72 72 90
72 72 90
72 72 90
72 72 90
72 72 90
72 72 90
72 72 90
72 72 90
72 72 90
72 72 90
72 72 90
72 72 90
72 72 90
72 72 90
72 72 90
72 72 90
72 72 90
72 72 90
72 72 90
72 72 90
72 72 90
72 72 90
72 72 90
72 72 90
72 72 90
72 72 90
72 72 90
72 72 90
72 72 90
72 72 90
72 72 90
72 72 90
72 72 90
72 72 90
72 72 90
72 72 90
72 72 90
72 72 90
72 72 90
72 72 90
72 72 90
72 72 90
72 72 90
72 72 90
72 72 90
72 72 89
72 72 89
72 72 89
72 72 89
72 72 89
72 72 89
72 72 89
72 72 89
72 72 89
72 72 89
72 72 89
72 72 89
72 72 89
72 72 89
72 72 89
72 72 89
72 72 89
72 72 89
72 72 89
72 72 89
72 72 89
72 72 89
72 72 89
72 72 89
72 72 89
72 72 89
72 72 89
72 72 89
72 72 89
72 72 89
72 72 89
72 72 89
72 72 89
72 72 89
72 72 89
72 72 89
72 72 89
72 72 89
72 72 89
72 72 89
72 72 89
72 72 89
72 72 89
72 72 89
72 72 89
72 72 89
72 72 89
72 72 89
72 72 89
72 72 89
72 72 89
72 72 89
72 72 89
72 72 89
72 72 89
72 72 89
72 72 89
72 72 89
72 72 89
72 72 89
71 71 89
72 72 89
72 72 89
72 72 89
72 72 89
72 72 89
72 72 89
72 72 89
72 72 89
72 72 89
72 72 89
71 71 89
72 72 89
71 71 89
71 71 89
71 71 89
71 71 89
71 71 89
71 71 89
71 71 89
71 71 89
71 71 89
72 72 89
72 72 89
72 72 89
72 72 89
72 72 89
72 72 89
72 72 89
72 72 89
72 72 89
72 72 89
72 72 89
72 72 89
72 72 89
72 72 89
72 72 89
72 72 89
72 72 89
72 72 89
72 72 89
72 72 89
72 72 89
72 72 89
72 72 89
72 72 89
72 72 89
72 72 89
72 72 89
72 72 89
72 72 89
72 72 89
72 72 89
72 72 89
72 72 89
72 72 89
72 72 89
72 72 89
72 72 89
72 72 90
72 72 90
72 72 90
72 72 89
72 72 89
72 72 89
72 72 89
72 72 90
72 72 90
72 72 90
72 72 89
72 72 90
72 72 89
72 72 90
72 72 90
72 72 90
72 72 90
72 72 89
72 72 89
72 72 90
72 72 90
72 72 90
72 72 90
72 72 90
72 72 90
72 72 90
72 72 90
72 72 90
72 72 90
72 72 90
72 72 90
72 72 90
72 72 90
72 72 90
72 72 90
72 72 90
72 72 90
72 72 90
72 72 90
72 72 90
72 72 90
72 72 90
72 72 90
72 72 90
72 72 90
72 72 90
72 72 90
72 72 90
72 72 90
72 72 90
72 72 90
72 72 90
72 72 90
72 72 90
72 72 90
72 72 90
72 72 90
72 72 90
72 72 90
72 72 90
72 72 90
72 72 90
72 72 90
72 72 90
72 72 90
72 72 90
72 72 90
72 72 90
72 72 90
72 72 90
72 72 90
72 72 90
73 73 90
73 73 90
72 72 90
72 72 90
72 72 90
72 72 90
73 73 90
73 73 90
73 73 90
72 72 90
72 72 90
72 72 90
72 72 90
72 72 90
73 73 90
73 73 90
73 73 90
73 73 90
72 72 90
73 73 90
72 72 90
72 72 90
72 72 90
73 73 90
73 73 90
72 72 90
72 72 90
72 72 90
72 72 90
72 72 90
72 72 90
72 72 90
72 72 90
72 72 90
72 72 90
72 72 90
72 72 90
72 72 90
72 72 90
72 72 90
72 72 90
72 72 90
72 72 90
72 72 90
72 72 90
72 72 90
72 72 90
72 72 90
72 72 90
72 72 90
72 72 90
72 72 90
72 72 90
72 72 90
72 72 90
72 72 90
72 72 90
72 72 90
72 72 90
73 73 90
73 73 90
73 73 90
73 73 90
73 73 90
73 73 90
73 73 90
73 73 90
73 73 90
73 73 90
73 73 90
73 73 90
73 73 90
73 73 90
73 73 90
73 73 90
73 73 90
73 73 90
73 73 90
73 73 90
73 73 90
73 73 90
73 73 90
73 73 90
73 73 90
73 73 90
73 73 90
73 73 90
73 73 90
73 73 90
73 73 90
73 73 90
73 73 90
73 73 90
73 73 90
73 73 90
73 73 90
73 73 90
73 73 90
73 73 90
73 73 90
73 73 90
73 73 90
73 73 90
73 73 90
73 73 90
72 72 90
73 73 90
73 73 90
73 73 90
72 72 90
73 73 90
72 72 90
73 73 90
72 72 90
73 73 90
73 73 90
72 72 90
73 73 90
73 73 90
73 73 90
73 73 90
73 73 90
73 73 90
73 73 90
73 73 90
73 73 90
73 73 90
73 73 90
73 73 90
73 73 90
73 73 90
72 72 90
73 73 90
73 73 90
72 72 90
73 73 90
73 73 90
72 72 90
73 73 90
72 72 90
72 72 90
72 72 90
72 72 90
73 73 90
72 72 90
73 73 90
73 73 90
72 72 90
72 72 90
73 73 90
72 72 90
73 73 90
73 73 90
72 72 90
72 72 90
72 72 90
72 72 90
72 72 90
72 72 90
72 72 90
72 72 90
72 72 90
72 72 90
72 72 90
72 72 90
72 72 90
72 72 90
72 72 90
72 72 90
72 72 90
72 72 90
72 72 90
72 72 90
72 72 90
72 72 90
72 72 90
72 72 90
72 72 90
72 72 90
72 72 90
72 72 90
72 72 90
72 72 90
72 72 90
72 72 90
72 72 90
72 72 90
72 72 90
72 72 90
72 72 90
72 72 90
72 72 90
72 72 90
72 72 90
72 72 90
72 72 90
72 72 90
72 72 90
72 72 90
72 72 90
72 72 90
72 72 90
72 72 90
72 72 90
72 72 90
72 72 90
72 72 90
72 72 90
72 72 90
72 72 90
72 72 90
72 72 90
72 72 90
72 72 90
72 72 89
72 72 89
72 72 89
72 72 89
72 72 89
72 72 89
72 72 89
72 72 89
72 72 89
72 72 89
72 72 89
72 72 89
72 72 89
72 72 89
72 72 89
72 72 89
72 72 89
72 72 89
72 72 89
72 72 89
72 72 89
72 72 89
72 72 89
72 72 89
72 72 89
72 72 89
72 72 89
72 72 89
72 72 89
72 72 89
72 72 89
72 72 89
72 72 89
72 72 89
72 72 89
72 72 89
72 72 89
72 72 89
72 72 89
72 72 89
72 72 89
72 72 89
72 72 89
72 72 89
72 72 89
72 72 89
72 72 89
72 72 89
72 72 89
72 72 89
72 72 89
72 72 89
72 72 89
72 72 89
72 72 89
72 72 89
72 72 89
72 72 89
72 72 89
71 71 89
72 72 89
72 72 89
71 71 89
72 72 89
72 72 89
72 72 89
72 72 89
72 72 89
71 71 89
71 71 89
71 71 89
71 71 89
71 71 89
72 72 89
72 72 89
72 72 89
72 72 89
72 72 89
72 72 89
72 72 89
72 72 89
72 72 89
72 72 89
72 72 89
72 72 89
72 72 89
72 72 89
72 72 89
72 72 89
72 72 89
72 72 89
72 72 89
72 72 89
72 72 89
72 72 89
72 72 89
72 72 89
72 72 89
72 72 89
72 72 89
72 72 89
72 72 89
72 72 89
72 72 89
72 72 89
72 72 89
72 72 89
72 72 89
72 72 89
72 72 89
72 72 89
72 72 89
72 72 89
72 72 89
72 72 89
72 72 90
72 72 90
72 72 89
72 72 89
72 72 90
72 72 89
72 72 90
72 72 90
72 72 90
72 72 89
72 72 90
72 72 90
72 72 89
72 72 89
72 72 90
72 72 90
72 72 90
72 72 90
72 72 90
72 72 90
72 72 90
72 72 90
72 72 90
72 72 90
72 72 90
72 72 90
72 72 90
72 72 90
72 72 90
72 72 90
72 72 90
72 72 90
72 72 90
72 72 90
72 72 90
72 72 90
72 72 90
72 72 90
72 72 90
72 72 90
72 72 90
72 72 90
72 72 90
72 72 90
72 72 90
72 72 90
72 72 90
72 72 90
72 72 90
72 72 90
72 72 90
72 72 90
72 72 90
72 72 90
72 72 90
72 72 90
72 72 90
72 72 90
72 72 90
72 72 90
73 73 90
72 72 90
73 73 90
72 72 90
72 72 90
72 72 90
72 72 90
72 72 90
72 72 90
72 72 90
73 73 90
72 72 90
72 72 90
73 73 90
73 73 90
73 73 90
72 72 90
73 73 90
73 73 90
72 72 90
73 73 90
73 73 90
73 73 90
72 72 90
73 73 90
73 73 90
73 73 90
73 73 90
73 73 90
73 73 90
72 72 90
72 72 90
73 73 90
73 73 90
73 73 90
72 72 90
73 73 90
72 72 90
72 72 90
72 72 90
72 72 90
72 72 90
72 72 90
72 72 90
72 72 90
72 72 90
72 72 90
72 72 90
72 72 90
72 72 90
72 72 90
72 72 90
73 73 90
73 73 90
73 73 90
73 73 90
73 73 90
73 73 90
73 73 90
73 73 90
73 73 90
73 73 90
73 73 90
73 73 90
73 73 90
73 73 90
73 73 90
73 73 90
73 73 90
73 73 90
73 73 90
73 73 90
73 73 90
73 73 90
73 73 90
73 73 90
73 73 90
73 73 90
73 73 90
73 73 90
73 73 90
73 73 90
73 73 90
73 73 90
73 73 90
73 73 90
73 73 90
73 73 90
73 73 90
73 73 90
73 73 90
73 73 90
73 73 90
73 73 90
73 73 90
73 73 90
73 73 90
73 73 90
73 73 90
73 73 90
73 73 90
73 73 90
73 73 90
73 73 90
73 73 90
73 73 90
73 73 90
73 73 90
73 73 90
73 73 90
73 73 90
73 73 90
73 73 90
73 73 90
73 73 90
73 73 90
73 73 90
73 73 90
73 73 90
73 73 90
73 73 90
73 73 90
73 73 90
73 73 90
73 73 90
73 73 90
73 73 90
73 73 90
73 73 90
73 73 90
73 73 90
73 73 90
73 73 90
73 73 90
73 73 90
73 73 90
72 72 90
73 73 90
73 73 90
73 73 90
73 73 90
73 73 90
73 73 90
73 73 90
72 72 90
73 73 90
73 73 90
73 73 90
72 72 90
73 73 90
72 72 90
73 73 90
73 73 90
73 73 90
73 73 90
73 73 90
72 72 90
73 73 90
72 72 90
72 72 90
73 73 90
73 73 90
72 72 90
73 73 90
73 73 90
72 72 90
72 72 90
72 72 90
72 72 90
72 72 90
72 72 90
72 72 90
72 72 90
72 72 90
72 72 90
72 72 90
72 72 90
72 72 90
72 72 90
72 72 90
72 72 90
72 72 90
72 72 90
72 72 90
72 72 90
72 72 90
72 72 90
72 72 90
72 72 90
72 72 90
72 72 90
72 72 90
72 72 90
72 72 90
72 72 90
72 72 90
72 72 90
72 72 90
72 72 90
72 72 90
72 72 90
72 72 90
72 72 90
72 72 90
72 72 90
72 72 90
72 72 90
72 72 90
72 72 90
72 72 90
72 72 90
72 72 90
72 72 90
72 72 90
72 72 90
72 72 90
72 72 90
72 72 90
72 72 90
72 72 90
72 72 90
72 72 90
72 72 90
72 72 90
72 72 90
72 72 90
72 72 90
72 72 90
72 72 90
72 72 90
72 72 89
72 72 89
72 72 89
72 72 89
72 72 89
72 72 89
72 72 89
72 72 89
72 72 89
72 72 89
72 72 89
72 72 89
72 72 89
72 72 89
72 72 89
72 72 89
72 72 89
72 72 89
72 72 89
72 72 89
72 72 89
72 72 89
72 72 89
72 72 89
72 72 89
72 72 89
72 72 89
72 72 89
72 72 89
72 72 89
72 72 89
72 72 89
72 72 89
72 72 89
72 72 89
72 72 89
72 72 89
72 72 89
72 72 89
72 72 89
72 72 89
72 72 89
72 72 89
72 72 89
72 72 89
72 72 89
72 72 89
72 72 89
72 72 89
72 72 89
72 72 89
72 72 89
72 72 89
72 72 89
72 72 89
72 72 89
72 72 89
72 72 89
71 71 89
72 72 89
72 72 89
72 72 89
72 72 89
71 71 89
72 72 89
72 72 89
72 72 89
72 72 89
72 72 89
72 72 89
72 72 89
72 72 89
72 72 89
72 72 89
72 72 89
72 72 89
72 72 89
72 72 89
72 72 89
72 72 89
72 72 89
72 72 89
72 72 89
72 72 89
72 72 89
72 72 89
72 72 89
72 72 89
72 72 89
72 72 89
72 72 89
72 72 89
72 72 89
72 72 89
72 72 89
72 72 89
72 72 89
72 72 89
72 72 89
72 72 89
72 72 90
72 72 89
72 72 90
72 72 89
72 72 89
72 72 89
72 72 89
72 72 90
72 72 89
72 72 90
72 72 89
72 72 89
72 72 89
72 72 90
72 72 90
72 72 89
72 72 90
72 72 90
72 72 89
72 72 89
72 72 90
72 72 90
72 72 90
72 72 90
72 72 90
72 72 90
72 72 90
72 72 90
72 72 90
72 72 90
72 72 90
72 72 90
72 72 90
72 72 90
72 72 90
72 72 90
72 72 90
72 72 90
72 72 90
72 72 90
72 72 90
72 72 90
72 72 90
72 72 90
72 72 90
72 72 90
72 72 90
72 72 90
72 72 90
72 72 90
72 72 90
72 72 90
72 72 90
72 72 90
72 72 90
72 72 90
72 72 90
72 72 90
72 72 90
72 72 90
72 72 90
72 72 90
72 72 90
72 72 90
72 72 90
73 73 90
72 72 90
73 73 90
72 72 90
72 72 90
72 72 90
72 72 90
72 72 90
72 72 90
72 72 90
72 72 90
72 72 90
73 73 90
72 72 90
72 72 90
72 72 90
73 73 90
73 73 90
72 72 90
72 72 90
72 72 90
73 73 90
72 72 90
73 73 90
72 72 90
73 73 90
73 73 90
73 73 90
72 72 90
73 73 90
72 72 90
73 73 90
73 73 90
73 73 90
73 73 90
73 73 90
72 72 90
72 72 90
72 72 90
72 72 90
72 72 90
72 72 90
72 72 90
72 72 90
72 72 90
73 73 90
73 73 90
73 73 90
73 73 90
73 73 90
73 73 90
73 73 90
73 73 90
73 73 90
73 73 90
73 73 90
73 73 90
73 73 90
73 73 90
73 73 90
73 73 90
73 73 90
73 73 90
73 73 90
73 73 90
73 73 90
73 73 90
73 73 90
73 73 90
73 73 90
73 73 90
73 73 90
73 73 90
73 73 90
73 73 90
73 73 90
73 73 90
73 73 90
73 73 90
73 73 90
73 73 90
73 73 90
73 73 90
73 73 90
73 73 90
73 73 90
73 73 90
73 73 90
73 73 90
73 73 90
73 73 90
73 73 90
73 73 90
73 73 90
73 73 90
73 73 90
73 73 90
73 73 90
73 73 90
73 73 90
73 73 90
73 73 90
73 73 90
73 73 90
73 73 90
73 73 90
73 73 90
73 73 90
73 73 90
73 73 90
73 73 90
73 73 90
73 73 90
73 73 90
73 73 90
73 73 90
73 73 90
73 73 90
73 73 90
73 73 90
73 73 90
73 73 90
73 73 90
73 73 90
73 73 90
73 73 90
73 73 90
73 73 90
73 73 90
73 73 90
73 73 90
73 73 90
73 73 90
73 73 90
73 73 90
73 73 90
73 73 90
73 73 90
73 73 90
73 73 90
73 73 90
73 73 90
73 73 90
73 73 90
73 73 90
73 73 90
73 73 90
73 73 90
73 73 90
73 73 90
73 73 90
73 73 90
73 73 90
73 73 90
73 73 90
73 73 90
72 72 90
73 73 90
73 73 90
73 73 90
73 73 90
73 73 90
72 72 90
73 73 90
73 73 90
72 72 90
73 73 90
72 72 90
72 72 90
72 72 90
72 72 90
72 72 90
72 72 90
72 72 90
72 72 90
72 72 90
72 72 90
72 72 90
72 72 90
72 72 90
72 72 90
72 72 90
72 72 90
72 72 90
72 72 90
72 72 90
72 72 90
72 72 90
72 72 90
72 72 90
72 72 90
72 72 90
72 72 90
72 72 90
72 72 90
72 72 90
72 72 90
72 72 90
72 72 90
72 72 90
72 72 90
72 72 90
72 72 90
72 72 90
72 72 90
72 72 90
72 72 90
72 72 90
72 72 90
72 72 90
72 72 90
72 72 90
72 72 90
72 72 90
72 72 90
72 72 90
72 72 90
72 72 90
72 72 90
72 72 90
72 72 90
72 72 90
72 72 90
72 72 90
72 72 90
72 72 90
72 72 90
72 72 90
72 72 90
72 72 90
72 72 90
72 72 90
72 72 90
72 72 90
72 72 90
72 72 90
72 72 90
72 72 90
72 72 90
72 72 90
72 72 89
72 72 89
72 72 89
72 72 89
72 72 89
72 72 89
72 72 89
72 72 89
72 72 89
72 72 89
72 72 89
72 72 89
72 72 89
72 72 89
72 72 89
72 72 89
72 72 89
72 72 89
72 72 89
72 72 89
72 72 89
72 72 89
72 72 89
72 72 89
72 72 89
72 72 89
72 72 89
72 72 89
72 72 89
72 72 89
72 72 89
72 72 89
72 72 89
72 72 89
72 72 89
72 72 89
72 72 89
72 72 89
72 72 89
72 72 89
72 72 89
72 72 89
72 72 89
72 72 89
72 72 89
72 72 89
72 72 89
72 72 89
72 72 89
72 72 89
72 72 89
72 72 89
72 72 89
72 72 89
72 72 89
72 72 89
72 72 89
71 71 89
72 72 89
72 72 89
72 72 89
72 72 89
72 72 89
72 72 89
72 72 89
72 72 89
72 72 89
72 72 89
72 72 89
72 72 89
72 72 89
72 72 89
72 72 89
72 72 89
72 72 89
72 72 89
72 72 89
72 72 89
72 72 89
72 72 89
72 72 89
72 72 89
72 72 89
72 72 89
72 72 89
72 72 89
72 72 89
72 72 89
72 72 89
72 72 89
72 72 89
72 72 89
72 72 89
72 72 89
72 72 90
72 72 89
72 72 89
72 72 89
72 72 89
72 72 90
72 72 89
72 72 89
72 72 89
72 72 90
72 72 90
72 72 90
72 72 90
72 72 90
72 72 90
72 72 90
72 72 90
72 72 89
72 72 90
72 72 90
72 72 90
72 72 90
72 72 90
72 72 90
72 72 90
72 72 90
72 72 90
72 72 90
72 72 90
72 72 90
72 72 90
72 72 90
72 72 90
72 72 90
72 72 90
72 72 90
72 72 90
72 72 90
72 72 90
72 72 90
72 72 90
72 72 90
72 72 90
72 72 90
72 72 90
72 72 90
72 72 90
72 72 90
72 72 90
72 72 90
72 72 90
72 72 90
72 72 90
72 72 90
72 72 90
72 72 90
72 72 90
72 72 90
72 72 90
72 72 90
72 72 90
72 72 90
72 72 90
72 72 90
72 72 90
73 73 90
73 73 90
72 72 90
72 72 90
72 72 90
72 72 90
72 72 90
72 72 90
72 72 90
72 72 90
73 73 90
72 72 90
72 72 90
73 73 90
73 73 90
72 72 90
72 72 90
72 72 90
73 73 90
73 73 90
73 73 90
72 72 90
73 73 90
73 73 90
72 72 90
73 73 90
73 73 90
73 73 90
72 72 90
72 72 90
73 73 90
73 73 90
73 73 90
73 73 90
73 73 90
73 73 90
73 73 90
73 73 90
73 73 90
73 73 90
73 73 90
73 73 90
73 73 90
73 73 90
73 73 90
73 73 90
73 73 90
73 73 90
73 73 90
73 73 90
73 73 90
73 73 90
73 73 90
73 73 90
73 73 90
73 73 90
73 73 90
73 73 90
73 73 90
73 73 90
73 73 90
73 73 90
73 73 90
73 73 90
73 73 90
73 73 90
73 73 90
73 73 90
73 73 90
73 73 90
73 73 90
73 73 90
73 73 90
73 73 90
73 73 90
73 73 90
73 73 90
73 73 90
73 73 90
73 73 90
73 73 90
73 73 90
73 73 90
73 73 90
73 73 90
73 73 90
73 73 90
73 73 90
73 73 90
73 73 90
73 73 90
73 73 90
73 73 90
73 73 90
73 73 90
73 73 90
73 73 90
73 73 90
73 73 90
73 73 90
73 73 90
73 73 90
73 73 90
73 73 90
73 73 90
73 73 91
73 73 90
73 73 90
73 73 90
73 73 90
73 73 90
73 73 90
73 73 90
73 73 90
73 73 90
73 73 90
73 73 90
73 73 90
73 73 90
73 73 90
73 73 90
73 73 90
73 73 90
73 73 90
73 73 90
73 73 90
73 73 90
73 73 90
73 73 90
73 73 90
73 73 90
73 73 90
73 73 90
73 73 90
73 73 90
73 73 90
73 73 90
73 73 90
73 73 90
73 73 90
73 73 90
73 73 90
73 73 90
73 73 90
73 73 90
73 73 90
73 73 90
73 73 90
73 73 90
73 73 90
73 73 90
73 73 90
73 73 90
73 73 90
73 73 90
73 73 90
73 73 90
73 73 90
73 73 90
73 73 90
73 73 90
73 73 90
73 73 90
73 73 90
73 73 90
72 72 90
72 72 90
72 72 90
72 72 90
72 72 90
72 72 90
72 72 90
72 72 90
72 72 90
72 72 90
72 72 90
72 72 90
72 72 90
72 72 90
72 72 90
72 72 90
72 72 90
72 72 90
72 72 90
72 72 90
72 72 90
72 72 90
72 72 90
72 72 90
72 72 90
72 72 90
72 72 90
72 72 90
72 72 90
72 72 90
72 72 90
72 72 90
72 72 90
72 72 90
72 72 90
72 72 90
72 72 90
72 72 90
72 72 90
72 72 90
72 72 90
72 72 90
72 72 90
72 72 90
72 72 90
72 72 90
72 72 90
72 72 90
72 72 90
72 72 90
72 72 90
72 72 90
72 72 90
72 72 90
72 72 90
72 72 90
72 72 90
72 72 90
72 72 90
72 72 90
72 72 90
72 72 90
72 72 90
72 72 90
72 72 90
72 72 90
72 72 90
72 72 90
72 72 90
72 72 90
72 72 90
72 72 90
72 72 90
72 72 90
72 72 90
72 72 90
72 72 90
72 72 90
72 72 90
72 72 90
72 72 89
72 72 89
72 72 89
72 72 89
72 72 89
72 72 89
72 72 89
72 72 89
72 72 89
72 72 89
72 72 89
72 72 89
72 72 89
72 72 89
72 72 89
72 72 89
72 72 89
72 72 89
72 72 89
72 72 89
72 72 89
72 72 89
72 72 89
72 72 89
72 72 89
72 72 89
72 72 89
72 72 89
72 72 89
72 72 89
72 72 89
72 72 89
72 72 89
72 72 89
72 72 89
72 72 89
72 72 89
72 72 89
72 72 89
72 72 89
72 72 89
72 72 89
72 72 89
72 72 89
72 72 89
72 72 89
72 72 89
72 72 89
72 72 89
72 72 89
72 72 89
72 72 89
72 72 89
72 72 89
72 72 89
72 72 89
72 72 89
72 72 89
72 72 89
72 72 89
72 72 89
72 72 89
72 72 89
72 72 89
72 72 89
72 72 89
72 72 89
72 72 89
72 72 89
72 72 89
72 72 89
72 72 89
72 72 89
72 72 89
72 72 89
72 72 89
72 72 89
72 72 89
72 72 89
72 72 89
72 72 89
72 72 89
72 72 89
72 72 89
72 72 89
72 72 89
72 72 89
72 72 90
72 72 90
72 72 89
72 72 90
72 72 90
72 72 89
72 72 89
72 72 90
72 72 89
72 72 90
72 72 89
72 72 90
72 72 89
72 72 90
72 72 89
72 72 90
72 72 90
72 72 90
72 72 90
72 72 90
72 72 90
72 72 90
72 72 90
72 72 90
72 72 90
72 72 90
72 72 90
72 72 90
72 72 90
72 72 90
72 72 90
72 72 90
72 72 90
72 72 90
72 72 90
72 72 90
72 72 90
72 72 90
72 72 90
72 72 90
72 72 90
72 72 90
72 72 90
72 72 90
72 72 90
72 72 90
72 72 90
72 72 90
72 72 90
72 72 90
72 72 90
72 72 90
72 72 90
72 72 90
72 72 90
72 72 90
72 72 90
72 72 90
72 72 90
72 72 90
72 72 90
72 72 90
72 72 90
72 72 90
72 72 90
72 72 90
72 72 90
72 72 90
72 72 90
73 73 90
73 73 90
73 73 90
72 72 90
72 72 90
73 73 90
73 73 90
72 72 90
72 72 90
72 72 90
72 72 90
73 73 90
72 72 90
73 73 90
72 72 90
72 72 90
72 72 90
73 73 90
73 73 90
73 73 90
73 73 90
73 73 90
73 73 90
73 73 90
73 73 90
73 73 90
73 73 90
73 73 90
73 73 90
73 73 90
73 73 90
73 73 90
73 73 90
73 73 90
73 73 90
73 73 90
73 73 90
73 73 90
73 73 90
73 73 90
73 73 90
73 73 90
73 73 90
73 73 90
73 73 90
73 73 90
73 73 90
73 73 90
73 73 90
73 73 90
73 73 90
73 73 90
73 73 90
73 73 90
73 73 90
73 73 90
73 73 90
73 73 90
73 73 90
73 73 90
73 73 90
73 73 90
73 73 90
73 73 90
73 73 90
73 73 90
73 73 90
73 73 90
73 73 90
73 73 90
73 73 90
73 73 90
73 73 90
73 73 90
73 73 90
73 73 90
73 73 90
73 73 90
73 73 90
73 73 90
73 73 90
73 73 90
73 73 90
73 73 90
73 73 90
73 73 90
73 73 91
73 73 90
73 73 90
73 73 90
73 73 90
73 73 90
73 73 90
73 73 90
73 73 90
73 73 90
73 73 90
73 73 90
73 73 90
73 73 90
73 73 90
73 73 90
73 73 90
73 73 90
73 73 90
73 73 90
73 73 90
73 73 90
73 73 90
73 73 90
73 73 90
73 73 90
73 73 90
73 73 90
73 73 90
73 73 90
73 73 90
73 73 90
73 73 90
73 73 90
73 73 90
73 73 90
73 73 90
73 73 90
73 73 90
73 73 90
73 73 91
73 73 90
73 73 90
73 73 90
73 73 90
73 73 90
73 73 90
73 73 90
73 73 90
73 73 90
73 73 90
73 73 90
73 73 90
73 73 90
73 73 90
73 73 90
73 73 90
73 73 90
73 73 90
73 73 90
73 73 90
73 73 90
73 73 90
73 73 90
73 73 90
73 73 90
73 73 90
73 73 90
73 73 90
73 73 90
73 73 90
73 73 90
73 73 90
73 73 90
73 73 90
73 73 90
73 73 90
73 73 90
73 73 90
73 73 90
73 73 90
73 73 90
73 73 90
73 73 90
72 72 90
72 72 90
72 72 90
72 72 90
72 72 90
72 72 90
72 72 90
72 72 90
72 72 90
72 72 90
72 72 90
72 72 90
72 72 90
72 72 90
72 72 90
72 72 90
72 72 90
72 72 90
72 72 90
72 72 90
72 72 90
72 72 90
72 72 90
72 72 90
72 72 90
72 72 90
72 72 90
72 72 90
72 72 90
72 72 90
72 72 90
72 72 90
72 72 90
72 72 90
72 72 90
72 72 90
72 72 90
72 72 90
72 72 90
72 72 90
72 72 90
72 72 90
72 72 90
72 72 90
72 72 90
72 72 90
72 72 90
72 72 90
72 72 90
72 72 90
72 72 90
72 72 90
72 72 90
72 72 90
72 72 90
72 72 90
72 72 90
72 72 90
72 72 90
72 72 90
72 72 90
72 72 90
72 72 90
72 72 90
72 72 90
72 72 90
72 72 90
72 72 90
72 72 90
72 72 90
72 72 90
72 72 90
72 72 90
72 72 90
72 72 90
72 72 90
72 72 90
72 72 90
72 72 90
72 72 89
72 72 89
72 72 89
72 72 89
72 72 89
72 72 89
72 72 89
72 72 89
72 72 89
72 72 89
72 72 89
72 72 89
72 72 89
72 72 89
72 72 89
72 72 89
72 72 89
72 72 89
72 72 89
72 72 89
72 72 89
72 72 89
72 72 89
72 72 89
72 72 89
72 72 89
72 72 89
72 72 89
72 72 89
72 72 89
72 72 89
72 72 89
72 72 89
72 72 89
72 72 89
72 72 89
72 72 89
72 72 89
72 72 89
72 72 89
72 72 89
72 72 89
72 72 89
72 72 89
72 72 89
72 72 89
72 72 89
72 72 89
72 72 89
72 72 89
72 72 89
72 72 89
72 72 89
72 72 89
72 72 89
72 72 89
72 72 89
72 72 89
72 72 89
72 72 89
72 72 89
72 72 89
72 72 89
72 72 89
72 72 89
72 72 89
72 72 89
72 72 89
72 72 89
72 72 89
72 72 89
72 72 89
72 72 89
72 72 89
72 72 89
72 72 89
72 72 89
72 72 89
72 72 89
72 72 90
72 72 89
72 72 89
72 72 89
72 72 90
72 72 90
72 72 90
72 72 89
72 72 89
72 72 90
72 72 90
72 72 90
72 72 90
72 72 90
72 72 89
72 72 90
72 72 90
72 72 90
72 72 90
72 72 90
72 72 90
72 72 90
72 72 90
72 72 90
72 72 90
72 72 90
72 72 90
72 72 90
72 72 90
72 72 90
72 72 90
72 72 90
72 72 90
72 72 90
72 72 90
72 72 90
72 72 90
72 72 90
72 72 90
72 72 90
72 72 90
72 72 90
72 72 90
72 72 90
72 72 90
72 72 90
72 72 90
72 72 90
72 72 90
72 72 90
72 72 90
72 72 90
72 72 90
72 72 90
72 72 90
72 72 90
72 72 90
72 72 90
72 72 90
72 72 90
72 72 90
72 72 90
72 72 90
72 72 90
72 72 90
72 72 90
72 72 90
72 72 90
72 72 90
72 72 90
73 73 90
72 72 90
72 72 90
73 73 90
73 73 90
73 73 90
73 73 90
72 72 90
72 72 90
72 72 90
73 73 90
73 73 90
73 73 90
72 72 90
72 72 90
73 73 90
73 73 90
72 72 90
73 73 90
73 73 90
73 73 90
73 73 90
73 73 90
73 73 90
73 73 90
73 73 90
73 73 90
73 73 90
73 73 90
73 73 90
73 73 90
73 73 90
73 73 90
73 73 90
73 73 90
73 73 90
73 73 90
73 73 90
73 73 90
73 73 90
73 73 90
73 73 90
73 73 90
73 73 90
73 73 90
73 73 90
73 73 90
73 73 90
73 73 90
73 73 90
73 73 90
73 73 90
73 73 90
73 73 90
73 73 90
73 73 90
73 73 90
73 73 90
73 73 90
73 73 90
73 73 90
73 73 90
73 73 90
73 73 90
73 73 90
73 73 90
73 73 90
73 73 90
73 73 90
73 73 90
73 73 90
73 73 90
73 73 90
73 73 90
73 73 90
73 73 90
73 73 90
73 73 90
73 73 90
73 73 90
73 73 90
73 73 90
73 73 90
73 73 90
73 73 90
73 73 90
73 73 90
73 73 90
73 73 90
73 73 90
73 73 91
73 73 90
73 73 90
73 73 90
73 73 90
73 73 90
73 73 90
73 73 90
73 73 90
73 73 90
73 73 90
73 73 90
73 73 90
73 73 90
73 73 90
73 73 90
73 73 90
73 73 90
73 73 90
73 73 90
73 73 90
73 73 90
73 73 90
73 73 90
73 73 90
73 73 90
73 73 90
73 73 90
73 73 90
73 73 90
73 73 90
73 73 90
73 73 90
73 73 90
73 73 90
73 73 90
73 73 90
73 73 90
73 73 90
73 73 90
73 73 90
73 73 90
73 73 90
73 73 90
73 73 90
73 73 90
73 73 90
73 73 90
73 73 90
73 73 90
73 73 90
73 73 90
73 73 90
73 73 90
73 73 90
73 73 90
73 73 90
73 73 90
73 73 90
73 73 90
73 73 90
73 73 90
73 73 90
73 73 90
73 73 90
73 73 90
73 73 90
73 73 90
73 73 90
73 73 90
73 73 90
73 73 90
73 73 90
73 73 90
73 73 90
73 73 90
73 73 90
73 73 90
73 73 90
73 73 90
73 73 90
73 73 90
73 73 90
73 73 90
73 73 90
73 73 90
73 73 90
73 73 90
73 73 90
73 73 90
72 72 90
72 72 90
72 72 90
72 72 90
72 72 90
72 72 90
72 72 90
72 72 90
72 72 90
72 72 90
72 72 90
72 72 90
72 72 90
72 72 90
72 72 90
72 72 90
72 72 90
72 72 90
72 72 90
72 72 90
72 72 90
72 72 90
72 72 90
72 72 90
72 72 90
72 72 90
72 72 90
72 72 90
72 72 90
72 72 90
72 72 90
72 72 90
72 72 90
72 72 90
72 72 90
72 72 90
72 72 90
72 72 90
72 72 90
72 72 90
72 72 90
72 72 90
72 72 90
72 72 90
72 72 90
72 72 90
72 72 90
72 72 90
72 72 90
72 72 90
72 72 90
72 72 90
72 72 90
72 72 90
72 72 90
72 72 90
72 72 90
72 72 90
72 72 90
72 72 90
72 72 90
72 72 90
72 72 90
72 72 90
72 72 90
72 72 90
72 72 90
72 72 90
72 72 90
72 72 90
72 72 90
72 72 90
72 72 90
72 72 90
72 72 90
72 72 89
72 72 89
72 72 89
72 72 89
72 72 89
72 72 89
72 72 89
72 72 89
72 72 89
72 72 89
72 72 89
72 72 89
72 72 89
72 72 89
72 72 89
72 72 89
72 72 89
72 72 89
72 72 89
72 72 89
72 72 89
72 72 89
72 72 89
72 72 89
72 72 89
72 72 89
72 72 89
72 72 89
72 72 89
72 72 89
72 72 89
72 72 89
72 72 89
72 72 89
72 72 89
72 72 89
72 72 89
72 72 89
72 72 89
72 72 89
72 72 89
72 72 89
72 72 89
72 72 89
72 72 89
72 72 89
72 72 89
72 72 89
72 72 89
72 72 89
72 72 89
72 72 89
72 72 89
72 72 89
72 72 89
72 72 89
72 72 89
72 72 89
72 72 89
72 72 89
72 72 89
72 72 89
72 72 89
72 72 89
72 72 89
72 72 89
72 72 89
72 72 89
72 72 89
72 72 89
72 72 89
72 72 89
72 72 90
72 72 89
72 72 90
72 72 90
72 72 89
72 72 89
72 72 90
72 72 90
72 72 89
72 72 89
72 72 90
72 72 90
72 72 90
72 72 90
72 72 90
72 72 90
72 72 90
72 72 90
72 72 90
72 72 90
72 72 90
72 72 90
72 72 90
72 72 90
72 72 90
72 72 90
72 72 90
72 72 90
72 72 90
72 72 90
72 72 90
72 72 90
72 72 90
72 72 90
72 72 90
72 72 90
72 72 90
72 72 90
72 72 90
72 72 90
72 72 90
72 72 90
72 72 90
72 72 90
72 72 90
72 72 90
72 72 90
72 72 90
72 72 90
72 72 90
72 72 90
72 72 90
72 72 90
72 72 90
72 72 90
72 72 90
72 72 90
72 72 90
72 72 90
72 72 90
72 72 90
72 72 90
72 72 90
72 72 90
72 72 90
72 72 90
72 72 90
72 72 90
72 72 90
72 72 90
72 72 90
73 73 90
73 73 90
72 72 90
73 73 90
73 73 90
73 73 90
73 73 90
73 73 90
73 73 90
73 73 90
72 72 90
73 73 90
73 73 90
73 73 90
73 73 90
73 73 90
73 73 90
73 73 90
73 73 90
73 73 90
73 73 90
73 73 90
73 73 90
73 73 90
73 73 90
73 73 90
73 73 90
73 73 90
73 73 90
73 73 90
73 73 90
73 73 90
73 73 90
73 73 90
73 73 90
73 73 90
73 73 90
73 73 90
73 73 90
73 73 90
73 73 90
73 73 90
73 73 90
73 73 90
73 73 90
73 73 90
73 73 90
73 73 90
73 73 90
73 73 90
73 73 90
73 73 90
73 73 90
73 73 90
73 73 90
73 73 90
73 73 90
73 73 90
73 73 90
73 73 90
73 73 90
73 73 90
73 73 90
73 73 90
73 73 90
73 73 90
73 73 90
73 73 90
73 73 90
73 73 90
73 73 90
73 73 90
73 73 90
73 73 90
73 73 90
73 73 90
73 73 90
73 73 90
73 73 90
73 73 90
73 73 90
73 73 90
73 73 90
73 73 90
73 73 90
73 73 90
73 73 90
73 73 90
73 73 90
73 73 90
73 73 91
73 73 90
73 73 90
73 73 90
73 73 90
73 73 90
73 73 90
73 73 90
73 73 90
73 73 90
73 73 90
73 73 91
73 73 90
73 73 90
73 73 90
73 73 90
73 73 90
73 73 90
73 73 90
73 73 90
73 73 90
73 73 90
73 73 90
73 73 90
73 73 90
73 73 90
73 73 90
73 73 90
73 73 90
73 73 90
73 73 90
73 73 90
73 73 90
73 73 90
73 73 90
73 73 90
73 73 90
73 73 90
73 73 90
73 73 90
73 73 91
73 73 90
73 73 90
73 73 90
73 73 90
73 73 90
73 73 90
73 73 90
73 73 90
73 73 90
73 73 90
73 73 90
73 73 90
73 73 90
73 73 90
73 73 90
73 73 90
73 73 90
73 73 90
73 73 90
73 73 90
73 73 90
73 73 90
73 73 90
73 73 90
73 73 90
73 73 90
73 73 90
73 73 90
73 73 90
73 73 90
73 73 90
73 73 90
73 73 90
73 73 90
73 73 90
73 73 90
73 73 90
73 73 90
73 73 90
73 73 90
73 73 90
73 73 90
73 73 90
73 73 90
73 73 90
73 73 90
73 73 90
73 73 90
73 73 90
73 73 90
73 73 90
73 73 90
73 73 90
73 73 90
73 73 90
73 73 90
73 73 90
73 73 90
72 72 90
72 72 90
72 72 90
72 72 90
72 72 90
72 72 90
72 72 90
72 72 90
72 72 90
72 72 90
72 72 90
72 72 90
72 72 90
72 72 90
72 72 90
72 72 90
72 72 90
72 72 90
72 72 90
72 72 90
72 72 90
72 72 90
72 72 90
72 72 90
72 72 90
72 72 90
72 72 90
72 72 90
72 72 90
72 72 90
72 72 90
72 72 90
72 72 90
72 72 90
72 72 90
72 72 90
72 72 90
72 72 90
72 72 90
72 72 90
72 72 90
72 72 90
72 72 90
72 72 90
72 72 90
72 72 90
72 72 90
72 72 90
72 72 90
72 72 90
72 72 90
72 72 90
72 72 90
72 72 90
72 72 90
72 72 90
72 72 90
72 72 90
72 72 90
72 72 90
72 72 90
72 72 90
72 72 90
72 72 90
72 72 90
72 72 90
72 72 90
72 72 90
72 72 90
72 72 90
72 72 90
72 72 90
72 72 89
72 72 89
72 72 89
72 72 89
72 72 89
72 72 89
72 72 89
72 72 89
72 72 89
72 72 89
72 72 89
72 72 89
72 72 89
72 72 89
72 72 89
72 72 89
72 72 89
72 72 89
72 72 89
72 72 89
72 72 89
72 72 89
72 72 89
72 72 89
72 72 89
72 72 89
72 72 89
72 72 89
72 72 89
72 72 89
72 72 89
72 72 89
72 72 89
72 72 89
72 72 89
72 72 89
72 72 89
72 72 89
72 72 89
72 72 89
72 72 89
72 72 89
72 72 89
72 72 89
72 72 89
72 72 89
72 72 89
72 72 89
72 72 89
72 72 89
72 72 89
72 72 89
72 72 89
72 72 89
72 72 89
72 72 89
72 72 89
72 72 89
72 72 89
72 72 89
72 72 89
72 72 89
72 72 89
72 72 89
72 72 89
72 72 89
72 72 89
72 72 89
72 72 90
72 72 90
72 72 90
72 72 90
72 72 90
72 72 90
72 72 90
72 72 90
72 72 90
72 72 90
72 72 90
72 72 90
72 72 90
72 72 90
72 72 90
72 72 90
72 72 90
72 72 90
72 72 90
72 72 90
72 72 90
72 72 90
72 72 90
72 72 90
72 72 90
72 72 90
72 72 90
72 72 90
72 72 90
72 72 90
72 72 90
72 72 90
72 72 90
72 72 90
72 72 90
72 72 90
72 72 90
72 72 90
72 72 90
72 72 90
72 72 90
72 72 90
72 72 90
72 72 90
72 72 90
72 72 90
72 72 90
72 72 90
72 72 90
72 72 90
72 72 90
72 72 90
72 72 90
72 72 90
72 72 90
72 72 90
72 72 90
72 72 90
72 72 90
72 72 90
72 72 90
72 72 90
72 72 90
72 72 90
72 72 90
72 72 90
72 72 90
72 72 90
73 73 90
72 72 90
72 72 90
73 73 90
73 73 90
72 72 90
73 73 90
72 72 90
73 73 90
73 73 90
73 73 90
73 73 90
73 73 90
73 73 90
73 73 90
73 73 90
73 73 90
73 73 90
73 73 90
73 73 90
73 73 90
73 73 90
73 73 90
73 73 90
73 73 90
73 73 90
73 73 90
73 73 90
73 73 90
73 73 90
73 73 90
73 73 90
73 73 90
73 73 90
73 73 90
73 73 90
73 73 90
73 73 90
73 73 90
73 73 90
73 73 90
73 73 90
73 73 90
73 73 90
73 73 90
73 73 90
73 73 90
73 73 90
73 73 90
73 73 90
73 73 90
73 73 90
73 73 90
73 73 90
73 73 90
73 73 90
73 73 90
73 73 90
73 73 90
73 73 90
73 73 90
73 73 90
73 73 90
73 73 90
73 73 90
73 73 90
73 73 90
73 73 90
73 73 90
73 73 90
73 73 90
73 73 90
73 73 90
73 73 90
73 73 90
73 73 90
73 73 90
73 73 90
73 73 90
73 73 90
73 73 90
73 73 90
73 73 90
73 73 90
73 73 90
73 73 90
73 73 90
73 73 90
73 73 90
73 73 90
73 73 90
73 73 90
73 73 90
73 73 90
73 73 90
73 73 90
73 73 91
73 73 90
73 73 90
73 73 90
73 73 91
73 73 91
73 73 91
73 73 90
73 73 90
73 73 91
73 73 90
73 73 90
73 73 90
73 73 90
73 73 90
73 73 91
73 73 90
73 73 90
73 73 90
73 73 90
73 73 90
73 73 90
73 73 90
73 73 90
73 73 90
73 73 90
73 73 90
73 73 90
73 73 90
73 73 90
73 73 90
73 73 90
73 73 90
73 73 90
73 73 90
73 73 90
73 73 90
73 73 90
73 73 90
73 73 90
73 73 90
73 73 90
73 73 90
73 73 91
73 73 90
73 73 90
73 73 90
73 73 91
73 73 90
73 73 90
73 73 90
73 73 90
73 73 90
73 73 90
73 73 90
73 73 90
73 73 90
73 73 90
73 73 90
73 73 90
73 73 90
73 73 90
73 73 90
73 73 90
73 73 90
73 73 90
73 73 90
73 73 90
73 73 90
73 73 90
73 73 90
73 73 90
73 73 90
73 73 90
73 73 90
73 73 90
73 73 90
73 73 90
73 73 90
73 73 90
73 73 90
73 73 90
73 73 90
73 73 90
73 73 90
73 73 90
73 73 90
73 73 90
73 73 90
73 73 90
73 73 90
73 73 90
73 73 90
73 73 90
73 73 90
73 73 90
73 73 90
73 73 90
73 73 90
73 73 90
73 73 90
73 73 90
73 73 90
72 72 90
72 72 90
72 72 90
72 72 90
72 72 90
72 72 90
72 72 90
72 72 90
72 72 90
72 72 90
72 72 90
72 72 90
72 72 90
72 72 90
72 72 90
72 72 90
72 72 90
72 72 90
72 72 90
72 72 90
72 72 90
72 72 90
72 72 90
72 72 90
72 72 90
72 72 90
72 72 90
72 72 90
72 72 90
72 72 90
72 72 90
72 72 90
72 72 90
72 72 90
72 72 90
72 72 90
72 72 90
72 72 90
72 72 90
72 72 90
72 72 90
72 72 90
72 72 90
72 72 90
72 72 90
72 72 90
72 72 90
72 72 90
72 72 90
72 72 90
72 72 90
72 72 90
72 72 90
72 72 90
72 72 90
72 72 90
72 72 90
72 72 90
72 72 90
72 72 90
72 72 90
72 72 90
72 72 90
72 72 90
72 72 90
72 72 90
72 72 90
72 72 90
72 72 90
72 72 89
72 72 89
72 72 89
72 72 89
72 72 89
72 72 89
72 72 89
72 72 89
72 72 89
72 72 89
72 72 89
72 72 89
72 72 89
72 72 89
72 72 89
72 72 89
72 72 89
72 72 89
72 72 89
72 72 89
72 72 89
72 72 89
72 72 89
72 72 89
72 72 89
72 72 89
72 72 89
72 72 89
72 72 89
72 72 89
72 72 89
72 72 89
72 72 89
72 72 89
72 72 89
72 72 89
72 72 89
